P2
# Image created with ppmlib.
640 480
256
0 0 0 0 0 0 0 0 3 56 255 56 3 0 0 0 0 0 0 0 0 0 0 0 0 0 0 0 0 0 0 0 0 0 0 0 3 58 255 56 3 0 0 0 0 0 0 0 0 0 0 0 0 0 3 56 255 57 3 0 0 0 0 0 0 0 0 0 0 0 0 0 0 0 0 0 0 0 0 0 0 0 0 3 56 255 56 3 0 0 0 0 0 0 0 0 0 0 0 0 0 0 0 0 0 0 0 0 0 0 0 0 0 0 0 0 0 0 0 0 0 0 0 0 0 0 0 0 0 0 0 0 0 0 0 0 0 0 0 0 0 0 3 56 255 58 3 0 0 0 0 0 0 0 0 0 0 0 0 0 0 0 0 0 0 0 0 0 0 0 0 0 3 56 255 58 3 0 0 0 0 0 0 0 0 0 0 0 0 0 0 0 0 0 0 0 0 0 0 0 0 0 0 3 57 255 59 3 0 0 0 0 0 0 0 0 0 0 0 0 0 0 0 3 56 255 55 3 0 0 0 0 0 0 0 0 0 0 0 0 0 0 0 0 0 0 0 3 56 255 57 3 0 0 0 0 0 0 0 0 0 0 0 3 56 255 56 3 0 0 0 0 0 0 0 0 0 0 0 0 0 0 0 0 0 0 0 0 0 0 0 0 0 0 0 0 0 0 0 0 0 0 0 0 0 0 0 0 0 0 0 3 57 255 57 3 0 0 0 0 0 0 0 0 0 0 0 0 0 0 0 0 0 0 3 56 255 56 3 0 0 0 0 0 0 0 0 0 0 0 0 0 0 0 0 0 0 0 0 3 57 255 56 3 0 0 0 0 0 0 0 0 0 0 0 0 0 0 0 0 0 0 0 0 0 0 0 0 0 0 0 0 0 0 0 0 0 0 0 0 0 0 0 3 60 255 59 3 0 0 0 0 0 0 0 0 0 0 0 0 0 0 0 0 0 0 0 0 0 0 0 0 0 0 0 0 0 0 0 0 3 59 255 58 3 0 0 0 0 0 0 0 0 0 0 0 0 0 0 0 0 0 0 0 0 0 0 0 0 0 0 0 0 0 0 0 0 0 0 0 0 0 0 0 0 0 0 0 0 0 0 0 0 0 0 3 57 255 57 3 0 0 0 0 0 0 0 0 0 0 0 0 0 0 0 0 0 0 0 0 0 0 0 0 0 0 0 0 0 0 0 0 0 0 0 0 0 0 0 0 0 0 0 0 0 0 0 0 0 3 56 255 56 3 0 0 0 0 0 0 0 0 0 0 0 0 0 0 0 0 0 0 0 0 0 0 0 0 0 0 0 0 0 0 0 0 3 59 255 59 3 0 0 0 0 0 0 0 0 0 0 0 0 0 0 0 0 0 0 0 0 0 0 0 0 0 0 0 0 0 0 0 0 0 0 0 0 0 0 0 0 0 0 3 58 255 57 3 0 0
0 0 0 0 0 0 0 1 13 199 168 200 13 1 0 0 0 0 0 0 0 0 0 0 0 0 0 0 0 0 0 0 0 0 0 1 14 230 170 195 13 1 0 0 0 0 0 0 0 0 0 0 0 1 13 199 168 217 13 1 0 0 0 0 0 0 0 0 0 0 0 0 0 0 0 0 0 0 0 0 0 0 1 13 214 169 212 13 1 0 0 0 0 0 0 0 0 0 0 0 0 0 0 0 0 0 0 0 0 0 0 0 0 0 0 0 0 0 0 0 0 0 0 0 0 0 0 0 0 0 0 0 0 0 0 0 0 0 0 0 0 1 13 200 170 237 14 1 0 0 0 0 0 0 0 0 0 0 0 0 0 0 0 0 0 0 0 0 0 0 0 1 13 200 170 236 14 1 0 0 0 0 0 0 0 0 0 0 0 0 0 0 0 0 0 0 0 0 0 0 0 0 1 13 199 172 248 15 1 0 0 0 0 0 0 0 0 0 0 0 0 0 1 13 195 167 186 12 1 0 0 0 0 0 0 0 0 0 0 0 0 0 0 0 0 0 1 13 213 170 232 14 1 0 0 0 0 0 0 0 0 0 1 12 191 167 201 13 1 0 0 0 0 0 0 0 0 0 0 0 0 0 0 0 0 0 0 0 0 0 0 0 0 0 0 0 0 0 0 0 0 0 0 0 0 0 0 0 0 0 1 14 231 170 218 14 1 0 0 0 0 0 0 0 0 0 0 0 0 0 0 0 0 1 13 191 168 202 13 1 0 0 0 0 0 0 0 0 0 0 0 0 0 0 0 0 0 0 1 14 220 169 219 14 1 0 0 0 0 0 0 0 0 0 0 0 0 0 0 0 0 0 0 0 0 0 0 0 0 0 0 0 0 0 0 0 0 0 0 0 0 0 1 15 234 174 219 14 1 0 0 0 0 0 0 0 0 0 0 0 0 0 0 0 0 0 0 0 0 0 0 0 0 0 0 0 0 0 0 1 15 242 173 220 14 1 0 0 0 0 0 0 0 0 0 0 0 0 0 0 0 0 0 0 0 0 0 0 0 0 0 0 0 0 0 0 0 0 0 0 0 0 0 0 0 0 0 0 0 0 0 0 0 0 1 13 201 169 201 13 1 0 0 0 0 0 0 0 0 0 0 0 0 0 0 0 0 0 0 0 0 0 0 0 0 0 0 0 0 0 0 0 0 0 0 0 0 0 0 0 0 0 0 0 0 0 0 0 1 12 188 167 188 12 1 0 0 0 0 0 0 0 0 0 0 0 0 0 0 0 0 0 0 0 0 0 0 0 0 0 0 0 0 0 0 1 15 234 173 218 14 1 0 0 0 0 0 0 0 0 0 0 0 0 0 0 0 0 0 0 0 0 0 0 0 0 0 0 0 0 0 0 0 0 0 0 0 0 0 0 0 0 1 14 212 170 203 13 1 0
0 0 0 0 0 0 0 4 83 255 255 255 82 4 0 0 0 0 0 0 0 0 0 0 0 0 0 0 0 0 0 0 0 0 0 5 105 255 255 255 83 4 0 0 0 0 0 0 0 0 0 0 0 4 82 255 255 255 93 5 0 0 0 0 0 0 0 0 0 0 0 0 0 0 0 0 0 0 0 0 0 0 5 98 255 255 255 94 5 0 0 0 0 0 0 0 0 0 0 0 0 0 0 0 0 0 0 0 0 0 0 0 0 0 0 0 0 0 0 0 0 0 0 0 0 0 0 0 0 0 0 0 0 0 0 0 0 0 0 0 0 4 84 255 255 255 105 5 0 0 0 0 0 0 0 0 0 0 0 0 0 0 0 0 0 0 0 0 0 0 0 4 87 255 255 255 102 5 0 0 0 0 0 0 0 0 0 0 0 0 0 0 0 0 0 0 0 0 0 0 0 0 4 83 255 255 255 116 6 0 0 0 0 0 0 0 0 0 0 0 0 0 4 87 255 255 255 81 4 0 0 0 0 0 0 0 0 0 0 0 0 0 0 0 0 0 5 90 255 255 255 108 5 0 0 0 0 0 0 0 0 0 4 81 255 255 255 88 4 0 0 0 0 0 0 0 0 0 0 0 0 0 0 0 0 0 0 0 0 0 0 0 0 0 0 0 0 0 0 0 0 0 0 0 0 0 0 0 0 0 5 109 255 255 255 94 5 0 0 0 0 0 0 0 0 0 0 0 0 0 0 0 0 4 84 255 255 255 86 4 0 0 0 0 0 0 0 0 0 0 0 0 0 0 0 0 0 0 5 97 255 255 255 97 5 0 0 0 0 0 0 0 0 0 0 0 0 0 0 0 0 0 0 0 0 0 0 0 0 0 0 0 0 0 0 0 0 0 0 0 0 0 5 107 255 255 255 92 5 0 0 0 0 0 0 0 0 0 0 0 0 0 0 0 0 0 0 0 0 0 0 0 0 0 0 0 0 0 0 5 107 255 255 255 99 5 0 0 0 0 0 0 0 0 0 0 0 0 0 0 0 0 0 0 0 0 0 0 0 0 0 0 0 0 0 0 0 0 0 0 0 0 0 0 0 0 0 0 0 0 0 0 0 0 4 82 255 255 255 88 4 0 0 0 0 0 0 0 0 0 0 0 0 0 0 0 0 0 0 0 0 0 0 0 0 0 0 0 0 0 0 0 0 0 0 0 0 0 0 0 0 0 0 0 0 0 0 0 4 79 255 255 255 80 4 0 0 0 0 0 0 0 0 0 0 0 0 0 0 0 0 0 0 0 0 0 0 0 0 0 0 0 0 0 0 5 99 255 255 255 93 5 0 0 0 0 0 0 0 0 0 0 0 0 0 0 0 0 0 0 0 0 0 0 0 0 0 0 0 0 0 0 0 0 0 0 0 0 0 0 0 0 5 93 255 255 255 87 4 0
0 0 0 0 0 0 2 45 255 255 255 255 255 43 2 0 0 0 0 0 0 0 0 0 0 0 0 0 0 0 0 0 0 0 3 60 255 255 255 255 255 47 2 0 0 0 0 0 0 0 0 0 2 43 255 255 255 255 255 50 2 0 0 0 0 0 0 0 0 0 0 0 0 0 0 0 0 0 0 0 0 3 57 255 255 255 255 255 53 2 0 0 0 0 0 0 0 0 0 0 0 0 0 0 0 0 0 0 0 0 0 0 0 0 0 0 0 0 0 0 0 0 0 0 0 0 0 0 0 0 0 0 0 0 0 0 0 0 0 0 2 47 255 255 255 255 255 59 3 0 0 0 0 0 0 0 0 0 0 0 0 0 0 0 0 0 0 0 0 0 2 50 255 255 255 255 255 55 2 0 0 0 0 0 0 0 0 0 0 0 0 0 0 0 0 0 0 0 0 0 0 2 47 255 255 255 255 255 67 3 0 0 0 0 0 0 0 0 0 0 0 2 52 255 255 255 255 255 47 2 0 0 0 0 0 0 0 0 0 0 0 0 0 0 0 2 49 255 255 255 255 255 61 3 0 0 0 0 0 0 0 2 46 255 255 255 255 255 50 2 0 0 0 0 0 0 0 0 0 0 0 0 0 0 0 0 0 0 0 0 0 0 0 0 0 0 0 0 0 0 0 0 0 0 0 0 0 0 0 3 65 255 255 255 255 255 52 2 0 0 0 0 0 0 0 0 0 0 0 0 0 0 2 49 255 255 255 255 255 48 2 0 0 0 0 0 0 0 0 0 0 0 0 0 0 0 0 2 54 255 255 255 255 255 56 2 0 0 0 0 0 0 0 0 0 0 0 0 0 0 0 0 0 0 0 0 0 0 0 0 0 0 0 0 0 0 0 0 0 0 0 3 62 255 255 255 255 255 51 2 0 0 0 0 0 0 0 0 0 0 0 0 0 0 0 0 0 0 0 0 0 0 0 0 0 0 0 0 3 58 255 255 255 255 255 58 3 0 0 0 0 0 0 0 0 0 0 0 0 0 0 0 0 0 0 0 0 0 0 0 0 0 0 0 0 0 0 0 0 0 0 0 0 0 0 0 0 0 0 0 0 0 0 2 45 255 255 255 255 255 51 2 0 0 0 0 0 0 0 0 0 0 0 0 0 0 0 0 0 0 0 0 0 0 0 0 0 0 0 0 0 0 0 0 0 0 0 0 0 0 0 0 0 0 0 0 0 2 44 255 255 255 255 255 45 2 0 0 0 0 0 0 0 0 0 0 0 0 0 0 0 0 0 0 0 0 0 0 0 0 0 0 0 0 2 55 255 255 255 255 255 51 2 0 0 0 0 0 0 0 0 0 0 0 0 0 0 0 0 0 0 0 0 0 0 0 0 0 0 0 0 0 0 0 0 0 0 0 0 0 0 2 52 255 255 255 255 255 50 2
0 0 0 0 0 1 21 255 255 211 222 211 255 255 21 1 0 0 0 0 0 0 0 0 0 0 0 0 0 0 0 0 0 1 32 255 255 210 222 212 255 255 23 1 0 0 0 0 0 0 0 1 21 255 255 210 221 210 255 255 24 1 0 0 0 0 0 0 0 0 0 0 0 0 0 0 0 0 0 0 1 31 255 255 211 221 211 255 255 26 1 0 0 0 0 0 0 0 0 0 0 0 0 0 0 0 0 0 0 0 0 0 0 0 0 0 0 0 0 0 0 0 0 0 0 0 0 0 0 0 0 0 0 0 0 0 0 0 0 1 24 255 255 211 220 209 255 255 33 1 0 0 0 0 0 0 0 0 0 0 0 0 0 0 0 0 0 0 0 1 27 255 255 212 221 209 255 255 29 1 0 0 0 0 0 0 0 0 0 0 0 0 0 0 0 0 0 0 0 0 1 25 255 255 212 221 209 255 255 38 2 0 0 0 0 0 0 0 0 0 1 30 255 255 213 224 214 255 255 23 1 0 0 0 0 0 0 0 0 0 0 0 0 0 1 26 255 255 210 220 210 255 255 32 1 0 0 0 0 0 1 23 255 255 213 223 212 255 255 25 1 0 0 0 0 0 0 0 0 0 0 0 0 0 0 0 0 0 0 0 0 0 0 0 0 0 0 0 0 0 0 0 0 0 0 0 0 0 2 36 255 255 210 220 210 255 255 26 1 0 0 0 0 0 0 0 0 0 0 0 0 1 26 255 255 213 223 212 255 255 25 1 0 0 0 0 0 0 0 0 0 0 0 0 0 0 1 28 255 255 210 220 210 255 255 31 1 0 0 0 0 0 0 0 0 0 0 0 0 0 0 0 0 0 0 0 0 0 0 0 0 0 0 0 0 0 0 0 0 0 1 34 255 255 210 220 210 255 255 29 1 0 0 0 0 0 0 0 0 0 0 0 0 0 0 0 0 0 0 0 0 0 0 0 0 0 0 1 31 255 255 209 220 211 255 255 32 1 0 0 0 0 0 0 0 0 0 0 0 0 0 0 0 0 0 0 0 0 0 0 0 0 0 0 0 0 0 0 0 0 0 0 0 0 0 0 0 0 0 0 0 0 1 25 255 255 211 223 212 255 255 26 1 0 0 0 0 0 0 0 0 0 0 0 0 0 0 0 0 0 0 0 0 0 0 0 0 0 0 0 0 0 0 0 0 0 0 0 0 0 0 0 0 0 0 0 1 22 255 255 213 224 213 255 255 22 1 0 0 0 0 0 0 0 0 0 0 0 0 0 0 0 0 0 0 0 0 0 0 0 0 0 0 1 30 255 255 209 220 210 255 255 27 1 0 0 0 0 0 0 0 0 0 0 0 0 0 0 0 0 0 0 0 0 0 0 0 0 0 0 0 0 0 0 0 0 0 0 0 0 1 27 255 255 211 222 212 255 255 29
0 0 0 0 0 9 180 255 161 121 118 121 162 255 182 9 0 0 0 0 0 0 0 0 0 0 0 0 0 0 0 0 1 14 255 255 155 120 118 121 160 255 211 10 0 0 0 0 0 0 0 9 196 255 162 121 118 120 158 255 207 10 0 0 0 0 0 0 0 0 0 0 0 0 0 0 0 0 0 1 13 255 255 157 120 117 120 157 255 223 11 0 0 0 0 0 0 0 0 0 0 0 0 0 0 0 0 0 0 0 0 0 0 0 0 0 0 0 0 0 0 0 0 0 0 0 0 0 0 0 0 0 0 0 0 0 0 0 0 10 220 255 162 121 117 120 157 255 255 15 1 0 0 0 0 0 0 0 0 0 0 0 0 0 0 0 0 0 1 12 254 255 161 121 118 120 156 255 255 12 1 0 0 0 0 0 0 0 0 0 0 0 0 0 0 0 0 0 0 0 10 216 255 163 122 118 119 154 255 255 19 1 0 0 0 0 0 0 0 1 15 255 255 161 122 120 122 161 255 184 9 0 0 0 0 0 0 0 0 0 0 0 0 0 11 243 255 160 120 117 119 154 255 255 14 1 0 0 0 0 10 215 255 162 122 119 121 159 255 240 11 0 0 0 0 0 0 0 0 0 0 0 0 0 0 0 0 0 0 0 0 0 0 0 0 0 0 0 0 0 0 0 0 0 0 0 0 1 16 255 255 155 119 117 120 157 255 255 12 0 0 0 0 0 0 0 0 0 0 0 0 11 239 255 161 122 119 121 161 255 250 11 0 0 0 0 0 0 0 0 0 0 0 0 0 1 12 250 255 157 120 117 120 158 255 255 13 1 0 0 0 0 0 0 0 0 0 0 0 0 0 0 0 0 0 0 0 0 0 0 0 0 0 0 0 0 0 0 0 1 15 255 255 155 120 118 121 161 255 255 13 1 0 0 0 0 0 0 0 0 0 0 0 0 0 0 0 0 0 0 0 0 0 0 0 0 1 14 255 255 155 119 117 120 157 255 255 15 1 0 0 0 0 0 0 0 0 0 0 0 0 0 0 0 0 0 0 0 0 0 0 0 0 0 0 0 0 0 0 0 0 0 0 0 0 0 0 0 0 0 0 0 11 235 255 164 122 119 122 160 255 226 11 0 0 0 0 0 0 0 0 0 0 0 0 0 0 0 0 0 0 0 0 0 0 0 0 0 0 0 0 0 0 0 0 0 0 0 0 0 0 0 0 0 0 0 9 201 255 163 122 120 122 161 255 197 9 0 0 0 0 0 0 0 0 0 0 0 0 0 0 0 0 0 0 0 0 0 0 0 0 0 1 13 255 255 158 120 118 120 158 255 245 11 0 0 0 0 0 0 0 0 0 0 0 0 0 0 0 0 0 0 0 0 0 0 0 0 0 0 0 0 0 0 0 0 0 0 0 0 11 238 255 158 121 119 122 162 255 255
0 0 0 0 4 80 255 168 89 64 59 65 89 169 255 78 4 0 0 0 0 0 0 0 0 0 0 0 0 0 0 0 6 127 255 155 84 63 58 64 88 168 255 86 4 0 0 0 0 0 4 90 255 173 90 64 58 64 86 163 255 85 4 0 0 0 0 0 0 0 0 0 0 0 0 0 0 0 0 5 111 255 156 84 63 58 63 85 162 255 94 5 0 0 0 0 0 0 0 0 0 0 0 0 0 0 0 0 0 0 0 0 0 0 0 0 0 0 0 0 0 0 0 0 0 0 0 0 0 0 0 0 0 0 0 0 0 0 4 90 255 166 88 64 58 63 84 155 255 128 6 0 0 0 0 0 0 0 0 0 0 0 0 0 0 0 0 0 5 107 255 162 87 64 58 63 85 159 255 106 5 0 0 0 0 0 0 0 0 0 0 0 0 0 0 0 0 0 0 4 90 255 164 88 64 59 63 83 153 255 172 8 0 0 0 0 0 0 0 7 142 255 163 87 64 59 64 87 164 255 77 4 0 0 0 0 0 0 0 0 0 0 0 5 99 255 165 87 64 58 62 83 156 255 120 6 0 0 0 5 98 255 169 88 64 59 64 87 166 255 100 5 0 0 0 0 0 0 0 0 0 0 0 0 0 0 0 0 0 0 0 0 0 0 0 0 0 0 0 0 0 0 0 0 0 0 0 6 127 255 151 83 63 58 63 86 164 255 104 5 0 0 0 0 0 0 0 0 0 0 5 96 255 164 87 64 59 64 88 167 255 114 5 0 0 0 0 0 0 0 0 0 0 0 0 5 103 255 160 85 63 58 63 85 157 255 109 5 0 0 0 0 0 0 0 0 0 0 0 0 0 0 0 0 0 0 0 0 0 0 0 0 0 0 0 0 0 0 0 6 131 255 153 83 63 59 64 87 162 255 112 6 0 0 0 0 0 0 0 0 0 0 0 0 0 0 0 0 0 0 0 0 0 0 0 0 6 121 255 159 84 63 58 63 85 159 255 135 6 0 0 0 0 0 0 0 0 0 0 0 0 0 0 0 0 0 0 0 0 0 0 0 0 0 0 0 0 0 0 0 0 0 0 0 0 0 0 0 0 0 0 5 95 255 167 90 65 59 64 86 161 255 92 5 0 0 0 0 0 0 0 0 0 0 0 0 0 0 0 0 0 0 0 0 0 0 0 0 0 0 0 0 0 0 0 0 0 0 0 0 0 0 0 0 0 4 83 255 169 89 65 59 64 88 169 255 83 4 0 0 0 0 0 0 0 0 0 0 0 0 0 0 0 0 0 0 0 0 0 0 0 0 5 103 255 158 86 64 59 64 86 163 255 101 5 0 0 0 0 0 0 0 0 0 0 0 0 0 0 0 0 0 0 0 0 0 0 0 0 0 0 0 0 0 0 0 0 0 0 5 100 255 161 86 64 59 64 89 172 255
0 0 0 2 42 255 207 98 48 33 28 33 49 98 204 255 38 2 0 0 0 0 0 0 0 0 0 0 0 0 0 3 63 255 187 88 45 32 28 32 48 97 197 255 40 2 0 0 0 2 47 255 207 100 49 33 28 32 47 95 198 255 41 2 0 0 0 0 0 0 0 0 0 0 0 0 0 0 2 52 255 186 88 45 31 27 32 46 94 197 255 48 2 0 0 0 0 0 0 0 0 0 0 0 0 0 0 0 0 0 0 0 0 0 0 0 0 0 0 0 0 0 0 0 0 0 0 0 0 0 0 0 0 0 0 0 0 2 43 255 196 95 48 32 28 32 45 87 184 255 61 3 0 0 0 0 0 0 0 0 0 0 0 0 0 0 0 2 52 255 192 92 47 32 28 32 46 91 191 255 52 2 0 0 0 0 0 0 0 0 0 0 0 0 0 0 0 0 2 44 255 197 94 48 32 28 32 44 85 175 255 75 4 0 0 0 0 0 3 65 255 187 91 47 32 28 32 47 96 203 255 39 2 0 0 0 0 0 0 0 0 0 2 46 255 193 94 47 32 27 31 45 89 185 255 56 3 0 2 50 255 203 98 48 32 28 32 47 95 195 255 47 2 0 0 0 0 0 0 0 0 0 0 0 0 0 0 0 0 0 0 0 0 0 0 0 0 0 0 0 0 0 0 0 0 0 3 57 255 177 85 44 31 27 32 47 94 191 255 48 2 0 0 0 0 0 0 0 0 2 45 255 192 93 47 32 28 32 48 96 198 255 59 3 0 0 0 0 0 0 0 0 0 0 2 49 255 191 92 46 32 27 32 46 89 185 255 52 2 0 0 0 0 0 0 0 0 0 0 0 0 0 0 0 0 0 0 0 0 0 0 0 0 0 0 0 0 0 3 61 255 183 86 44 32 28 32 47 91 186 255 51 2 0 0 0 0 0 0 0 0 0 0 0 0 0 0 0 0 0 0 0 0 0 0 3 55 255 184 90 46 32 28 32 46 89 183 255 62 3 0 0 0 0 0 0 0 0 0 0 0 0 0 0 0 0 0 0 0 0 0 0 0 0 0 0 0 0 0 0 0 0 0 0 0 0 0 0 0 0 2 44 255 193 94 48 33 28 32 47 92 193 255 45 2 0 0 0 0 0 0 0 0 0 0 0 0 0 0 0 0 0 0 0 0 0 0 0 0 0 0 0 0 0 0 0 0 0 0 0 0 0 0 0 2 40 255 200 97 49 33 28 32 48 98 201 255 40 2 0 0 0 0 0 0 0 0 0 0 0 0 0 0 0 0 0 0 0 0 0 0 2 47 255 185 90 46 32 28 32 47 93 193 255 48 2 0 0 0 0 0 0 0 0 0 0 0 0 0 0 0 0 0 0 0 0 0 0 0 0 0 0 0 0 0 0 0 0 2 50 255 194 93 46 32 28 33 49 99 187
0 0 1 19 255 255 128 58 27 16 13 16 27 58 127 255 255 16 1 0 0 0 0 0 0 0 0 0 0 0 1 33 255 231 115 52 24 15 12 15 26 56 121 248 255 17 1 0 1 24 255 251 126 59 27 16 12 15 26 56 123 252 255 20 1 0 0 0 0 0 0 0 0 0 0 0 0 1 24 255 233 115 52 24 15 12 15 25 55 121 247 255 24 1 0 0 0 0 0 0 0 0 0 0 0 0 0 0 0 0 0 0 0 0 0 0 0 0 0 0 0 0 0 0 0 0 0 0 0 0 0 0 0 0 0 0 1 19 255 246 121 55 26 15 12 15 24 51 112 228 255 31 1 0 0 0 0 0 0 0 0 0 0 0 0 0 1 25 255 237 117 53 25 15 12 15 25 53 117 239 255 26 1 0 0 0 0 0 0 0 0 0 0 0 0 0 0 1 19 255 247 122 55 26 15 12 15 23 48 104 213 255 38 2 0 0 0 1 30 255 221 111 52 25 15 12 15 26 57 127 255 255 19 1 0 0 0 0 0 0 0 1 21 255 240 118 55 26 15 12 15 24 52 112 230 255 27 2 23 255 243 123 57 27 16 12 15 26 55 118 238 255 21 1 0 0 0 0 0 0 0 0 0 0 0 0 0 0 0 0 0 0 0 0 0 0 0 0 0 0 0 0 0 0 0 1 27 255 225 109 49 23 15 12 15 26 54 116 235 255 21 1 0 0 0 0 0 0 1 21 255 242 118 54 25 15 12 16 26 56 119 238 255 32 1 0 0 0 0 0 0 0 0 1 23 255 238 117 54 25 15 12 15 24 52 114 236 255 26 1 0 0 0 0 0 0 0 0 0 0 0 0 0 0 0 0 0 0 0 0 0 0 0 0 0 0 0 1 30 255 227 112 50 24 15 13 15 25 52 113 232 255 23 1 0 0 0 0 0 0 0 0 0 0 0 0 0 0 0 0 0 0 0 0 1 26 255 228 112 52 25 15 12 15 24 51 110 225 255 32 1 0 0 0 0 0 0 0 0 0 0 0 0 0 0 0 0 0 0 0 0 0 0 0 0 0 0 0 0 0 0 0 0 0 0 0 0 0 0 1 20 255 242 119 55 26 16 13 15 25 54 120 246 255 21 1 0 0 0 0 0 0 0 0 0 0 0 0 0 0 0 0 0 0 0 0 0 0 0 0 0 0 0 0 0 0 0 0 0 0 0 0 0 1 18 255 252 123 57 27 16 13 16 27 57 124 251 255 17 1 0 0 0 0 0 0 0 0 0 0 0 0 0 0 0 0 0 0 0 0 1 23 255 237 114 52 25 15 13 15 25 54 118 238 255 22 1 0 0 0 0 0 0 0 0 0 0 0 0 0 0 0 0 0 0 0 0 0 0 0 0 0 0 0 0 0 0 1 25 255 242 119 54 25 15 13 16 26 53 82
0 0 8 176 255 157 79 36 14 7 5 7 14 36 78 158 255 134 7 0 0 0 0 0 0 0 0 0 0 1 16 255 255 143 71 31 13 6 5 7 14 34 75 156 255 155 7 1 11 230 255 155 77 36 15 7 5 7 14 34 77 157 255 181 8 0 0 0 0 0 0 0 0 0 0 0 0 9 200 255 146 71 31 13 6 5 7 14 34 76 154 255 255 11 0 0 0 0 0 0 0 0 0 0 0 0 0 0 0 0 0 0 0 0 0 0 0 0 0 0 0 0 0 0 0 0 0 0 0 0 0 0 0 0 0 0 8 156 255 153 75 34 14 7 5 7 12 31 70 142 255 255 14 1 0 0 0 0 0 0 0 0 0 0 0 0 11 232 255 148 72 32 13 7 5 7 13 33 73 149 255 231 11 0 0 0 0 0 0 0 0 0 0 0 0 0 0 8 158 255 152 75 34 14 7 5 6 12 28 64 134 255 255 18 1 0 1 12 255 255 137 67 31 13 7 5 7 14 35 79 161 255 185 8 0 0 0 0 0 0 0 8 170 255 150 73 33 14 7 5 6 13 31 70 145 255 245 22 206 255 148 75 35 14 7 5 7 14 33 73 149 255 181 8 0 0 0 0 0 0 0 0 0 0 0 0 0 0 0 0 0 0 0 0 0 0 0 0 0 0 0 0 0 0 1 12 247 255 143 68 29 12 6 5 7 13 33 71 147 255 171 8 0 0 0 0 0 0 9 179 255 152 73 33 13 7 5 7 14 33 73 147 255 255 15 1 0 0 0 0 0 0 0 10 208 255 148 73 33 13 7 5 7 13 31 72 149 255 255 12 1 0 0 0 0 0 0 0 0 0 0 0 0 0 0 0 0 0 0 0 0 0 0 0 0 0 1 13 255 255 141 69 30 12 6 5 7 13 31 70 146 255 203 10 0 0 0 0 0 0 0 0 0 0 0 0 0 0 0 0 0 0 0 0 11 225 255 144 69 31 13 7 5 6 13 30 68 142 255 255 15 1 0 0 0 0 0 0 0 0 0 0 0 0 0 0 0 0 0 0 0 0 0 0 0 0 0 0 0 0 0 0 0 0 0 0 0 0 0 8 179 255 151 73 33 14 7 5 7 13 33 75 154 255 203 9 0 0 0 0 0 0 0 0 0 0 0 0 0 0 0 0 0 0 0 0 0 0 0 0 0 0 0 0 0 0 0 0 0 0 0 0 0 7 156 255 158 76 34 14 7 5 7 14 35 76 155 255 150 7 0 0 0 0 0 0 0 0 0 0 0 0 0 0 0 0 0 0 0 0 10 223 255 150 72 32 13 7 5 7 13 33 73 149 255 206 9 0 0 0 0 0 0 0 0 0 0 0 0 0 0 0 0 0 0 0 0 0 0 0 0 0 0 0 0 0 0 11 247 255 151 74 33 13 7 5 7 13 26 34
0 4 80 255 186 97 51 22 7 3 2 3 7 22 51 98 188 255 59 3 0 0 0 0 0 0 0 0 0 7 168 255 170 88 46 19 6 3 2 3 7 21 49 98 189 255 70 8 100 255 179 94 49 22 7 3 2 3 7 21 50 98 186 255 80 4 0 0 0 0 0 0 0 0 0 0 4 82 255 176 91 47 19 6 3 2 3 7 21 49 95 182 255 117 5 0 0 0 0 0 0 0 0 0 0 0 0 0 0 0 0 0 0 0 0 0 0 0 0 0 0 0 0 0 0 0 0 0 0 0 0 0 0 0 0 3 68 255 183 96 49 20 7 3 2 3 6 18 45 88 171 255 132 6 0 0 0 0 0 0 0 0 0 0 0 5 96 255 177 92 47 20 7 3 2 3 7 20 48 92 174 255 95 5 0 0 0 0 0 0 0 0 0 0 0 0 3 70 255 183 95 49 21 7 3 2 3 6 16 42 84 163 255 164 8 1 5 108 255 168 85 43 18 6 3 2 3 7 22 52 99 189 255 81 4 0 0 0 0 0 4 77 255 180 94 48 20 7 3 2 3 6 18 46 90 174 255 255 255 180 91 47 21 7 3 2 3 7 20 47 93 182 255 84 4 0 0 0 0 0 0 0 0 0 0 0 0 0 0 0 0 0 0 0 0 0 0 0 0 0 0 0 0 0 5 112 255 173 90 45 18 6 3 2 3 7 19 47 93 181 255 74 4 0 0 0 0 4 77 255 180 95 48 20 7 3 2 3 7 20 46 89 171 255 151 7 0 0 0 0 0 0 4 88 255 180 93 47 20 7 3 2 3 6 19 47 93 179 255 120 6 0 0 0 0 0 0 0 0 0 0 0 0 0 0 0 0 0 0 0 0 0 0 0 0 0 6 119 255 169 88 45 18 6 3 2 3 6 19 46 92 178 255 91 4 0 0 0 0 0 0 0 0 0 0 0 0 0 0 0 0 0 0 5 96 255 174 90 45 18 6 3 2 3 6 18 44 88 171 255 151 7 0 0 0 0 0 0 0 0 0 0 0 0 0 0 0 0 0 0 0 0 0 0 0 0 0 0 0 0 0 0 0 0 0 0 0 0 4 82 255 185 95 48 20 7 3 2 3 7 20 49 96 184 255 88 4 0 0 0 0 0 0 0 0 0 0 0 0 0 0 0 0 0 0 0 0 0 0 0 0 0 0 0 0 0 0 0 0 0 0 0 3 71 255 186 98 50 21 7 3 2 3 7 21 50 97 192 255 73 3 0 0 0 0 0 0 0 0 0 0 0 0 0 0 0 0 0 0 5 104 255 183 95 48 19 6 3 2 3 7 20 47 93 184 255 93 4 0 0 0 0 0 0 0 0 0 0 0 0 0 0 0 0 0 0 0 0 0 0 0 0 0 0 0 0 5 115 255 180 93 48 20 7 3 2 3 6 11 13
2 41 255 218 114 62 33 13 4 1 1 1 4 13 34 63 117 225 255 28 1 0 0 0 0 0 0 0 4 79 255 195 102 56 29 11 3 1 1 1 3 12 33 63 117 221 255 128 255 207 108 59 32 12 4 1 1 1 3 12 34 62 114 215 255 40 2 0 0 0 0 0 0 0 0 2 39 255 207 109 59 30 11 3 1 1 1 3 12 33 61 109 206 255 58 3 0 0 0 0 0 0 0 0 0 0 0 0 0 0 0 0 0 0 0 0 0 0 0 0 0 0 0 0 0 0 0 0 0 0 0 0 0 0 1 34 255 219 114 61 32 12 3 1 1 1 3 10 29 57 104 198 255 65 3 0 0 0 0 0 0 0 0 0 2 46 255 203 108 59 31 11 3 1 1 1 3 11 31 59 106 202 255 45 2 0 0 0 0 0 0 0 0 0 0 2 35 255 219 114 61 32 12 3 1 1 1 3 9 27 55 100 189 255 78 6 50 255 197 104 56 28 10 3 1 1 1 4 13 34 63 114 214 255 38 2 0 0 0 2 40 255 218 112 61 32 11 3 1 1 1 3 10 30 59 111 228 255 238 115 59 31 11 3 1 1 1 3 11 31 61 113 218 255 44 2 0 0 0 0 0 0 0 0 0 0 0 0 0 0 0 0 0 0 0 0 0 0 0 0 0 0 0 3 58 255 205 107 59 30 10 3 1 1 1 3 11 31 61 113 215 255 35 2 0 0 2 39 255 214 111 61 32 11 3 1 1 1 3 11 30 57 103 197 255 73 3 0 0 0 0 2 42 255 208 110 60 31 11 3 1 1 1 3 11 31 60 108 202 255 57 3 0 0 0 0 0 0 0 0 0 0 0 0 0 0 0 0 0 0 0 0 0 0 0 3 60 255 201 104 57 29 10 3 1 1 1 3 11 31 60 110 212 255 48 2 0 0 0 0 0 0 0 0 0 0 0 0 0 0 0 0 2 47 255 205 107 58 30 10 3 1 1 1 3 10 29 57 103 194 255 71 3 0 0 0 0 0 0 0 0 0 0 0 0 0 0 0 0 0 0 0 0 0 0 0 0 0 0 0 0 0 0 0 0 0 0 2 43 255 218 114 62 32 11 3 1 1 1 3 12 33 61 112 211 255 44 2 0 0 0 0 0 0 0 0 0 0 0 0 0 0 0 0 0 0 0 0 0 0 0 0 0 0 0 0 0 0 0 0 0 2 37 255 222 115 63 33 12 3 1 1 1 3 12 33 63 119 227 255 38 2 0 0 0 0 0 0 0 0 0 0 0 0 0 0 0 0 2 53 255 212 112 61 32 11 3 1 1 1 3 11 31 61 113 213 255 47 2 0 0 0 0 0 0 0 0 0 0 0 0 0 0 0 0 0 0 0 0 0 0 0 0 0 0 3 58 255 208 109 60 32 11 3 1 1 1 2 4 4
21 255 255 133 71 41 20 6 2 0 0 0 2 7 21 42 73 140 255 250 12 1 0 0 0 0 0 2 40 255 220 117 63 37 18 5 1 0 0 0 2 6 21 42 72 139 255 255 255 129 67 38 20 6 2 0 0 0 2 6 21 41 70 132 255 255 19 1 0 0 0 0 0 0 1 17 255 253 129 68 39 19 6 1 0 0 0 2 6 20 39 67 124 236 255 30 1 0 0 0 0 0 0 0 0 0 0 0 0 0 0 0 0 0 0 0 0 0 0 0 0 0 0 0 0 0 0 0 0 0 0 0 0 1 15 255 255 136 71 41 20 6 2 0 0 0 1 5 18 38 65 120 231 255 35 1 0 0 0 0 0 0 0 1 21 255 243 125 67 39 19 6 1 0 0 0 1 6 19 38 66 125 243 255 19 1 0 0 0 0 0 0 0 0 1 15 255 255 136 71 41 20 6 2 0 0 0 1 5 17 36 62 114 222 255 83 255 235 122 65 37 17 5 1 0 0 0 2 7 21 41 70 131 254 255 16 1 0 1 18 255 255 136 71 40 20 6 1 0 0 0 1 5 19 40 71 123 174 127 73 40 19 6 2 0 0 0 1 6 20 40 71 134 255 255 21 1 0 0 0 0 0 0 0 0 0 0 0 0 0 0 0 0 0 0 0 0 0 0 0 0 0 1 30 255 240 126 67 39 18 5 1 0 0 0 1 6 20 41 71 133 255 255 15 1 1 17 255 255 133 70 40 20 6 2 0 0 0 1 6 18 36 63 118 225 255 37 2 0 0 1 18 255 249 128 68 40 19 6 1 0 0 0 1 6 19 39 66 121 232 255 28 1 0 0 0 0 0 0 0 0 0 0 0 0 0 0 0 0 0 0 0 0 0 1 32 255 237 123 65 37 17 5 1 0 0 0 1 6 19 40 69 131 252 255 25 1 0 0 0 0 0 0 0 0 0 0 0 0 0 0 1 22 255 245 127 67 39 19 5 1 0 0 0 1 5 18 37 64 117 224 255 38 2 0 0 0 0 0 0 0 0 0 0 0 0 0 0 0 0 0 0 0 0 0 0 0 0 0 0 0 0 0 0 0 0 1 21 255 255 133 71 41 20 6 2 0 0 0 2 6 20 40 69 129 252 255 22 1 0 0 0 0 0 0 0 0 0 0 0 0 0 0 0 0 0 0 0 0 0 0 0 0 0 0 0 0 0 0 0 1 16 255 255 138 72 41 21 6 2 0 0 0 2 6 21 43 74 138 255 255 17 1 0 0 0 0 0 0 0 0 0 0 0 0 0 0 1 26 255 243 128 69 41 20 6 1 0 0 0 1 6 20 41 70 129 249 255 24 1 0 0 0 0 0 0 0 0 0 0 0 0 0 0 0 0 0 0 0 0 0 0 0 0 1 28 255 236 125 67 39 19 6 2 0 0 0 1 1 1
252 255 158 81 45 26 11 3 1 0 0 0 1 3 12 27 48 86 170 255 106 5 0 0 0 0 1 18 255 255 133 70 40 23 9 3 1 0 0 0 1 3 12 27 47 89 171 243 156 81 43 24 11 3 1 0 0 0 1 3 12 26 45 81 158 255 159 8 0 0 0 0 0 0 7 143 255 156 80 44 25 10 3 1 0 0 0 1 3 11 25 42 75 144 255 255 14 1 0 0 0 0 0 0 0 0 0 0 0 0 0 0 0 0 0 0 0 0 0 0 0 0 0 0 0 0 0 0 0 0 0 0 0 6 139 255 164 84 47 26 11 3 1 0 0 0 1 3 9 24 42 73 142 255 255 16 1 0 0 0 0 0 0 9 191 255 151 77 43 25 10 3 1 0 0 0 1 3 10 24 43 77 150 255 152 7 0 0 0 0 0 0 0 0 6 126 255 160 83 47 27 11 3 1 0 0 0 1 2 9 23 40 70 138 255 255 255 148 75 42 24 9 2 1 0 0 0 1 3 12 26 44 79 155 255 140 7 1 7 152 255 157 83 46 26 11 3 1 0 0 0 1 3 10 26 44 62 75 63 45 27 10 3 1 0 0 0 1 3 11 26 46 81 154 255 196 9 0 0 0 0 0 0 0 0 0 0 0 0 0 0 0 0 0 0 0 0 0 0 0 0 1 13 255 255 146 77 44 25 10 3 1 0 0 0 1 3 11 26 46 82 160 255 137 7 7 144 255 157 81 45 26 11 3 1 0 0 0 1 3 10 23 40 72 137 255 255 16 1 0 7 146 255 153 78 44 26 10 3 1 0 0 0 1 3 10 25 42 73 143 255 243 11 1 0 0 0 0 0 0 0 0 0 0 0 0 0 0 0 0 0 0 0 1 14 255 255 145 76 43 24 9 2 1 0 0 0 1 3 11 25 45 80 154 255 229 11 0 0 0 0 0 0 0 0 0 0 0 0 0 0 10 216 255 151 78 44 25 10 3 1 0 0 0 1 3 10 23 40 71 138 255 255 19 1 0 0 0 0 0 0 0 0 0 0 0 0 0 0 0 0 0 0 0 0 0 0 0 0 0 0 0 0 0 0 0 9 184 255 156 81 46 27 11 3 1 0 0 0 1 3 11 26 44 79 156 255 194 9 0 0 0 0 0 0 0 0 0 0 0 0 0 0 0 0 0 0 0 0 0 0 0 0 0 0 0 0 0 0 0 7 138 255 159 84 47 26 12 3 1 0 0 0 1 3 12 28 47 83 158 255 141 7 0 0 0 0 0 0 0 0 0 0 0 0 0 0 11 250 255 147 77 44 26 11 3 1 0 0 0 1 3 11 26 45 78 153 255 231 11 0 0 0 0 0 0 0 0 0 0 0 0 0 0 0 0 0 0 0 0 0 0 0 1 12 255 255 144 75 43 25 10 3 1 0 0 0 0 0 0
255 196 98 52 29 15 5 1 0 0 0 0 0 1 6 16 32 56 106 203 255 52 2 0 0 0 8 170 255 161 82 44 26 13 4 1 0 0 0 0 0 1 6 16 32 57 88 108 83 52 29 14 5 1 0 0 0 0 0 1 5 15 29 52 97 185 255 69 3 0 0 0 0 3 64 255 190 97 52 29 15 5 1 0 0 0 0 0 1 5 14 27 48 88 173 255 133 6 0 0 0 0 0 0 0 0 0 0 0 0 0 0 0 0 0 0 0 0 0 0 0 0 0 0 0 0 0 0 0 0 0 0 3 65 255 196 101 55 31 15 5 1 0 0 0 0 0 1 4 13 27 47 87 167 255 140 7 0 0 0 0 0 4 84 255 183 94 50 28 14 5 1 0 0 0 0 0 1 5 14 28 50 93 182 255 68 3 0 0 0 0 0 0 3 61 255 194 99 54 31 16 5 1 0 0 0 0 0 1 4 12 26 46 88 169 255 195 98 50 27 13 4 1 0 0 0 0 0 1 5 15 29 51 97 193 255 69 7 72 255 186 96 53 31 15 5 1 0 0 0 0 0 1 5 15 26 30 31 30 26 16 5 1 0 0 0 0 0 1 5 15 30 52 94 183 255 92 4 0 0 0 0 0 0 0 0 0 0 0 0 0 0 0 0 0 0 0 0 0 0 0 6 123 255 170 89 49 29 14 5 1 0 0 0 0 0 1 5 15 30 53 100 195 255 74 78 255 190 97 52 30 15 5 1 0 0 0 0 0 1 4 13 26 45 83 161 255 136 7 3 66 255 184 95 51 29 15 5 1 0 0 0 0 0 1 5 14 27 47 88 172 255 102 5 0 0 0 0 0 0 0 0 0 0 0 0 0 0 0 0 0 0 0 6 132 255 170 88 49 28 14 4 1 0 0 0 0 0 1 5 15 30 51 93 177 255 100 5 0 0 0 0 0 0 0 0 0 0 0 0 5 96 255 182 93 50 29 14 5 1 0 0 0 0 0 1 4 13 26 46 85 165 255 189 9 0 0 0 0 0 0 0 0 0 0 0 0 0 0 0 0 0 0 0 0 0 0 0 0 0 0 0 0 0 0 4 79 255 183 95 52 30 15 5 1 0 0 0 0 0 1 5 15 29 51 95 181 255 80 4 0 0 0 0 0 0 0 0 0 0 0 0 0 0 0 0 0 0 0 0 0 0 0 0 0 0 0 0 0 3 64 255 190 97 53 31 15 6 1 0 0 0 0 0 1 6 17 31 53 97 188 255 66 3 0 0 0 0 0 0 0 0 0 0 0 0 5 112 255 176 90 49 29 15 5 1 0 0 0 0 0 1 5 15 29 51 94 179 255 97 5 0 0 0 0 0 0 0 0 0 0 0 0 0 0 0 0 0 0 0 0 0 0 5 107 255 172 88 48 28 14 5 1 0 0 0 0 0 0 0
223 124 65 36 18 8 2 1 0 0 0 0 0 1 2 8 20 39 70 130 247 255 27 1 0 4 79 255 192 101 54 29 15 6 2 0 0 0 0 0 0 1 3 8 20 36 43 47 42 32 18 7 2 1 0 0 0 0 0 1 2 7 18 35 63 117 222 255 34 1 0 0 1 31 255 228 121 65 36 18 7 2 1 0 0 0 0 0 1 2 7 16 32 58 108 201 255 63 3 0 0 0 0 0 0 0 0 0 0 0 0 0 0 0 0 0 0 0 0 0 0 0 0 0 0 0 0 0 0 0 0 1 32 255 232 124 67 37 20 8 2 1 0 0 0 0 0 1 2 6 16 32 57 104 195 255 65 3 0 0 0 2 42 255 218 116 63 34 17 7 2 1 0 0 0 0 0 1 2 7 17 34 62 118 226 255 34 1 0 0 0 0 1 32 255 238 124 66 37 19 8 2 1 0 0 0 0 0 0 2 6 15 32 58 93 125 102 66 35 17 6 2 0 0 0 0 0 0 1 2 7 18 35 65 124 235 255 106 255 230 119 63 35 19 8 2 1 0 0 0 0 0 1 2 7 13 13 12 13 12 7 2 1 0 0 0 0 0 1 2 8 18 35 62 116 221 255 50 2 0 0 0 0 0 0 0 0 0 0 0 0 0 0 0 0 0 0 0 0 0 3 62 255 204 106 58 33 17 7 2 1 0 0 0 0 0 1 2 8 19 37 66 124 242 255 255 240 122 64 36 19 7 2 1 0 0 0 0 0 1 2 6 15 30 55 101 193 255 65 39 255 228 118 63 35 17 7 2 1 0 0 0 0 0 1 2 6 16 32 58 109 207 255 51 2 0 0 0 0 0 0 0 0 0 0 0 0 0 0 0 0 0 3 63 255 200 106 58 33 17 7 2 1 0 0 0 0 0 1 2 7 18 35 60 110 212 255 52 2 0 0 0 0 0 0 0 0 0 0 2 49 255 216 115 62 34 18 7 2 1 0 0 0 0 0 1 2 6 15 31 56 103 193 255 89 4 0 0 0 0 0 0 0 0 0 0 0 0 0 0 0 0 0 0 0 0 0 0 0 0 0 0 0 0 2 38 255 218 115 62 35 18 8 2 1 0 0 0 0 0 1 2 7 18 35 62 113 214 255 38 2 0 0 0 0 0 0 0 0 0 0 0 0 0 0 0 0 0 0 0 0 0 0 0 0 0 0 0 1 32 255 231 122 64 36 19 8 2 1 0 0 0 0 0 1 3 8 19 35 63 121 232 255 34 1 0 0 0 0 0 0 0 0 0 0 3 57 255 210 111 59 33 17 7 2 1 0 0 0 0 0 1 2 7 17 34 61 112 210 255 46 2 0 0 0 0 0 0 0 0 0 0 0 0 0 0 0 0 0 0 0 0 2 52 255 206 109 58 32 16 7 2 1 0 0 0 0 0 0 0
108 78 48 25 10 3 1 0 0 0 0 0 0 0 1 4 11 28 51 87 160 255 255 13 2 43 255 229 124 69 39 19 7 3 1 0 0 0 0 0 0 0 1 4 11 20 21 20 20 18 9 3 1 0 0 0 0 0 0 0 1 3 10 24 46 79 146 255 255 15 1 1 13 255 255 148 82 48 25 10 3 1 0 0 0 0 0 0 0 1 3 8 21 42 72 129 238 255 32 1 0 0 0 0 0 0 0 0 0 0 0 0 0 0 0 0 0 0 0 0 0 0 0 0 0 0 0 0 0 0 1 15 255 255 149 83 49 26 11 4 1 0 0 0 0 0 0 0 1 3 8 21 41 70 126 235 255 34 1 0 1 18 255 255 141 79 46 24 9 3 1 0 0 0 0 0 0 0 1 3 9 23 46 81 148 255 255 15 1 0 0 1 14 255 255 154 84 49 25 11 4 1 0 0 0 0 0 0 0 1 2 8 22 39 51 57 53 45 25 9 3 1 0 0 0 0 0 0 0 1 3 10 24 48 84 154 255 255 255 152 82 47 24 10 3 1 0 0 0 0 0 0 0 1 2 5 5 4 5 4 3 1 0 0 0 0 0 0 0 1 3 10 23 45 78 143 255 255 25 1 0 0 0 0 0 0 0 0 0 0 0 0 0 0 0 0 0 0 0 1 34 255 246 132 73 42 22 9 3 1 0 0 0 0 0 0 0 1 3 10 26 49 85 160 255 255 159 84 48 24 10 3 1 0 0 0 0 0 0 0 1 3 8 19 39 70 127 238 255 255 255 150 81 47 24 9 3 1 0 0 0 0 0 0 0 1 3 8 22 43 75 135 254 255 27 1 0 0 0 0 0 0 0 0 0 0 0 0 0 0 0 1 33 255 239 129 72 42 21 9 3 1 0 0 0 0 0 0 0 1 3 10 23 43 75 138 255 255 27 1 0 0 0 0 0 0 0 0 1 26 255 255 139 77 45 23 10 3 1 0 0 0 0 0 0 0 1 3 8 21 40 70 123 227 255 47 2 0 0 0 0 0 0 0 0 0 0 0 0 0 0 0 0 0 0 0 0 0 0 0 0 0 0 1 17 255 255 142 78 45 24 10 3 1 0 0 0 0 0 0 0 1 3 10 24 44 76 140 255 255 16 1 0 0 0 0 0 0 0 0 0 0 0 0 0 0 0 0 0 0 0 0 0 0 0 0 0 1 14 255 255 150 82 47 24 11 3 1 0 0 0 0 0 0 0 1 4 10 24 46 82 151 255 255 15 1 0 0 0 0 0 0 0 0 1 30 255 249 135 75 43 22 9 3 1 0 0 0 0 0 0 0 1 3 9 24 44 75 136 253 255 21 1 0 0 0 0 0 0 0 0 0 0 0 0 0 0 0 0 0 0 1 25 255 248 134 74 42 21 8 3 1 0 0 0 0 0 0 0 0
53 51 38 16 5 1 0 0 0 0 0 0 0 0 0 2 6 19 42 67 107 189 255 131 29 255 255 150 86 54 31 11 3 1 0 0 0 0 0 0 0 0 0 2 5 9 9 8 9 8 4 1 0 0 0 0 0 0 0 0 0 1 5 16 36 62 100 179 255 156 7 6 130 255 182 101 64 39 17 5 1 0 0 0 0 0 0 0 0 0 1 4 13 33 56 88 156 255 255 13 1 0 0 0 0 0 0 0 0 0 0 0 0 0 0 0 0 0 0 0 0 0 0 0 0 0 0 0 0 0 7 161 255 182 101 63 40 17 5 2 0 0 0 0 0 0 0 0 0 1 4 13 31 55 88 155 255 255 16 1 8 162 255 169 96 61 37 15 5 1 0 0 0 0 0 0 0 0 0 1 5 15 38 64 101 178 255 160 7 0 0 6 128 255 180 103 65 41 17 5 2 0 0 0 0 0 0 0 0 0 1 4 13 25 28 26 28 30 16 5 1 0 0 0 0 0 0 0 0 0 1 5 16 40 66 106 185 255 183 106 65 39 15 5 1 0 0 0 0 0 0 0 0 0 1 1 1 1 1 1 1 0 0 0 0 0 0 0 0 0 1 5 15 37 61 96 166 255 241 11 0 0 0 0 0 0 0 0 0 0 0 0 0 0 0 0 0 0 1 15 255 255 159 91 57 33 13 4 1 0 0 0 0 0 0 0 0 0 1 5 18 41 67 105 156 154 105 67 40 16 5 1 0 0 0 0 0 0 0 0 0 1 4 11 30 55 90 162 255 255 191 104 65 38 16 5 1 0 0 0 0 0 0 0 0 0 1 4 13 34 59 94 165 255 255 12 1 0 0 0 0 0 0 0 0 0 0 0 0 0 1 16 255 255 157 89 56 33 13 4 1 0 0 0 0 0 0 0 0 0 1 5 14 34 59 94 165 255 255 12 1 0 0 0 0 0 0 0 12 255 255 166 94 60 37 15 5 1 0 0 0 0 0 0 0 0 0 1 4 12 31 54 85 147 255 255 22 1 0 0 0 0 0 0 0 0 0 0 0 0 0 0 0 0 0 0 0 0 0 0 0 0 0 7 160 255 171 97 60 36 15 5 1 0 0 0 0 0 0 0 0 0 1 5 15 35 60 96 171 255 160 7 0 0 0 0 0 0 0 0 0 0 0 0 0 0 0 0 0 0 0 0 0 0 0 0 0 6 124 255 180 102 64 39 15 5 1 0 0 0 0 0 0 0 0 0 1 5 16 38 64 102 178 255 151 7 0 0 0 0 0 0 0 1 13 255 255 161 92 58 34 14 4 1 0 0 0 0 0 0 0 0 0 1 4 15 34 58 93 164 255 192 9 0 0 0 0 0 0 0 0 0 0 0 0 0 0 0 0 0 0 10 228 255 162 92 58 34 13 4 1 0 0 0 0 0 0 0 0 0
28 35 30 10 2 1 0 0 0 0 0 0 0 0 0 1 3 12 38 63 82 126 219 255 255 255 177 104 72 51 25 6 2 0 0 0 0 0 0 0 0 0 0 1 2 3 3 3 3 3 1 0 0 0 0 0 0 0 0 0 0 1 2 9 31 60 80 122 212 255 83 72 255 215 124 81 61 35 10 2 1 0 0 0 0 0 0 0 0 0 1 2 8 26 52 72 107 183 255 129 6 0 0 0 0 0 0 0 0 0 0 0 0 0 0 0 0 0 0 0 0 0 0 0 0 0 0 0 0 4 80 255 214 123 80 59 36 10 3 1 0 0 0 0 0 0 0 0 0 0 2 7 25 52 73 108 184 255 152 11 78 255 201 115 77 58 31 9 2 1 0 0 0 0 0 0 0 0 0 1 2 9 34 62 81 121 212 255 79 4 3 61 255 211 121 80 62 38 10 3 1 0 0 0 0 0 0 0 0 0 0 2 6 13 14 12 14 17 8 2 1 0 0 0 0 0 0 0 0 0 1 2 10 36 63 82 106 128 106 82 63 37 9 2 1 0 0 0 0 0 0 0 0 0 0 0 0 0 0 0 0 0 0 0 0 0 0 0 0 0 1 2 9 33 57 75 112 193 255 103 5 0 0 0 0 0 0 0 0 0 0 0 0 0 0 0 0 0 7 146 255 183 108 74 56 28 7 2 1 0 0 0 0 0 0 0 0 0 1 3 11 38 64 74 79 79 74 65 39 10 2 1 0 0 0 0 0 0 0 0 0 0 2 6 24 54 76 115 176 187 125 84 64 34 10 2 1 0 0 0 0 0 0 0 0 0 0 2 8 28 57 76 113 192 255 122 6 0 0 0 0 0 0 0 0 0 0 0 0 0 7 159 255 186 108 73 54 27 7 2 1 0 0 0 0 0 0 0 0 0 1 2 8 29 57 75 111 190 255 111 5 0 0 0 0 0 0 6 125 255 195 113 76 56 32 9 2 1 0 0 0 0 0 0 0 0 0 0 2 7 24 51 70 101 170 255 191 9 0 0 0 0 0 0 0 0 0 0 0 0 0 0 0 0 0 0 0 0 0 0 0 0 4 82 255 209 117 77 57 31 9 2 1 0 0 0 0 0 0 0 0 0 1 2 9 28 58 78 118 209 255 79 4 0 0 0 0 0 0 0 0 0 0 0 0 0 0 0 0 0 0 0 0 0 0 0 3 58 255 210 121 80 60 37 10 2 1 0 0 0 0 0 0 0 0 0 1 2 10 35 60 79 120 211 255 75 3 0 0 0 0 0 0 6 121 255 186 109 74 55 29 8 2 1 0 0 0 0 0 0 0 0 0 1 2 9 28 55 75 113 197 255 92 4 0 0 0 0 0 0 0 0 0 0 0 0 0 0 0 0 5 106 255 192 111 75 54 29 8 2 1 0 0 0 0 0 0 0 0 0
15 23 21 5 1 0 0 0 0 0 0 0 0 0 0 0 2 8 42 86 82 96 152 255 255 218 124 87 81 65 21 4 1 0 0 0 0 0 0 0 0 0 0 0 0 1 1 1 1 1 0 0 0 0 0 0 0 0 0 0 0 0 1 6 30 85 84 95 143 248 255 255 255 145 96 86 82 35 7 1 0 0 0 0 0 0 0 0 0 0 0 1 4 22 65 80 87 126 218 255 66 3 0 0 0 0 0 0 0 0 0 0 0 0 0 0 0 0 0 0 0 0 0 0 0 0 0 0 2 42 255 243 143 95 84 80 37 7 1 0 0 0 0 0 0 0 0 0 0 0 1 4 20 71 83 89 126 212 255 212 255 242 138 92 82 77 29 6 1 0 0 0 0 0 0 0 0 0 0 0 1 6 35 86 84 95 143 243 255 45 33 255 248 144 94 81 83 43 7 1 0 0 0 0 0 0 0 0 0 0 0 1 2 5 6 5 6 7 3 1 0 0 0 0 0 0 0 0 0 0 0 1 7 38 84 80 66 65 67 79 90 45 7 1 0 0 0 0 0 0 0 0 0 0 0 0 0 0 0 0 0 0 0 0 0 0 0 0 0 0 0 1 6 34 77 78 89 131 223 255 52 2 0 0 0 0 0 0 0 0 0 0 0 0 0 0 0 3 71 255 213 125 87 80 78 25 5 1 0 0 0 0 0 0 0 0 0 0 0 1 8 42 86 62 44 45 62 87 47 8 1 0 0 0 0 0 0 0 0 0 0 0 1 4 21 75 88 89 94 96 88 88 92 34 6 1 0 0 0 0 0 0 0 0 0 0 0 1 5 24 77 83 90 130 221 255 63 3 0 0 0 0 0 0 0 0 0 0 0 4 77 255 211 126 89 81 73 24 4 1 0 0 0 0 0 0 0 0 0 0 0 1 5 27 83 80 89 129 221 255 55 3 0 0 0 0 3 63 255 223 132 90 82 75 30 6 1 0 0 0 0 0 0 0 0 0 0 0 1 4 19 65 79 84 117 198 255 88 4 0 0 0 0 0 0 0 0 0 0 0 0 0 0 0 0 0 0 0 0 0 0 2 46 255 245 143 95 82 78 30 6 1 0 0 0 0 0 0 0 0 0 0 0 1 5 25 82 84 95 142 243 255 43 2 0 0 0 0 0 0 0 0 0 0 0 0 0 0 0 0 0 0 0 0 0 1 28 255 248 143 94 82 80 42 7 1 0 0 0 0 0 0 0 0 0 0 0 1 7 38 81 81 94 143 245 255 40 2 0 0 0 0 3 58 255 217 127 88 79 72 27 5 1 0 0 0 0 0 0 0 0 0 0 0 1 5 24 76 81 92 136 236 255 51 2 0 0 0 0 0 0 0 0 0 0 0 0 0 0 3 57 255 229 132 90 82 70 26 5 1 0 0 0 0 0 0 0 0 0 0
7 12 11 3 1 0 0 0 0 0 0 0 0 0 0 0 1 8 77 211 138 97 112 158 188 136 101 104 161 156 24 3 0 0 0 0 0 0 0 0 0 0 0 0 0 0 0 0 0 0 0 0 0 0 0 0 0 0 0 0 0 0 1 5 46 221 150 99 107 167 255 255 173 109 99 152 203 55 6 1 0 0 0 0 0 0 0 0 0 0 0 1 3 25 159 157 100 100 147 251 255 36 2 0 0 0 0 0 0 0 0 0 0 0 0 0 0 0 0 0 0 0 0 0 0 0 0 1 20 255 255 159 105 97 150 201 60 7 1 0 0 0 0 0 0 0 0 0 0 0 1 3 27 197 166 102 99 145 255 255 255 165 106 100 152 192 38 5 1 0 0 0 0 0 0 0 0 0 0 0 1 6 57 205 148 100 106 159 255 255 255 255 165 106 97 139 198 86 9 1 0 0 0 0 0 0 0 0 0 0 0 0 1 2 2 2 2 2 1 0 0 0 0 0 0 0 0 0 0 0 0 1 7 62 191 123 52 38 53 124 220 113 10 1 0 0 0 0 0 0 0 0 0 0 0 0 0 0 0 0 0 0 0 0 0 0 0 0 0 0 0 1 6 54 191 141 97 100 149 255 255 26 1 0 0 0 0 0 0 0 0 0 0 0 0 0 2 39 255 244 143 98 98 153 215 38 4 1 0 0 0 0 0 0 0 0 0 0 0 1 8 77 193 83 31 31 83 194 105 10 1 0 0 0 0 0 0 0 0 0 0 0 0 3 30 208 170 90 57 54 77 148 225 58 6 1 0 0 0 0 0 0 0 0 0 0 0 1 4 32 195 156 99 100 147 253 255 35 1 0 0 0 0 0 0 0 0 0 2 43 255 241 141 98 101 161 201 32 4 1 0 0 0 0 0 0 0 0 0 0 0 1 5 44 231 150 97 100 148 253 255 26 1 0 0 1 33 255 250 147 100 98 154 189 42 5 1 0 0 0 0 0 0 0 0 0 0 0 0 3 22 165 160 100 96 135 232 255 48 2 0 0 0 0 0 0 0 0 0 0 0 0 0 0 0 0 0 0 0 0 1 24 255 255 160 107 102 149 199 45 5 1 0 0 0 0 0 0 0 0 0 0 0 1 4 37 225 155 102 107 159 255 255 22 1 0 0 0 0 0 0 0 0 0 0 0 0 0 0 0 0 0 0 0 1 12 254 255 165 107 97 142 195 87 8 1 0 0 0 0 0 0 0 0 0 0 0 1 7 69 193 138 98 106 161 255 255 20 1 0 0 1 28 255 248 146 99 98 148 177 36 4 1 0 0 0 0 0 0 0 0 0 0 0 1 4 33 208 155 101 105 157 255 255 26 1 0 0 0 0 0 0 0 0 0 0 0 0 1 30 255 255 152 103 101 153 170 34 4 1 0 0 0 0 0 0 0 0 0 0
3 5 4 1 0 0 0 0 0 0 0 0 0 0 0 0 2 27 255 255 255 155 92 85 89 84 103 201 255 255 83 6 0 0 0 0 0 0 0 0 0 0 0 0 0 0 0 0 0 0 0 0 0 0 0 0 0 0 0 0 0 0 1 13 218 255 255 163 96 109 153 156 112 97 160 255 255 249 17 1 0 0 0 0 0 0 0 0 0 0 0 1 6 83 255 255 189 101 101 156 255 255 16 1 0 0 0 0 0 0 0 0 0 0 0 0 0 0 0 0 0 0 0 0 0 0 0 9 185 255 168 104 92 157 255 255 255 19 1 0 0 0 0 0 0 0 0 0 0 0 1 7 107 255 255 192 101 103 157 227 173 113 100 175 255 255 145 10 1 0 0 0 0 0 0 0 0 0 0 0 1 18 255 255 255 165 94 106 176 255 255 187 110 94 161 255 255 255 32 2 0 0 0 0 0 0 0 0 0 0 0 0 0 0 1 1 1 1 0 0 0 0 0 0 0 0 0 0 0 0 0 1 19 255 255 255 73 29 77 255 255 255 45 3 0 0 0 0 0 0 0 0 0 0 0 0 0 0 0 0 0 0 0 0 0 0 0 0 0 0 0 1 18 255 255 255 176 95 102 162 255 255 12 0 0 0 0 0 0 0 0 0 0 0 0 1 18 255 255 153 99 99 188 255 255 191 11 1 0 0 0 0 0 0 0 0 0 0 0 2 26 255 255 229 39 40 227 255 255 39 2 0 0 0 0 0 0 0 0 0 0 0 1 8 132 255 255 152 45 39 114 255 255 255 19 1 0 0 0 0 0 0 0 0 0 0 0 1 8 123 255 255 177 97 100 158 255 255 17 1 0 0 0 0 0 0 0 1 23 255 255 151 98 98 190 255 255 143 9 1 0 0 0 0 0 0 0 0 0 0 0 1 14 241 255 255 179 97 101 158 255 234 11 1 1 15 255 255 155 99 95 176 255 255 181 11 1 0 0 0 0 0 0 0 0 0 0 0 0 5 77 255 255 205 103 97 147 255 255 25 1 0 0 0 0 0 0 0 0 0 0 0 0 0 0 0 0 0 0 0 11 255 255 168 105 96 171 255 255 220 13 1 0 0 0 0 0 0 0 0 0 0 0 1 10 167 255 255 171 96 105 170 255 206 9 0 0 0 0 0 0 0 0 0 0 0 0 0 0 0 0 0 0 0 5 114 255 179 110 95 159 255 255 255 33 2 0 0 0 0 0 0 0 0 0 0 0 2 25 255 255 255 162 94 106 171 255 185 9 0 1 12 252 255 155 100 98 182 255 255 146 9 1 0 0 0 0 0 0 0 0 0 0 0 1 9 138 255 255 179 99 105 164 255 232 11 0 0 0 0 0 0 0 0 0 0 0 1 15 255 255 160 103 99 181 255 255 132 8 1 0 0 0 0 0 0 0 0 0 0
1 1 1 0 0 0 0 0 0 0 0 0 0 0 0 0 9 159 255 211 222 214 91 45 40 54 131 231 220 223 255 38 2 0 0 0 0 0 0 0 0 0 0 0 0 0 0 0 0 0 0 0 0 0 0 0 0 0 0 0 0 0 5 84 255 206 214 215 106 67 67 68 67 105 211 213 212 255 94 5 0 0 0 0 0 0 0 0 0 0 0 2 36 255 221 221 232 130 72 87 153 255 130 6 0 0 0 0 0 0 0 0 0 0 0 0 0 0 0 0 0 0 0 0 0 0 4 78 255 170 94 68 102 214 217 216 255 113 6 0 0 0 0 0 0 0 0 0 0 0 2 46 255 210 214 228 131 74 78 94 82 73 115 223 218 212 255 56 3 0 0 0 0 0 0 0 0 0 0 0 6 102 255 211 215 216 104 71 99 165 175 106 73 105 222 225 217 254 204 11 1 0 0 0 0 0 0 0 0 0 0 0 0 0 0 0 0 0 0 0 0 0 0 0 0 0 0 0 0 0 0 6 112 255 215 221 189 52 203 221 206 232 255 17 1 0 0 0 0 0 0 0 0 0 0 0 0 0 0 0 0 0 0 0 0 0 0 0 0 0 0 6 118 255 224 228 235 118 71 91 164 255 109 5 0 0 0 0 0 0 0 0 0 0 0 7 151 255 152 86 71 130 235 220 213 255 77 4 0 0 0 0 0 0 0 0 0 0 0 8 159 255 216 255 136 143 255 215 236 250 14 1 0 0 0 0 0 0 0 0 0 0 3 57 255 207 204 214 61 48 199 205 201 255 115 6 0 0 0 0 0 0 0 0 0 0 0 3 51 255 209 215 226 120 70 89 156 255 165 8 0 0 0 0 0 0 0 10 226 255 150 86 71 127 230 217 214 255 59 3 0 0 0 0 0 0 0 0 0 0 0 5 95 255 209 219 233 123 70 89 161 255 97 5 7 135 255 156 87 69 117 228 219 219 255 69 4 0 0 0 0 0 0 0 0 0 0 0 2 33 255 217 223 240 146 74 85 145 255 214 10 0 0 0 0 0 0 0 0 0 0 0 0 0 0 0 0 0 0 5 108 255 169 93 69 107 218 219 217 255 89 5 0 0 0 0 0 0 0 0 0 0 0 4 66 255 203 212 215 107 70 94 170 255 85 4 0 0 0 0 0 0 0 0 0 0 0 0 0 0 0 0 0 3 55 255 189 102 72 105 218 223 220 254 221 12 1 0 0 0 0 0 0 0 0 0 0 9 181 255 221 225 221 104 70 95 171 255 78 4 5 104 255 160 89 71 125 235 225 223 255 62 3 0 0 0 0 0 0 0 0 0 0 0 3 58 255 209 217 224 116 71 91 162 255 92 5 0 0 0 0 0 0 0 0 0 0 7 148 255 161 90 71 120 226 220 223 255 56 3 0 0 0 0 0 0 0 0 0 0
0 0 0 0 0 0 0 0 0 0 0 0 0 0 0 3 60 255 150 115 123 149 91 27 19 40 134 141 120 136 230 255 16 1 0 0 0 0 0 0 0 0 0 0 0 0 0 0 0 0 0 0 0 0 0 0 0 0 0 0 0 2 37 255 174 119 118 146 110 41 27 27 40 106 145 118 119 165 255 39 2 0 0 0 0 0 0 0 0 0 1 15 255 229 134 121 146 137 54 45 76 157 255 55 3 0 0 0 0 0 0 0 0 0 0 0 0 0 0 0 0 0 0 0 0 2 36 255 181 86 48 46 111 149 120 119 161 255 46 2 0 0 0 0 0 0 0 0 0 1 20 255 210 125 116 142 139 54 35 35 34 47 118 145 120 125 190 255 23 1 0 0 0 0 0 0 0 0 0 2 42 255 162 119 120 146 111 48 47 64 67 50 49 112 151 125 116 147 255 74 4 0 0 0 0 0 0 0 0 0 0 0 0 0 0 0 0 0 0 0 0 0 0 0 0 0 0 0 0 0 2 49 255 163 122 135 240 235 237 133 110 135 255 119 6 0 0 0 0 0 0 0 0 0 0 0 0 0 0 0 0 0 0 0 0 0 0 0 0 0 3 50 255 169 124 125 152 132 52 47 82 172 255 49 2 0 0 0 0 0 0 0 0 0 3 61 255 153 75 45 55 143 148 120 122 184 255 35 2 0 0 0 0 0 0 0 0 0 3 61 255 153 125 162 255 255 164 121 140 255 94 5 0 0 0 0 0 0 0 0 0 1 26 255 200 123 113 146 114 97 170 119 114 162 255 49 2 0 0 0 0 0 0 0 0 0 1 23 255 202 126 119 146 132 52 46 77 161 255 73 4 0 0 0 0 0 5 93 255 152 74 45 55 138 144 117 125 195 255 25 1 0 0 0 0 0 0 0 0 0 2 42 255 173 119 119 149 136 53 47 82 173 255 51 64 255 164 78 45 51 129 147 120 125 182 255 30 1 0 0 0 0 0 0 0 0 0 1 13 255 234 132 120 146 154 62 45 71 145 255 86 4 0 0 0 0 0 0 0 0 0 0 0 0 0 0 0 0 2 50 255 173 84 47 47 110 143 120 123 178 255 40 2 0 0 0 0 0 0 0 0 0 1 29 255 185 119 115 141 111 48 48 85 178 255 39 2 0 0 0 0 0 0 0 0 0 0 0 0 0 0 0 1 26 255 206 98 52 48 111 150 123 116 146 255 84 4 0 0 0 0 0 0 0 0 0 4 72 255 160 120 125 150 111 47 48 87 182 255 41 50 255 170 81 47 54 138 150 124 130 197 255 29 1 0 0 0 0 0 0 0 0 0 1 27 255 197 123 118 143 120 49 46 81 171 255 42 2 0 0 0 0 0 0 0 0 3 66 255 167 80 46 51 126 145 122 132 202 255 26 1 0 0 0 0 0 0 0 0 0
0 0 0 0 0 0 0 0 0 0 0 0 0 0 1 24 255 175 82 55 58 75 73 18 10 30 91 70 57 70 128 255 129 6 0 0 0 0 0 0 0 0 0 0 0 0 0 0 0 0 0 0 0 0 0 0 0 0 0 0 1 15 255 219 98 59 56 74 86 26 11 11 25 82 74 56 58 93 208 255 14 1 0 0 0 0 0 0 0 0 6 125 255 128 69 58 73 97 41 23 35 81 190 255 24 1 0 0 0 0 0 0 0 0 0 0 0 0 0 0 0 0 0 0 1 14 255 225 95 40 23 33 93 77 57 57 89 195 255 18 1 0 0 0 0 0 0 0 0 7 152 255 118 64 55 71 97 40 15 12 14 31 87 73 57 63 109 255 167 8 0 0 0 0 0 0 0 0 1 17 255 204 91 58 57 75 89 33 20 22 23 21 33 90 77 58 55 79 165 255 32 1 0 0 0 0 0 0 0 0 0 0 0 0 0 0 0 0 0 0 0 0 0 0 0 0 0 0 0 1 22 255 201 93 62 78 165 255 159 74 53 70 148 255 49 2 0 0 0 0 0 0 0 0 0 0 0 0 0 0 0 0 0 0 0 0 0 0 0 1 20 255 196 92 60 59 77 101 39 24 38 88 201 255 20 1 0 0 0 0 0 0 0 1 27 255 182 77 34 23 43 103 75 56 61 101 226 255 13 1 0 0 0 0 0 0 0 1 25 255 176 85 65 98 208 204 98 62 76 158 255 42 2 0 0 0 0 0 0 0 0 10 221 255 111 62 56 85 208 232 104 61 57 90 197 255 20 1 0 0 0 0 0 0 0 0 9 191 255 115 65 57 75 100 39 23 35 81 185 255 35 2 0 0 0 2 43 255 171 74 34 23 43 100 72 55 62 108 250 184 9 0 0 0 0 0 0 0 0 1 17 255 209 95 58 56 75 102 40 24 38 90 218 255 255 195 83 36 23 39 100 75 57 62 103 235 214 11 1 0 0 0 0 0 0 0 0 5 108 255 131 69 57 73 101 50 24 33 71 169 255 40 2 0 0 0 0 0 0 0 0 0 0 0 0 0 0 1 23 255 204 88 39 23 32 85 72 57 60 99 215 255 16 1 0 0 0 0 0 0 0 1 11 231 241 105 60 55 71 85 33 23 39 93 217 255 15 1 0 0 0 0 0 0 0 0 0 0 0 0 0 0 10 198 255 109 46 25 33 89 77 58 54 78 165 255 38 2 0 0 0 0 0 0 0 1 31 255 176 85 58 59 77 90 33 23 40 96 231 255 255 207 88 38 24 41 102 76 59 65 111 247 238 11 1 0 0 0 0 0 0 0 0 10 197 254 111 63 56 72 90 35 23 38 90 211 255 17 1 0 0 0 0 0 0 1 30 255 189 83 37 23 37 93 73 58 66 113 255 210 10 0 0 0 0 0 0 0 0 0
0 0 0 0 0 0 0 0 0 0 0 0 0 0 9 176 254 100 41 24 24 33 46 12 6 20 46 31 25 33 66 158 255 59 3 0 0 0 0 0 0 0 0 0 0 0 0 0 0 0 0 0 0 0 0 0 0 0 0 0 6 116 255 123 50 27 24 34 50 16 5 5 15 48 34 24 26 48 117 255 102 5 0 0 0 0 0 0 0 3 58 255 162 67 33 25 33 51 26 11 16 39 106 255 193 9 0 0 0 0 0 0 0 0 0 0 0 0 0 0 0 0 0 0 5 103 255 123 46 18 11 22 59 36 25 25 45 111 255 124 6 0 0 0 0 0 0 0 3 64 255 147 61 30 24 32 51 25 7 4 6 18 48 33 25 29 57 139 255 68 3 0 0 0 0 0 0 0 7 136 255 117 47 26 25 35 54 21 9 7 7 9 21 55 36 25 24 39 93 232 239 12 1 0 0 0 0 0 0 0 0 0 0 0 0 0 0 0 0 0 0 0 0 0 0 0 0 0 0 9 180 255 114 48 30 42 92 145 89 39 25 35 81 196 255 20 1 0 0 0 0 0 0 0 0 0 0 0 0 0 0 0 0 0 0 0 0 0 0 7 138 255 109 46 26 25 35 57 27 12 17 42 110 255 137 7 0 0 0 0 0 0 0 10 213 252 101 37 15 12 29 55 34 24 28 51 125 255 99 5 0 0 0 0 0 0 0 8 159 252 100 44 32 51 90 88 50 30 39 89 213 255 16 1 0 0 0 0 0 0 5 94 255 139 57 29 27 59 196 219 75 31 27 46 110 255 144 7 0 0 0 0 0 0 0 4 78 255 145 60 31 25 35 57 27 11 16 38 99 235 255 14 1 0 1 18 255 216 91 35 15 12 30 54 33 24 29 55 136 255 74 4 0 0 0 0 0 0 0 6 114 255 117 47 26 24 35 56 27 12 18 45 125 255 255 111 40 16 11 27 57 35 25 28 53 130 255 79 4 0 0 0 0 0 0 0 2 49 255 165 69 33 25 33 51 34 13 14 34 93 221 255 16 1 0 0 0 0 0 0 0 0 0 0 0 0 0 9 194 255 113 42 17 11 20 49 33 24 27 49 119 255 111 6 0 0 0 0 0 0 0 5 91 255 132 54 28 24 32 50 21 11 18 45 119 255 111 6 0 0 0 0 0 0 0 0 0 0 0 0 0 4 76 255 137 53 21 12 21 54 35 24 23 38 93 222 255 15 1 0 0 0 0 0 1 11 219 235 97 42 25 25 35 55 21 11 18 48 133 255 255 119 43 17 12 28 56 35 25 30 56 135 255 90 5 0 0 0 0 0 0 0 4 75 255 135 57 29 24 32 50 22 11 17 43 116 255 127 6 0 0 0 0 0 1 11 219 243 102 39 16 11 24 51 33 25 30 58 139 255 86 4 0 0 0 0 0 0 0 0
0 0 0 0 0 0 0 0 0 0 0 0 0 4 71 255 143 54 20 10 9 14 22 7 4 10 19 13 10 15 33 88 208 255 30 1 0 0 0 0 0 0 0 0 0 0 0 0 0 0 0 0 0 0 0 0 0 0 0 3 51 255 164 67 25 12 10 14 23 9 2 2 8 22 14 10 11 24 65 164 255 45 2 0 0 0 0 0 1 28 255 209 90 34 15 10 14 22 14 6 7 19 56 147 255 78 4 0 0 0 0 0 0 0 0 0 0 0 0 0 0 0 0 2 46 255 165 66 23 8 5 13 30 16 10 11 22 61 154 255 53 3 0 0 0 0 0 1 31 255 196 82 31 14 10 13 21 13 4 2 3 9 21 13 10 13 29 79 190 255 32 1 0 0 0 0 0 3 60 255 159 64 24 11 10 15 26 11 4 2 2 4 11 26 15 10 10 19 50 134 255 91 5 0 0 0 0 0 0 0 0 0 0 0 0 0 0 0 0 0 0 0 0 0 0 0 0 0 4 74 255 153 61 24 14 21 44 58 42 19 11 17 42 114 255 149 7 0 0 0 0 0 0 0 0 0 0 0 0 0 0 0 0 0 0 0 0 0 3 59 255 149 58 22 11 10 15 26 15 6 7 20 58 147 255 58 3 0 0 0 0 0 4 83 255 142 53 18 7 6 16 24 14 10 12 25 68 166 255 43 2 0 0 0 0 0 3 65 255 139 54 22 15 23 34 33 22 14 19 47 122 255 120 6 0 0 0 0 0 2 48 255 184 76 28 13 14 43 118 123 54 17 12 23 60 152 255 61 3 0 0 0 0 0 2 36 255 186 79 30 14 10 15 26 15 6 7 18 51 132 255 106 5 1 7 147 255 123 46 16 6 6 16 24 14 10 13 28 76 186 255 35 2 0 0 0 0 0 2 49 255 156 63 23 11 10 15 25 15 6 8 22 65 134 129 58 20 7 6 15 26 15 10 12 27 72 175 255 35 2 0 0 0 0 0 1 22 255 215 93 35 15 10 13 21 18 6 6 16 47 125 255 124 6 0 0 0 0 0 0 0 0 0 0 0 0 4 80 255 150 59 20 7 5 11 22 14 10 12 24 64 159 255 48 2 0 0 0 0 0 2 42 255 176 73 27 12 10 14 23 11 5 8 22 64 160 255 49 2 0 0 0 0 0 0 0 0 0 0 0 2 34 255 180 74 26 9 6 11 26 15 10 10 18 49 126 255 110 6 0 0 0 0 0 4 87 255 133 51 20 10 10 15 26 12 5 8 24 70 149 146 65 21 8 6 15 25 15 10 13 28 73 173 255 39 2 0 0 0 0 0 2 34 255 180 74 28 13 10 13 22 11 5 8 21 62 159 255 55 3 0 0 0 0 4 82 255 135 52 18 7 5 12 23 14 10 13 29 76 182 255 41 2 0 0 0 0 0 0 0
0 0 0 0 0 0 0 0 0 0 0 0 2 33 255 197 86 30 10 4 3 5 8 3 2 4 6 5 4 6 17 49 124 255 253 12 1 0 0 0 0 0 0 0 0 0 0 0 0 0 0 0 0 0 0 0 0 0 1 23 255 218 97 36 12 5 4 5 8 4 1 1 3 8 5 4 5 12 36 100 226 255 19 1 0 0 0 0 11 237 255 124 49 17 7 4 5 8 5 2 3 9 30 86 194 255 36 2 0 0 0 0 0 0 0 0 0 0 0 0 0 0 1 22 255 228 99 36 11 4 2 6 12 6 4 5 11 34 93 214 255 24 1 0 0 0 1 12 247 255 118 45 15 6 4 5 7 5 2 1 1 3 7 5 4 6 15 44 115 255 255 13 1 0 0 0 1 27 255 211 94 35 12 5 4 6 10 5 2 1 1 2 5 9 6 4 4 9 27 79 182 255 41 2 0 0 0 0 0 0 0 0 0 0 0 0 0 0 0 0 0 0 0 0 0 0 0 2 33 255 197 88 33 12 6 9 18 21 17 8 5 8 22 66 163 255 66 3 0 0 0 0 0 0 0 0 0 0 0 0 0 0 0 0 0 0 0 1 29 255 210 90 32 11 5 4 6 9 6 3 3 9 31 88 209 255 28 1 0 0 0 2 38 255 188 82 29 9 3 3 6 8 5 4 5 12 37 99 226 255 17 1 0 0 0 1 32 255 201 85 30 11 7 9 11 11 8 6 9 25 70 170 255 55 3 0 0 0 1 24 255 238 108 41 14 6 8 29 61 60 35 10 6 11 33 91 207 255 28 1 0 0 0 1 14 255 246 110 43 15 6 4 6 9 6 3 3 8 26 75 175 255 48 6 68 255 170 70 24 7 3 3 7 9 5 4 5 14 42 112 251 255 14 1 0 0 0 1 22 255 218 94 34 11 5 4 5 9 6 3 4 11 30 52 51 27 9 3 3 6 10 6 4 5 13 40 106 246 255 15 1 0 0 0 0 9 189 255 128 51 18 7 4 5 8 7 3 3 8 25 71 174 255 60 3 0 0 0 0 0 0 0 0 0 0 2 38 255 196 86 31 10 3 2 4 8 5 4 5 12 35 96 220 255 21 1 0 0 0 1 17 255 234 105 40 13 5 4 5 8 5 2 3 11 35 96 221 255 22 1 0 0 0 0 0 0 0 0 0 1 14 255 249 108 40 13 4 3 5 10 6 4 4 9 26 73 175 255 51 2 0 0 0 2 42 255 187 79 27 9 4 4 6 10 5 2 4 12 33 59 58 31 10 3 3 6 9 6 4 6 14 39 103 234 255 16 1 0 0 0 1 14 255 250 109 41 14 6 4 5 8 5 2 3 10 34 95 213 255 24 1 0 0 2 37 255 183 78 27 8 3 2 5 8 5 4 6 14 41 109 240 255 18 1 0 0 0 0 0 0
0 0 0 0 0 0 0 0 0 0 0 1 13 255 255 123 52 17 5 2 1 2 2 1 1 1 2 1 1 3 8 27 73 160 255 106 5 0 0 0 0 0 0 0 0 0 0 0 0 0 0 0 0 0 0 0 0 0 9 179 255 135 58 20 6 2 1 2 2 1 0 0 1 2 2 1 2 6 21 60 139 255 156 7 0 0 0 5 94 255 162 73 28 9 3 2 2 2 2 1 1 4 16 50 119 253 255 15 1 0 0 0 0 0 0 0 0 0 0 0 0 0 9 198 255 142 60 20 5 2 1 2 4 2 1 2 5 19 56 134 255 206 10 0 0 0 5 108 255 156 70 26 8 3 1 2 2 2 1 0 0 1 2 2 1 2 7 25 69 155 255 116 6 0 0 0 11 236 255 130 56 19 6 2 1 2 3 2 1 0 0 1 2 3 2 1 2 4 15 47 113 243 255 19 1 0 0 0 0 0 0 0 0 0 0 0 0 0 0 0 0 0 0 0 0 0 1 13 255 255 121 51 18 6 3 4 6 7 6 3 2 4 12 40 102 216 255 32 1 0 0 0 0 0 0 0 0 0 0 0 0 0 0 0 0 0 1 12 246 255 132 55 18 5 2 1 2 3 2 1 1 5 17 54 133 255 255 12 1 0 1 17 255 250 116 48 16 4 1 1 2 3 2 1 2 6 20 59 140 255 149 7 0 0 1 13 255 255 128 52 17 5 3 3 4 4 3 2 4 13 42 106 225 255 26 1 0 0 10 222 255 145 63 23 7 3 4 16 28 27 19 5 3 5 18 54 129 255 242 11 1 0 0 6 122 255 149 65 24 7 3 2 2 3 2 1 1 4 14 44 108 232 255 71 255 219 104 41 13 3 1 1 2 3 2 1 2 7 24 67 151 255 123 6 0 0 0 9 209 255 137 57 19 5 2 1 2 3 2 1 2 4 12 18 18 11 4 1 1 2 3 2 1 2 7 23 65 152 255 131 6 0 0 0 4 85 255 172 76 29 9 3 2 2 2 2 1 1 4 13 42 108 228 255 32 1 0 0 0 0 0 0 0 0 1 16 255 251 120 50 17 5 1 1 1 2 2 1 2 6 19 58 137 255 199 9 0 0 0 7 138 255 143 62 22 7 2 1 2 2 2 1 2 5 19 58 138 255 185 9 0 0 0 0 0 0 0 0 0 6 119 255 152 65 23 6 2 1 2 3 2 1 2 4 14 43 109 230 255 24 1 0 1 17 255 245 117 47 15 4 2 1 2 3 2 1 2 5 14 21 21 13 5 2 1 2 3 2 1 2 7 22 61 144 255 134 6 0 0 0 6 121 255 152 66 23 7 2 1 2 2 1 1 1 5 19 56 132 255 197 9 0 1 15 255 248 115 46 14 4 1 1 2 2 2 1 2 7 23 64 146 255 146 7 0 0 0 0 0 0
0 0 0 0 0 0 0 0 0 0 0 6 111 255 158 75 32 9 2 1 0 1 1 0 0 0 0 0 1 1 4 15 44 96 196 255 52 2 0 0 0 0 0 0 0 0 0 0 0 0 0 0 0 0 0 0 0 4 75 255 170 82 35 11 3 1 0 1 1 0 0 0 0 1 0 0 1 3 12 37 86 179 255 73 3 0 2 44 255 196 98 44 16 4 1 1 1 1 0 0 1 2 9 30 73 154 255 128 6 0 0 0 0 0 0 0 0 0 0 0 0 4 91 255 176 87 37 11 3 1 0 1 1 1 0 1 3 11 35 83 172 255 89 4 0 3 55 255 198 96 43 14 4 1 1 0 1 0 0 0 0 0 1 0 0 1 4 14 43 95 195 255 58 3 0 5 97 255 166 79 34 11 3 1 0 1 1 0 0 0 0 0 0 1 1 0 1 2 8 29 70 151 255 169 8 0 0 0 0 0 0 0 0 0 0 0 0 0 0 0 0 0 0 0 0 0 5 112 255 155 73 31 10 3 1 1 2 2 2 1 1 2 6 24 63 133 255 255 13 1 0 0 0 0 0 0 0 0 0 0 0 0 0 0 0 0 5 105 255 163 81 34 10 2 1 0 1 1 1 0 1 2 9 34 82 168 255 123 6 1 8 175 255 155 72 29 8 2 1 0 1 1 1 0 1 3 11 37 87 183 255 72 3 0 6 114 255 160 79 33 9 2 1 1 1 1 1 1 2 7 26 66 140 255 252 11 1 5 95 255 173 86 38 13 3 1 2 7 11 11 8 3 1 3 10 33 79 164 255 102 5 0 3 60 255 191 91 40 13 4 1 1 1 1 1 0 1 2 7 26 67 146 255 255 255 136 64 25 7 2 1 0 1 1 1 0 1 3 13 41 92 191 255 61 3 0 4 92 255 177 85 36 11 3 1 0 1 1 1 0 1 2 4 6 6 4 2 1 0 1 1 1 1 1 3 13 41 94 189 255 61 3 0 2 44 255 211 106 47 16 4 1 1 1 1 1 0 1 2 7 26 67 140 255 255 14 1 0 0 0 0 0 0 0 7 141 255 152 72 30 9 2 1 0 0 1 1 0 1 3 11 36 85 178 255 87 4 0 3 65 255 182 87 38 12 3 1 0 1 1 0 0 1 3 11 36 85 174 255 84 4 0 0 0 0 0 0 0 3 57 255 192 94 41 13 3 1 0 1 1 1 0 1 2 7 27 67 142 255 207 10 1 7 150 255 148 72 29 8 2 1 0 1 1 1 0 1 2 5 7 7 5 2 1 0 1 1 1 1 1 3 12 38 89 187 255 63 3 0 3 57 255 190 94 41 13 3 1 0 0 1 0 0 1 3 10 34 80 168 255 81 4 6 126 255 152 71 28 8 2 1 0 0 1 1 1 1 3 13 39 88 181 255 66 3 0 0 0 0 0
0 0 0 0 0 0 0 0 0 0 2 51 255 188 95 47 19 5 1 0 0 0 0 0 0 0 0 0 0 1 2 8 26 58 119 236 255 26 1 0 0 0 0 0 0 0 0 0 0 0 0 0 0 0 0 0 2 36 255 206 103 51 21 6 1 0 0 0 0 0 0 0 0 0 0 0 0 1 6 23 54 109 218 255 39 3 20 255 240 119 59 26 8 2 1 0 0 0 0 0 0 1 5 18 45 93 187 255 59 3 0 0 0 0 0 0 0 0 0 0 2 47 255 209 105 53 23 6 1 0 0 0 0 0 0 0 1 6 21 52 103 204 255 43 3 27 255 235 120 59 26 8 2 0 0 0 0 0 0 0 0 0 0 0 0 0 2 8 26 58 118 232 255 30 3 47 255 196 99 49 20 6 1 0 0 0 0 0 0 0 0 0 0 0 0 0 0 1 4 17 44 91 180 255 73 4 0 0 0 0 0 0 0 0 0 0 0 0 0 0 0 0 0 0 0 3 55 255 193 94 45 18 5 1 0 0 1 1 1 0 0 1 3 14 39 80 159 255 118 6 0 0 0 0 0 0 0 0 0 0 0 0 0 0 0 2 52 255 196 97 49 21 5 1 0 0 0 0 0 0 0 1 5 21 51 99 197 255 63 7 80 255 186 93 45 17 4 1 0 0 0 0 0 0 0 1 6 23 55 112 222 255 39 4 54 255 190 95 49 20 5 1 0 0 0 0 0 0 1 4 15 41 84 170 255 106 7 47 255 202 102 51 22 7 2 1 1 2 4 4 3 1 1 1 5 20 49 99 196 255 50 4 30 255 229 116 57 24 7 2 0 0 0 0 0 0 0 1 4 15 43 93 190 255 170 84 40 14 3 1 0 0 0 0 0 0 0 2 7 25 57 116 230 255 32 3 45 255 205 106 53 22 6 1 0 0 0 0 0 0 0 1 1 2 2 1 1 0 0 0 0 0 0 0 2 7 25 58 113 223 255 29 2 22 255 250 127 64 29 9 2 1 0 0 0 0 0 0 1 4 15 41 82 163 255 126 6 0 0 0 0 0 0 3 67 255 186 91 44 17 5 1 0 0 0 0 0 0 0 1 6 22 53 107 207 255 42 3 33 255 222 111 54 23 7 2 0 0 0 0 0 0 0 1 6 22 52 104 210 255 44 2 0 0 0 0 0 1 27 255 228 116 58 25 7 2 0 0 0 0 0 0 0 1 4 16 42 85 171 255 86 8 68 255 181 89 44 17 4 1 0 0 0 0 0 0 0 1 1 2 2 1 1 0 0 0 0 0 0 0 2 6 23 56 114 222 255 31 3 27 255 227 115 57 25 7 2 0 0 0 0 0 0 0 1 5 20 50 102 202 255 43 65 255 188 93 45 17 4 1 0 0 0 0 0 0 0 2 7 23 54 109 218 255 33 1 0 0 0 0
0 0 0 0 0 0 0 0 0 1 23 255 227 113 56 28 10 2 1 0 0 0 0 0 0 0 0 0 0 0 1 4 14 35 70 141 255 255 12 0 0 0 0 0 0 0 0 0 0 0 0 0 0 0 0 1 16 255 255 125 61 31 12 3 1 0 0 0 0 0 0 0 0 0 0 0 0 1 3 13 33 65 130 255 255 29 190 255 145 70 35 15 4 1 0 0 0 0 0 0 0 1 2 9 27 56 112 222 255 28 1 0 0 0 0 0 0 0 0 1 23 255 244 124 62 32 12 3 1 0 0 0 0 0 0 0 1 3 12 31 61 122 243 255 35 255 255 139 70 36 15 4 1 0 0 0 0 0 0 0 0 0 0 0 0 0 1 4 15 35 69 138 255 255 40 255 239 118 59 30 11 3 1 0 0 0 0 0 0 0 0 0 0 0 0 0 0 0 2 9 27 54 105 208 255 34 2 0 0 0 0 0 0 0 0 0 0 0 0 0 0 0 0 0 1 25 255 229 117 57 27 10 2 1 0 0 0 0 0 0 0 0 2 7 23 48 93 189 255 56 3 0 0 0 0 0 0 0 0 0 0 0 0 0 1 24 255 234 118 58 29 11 3 1 0 0 0 0 0 0 0 1 3 11 30 58 116 230 255 101 255 211 108 55 28 9 2 0 0 0 0 0 0 0 0 1 3 13 34 66 132 255 255 55 255 230 114 57 29 11 3 1 0 0 0 0 0 0 0 2 8 25 51 99 195 255 96 255 239 120 59 30 12 3 1 0 0 1 1 1 1 0 0 1 3 11 30 59 118 237 255 44 255 255 136 68 35 14 4 1 0 0 0 0 0 0 0 0 2 8 27 56 93 119 86 50 24 7 2 0 0 0 0 0 0 0 0 1 4 14 35 68 137 255 255 39 255 241 121 62 32 12 3 1 0 0 0 0 0 0 0 0 0 0 0 0 0 0 0 0 0 0 0 0 1 4 14 35 66 134 255 255 24 207 255 149 74 38 17 5 1 0 0 0 0 0 0 0 0 2 8 24 48 94 187 255 59 3 0 0 0 0 1 35 255 221 111 55 26 9 2 1 0 0 0 0 0 0 0 1 3 12 32 62 122 243 255 36 255 255 134 66 33 13 3 1 0 0 0 0 0 0 0 1 3 12 32 62 126 251 255 22 1 0 0 0 0 11 238 255 136 68 35 14 4 1 0 0 0 0 0 0 0 0 2 8 25 51 101 200 255 103 255 214 108 54 27 9 2 0 0 0 0 0 0 0 0 0 0 1 1 0 0 0 0 0 0 0 0 0 1 3 13 34 67 132 255 255 27 238 255 136 67 35 14 4 1 0 0 0 0 0 0 0 1 3 11 30 61 122 255 255 255 229 114 56 27 9 2 0 0 0 0 0 0 0 0 1 3 13 32 65 132 255 255 14 1 0 0 0
0 0 0 0 0 0 0 0 0 9 186 255 137 66 33 16 5 1 0 0 0 0 0 0 0 0 0 0 0 0 0 2 7 20 41 82 167 255 110 5 0 0 0 0 0 0 0 0 0 0 0 0 0 0 0 7 134 255 153 73 36 17 6 1 0 0 0 0 0 0 0 0 0 0 0 0 0 0 2 6 19 38 75 153 255 255 255 176 85 42 20 7 2 0 0 0 0 0 0 0 0 0 1 5 15 33 65 133 255 255 12 1 0 0 0 0 0 0 0 9 189 255 144 71 36 17 6 2 0 0 0 0 0 0 0 0 0 1 6 18 36 70 146 255 255 255 168 80 41 20 7 2 0 0 0 0 0 0 0 0 0 0 0 0 0 0 0 2 7 20 40 79 162 255 255 255 145 69 34 16 5 1 0 0 0 0 0 0 0 0 0 0 0 0 0 0 0 0 1 4 15 31 61 124 255 255 15 1 0 0 0 0 0 0 0 0 0 0 0 0 0 0 0 0 10 200 255 136 67 34 15 5 1 0 0 0 0 0 0 0 0 0 1 4 12 28 55 113 225 255 26 1 0 0 0 0 0 0 0 0 0 0 0 0 10 200 255 139 68 34 16 5 1 0 0 0 0 0 0 0 0 0 1 5 16 34 66 138 255 255 255 126 62 32 15 5 1 0 0 0 0 0 0 0 0 0 2 6 19 39 76 156 255 255 255 140 67 33 16 5 1 0 0 0 0 0 0 0 0 1 4 13 30 57 117 255 255 255 145 69 34 16 6 2 0 0 0 0 0 0 0 0 0 0 1 5 16 35 68 143 255 255 255 163 79 40 20 7 2 0 0 0 0 0 0 0 0 0 1 4 15 30 41 47 40 27 12 4 1 0 0 0 0 0 0 0 0 0 2 7 20 40 79 161 255 255 255 145 69 36 18 6 1 0 0 0 0 0 0 0 0 0 0 0 0 0 0 0 0 0 0 0 0 0 0 2 7 19 39 78 163 255 255 255 174 85 43 21 8 2 1 0 0 0 0 0 0 0 0 1 4 13 28 54 110 224 255 30 1 0 0 1 16 255 255 131 64 32 14 4 1 0 0 0 0 0 0 0 0 0 1 6 18 36 70 146 255 255 255 157 77 39 19 6 2 0 0 0 0 0 0 0 0 0 1 6 18 37 73 148 255 191 9 0 0 0 5 100 255 163 79 40 20 7 2 0 0 0 0 0 0 0 0 0 1 4 13 30 59 122 255 255 255 130 63 32 14 4 1 0 0 0 0 0 0 0 0 0 0 0 0 0 0 0 0 0 0 0 0 0 0 2 7 19 39 77 160 255 255 255 163 79 40 19 7 2 0 0 0 0 0 0 0 0 0 1 5 17 36 73 160 255 255 141 67 34 15 4 1 0 0 0 0 0 0 0 0 0 2 6 18 38 76 156 255 127 6 0 0 0
0 0 0 0 0 0 0 0 4 77 255 167 80 39 18 8 2 1 0 0 0 0 0 0 0 0 0 0 0 0 0 1 3 10 23 47 96 194 255 52 2 0 0 0 0 0 0 0 0 0 0 0 0 0 3 59 255 180 89 43 20 8 3 1 0 0 0 0 0 0 0 0 0 0 0 0 0 0 1 3 9 21 43 91 195 255 234 108 50 24 10 3 1 0 0 0 0 0 0 0 0 0 1 2 7 18 37 77 163 255 118 6 0 0 0 0 0 0 4 82 255 168 82 40 20 8 3 1 0 0 0 0 0 0 0 0 0 1 3 8 20 41 88 194 255 216 101 47 23 10 3 1 0 0 0 0 0 0 0 0 0 0 0 0 0 0 0 1 3 10 22 46 98 214 255 186 87 41 19 8 2 1 0 0 0 0 0 0 0 0 0 0 0 0 0 0 0 0 0 2 7 17 35 72 154 255 141 7 0 0 0 0 0 0 0 0 0 0 0 0 0 0 0 4 81 255 162 78 39 19 7 2 1 0 0 0 0 0 0 0 0 0 0 2 6 15 32 65 134 255 242 11 0 0 0 0 0 0 0 0 0 0 0 4 81 255 165 80 39 19 8 2 1 0 0 0 0 0 0 0 0 0 1 2 8 19 38 82 167 250 159 75 35 17 7 2 1 0 0 0 0 0 0 0 0 0 1 3 9 22 44 92 192 255 178 84 39 19 8 2 1 0 0 0 0 0 0 0 0 0 2 6 16 33 69 148 254 183 88 40 19 8 2 1 0 0 0 0 0 0 0 0 0 0 1 2 8 19 40 85 182 255 209 98 46 22 10 3 1 0 0 0 0 0 0 0 0 0 0 2 7 13 17 18 16 12 5 2 0 0 0 0 0 0 0 0 0 0 1 3 10 22 45 97 209 255 193 88 40 20 9 3 1 0 0 0 0 0 0 0 0 0 0 0 0 0 0 0 0 0 0 0 0 0 0 1 3 9 22 46 98 214 255 231 105 49 24 11 4 1 0 0 0 0 0 0 0 0 0 0 2 6 14 31 63 135 255 255 14 1 0 7 136 255 156 75 37 18 7 2 1 0 0 0 0 0 0 0 0 0 1 3 9 20 41 89 197 255 208 95 45 22 9 3 1 0 0 0 0 0 0 0 0 0 1 3 9 20 42 84 170 255 84 4 0 2 50 255 195 95 46 22 10 3 1 0 0 0 0 0 0 0 0 0 0 2 6 16 34 74 155 248 165 79 37 18 7 2 0 0 0 0 0 0 0 0 0 0 0 0 0 0 0 0 0 0 0 0 0 0 0 1 3 9 22 45 98 214 255 222 100 46 22 10 3 1 0 0 0 0 0 0 0 0 0 1 2 8 20 44 92 160 148 82 40 19 7 2 0 0 0 0 0 0 0 0 0 0 1 3 9 21 44 90 186 255 59 3 0 0
0 0 0 0 0 0 0 2 38 255 214 105 50 22 9 3 1 0 0 0 0 0 0 0 0 0 0 0 0 0 0 0 1 4 12 27 58 121 241 255 24 1 0 0 0 0 0 0 0 0 0 0 0 1 29 255 229 113 54 25 10 4 1 0 0 0 0 0 0 0 0 0 0 0 0 0 0 0 0 1 4 11 26 56 108 164 123 67 31 13 5 1 0 0 0 0 0 0 0 0 0 0 0 1 3 9 22 48 101 205 255 61 3 0 0 0 0 2 43 255 216 104 49 23 10 4 1 0 0 0 0 0 0 0 0 0 0 0 1 4 10 25 55 106 153 113 62 28 12 4 1 0 0 0 0 0 0 0 0 0 0 0 0 0 0 0 0 0 1 4 11 27 61 112 148 101 54 24 10 3 1 0 0 0 0 0 0 0 0 0 0 0 0 0 0 0 0 0 0 1 3 8 20 45 96 198 255 71 3 0 0 0 0 0 0 0 0 0 0 0 0 0 2 40 255 209 102 48 22 9 3 1 0 0 0 0 0 0 0 0 0 0 0 1 2 7 18 39 83 176 255 112 5 0 0 0 0 0 0 0 0 0 2 39 255 209 103 49 22 10 3 1 0 0 0 0 0 0 0 0 0 0 0 1 3 9 22 48 85 111 82 45 20 8 3 1 0 0 0 0 0 0 0 0 0 0 0 1 4 11 26 55 99 133 95 51 23 9 3 1 0 0 0 0 0 0 0 0 0 0 1 3 8 19 42 80 114 92 53 24 10 3 1 0 0 0 0 0 0 0 0 0 0 0 0 1 3 10 24 52 99 144 108 60 28 11 4 1 0 0 0 0 0 0 0 0 0 0 0 1 2 5 6 6 6 4 2 1 0 0 0 0 0 0 0 0 0 0 0 1 4 11 27 59 110 147 104 55 24 10 4 1 0 0 0 0 0 0 0 0 0 0 0 0 0 0 0 0 0 0 0 0 0 0 0 0 1 4 11 28 61 117 170 124 65 29 13 5 2 0 0 0 0 0 0 0 0 0 0 0 1 2 7 17 38 82 172 255 126 6 3 63 255 191 95 46 21 9 3 1 0 0 0 0 0 0 0 0 0 0 0 1 4 10 25 56 107 151 111 59 27 11 4 1 0 0 0 0 0 0 0 0 0 0 0 1 4 10 24 50 105 217 255 44 3 25 255 250 123 58 27 11 4 1 0 0 0 0 0 0 0 0 0 0 0 1 3 8 20 45 81 110 85 48 22 9 3 1 0 0 0 0 0 0 0 0 0 0 0 0 0 0 0 0 0 0 0 0 0 0 0 0 1 4 11 27 61 116 165 120 63 28 12 4 1 0 0 0 0 0 0 0 0 0 0 0 1 4 11 26 50 70 67 45 23 9 3 1 0 0 0 0 0 0 0 0 0 0 0 1 4 11 26 55 117 234 255 28 1 0
0 0 0 0 0 0 1 17 255 255 163 84 37 13 4 1 0 0 0 0 0 0 0 0 0 0 0 0 0 0 0 0 1 2 6 17 44 93 179 255 241 11 0 0 0 0 0 0 0 0 0 0 1 12 255 255 174 89 41 15 5 2 0 0 0 0 0 0 0 0 0 0 0 0 0 0 0 0 0 0 2 5 16 40 68 84 73 48 20 6 2 1 0 0 0 0 0 0 0 0 0 0 0 0 1 4 12 36 80 154 255 255 35 1 0 0 1 20 255 255 165 83 36 13 5 1 0 0 0 0 0 0 0 0 0 0 0 0 0 1 5 15 40 65 78 67 43 18 6 2 1 0 0 0 0 0 0 0 0 0 0 0 0 0 0 0 0 0 1 2 6 17 43 65 75 62 38 15 5 1 0 0 0 0 0 0 0 0 0 0 0 0 0 0 0 0 0 0 0 0 1 4 11 33 77 150 255 255 41 2 0 0 0 0 0 0 0 0 0 0 0 1 21 255 255 161 82 36 13 4 1 0 0 0 0 0 0 0 0 0 0 0 0 0 1 3 10 27 67 136 245 255 60 3 0 0 0 0 0 0 0 1 19 255 255 161 81 36 13 4 1 0 0 0 0 0 0 0 0 0 0 0 0 0 1 4 13 31 47 54 47 30 12 4 1 0 0 0 0 0 0 0 0 0 0 0 0 0 2 5 16 37 57 66 56 35 14 4 1 0 0 0 0 0 0 0 0 0 0 0 0 1 3 10 28 47 56 51 35 14 5 1 0 0 0 0 0 0 0 0 0 0 0 0 0 0 1 5 14 37 60 72 63 42 17 6 2 1 0 0 0 0 0 0 0 0 0 0 0 0 1 1 2 2 2 1 1 0 0 0 0 0 0 0 0 0 0 0 0 1 2 6 17 42 64 74 63 39 15 5 1 0 0 0 0 0 0 0 0 0 0 0 0 0 0 0 0 0 0 0 0 0 0 0 0 0 1 2 6 18 44 72 87 74 47 19 6 2 1 0 0 0 0 0 0 0 0 0 0 0 0 1 3 9 27 65 130 232 255 67 39 255 255 145 74 33 12 4 1 0 0 0 0 0 0 0 0 0 0 0 0 0 1 5 15 40 65 77 66 42 17 5 2 0 0 0 0 0 0 0 0 0 0 0 0 0 2 5 14 37 83 165 255 255 38 255 255 185 97 45 17 6 2 1 0 0 0 0 0 0 0 0 0 0 0 0 1 4 11 30 47 54 48 32 12 4 1 0 0 0 0 0 0 0 0 0 0 0 0 0 0 0 0 0 0 0 0 0 0 0 0 0 1 2 5 18 44 71 84 72 46 18 6 2 1 0 0 0 0 0 0 0 0 0 0 0 0 2 5 15 28 33 32 26 12 4 1 0 0 0 0 0 0 0 0 0 0 0 0 0 2 5 16 42 91 174 255 255 13 1
0 0 0 0 0 0 8 179 255 244 184 134 42 9 2 1 0 0 0 0 0 0 0 0 0 0 0 0 0 0 0 0 0 1 3 12 55 142 190 255 255 117 5 0 0 0 0 0 0 0 0 0 6 124 255 251 188 141 49 10 2 1 0 0 0 0 0 0 0 0 0 0 0 0 0 0 0 0 0 0 1 2 10 39 64 62 64 50 14 3 1 0 0 0 0 0 0 0 0 0 0 0 0 0 1 2 8 39 125 178 234 255 255 19 1 0 9 222 255 241 183 132 42 9 2 1 0 0 0 0 0 0 0 0 0 0 0 0 0 1 2 10 37 58 57 58 40 12 3 1 0 0 0 0 0 0 0 0 0 0 0 0 0 0 0 0 0 0 0 1 3 11 41 54 54 56 32 9 2 1 0 0 0 0 0 0 0 0 0 0 0 0 0 0 0 0 0 0 0 0 0 2 7 35 121 177 229 255 255 24 1 0 0 0 0 0 0 0 0 0 0 11 255 255 246 185 129 41 8 2 1 0 0 0 0 0 0 0 0 0 0 0 0 0 0 1 5 25 109 171 218 255 255 34 1 0 0 0 0 0 0 9 208 255 245 184 130 41 8 2 1 0 0 0 0 0 0 0 0 0 0 0 0 0 1 2 7 22 34 34 33 21 6 2 0 0 0 0 0 0 0 0 0 0 0 0 0 0 1 2 9 31 46 46 46 28 8 2 1 0 0 0 0 0 0 0 0 0 0 0 0 0 1 6 20 35 37 36 26 8 2 1 0 0 0 0 0 0 0 0 0 0 0 0 0 0 1 2 8 31 53 51 52 37 11 3 1 0 0 0 0 0 0 0 0 0 0 0 0 0 0 0 1 1 1 0 0 0 0 0 0 0 0 0 0 0 0 0 0 0 1 3 11 39 54 54 54 35 9 2 1 0 0 0 0 0 0 0 0 0 0 0 0 0 0 0 0 0 0 0 0 0 0 0 0 0 0 1 3 12 44 68 65 66 50 13 3 1 0 0 0 0 0 0 0 0 0 0 0 0 0 0 1 5 25 99 166 212 255 255 255 255 231 175 115 34 7 2 0 0 0 0 0 0 0 0 0 0 0 0 0 0 1 2 10 37 57 56 56 41 11 3 1 0 0 0 0 0 0 0 0 0 0 0 0 0 1 2 9 43 133 182 241 255 255 255 255 192 147 58 12 3 1 0 0 0 0 0 0 0 0 0 0 0 0 0 0 2 6 21 34 35 34 23 7 2 0 0 0 0 0 0 0 0 0 0 0 0 0 0 0 0 0 0 0 0 0 0 0 0 0 0 0 1 3 12 44 65 64 65 48 12 3 1 0 0 0 0 0 0 0 0 0 0 0 0 0 1 2 7 16 17 17 14 6 2 1 0 0 0 0 0 0 0 0 0 0 0 0 0 1 2 11 53 139 188 254 255 156 7
0 0 0 0 0 4 90 255 255 241 255 255 138 11 1 0 0 0 0 0 0 0 0 0 0 0 0 0 0 0 0 0 0 0 2 18 247 255 255 242 255 255 65 3 0 0 0 0 0 0 0 3 69 255 255 241 255 255 190 14 2 0 0 0 0 0 0 0 0 0 0 0 0 0 0 0 0 0 0 0 0 1 8 62 139 99 131 106 13 2 0 0 0 0 0 0 0 0 0 0 0 0 0 0 0 1 10 125 255 255 240 255 255 249 11 6 114 255 255 240 255 255 161 12 1 0 0 0 0 0 0 0 0 0 0 0 0 0 0 0 1 7 47 103 83 107 56 9 2 0 0 0 0 0 0 0 0 0 0 0 0 0 0 0 0 0 0 0 0 0 2 9 58 85 75 101 35 6 1 0 0 0 0 0 0 0 0 0 0 0 0 0 0 0 0 0 0 0 0 0 0 1 8 99 255 255 242 255 255 255 13 1 0 0 0 0 0 0 0 0 7 157 255 255 242 255 255 155 11 1 0 0 0 0 0 0 0 0 0 0 0 0 0 0 0 1 5 62 255 255 246 252 255 255 18 1 0 0 0 0 5 109 255 255 242 255 255 143 11 1 0 0 0 0 0 0 0 0 0 0 0 0 0 0 0 1 4 14 28 27 26 13 3 1 0 0 0 0 0 0 0 0 0 0 0 0 0 0 0 1 6 30 59 50 60 25 5 1 0 0 0 0 0 0 0 0 0 0 0 0 0 0 1 3 13 30 31 31 19 4 1 0 0 0 0 0 0 0 0 0 0 0 0 0 0 0 0 1 6 32 87 66 81 46 8 1 0 0 0 0 0 0 0 0 0 0 0 0 0 0 0 0 0 0 0 0 0 0 0 0 0 0 0 0 0 0 0 0 0 0 0 1 8 53 87 78 86 39 7 1 0 0 0 0 0 0 0 0 0 0 0 0 0 0 0 0 0 0 0 0 0 0 0 0 0 0 0 0 2 10 80 155 114 139 113 13 2 0 0 0 0 0 0 0 0 0 0 0 0 0 0 0 1 5 55 255 255 250 255 255 255 255 245 255 255 99 8 1 0 0 0 0 0 0 0 0 0 0 0 0 0 0 0 1 7 44 95 82 94 62 9 1 0 0 0 0 0 0 0 0 0 0 0 0 0 0 0 1 12 168 255 255 245 255 255 255 246 255 255 254 20 2 0 0 0 0 0 0 0 0 0 0 0 0 0 0 0 1 3 13 26 27 26 15 4 1 0 0 0 0 0 0 0 0 0 0 0 0 0 0 0 0 0 0 0 0 0 0 0 0 0 0 0 0 2 10 73 137 111 131 92 12 2 0 0 0 0 0 0 0 0 0 0 0 0 0 0 0 1 3 7 8 8 6 2 1 0 0 0 0 0 0 0 0 0 0 0 0 0 0 0 2 17 228 255 255 241 255 255 101
0 0 0 0 2 50 255 255 206 223 255 255 255 64 3 0 0 0 0 0 0 0 0 0 0 0 0 0 0 0 0 0 0 0 7 131 255 255 255 216 209 255 255 37 2 0 0 0 0 0 2 41 255 255 209 220 255 255 255 88 5 0 0 0 0 0 0 0 0 0 0 0 0 0 0 0 0 0 0 0 0 2 23 255 255 255 255 255 45 3 0 0 0 0 0 0 0 0 0 0 0 0 0 0 0 3 61 255 255 255 229 202 245 255 129 74 255 255 205 225 255 255 255 80 4 0 0 0 0 0 0 0 0 0 0 0 0 0 0 0 1 12 161 255 255 255 234 17 1 0 0 0 0 0 0 0 0 0 0 0 0 0 0 0 0 0 0 0 0 0 1 17 225 255 255 255 91 7 1 0 0 0 0 0 0 0 0 0 0 0 0 0 0 0 0 0 0 0 0 0 0 3 49 255 255 255 232 202 242 255 154 7 0 0 0 0 0 0 0 4 86 255 255 204 223 255 255 255 74 4 0 0 0 0 0 0 0 0 0 0 0 0 0 0 0 1 29 255 255 255 241 203 232 255 196 9 0 0 0 3 63 255 255 205 223 255 255 255 69 4 0 0 0 0 0 0 0 0 0 0 0 0 0 0 0 0 2 8 21 20 17 7 2 0 0 0 0 0 0 0 0 0 0 0 0 0 0 0 0 1 5 42 175 125 173 29 4 1 0 0 0 0 0 0 0 0 0 0 0 0 0 0 0 2 7 22 26 25 11 2 1 0 0 0 0 0 0 0 0 0 0 0 0 0 0 0 0 1 6 68 255 255 255 130 11 1 0 0 0 0 0 0 0 0 0 0 0 0 0 0 0 0 0 0 0 0 0 0 0 0 0 0 0 0 0 0 0 0 0 0 0 1 14 197 255 255 255 90 8 1 0 0 0 0 0 0 0 0 0 0 0 0 0 0 0 0 0 0 0 0 0 0 0 0 0 0 0 0 2 32 255 255 255 255 255 51 3 0 0 0 0 0 0 0 0 0 0 0 0 0 0 0 1 26 255 255 255 247 208 221 228 205 233 255 255 255 50 3 0 0 0 0 0 0 0 0 0 0 0 0 0 0 0 1 10 126 255 255 255 255 20 2 0 0 0 0 0 0 0 0 0 0 0 0 0 0 0 4 83 255 255 255 227 200 213 200 218 255 255 255 135 7 0 0 0 0 0 0 0 0 0 0 0 0 0 0 0 0 2 6 17 19 17 8 2 0 0 0 0 0 0 0 0 0 0 0 0 0 0 0 0 0 0 0 0 0 0 0 0 0 0 0 0 0 2 27 255 255 255 255 255 37 2 0 0 0 0 0 0 0 0 0 0 0 0 0 0 0 0 1 2 3 3 2 1 0 0 0 0 0 0 0 0 0 0 0 0 0 0 0 0 6 112 255 255 255 218 209 255 255
0 0 0 1 27 255 255 158 136 157 173 189 238 255 31 1 0 0 0 0 0 0 0 0 0 0 0 0 0 0 0 0 0 3 62 255 222 185 173 153 135 166 255 255 16 1 0 0 0 1 22 255 255 166 136 156 173 186 226 255 42 2 0 0 0 0 0 0 0 0 0 0 0 0 0 0 0 0 0 0 0 9 177 255 255 255 255 255 255 18 1 0 0 0 0 0 0 0 0 0 0 0 0 0 1 29 255 244 193 176 161 136 145 220 255 255 253 155 136 159 175 190 237 255 41 2 0 0 0 0 0 0 0 0 0 0 0 0 0 0 4 69 255 255 255 255 255 112 6 0 0 0 0 0 0 0 0 0 0 0 0 0 0 0 0 0 0 0 0 0 5 103 255 255 255 255 255 40 2 0 0 0 0 0 0 0 0 0 0 0 0 0 0 0 0 0 0 0 0 0 1 24 255 255 194 176 163 137 143 209 255 72 3 0 0 0 0 0 2 45 255 234 152 134 157 173 190 235 255 35 2 0 0 0 0 0 0 0 0 0 0 0 0 0 1 12 254 255 195 176 166 141 140 199 255 88 4 0 1 35 255 248 156 135 157 173 190 238 255 33 2 0 0 0 0 0 0 0 0 0 0 0 0 0 0 0 1 4 11 11 8 3 1 0 0 0 0 0 0 0 0 0 0 0 0 0 0 0 0 1 13 212 255 255 255 112 7 1 0 0 0 0 0 0 0 0 0 0 0 0 0 0 0 1 4 12 18 16 5 1 0 0 0 0 0 0 0 0 0 0 0 0 0 0 0 0 0 2 29 255 255 255 255 255 57 3 0 0 0 0 0 0 0 0 0 0 0 0 0 0 0 0 0 0 0 0 0 0 0 0 0 0 0 0 0 0 0 0 0 0 0 5 88 255 255 255 255 255 39 2 0 0 0 0 0 0 0 0 0 0 0 0 0 0 0 0 0 0 0 0 0 0 0 0 0 0 0 1 12 242 255 255 255 255 255 255 24 1 0 0 0 0 0 0 0 0 0 0 0 0 0 1 11 250 255 201 178 168 139 117 116 131 161 176 196 255 255 23 1 0 0 0 0 0 0 0 0 0 0 0 0 0 0 3 55 255 255 255 255 255 130 7 0 0 0 0 0 0 0 0 0 0 0 0 0 0 2 41 255 234 189 175 157 122 109 117 150 173 184 220 255 64 3 0 0 0 0 0 0 0 0 0 0 0 0 0 0 0 1 3 8 10 8 3 1 0 0 0 0 0 0 0 0 0 0 0 0 0 0 0 0 0 0 0 0 0 0 0 0 0 0 0 0 1 10 211 255 255 255 255 255 255 15 1 0 0 0 0 0 0 0 0 0 0 0 0 0 0 0 0 1 1 1 1 0 0 0 0 0 0 0 0 0 0 0 0 0 0 0 0 3 53 255 223 186 174 155 136 168 255
0 0 0 11 240 255 140 84 77 88 91 99 136 255 250 12 1 0 0 0 0 0 0 0 0 0 0 0 0 0 0 0 1 29 255 212 123 95 91 87 76 87 147 255 132 6 0 0 0 10 215 255 148 87 77 88 91 96 128 231 255 17 1 0 0 0 0 0 0 0 0 0 0 0 0 0 0 0 0 0 4 74 255 184 152 154 147 162 255 132 7 0 0 0 0 0 0 0 0 0 0 0 0 1 11 228 255 139 100 92 90 79 78 121 242 255 141 84 78 90 92 98 133 241 255 19 1 0 0 0 0 0 0 0 0 0 0 0 0 1 32 255 212 173 171 167 200 255 53 3 0 0 0 0 0 0 0 0 0 0 0 0 0 0 0 0 0 0 0 2 48 255 204 183 181 178 240 255 16 1 0 0 0 0 0 0 0 0 0 0 0 0 0 0 0 0 0 0 0 0 10 196 255 146 102 92 91 79 76 110 205 255 35 2 0 0 0 1 19 255 234 124 80 76 88 91 98 132 243 255 14 1 0 0 0 0 0 0 0 0 0 0 0 0 5 105 255 160 105 91 91 82 76 105 195 255 43 3 15 255 255 134 83 78 88 91 98 134 251 255 14 1 0 0 0 0 0 0 0 0 0 0 0 0 0 0 0 1 4 4 3 1 0 0 0 0 0 0 0 0 0 0 0 0 0 0 0 0 0 5 90 255 237 249 228 255 47 2 0 0 0 0 0 0 0 0 0 0 0 0 0 0 0 0 2 5 8 7 2 1 0 0 0 0 0 0 0 0 0 0 0 0 0 0 0 0 1 11 214 255 191 195 193 226 255 27 1 0 0 0 0 0 0 0 0 0 0 0 0 0 0 0 0 0 0 0 0 0 0 0 0 0 0 0 0 0 0 0 0 0 2 42 255 209 181 180 188 245 255 17 1 0 0 0 0 0 0 0 0 0 0 0 0 0 0 0 0 0 0 0 0 0 0 0 0 0 0 5 101 255 171 143 146 143 160 255 216 10 0 0 0 0 0 0 0 0 0 0 0 0 0 5 110 255 167 108 92 90 76 56 54 71 88 91 102 144 255 185 9 0 0 0 0 0 0 0 0 0 0 0 0 0 1 26 255 225 180 175 174 193 255 56 3 0 0 0 0 0 0 0 0 0 0 0 0 1 18 255 238 131 97 91 86 65 52 61 83 91 95 122 212 255 31 1 0 0 0 0 0 0 0 0 0 0 0 0 0 0 0 1 3 3 3 1 0 0 0 0 0 0 0 0 0 0 0 0 0 0 0 0 0 0 0 0 0 0 0 0 0 0 0 0 0 4 86 255 180 149 149 148 169 255 117 6 0 0 0 0 0 0 0 0 0 0 0 0 0 0 0 0 0 0 0 0 0 0 0 0 0 0 0 0 0 0 0 0 0 0 0 1 24 255 219 125 96 91 88 77 86 119
0 0 5 97 255 150 71 42 39 43 42 47 71 143 255 100 5 0 0 0 0 0 0 0 0 0 0 0 0 0 0 1 12 255 255 119 62 44 42 43 38 43 75 164 255 58 3 0 4 90 255 160 75 43 39 43 42 45 66 131 255 134 7 0 0 0 0 0 0 0 0 0 0 0 0 0 0 0 0 2 33 255 192 102 73 68 69 88 163 255 58 3 0 0 0 0 0 0 0 0 0 0 0 5 92 255 144 71 47 43 44 40 39 59 103 113 68 42 39 44 43 46 68 136 255 162 8 0 0 0 0 0 0 0 0 0 0 0 1 13 255 251 126 86 78 82 115 217 255 23 1 0 0 0 0 0 0 0 0 0 0 0 0 0 0 0 0 0 1 21 255 222 119 89 84 92 142 255 121 6 0 0 0 0 0 0 0 0 0 0 0 0 0 0 0 0 0 0 0 4 79 255 152 76 49 43 44 40 37 54 113 246 255 15 1 0 0 7 148 255 128 61 39 38 42 42 46 67 136 255 106 5 0 0 0 0 0 0 0 0 0 0 0 2 49 255 178 85 52 42 43 41 38 52 107 230 255 26 120 255 139 67 41 39 43 42 46 69 143 255 121 6 0 0 0 0 0 0 0 0 0 0 0 0 0 0 0 0 1 1 1 0 0 0 0 0 0 0 0 0 0 0 0 0 0 0 0 0 2 43 255 195 134 125 138 217 255 19 1 0 0 0 0 0 0 0 0 0 0 0 0 0 0 0 1 2 3 2 1 0 0 0 0 0 0 0 0 0 0 0 0 0 0 0 0 0 4 85 255 155 102 92 97 136 255 206 10 0 0 0 0 0 0 0 0 0 0 0 0 0 0 0 0 0 0 0 0 0 0 0 0 0 0 0 0 0 0 0 0 1 17 255 231 122 89 84 97 148 255 143 7 0 0 0 0 0 0 0 0 0 0 0 0 0 0 0 0 0 0 0 0 0 0 0 0 0 2 48 255 181 94 68 64 66 86 158 255 88 4 0 0 0 0 0 0 0 0 0 0 0 2 53 255 184 89 53 43 42 36 25 24 33 41 42 48 74 153 255 77 4 0 0 0 0 0 0 0 0 0 0 0 0 10 219 255 135 91 81 84 111 206 255 24 1 0 0 0 0 0 0 0 0 0 0 0 7 144 255 134 67 46 42 40 30 23 28 39 42 44 62 119 254 240 12 1 0 0 0 0 0 0 0 0 0 0 0 0 0 0 0 1 1 1 0 0 0 0 0 0 0 0 0 0 0 0 0 0 0 0 0 0 0 0 0 0 0 0 0 0 0 0 0 2 39 255 186 100 71 66 69 92 172 255 53 3 0 0 0 0 0 0 0 0 0 0 0 0 0 0 0 0 0 0 0 0 0 0 0 0 0 0 0 0 0 0 0 0 0 0 9 201 255 123 63 45 42 43 38 38 45
0 2 47 255 185 82 35 20 18 18 18 21 36 80 181 255 47 2 0 0 0 0 0 0 0 0 0 0 0 0 0 5 113 255 152 64 30 19 18 18 17 20 39 94 211 255 27 3 44 255 193 88 37 20 17 18 18 20 33 72 167 255 60 3 0 0 0 0 0 0 0 0 0 0 0 0 0 0 1 13 255 250 113 54 33 28 30 46 96 211 255 28 1 0 0 0 0 0 0 0 0 0 2 45 255 185 81 36 21 18 19 18 18 26 39 42 29 19 18 19 18 21 34 73 165 255 69 3 0 0 0 0 0 0 0 0 0 0 5 103 255 146 70 41 34 38 62 127 255 195 9 0 0 0 0 0 0 0 0 0 0 0 0 0 0 0 0 0 8 178 255 132 65 41 37 46 81 171 255 55 3 0 0 0 0 0 0 0 0 0 0 0 0 0 0 0 0 0 2 38 255 192 85 38 22 18 19 18 17 26 60 143 255 130 6 0 3 63 255 162 69 30 18 17 18 18 20 34 76 177 255 51 2 0 0 0 0 0 0 0 0 0 1 21 255 224 103 45 24 18 19 18 17 25 56 134 255 255 255 175 75 33 19 18 18 18 21 35 79 176 255 54 3 0 0 0 0 0 0 0 0 0 0 0 0 0 0 0 0 0 0 0 0 0 0 0 0 0 0 0 0 0 0 0 0 0 0 1 18 255 236 118 71 60 76 134 255 157 7 0 0 0 0 0 0 0 0 0 0 0 0 0 0 0 0 0 1 1 0 0 0 0 0 0 0 0 0 0 0 0 0 0 0 0 0 2 40 255 188 90 52 41 47 76 154 255 82 4 0 0 0 0 0 0 0 0 0 0 0 0 0 0 0 0 0 0 0 0 0 0 0 0 0 0 0 0 0 0 0 7 143 255 136 66 42 37 48 84 174 255 63 3 0 0 0 0 0 0 0 0 0 0 0 0 0 0 0 0 0 0 0 0 0 0 0 1 21 255 227 106 50 31 26 29 44 89 191 255 42 2 0 0 0 0 0 0 0 0 0 1 24 255 223 104 46 25 18 17 14 10 9 13 17 18 22 38 87 196 255 38 2 0 0 0 0 0 0 0 0 0 0 4 87 255 156 76 44 36 39 60 123 255 190 9 0 0 0 0 0 0 0 0 0 0 3 62 255 165 73 33 20 17 16 12 10 12 16 17 19 30 63 145 255 96 5 0 0 0 0 0 0 0 0 0 0 0 0 0 0 0 0 0 0 0 0 0 0 0 0 0 0 0 0 0 0 0 0 0 0 0 0 0 0 0 0 0 0 0 0 0 0 1 15 255 236 109 53 32 28 31 49 101 218 255 24 1 0 0 0 0 0 0 0 0 0 0 0 0 0 0 0 0 0 0 0 0 0 0 0 0 0 0 0 0 0 0 0 0 4 87 255 157 67 31 20 18 18 17 15 16
1 22 255 239 113 46 18 9 7 7 7 9 18 46 112 236 255 21 1 0 0 0 0 0 0 0 0 0 0 0 3 57 255 196 91 36 15 8 7 7 7 9 20 54 131 255 226 34 255 244 116 49 19 9 7 7 7 9 16 41 102 221 255 30 1 0 0 0 0 0 0 0 0 0 0 0 0 0 5 111 255 152 66 29 15 11 13 24 57 132 255 255 12 1 0 0 0 0 0 0 0 1 21 255 243 115 47 18 9 7 7 7 7 10 14 14 11 8 7 7 7 9 17 41 98 211 255 34 1 0 0 0 0 0 0 0 0 2 48 255 189 88 39 19 14 18 34 75 168 255 86 4 0 0 0 0 0 0 0 0 0 0 0 0 0 0 0 4 79 255 171 78 36 19 16 23 47 106 225 255 26 1 0 0 0 0 0 0 0 0 0 0 0 0 0 0 0 1 16 255 253 119 48 19 10 7 7 7 7 13 33 84 184 255 62 4 29 255 212 99 39 15 8 7 7 7 9 17 44 110 236 255 26 1 0 0 0 0 0 0 0 0 8 175 255 137 59 23 11 7 7 7 7 12 31 82 195 255 255 112 43 16 8 7 7 7 9 18 44 106 224 255 24 1 0 0 0 0 0 0 0 0 0 0 0 0 0 0 0 0 0 0 0 0 0 0 0 0 0 0 0 0 0 0 0 0 0 7 142 255 144 70 38 29 43 83 177 255 70 3 0 0 0 0 0 0 0 0 0 0 0 0 0 0 0 0 0 0 0 0 0 0 0 0 0 0 0 0 0 0 0 0 0 0 1 17 255 248 117 53 26 18 22 43 93 198 255 39 2 0 0 0 0 0 0 0 0 0 0 0 0 0 0 0 0 0 0 0 0 0 0 0 0 0 0 0 0 0 3 66 255 178 81 37 19 16 23 48 105 216 255 29 1 0 0 0 0 0 0 0 0 0 0 0 0 0 0 0 0 0 0 0 0 0 0 8 171 255 138 61 27 14 10 12 23 51 116 246 255 20 1 0 0 0 0 0 0 0 0 10 215 255 135 59 24 11 7 6 5 4 3 5 6 7 9 19 50 121 255 255 18 1 0 0 0 0 0 0 0 0 2 41 255 197 94 43 21 15 17 33 73 164 255 83 4 0 0 0 0 0 0 0 0 1 30 255 215 100 41 16 8 6 6 4 4 4 6 6 8 15 35 87 191 255 46 2 0 0 0 0 0 0 0 0 0 0 0 0 0 0 0 0 0 0 0 0 0 0 0 0 0 0 0 0 0 0 0 0 0 0 0 0 0 0 0 0 0 0 0 0 0 6 126 255 144 63 28 14 11 13 26 59 134 255 195 9 0 0 0 0 0 0 0 0 0 0 0 0 0 0 0 0 0 0 0 0 0 0 0 0 0 0 0 0 0 0 0 2 44 255 204 94 38 15 8 7 7 6 6 5
10 209 255 149 70 27 9 4 2 2 2 4 9 27 69 147 255 165 8 0 0 0 0 0 0 0 0 0 0 1 31 255 240 121 56 21 7 3 2 2 3 4 11 33 81 169 255 255 255 153 71 28 9 4 2 2 2 3 8 24 64 140 255 255 13 1 0 0 0 0 0 0 0 0 0 0 0 2 52 255 194 96 41 15 6 4 6 13 35 83 172 255 129 6 0 0 0 0 0 0 0 8 180 255 151 72 28 9 4 2 2 2 3 3 4 5 4 3 2 2 2 3 8 23 60 133 255 255 14 1 0 0 0 0 0 0 1 22 255 240 120 55 22 9 6 8 18 47 105 212 255 44 2 0 0 0 0 0 0 0 0 0 0 0 0 0 2 40 255 215 108 49 20 9 7 11 28 67 143 255 255 12 0 0 0 0 0 0 0 0 0 0 0 0 0 0 0 6 130 255 155 74 29 10 4 3 2 2 3 6 18 52 114 231 255 51 232 255 134 62 22 7 3 2 2 2 3 9 26 69 148 255 253 11 0 0 0 0 0 0 0 4 74 255 177 84 36 12 5 3 2 2 3 6 17 52 112 177 138 72 26 8 3 2 2 2 4 9 26 65 141 255 209 10 0 0 0 0 0 0 0 0 0 0 0 0 0 0 0 0 0 0 0 0 0 0 0 0 0 0 0 0 0 0 0 0 3 63 255 181 89 43 20 15 25 54 113 220 255 34 1 0 0 0 0 0 0 0 0 0 0 0 0 0 0 0 0 0 0 0 0 0 0 0 0 0 0 0 0 0 0 0 0 0 7 151 255 155 74 32 13 8 11 25 58 126 255 255 19 1 0 0 0 0 0 0 0 0 0 0 0 0 0 0 0 0 0 0 0 0 0 0 0 0 0 0 0 1 33 255 225 113 51 21 9 7 11 28 65 135 255 249 12 1 0 0 0 0 0 0 0 0 0 0 0 0 0 0 0 0 0 0 0 0 4 75 255 178 85 37 14 6 4 5 11 30 72 154 255 201 9 0 0 0 0 0 0 0 4 92 255 176 83 35 12 5 3 2 2 1 1 2 2 2 4 10 30 75 160 255 169 8 0 0 0 0 0 0 0 1 18 255 250 124 58 24 10 6 8 18 46 105 212 255 43 2 0 0 0 0 0 0 1 12 255 255 137 62 24 8 3 2 2 1 1 1 2 2 3 7 20 54 122 246 255 22 1 0 0 0 0 0 0 0 0 0 0 0 0 0 0 0 0 0 0 0 0 0 0 0 0 0 0 0 0 0 0 0 0 0 0 0 0 0 0 0 0 0 0 0 3 62 255 190 91 39 15 6 4 6 13 36 83 172 255 87 4 0 0 0 0 0 0 0 0 0 0 0 0 0 0 0 0 0 0 0 0 0 0 0 0 0 0 0 0 0 1 22 255 255 128 59 22 7 3 2 2 2 2 2
113 255 183 93 45 16 4 1 1 1 1 1 4 16 45 92 180 255 70 3 0 0 0 0 0 0 0 0 1 15 255 255 149 76 36 12 3 1 1 1 1 2 5 20 53 111 234 255 203 99 46 16 5 2 1 1 1 1 4 14 43 88 170 255 118 6 0 0 0 0 0 0 0 0 0 0 1 24 255 237 123 62 26 8 3 2 2 7 22 54 107 206 255 66 3 0 0 0 0 0 4 77 255 181 94 47 17 5 2 1 1 1 1 1 1 1 1 1 1 1 1 1 4 13 39 84 165 255 127 6 0 0 0 0 0 0 9 182 255 151 77 36 12 4 2 4 10 30 68 133 255 255 21 1 0 0 0 0 0 0 0 0 0 0 0 1 18 255 255 135 69 32 11 4 3 5 17 45 90 177 255 108 5 0 0 0 0 0 0 0 0 0 0 0 0 0 3 59 255 189 97 48 18 5 2 1 1 1 1 3 10 33 73 146 255 255 255 170 85 40 13 3 1 1 1 1 1 4 16 46 92 177 255 105 5 0 0 0 0 0 2 36 255 214 112 55 22 6 2 1 1 1 1 3 10 33 60 78 67 44 16 4 1 1 1 1 1 4 15 42 89 176 255 95 5 0 0 0 0 0 0 0 0 0 0 0 0 0 0 0 0 0 0 0 0 0 0 0 0 0 0 0 0 0 0 1 32 255 225 115 58 27 11 7 14 37 73 137 255 255 14 1 0 0 0 0 0 0 0 0 0 0 0 0 0 0 0 0 0 0 0 0 0 0 0 0 0 0 0 0 0 0 0 3 69 255 188 97 49 19 6 3 5 14 39 81 161 255 196 9 0 0 0 0 0 0 0 0 0 0 0 0 0 0 0 0 0 0 0 0 0 0 0 0 0 0 1 14 255 255 141 72 33 11 4 3 5 16 42 85 169 255 104 5 0 0 0 0 0 0 0 0 0 0 0 0 0 0 0 0 0 0 0 2 37 255 217 113 56 23 7 2 1 2 5 18 47 97 188 255 92 4 0 0 0 0 0 2 45 255 209 110 54 21 6 2 1 1 0 0 0 0 1 1 2 5 18 49 99 189 255 80 4 0 0 0 0 0 0 8 163 255 156 79 38 14 5 2 3 10 30 68 134 255 255 20 1 0 0 0 0 0 5 109 255 169 86 41 14 4 1 1 1 0 0 0 1 1 1 3 11 35 78 154 255 212 9 0 0 0 0 0 0 0 0 0 0 0 0 0 0 0 0 0 0 0 0 0 0 0 0 0 0 0 0 0 0 0 0 0 0 0 0 0 0 0 0 0 0 1 33 255 235 121 60 25 8 3 2 2 7 22 54 109 214 255 46 2 0 0 0 0 0 0 0 0 0 0 0 0 0 0 0 0 0 0 0 0 0 0 0 0 0 0 0 0 10 228 255 158 81 38 12 3 1 1 1 1 1 0
255 222 114 61 30 9 2 1 0 0 0 1 2 9 30 60 113 216 255 34 2 0 0 0 0 0 0 0 7 140 255 174 91 50 23 6 2 0 0 0 0 1 3 12 37 74 123 158 112 65 31 9 2 1 0 0 0 1 2 8 28 58 105 198 255 57 3 0 0 0 0 0 0 0 0 0 9 193 255 148 78 42 16 4 1 1 1 3 13 37 68 125 235 255 34 1 0 0 0 2 37 255 214 112 61 31 10 2 1 0 0 0 0 0 0 0 0 0 0 0 0 1 2 7 26 55 102 195 255 59 3 0 0 0 0 4 77 255 178 94 52 24 7 2 1 2 5 19 46 83 158 255 204 9 0 0 0 0 0 0 0 0 0 0 0 7 155 255 160 84 46 20 6 2 1 3 9 30 60 109 203 255 51 2 0 0 0 0 0 0 0 0 0 0 0 1 29 255 229 119 63 32 10 2 1 0 0 0 0 1 5 21 49 93 181 255 230 113 58 26 7 2 1 0 0 0 1 2 9 30 60 108 202 255 48 2 0 0 0 1 17 255 255 134 72 37 13 3 1 0 0 0 0 1 5 18 30 33 31 24 8 2 1 0 0 0 1 2 8 28 59 111 213 255 50 2 0 0 0 0 0 0 0 0 0 0 0 0 0 0 0 0 0 0 0 0 0 0 0 0 0 0 0 0 1 14 255 255 142 75 40 17 5 3 8 24 49 86 163 255 114 6 0 0 0 0 0 0 0 0 0 0 0 0 0 0 0 0 0 0 0 0 0 0 0 0 0 0 0 0 0 0 2 35 255 224 117 64 33 11 3 1 2 8 26 55 100 191 255 89 4 0 0 0 0 0 0 0 0 0 0 0 0 0 0 0 0 0 0 0 0 0 0 0 0 0 6 131 255 166 88 48 22 6 2 1 3 9 28 57 106 202 255 51 2 0 0 0 0 0 0 0 0 0 0 0 0 0 0 0 0 0 1 16 255 255 136 72 38 13 4 1 1 1 3 10 32 63 115 215 255 47 2 0 0 0 1 22 255 250 130 70 36 12 3 1 0 0 0 0 0 0 0 0 1 3 10 33 63 116 222 255 43 2 0 0 0 0 4 76 255 188 98 53 25 7 2 1 2 5 19 47 84 159 255 182 9 0 0 0 0 2 53 255 201 105 57 27 8 2 1 0 0 0 0 0 0 0 0 1 6 23 52 96 184 255 92 4 0 0 0 0 0 0 0 0 0 0 0 0 0 0 0 0 0 0 0 0 0 0 0 0 0 0 0 0 0 0 0 0 0 0 0 0 0 0 0 0 1 16 255 255 146 78 42 15 4 1 1 1 3 13 37 71 134 255 255 22 1 0 0 0 0 0 0 0 0 0 0 0 0 0 0 0 0 0 0 0 0 0 0 0 0 0 0 5 99 255 184 97 53 25 7 2 1 0 0 0 0 0
255 140 73 42 19 5 1 0 0 0 0 0 1 5 19 42 72 137 255 255 15 1 0 0 0 0 0 3 66 255 197 105 59 34 13 3 1 0 0 0 0 0 1 7 25 48 61 69 58 43 20 5 1 0 0 0 0 0 1 4 18 39 67 123 237 255 29 1 0 0 0 0 0 0 0 4 80 255 175 92 52 28 9 2 1 0 0 2 7 24 46 77 144 255 255 16 1 0 1 17 255 255 134 71 41 19 5 1 0 0 0 0 0 0 0 0 0 0 0 0 0 0 1 4 16 38 66 121 232 255 29 1 0 0 2 38 255 214 111 61 36 14 4 1 0 1 3 11 31 55 97 184 255 94 4 0 0 0 0 0 0 0 0 0 3 68 255 186 98 56 32 12 3 1 0 1 5 19 41 69 125 239 255 23 1 0 0 0 0 0 0 0 0 0 1 12 253 255 145 76 44 20 5 1 0 0 0 0 0 1 3 12 34 61 100 144 118 74 41 16 4 1 0 0 0 0 0 1 5 19 40 68 125 239 255 21 1 0 0 7 152 255 165 85 48 25 7 2 0 0 0 0 0 1 2 8 13 13 13 11 4 1 0 0 0 0 0 1 4 18 41 71 132 250 255 25 1 0 0 0 0 0 0 0 0 0 0 0 0 0 0 0 0 0 0 0 0 0 0 0 0 0 0 0 6 132 255 168 89 51 28 10 3 2 4 15 34 57 102 196 255 53 3 0 0 0 0 0 0 0 0 0 0 0 0 0 0 0 0 0 0 0 0 0 0 0 0 0 0 0 0 1 15 255 255 140 75 44 22 6 2 1 1 4 16 38 65 116 216 255 44 2 0 0 0 0 0 0 0 0 0 0 0 0 0 0 0 0 0 0 0 0 0 0 0 3 66 255 198 103 57 33 13 3 1 0 1 5 18 40 69 127 244 255 26 1 0 0 0 0 0 0 0 0 0 0 0 0 0 0 0 0 7 145 255 163 85 49 26 8 2 0 0 0 1 5 21 42 72 132 252 255 24 1 0 0 10 224 255 156 81 46 24 7 2 0 0 0 0 0 0 0 0 0 0 1 6 21 42 73 138 255 255 21 1 0 0 2 40 255 224 117 64 37 15 4 1 0 1 3 11 32 56 97 183 255 83 4 0 0 1 27 255 241 125 68 39 17 4 1 0 0 0 0 0 0 0 0 0 1 3 14 36 63 113 212 255 45 2 0 0 0 0 0 0 0 0 0 0 0 0 0 0 0 0 0 0 0 0 0 0 0 0 0 0 0 0 0 0 0 0 0 0 0 0 0 0 0 7 150 255 171 90 52 29 9 2 1 0 0 2 7 25 49 84 156 255 223 10 0 0 0 0 0 0 0 0 0 0 0 0 0 0 0 0 0 0 0 0 0 0 0 0 0 2 49 255 210 112 62 36 15 4 1 0 0 0 0 0 0
128 85 50 29 11 3 1 0 0 0 0 0 1 3 11 29 50 88 168 255 134 6 0 0 0 0 1 34 255 231 122 67 40 22 7 2 0 0 0 0 0 0 1 4 15 29 30 30 29 26 12 3 1 0 0 0 0 0 0 2 10 26 46 79 150 255 249 12 1 0 0 0 0 0 2 39 255 213 112 61 37 18 5 1 0 0 0 1 4 14 31 51 89 169 255 162 7 1 8 168 255 165 86 49 28 11 3 1 0 0 0 0 0 0 0 0 0 0 0 0 0 0 0 2 9 25 45 78 146 255 255 12 1 1 18 255 255 137 73 43 24 8 2 0 0 0 1 6 20 38 63 114 218 255 50 2 0 0 0 0 0 0 0 1 34 255 223 117 64 39 20 6 1 0 0 1 3 11 28 47 79 151 255 189 9 0 0 0 0 0 0 0 0 0 5 106 255 172 91 52 31 12 3 1 0 0 0 0 0 0 1 7 23 40 54 63 58 48 30 9 2 0 0 0 0 0 0 1 2 10 27 46 79 151 255 198 9 1 3 68 255 193 104 58 34 15 4 1 0 0 0 0 0 0 1 3 4 5 5 4 1 0 0 0 0 0 0 1 2 10 28 49 83 155 255 231 11 0 0 0 0 0 0 0 0 0 0 0 0 0 0 0 0 0 0 0 0 0 0 0 0 0 0 3 67 255 203 106 60 37 18 5 1 1 2 8 22 41 67 125 238 255 25 1 0 0 0 0 0 0 0 0 0 0 0 0 0 0 0 0 0 0 0 0 0 0 0 0 0 0 0 6 123 255 165 88 51 31 13 3 1 0 1 2 9 26 45 73 134 254 255 21 1 0 0 0 0 0 0 0 0 0 0 0 0 0 0 0 0 0 0 0 0 0 2 35 255 237 125 67 40 21 7 2 0 0 1 2 10 28 47 81 154 255 255 12 1 0 0 0 0 0 0 0 0 0 0 0 0 0 0 3 69 255 194 102 57 34 16 4 1 0 0 0 1 3 12 29 48 83 158 255 251 11 1 5 97 255 187 98 55 32 14 4 1 0 0 0 0 0 0 0 0 0 0 1 3 12 29 50 86 161 255 215 9 0 1 19 255 255 141 76 45 25 9 2 0 0 0 1 6 21 39 63 115 221 255 44 2 1 12 255 255 152 80 47 27 9 2 0 0 0 0 0 0 0 0 0 0 0 2 8 24 43 72 132 251 255 20 1 0 0 0 0 0 0 0 0 0 0 0 0 0 0 0 0 0 0 0 0 0 0 0 0 0 0 0 0 0 0 0 0 0 0 0 0 0 3 71 255 197 105 60 37 18 5 1 0 0 0 1 4 15 34 56 97 186 255 101 5 0 0 0 0 0 0 0 0 0 0 0 0 0 0 0 0 0 0 0 0 0 0 0 1 23 255 248 130 71 42 24 8 2 0 0 0 0 0 0 0
60 51 36 19 5 1 0 0 0 0 0 0 0 1 5 19 37 61 107 200 255 64 3 0 0 1 15 255 255 147 79 46 28 13 3 1 0 0 0 0 0 0 0 2 7 14 13 12 13 13 5 1 0 0 0 0 0 0 0 1 5 16 33 55 95 175 255 102 5 0 0 0 0 1 18 255 255 138 75 44 26 10 2 1 0 0 0 0 2 7 20 36 60 107 201 255 77 8 77 255 197 105 60 36 18 5 1 0 0 0 0 0 0 0 0 0 0 0 0 0 0 0 0 1 4 15 33 54 94 176 255 121 6 8 170 255 166 89 52 31 14 4 1 0 0 0 1 3 11 27 45 75 138 255 255 25 1 0 0 0 0 0 1 15 255 255 144 77 45 27 11 3 1 0 0 0 1 6 18 33 55 97 181 255 79 4 0 0 0 0 0 0 0 2 53 255 206 110 62 38 20 6 1 0 0 0 0 0 0 0 1 3 13 25 28 28 28 30 19 5 1 0 0 0 0 0 0 0 1 5 17 33 55 98 187 255 92 6 34 255 227 122 69 43 23 8 2 0 0 0 0 0 0 0 0 1 1 1 1 1 1 0 0 0 0 0 0 0 1 5 18 35 57 98 183 255 108 5 0 0 0 0 0 0 0 0 0 0 0 0 0 0 0 0 0 0 0 0 0 0 0 0 2 36 255 239 129 71 43 26 10 3 1 0 1 4 13 30 49 82 152 255 219 10 0 0 0 0 0 0 0 0 0 0 0 0 0 0 0 0 0 0 0 0 0 0 0 0 0 0 3 57 255 198 105 60 37 20 7 2 0 0 0 1 5 16 32 50 85 160 255 184 9 0 0 0 0 0 0 0 0 0 0 0 0 0 0 0 0 0 0 0 0 1 17 255 255 149 81 48 28 12 3 1 0 0 0 1 5 18 34 57 99 184 255 121 6 0 0 0 0 0 0 0 0 0 0 0 0 0 2 37 255 233 124 69 42 23 9 2 0 0 0 0 0 1 6 18 34 57 100 188 255 116 8 47 255 214 117 66 40 21 8 2 0 0 0 0 0 0 0 0 0 0 0 0 1 6 18 36 58 101 191 255 104 5 8 174 255 166 90 53 32 15 4 1 0 0 0 1 3 11 27 45 76 141 255 255 20 6 119 255 180 97 56 34 16 5 1 0 0 0 0 0 0 0 0 0 0 0 1 4 14 31 50 85 158 255 164 8 0 0 0 0 0 0 0 0 0 0 0 0 0 0 0 0 0 0 0 0 0 0 0 0 0 0 0 0 0 0 0 0 0 0 0 0 2 37 255 231 123 69 42 25 10 2 1 0 0 0 0 2 8 23 40 65 117 216 255 50 2 0 0 0 0 0 0 0 0 0 0 0 0 0 0 0 0 0 0 0 0 0 0 10 209 255 157 84 49 30 14 4 1 0 0 0 0 0 0 0
28 30 24 10 3 1 0 0 0 0 0 0 0 1 3 11 27 47 73 127 237 255 34 1 0 7 150 255 172 94 56 34 18 6 2 0 0 0 0 0 0 0 0 1 3 5 5 5 5 5 2 1 0 0 0 0 0 0 0 1 2 9 23 42 65 111 206 255 50 2 0 0 0 7 150 255 166 91 55 34 16 5 1 0 0 0 0 0 1 3 12 26 44 72 126 229 255 114 255 226 124 72 45 26 10 3 1 0 0 0 0 0 0 0 0 0 0 0 0 0 0 0 0 0 2 8 23 41 66 113 210 255 73 85 255 196 107 63 40 21 7 2 0 0 0 0 0 1 5 17 33 54 89 160 255 223 10 0 0 0 0 0 7 143 255 172 94 56 34 17 6 1 0 0 0 0 1 3 9 23 42 67 117 216 255 38 2 0 0 0 0 0 1 27 255 248 133 75 47 28 12 3 1 0 0 0 0 0 0 0 0 2 6 12 13 12 13 15 9 3 1 0 0 0 0 0 0 0 1 2 9 23 42 69 121 222 255 81 255 255 145 80 50 32 14 4 1 0 0 0 0 0 0 0 0 0 0 0 0 0 0 0 0 0 0 0 0 0 1 3 10 25 42 67 116 216 255 57 3 0 0 0 0 0 0 0 0 0 0 0 0 0 0 0 0 0 0 0 0 0 0 1 16 255 255 150 84 53 33 16 5 1 0 0 0 2 7 21 38 59 98 182 255 97 5 0 0 0 0 0 0 0 0 0 0 0 0 0 0 0 0 0 0 0 0 0 0 0 0 1 27 255 236 128 72 45 27 11 3 1 0 0 0 1 2 8 21 38 60 102 188 255 81 4 0 0 0 0 0 0 0 0 0 0 0 0 0 0 0 0 0 0 0 7 154 255 172 95 58 37 19 6 2 0 0 0 0 1 3 10 24 44 68 115 207 255 58 3 0 0 0 0 0 0 0 0 0 0 0 1 17 255 255 148 82 51 32 14 4 1 0 0 0 0 0 1 3 9 24 43 68 117 214 255 113 255 250 135 77 48 30 12 4 1 0 0 0 0 0 0 0 0 0 0 0 0 1 3 10 26 43 69 120 222 255 63 84 255 192 105 63 40 22 8 2 0 0 0 0 0 1 6 17 34 55 91 162 255 181 80 255 212 114 67 43 24 9 2 1 0 0 0 0 0 0 0 0 0 0 0 0 2 7 21 37 60 102 187 255 72 4 0 0 0 0 0 0 0 0 0 0 0 0 0 0 0 0 0 0 0 0 0 0 0 0 0 0 0 0 0 0 0 0 0 0 1 18 255 255 146 81 50 32 15 5 1 0 0 0 0 0 1 4 14 29 49 77 136 249 255 23 1 0 0 0 0 0 0 0 0 0 0 0 0 0 0 0 0 0 0 0 0 4 90 255 184 101 59 36 20 7 2 0 0 0 0 0 0 0 0
12 15 13 5 1 0 0 0 0 0 0 0 0 0 1 5 18 38 55 84 150 255 255 17 4 74 255 201 109 65 44 25 10 3 1 0 0 0 0 0 0 0 0 0 1 2 2 1 2 1 1 0 0 0 0 0 0 0 0 0 1 4 15 33 50 75 132 248 255 25 1 0 3 68 255 191 106 65 45 26 9 2 1 0 0 0 0 0 0 2 6 17 35 53 82 146 255 255 255 144 82 54 37 17 5 1 0 0 0 0 0 0 0 0 0 0 0 0 0 0 0 0 0 0 1 4 14 33 51 77 133 253 255 255 230 124 73 50 33 13 4 1 0 0 0 0 0 1 3 9 25 43 62 100 181 255 97 5 0 0 0 3 65 255 198 109 67 45 26 10 3 1 0 0 0 0 0 1 5 15 34 52 79 139 255 255 17 1 0 0 0 1 12 253 255 157 88 56 38 19 6 1 0 0 0 0 0 0 0 0 0 1 2 5 5 4 5 6 4 1 0 0 0 0 0 0 0 0 0 1 4 15 34 53 81 141 255 255 255 177 95 59 40 24 8 2 0 0 0 0 0 0 0 0 0 0 0 0 0 0 0 0 0 0 0 0 0 0 0 1 5 16 33 51 78 136 248 255 30 1 0 0 0 0 0 0 0 0 0 0 0 0 0 0 0 0 0 0 0 0 0 7 157 255 170 95 60 43 24 9 2 1 0 0 0 1 3 13 30 47 69 116 215 255 50 2 0 0 0 0 0 0 0 0 0 0 0 0 0 0 0 0 0 0 0 0 0 0 0 11 247 255 150 85 55 36 18 6 1 0 0 0 0 0 1 4 12 29 47 70 120 220 255 41 2 0 0 0 0 0 0 0 0 0 0 0 0 0 0 0 0 0 3 72 255 196 108 66 45 29 11 3 1 0 0 0 0 0 1 5 15 35 52 76 129 240 255 30 1 0 0 0 0 0 0 0 0 0 0 8 170 255 170 95 60 41 23 7 2 0 0 0 0 0 0 0 1 5 15 34 51 77 135 255 255 255 161 87 56 38 21 6 2 0 0 0 0 0 0 0 0 0 0 0 0 0 0 1 5 17 33 52 79 138 255 255 255 227 121 71 48 32 14 4 1 0 0 0 0 0 1 3 10 26 44 63 103 191 255 255 255 134 77 51 34 15 4 1 0 0 0 0 0 0 0 0 0 0 0 0 0 1 3 12 29 47 70 120 223 255 36 2 0 0 0 0 0 0 0 0 0 0 0 0 0 0 0 0 0 0 0 0 0 0 0 0 0 0 0 0 0 0 0 0 0 8 179 255 170 94 58 40 23 8 2 1 0 0 0 0 0 0 2 7 20 40 56 87 156 255 200 9 0 0 0 0 0 0 0 0 0 0 0 0 0 0 0 0 0 0 0 2 45 255 214 117 69 46 27 11 3 1 0 0 0 0 0 0 0 0
5 6 5 2 1 0 0 0 0 0 0 0 0 0 1 3 11 31 46 61 95 173 255 169 52 255 232 125 73 50 37 17 5 1 0 0 0 0 0 0 0 0 0 0 0 0 0 0 0 0 0 0 0 0 0 0 0 0 0 0 0 2 8 25 41 56 87 157 255 250 11 2 35 255 227 121 72 52 39 18 5 1 0 0 0 0 0 0 0 1 3 10 28 43 59 96 174 255 174 96 59 45 30 10 3 1 0 0 0 0 0 0 0 0 0 0 0 0 0 0 0 0 0 0 0 2 8 25 43 57 87 160 255 255 149 82 56 43 25 7 2 0 0 0 0 0 0 0 1 5 16 36 48 67 113 211 255 50 2 0 1 31 255 228 124 73 52 39 18 5 1 0 0 0 0 0 0 1 2 9 28 44 59 91 165 255 159 7 0 0 0 5 106 255 178 99 63 48 30 11 3 1 0 0 0 0 0 0 0 0 0 0 1 1 2 1 2 2 1 0 0 0 0 0 0 0 0 0 0 1 2 9 27 46 60 93 168 255 212 115 68 49 32 15 4 1 0 0 0 0 0 0 0 0 0 0 0 0 0 0 0 0 0 0 0 0 0 0 0 1 2 9 25 43 57 87 153 255 255 13 1 0 0 0 0 0 0 0 0 0 0 0 0 0 0 0 0 0 0 0 4 76 255 196 106 65 48 37 16 4 1 0 0 0 0 0 2 7 22 41 54 78 135 251 255 25 1 0 0 0 0 0 0 0 0 0 0 0 0 0 0 0 0 0 0 0 0 0 5 113 255 179 96 61 46 29 11 3 1 0 0 0 0 0 0 2 7 21 40 53 79 139 255 255 21 1 0 0 0 0 0 0 0 0 0 0 0 0 0 0 0 2 38 255 228 123 72 50 38 20 6 1 0 0 0 0 0 0 1 2 9 28 43 55 83 151 255 255 14 1 0 0 0 0 0 0 0 0 4 82 255 196 106 65 49 35 15 4 1 0 0 0 0 0 0 0 1 2 9 27 42 56 89 160 255 198 107 63 45 30 13 3 1 0 0 0 0 0 0 0 0 0 0 0 0 0 0 1 2 10 25 43 57 88 162 255 255 148 80 53 41 23 7 2 0 0 0 0 0 0 0 1 5 18 38 49 70 126 245 255 159 88 57 43 27 9 2 1 0 0 0 0 0 0 0 0 0 0 0 0 0 0 2 6 20 41 54 80 142 255 255 16 1 0 0 0 0 0 0 0 0 0 0 0 0 0 0 0 0 0 0 0 0 0 0 0 0 0 0 0 0 0 0 0 4 81 255 195 106 65 47 33 14 4 1 0 0 0 0 0 0 0 1 3 12 33 45 61 98 181 255 86 4 0 0 0 0 0 0 0 0 0 0 0 0 0 0 0 0 0 1 21 255 254 136 77 52 39 19 6 2 0 0 0 0 0 0 0 0 0
2 2 1 1 0 0 0 0 0 0 0 0 0 0 0 1 6 24 44 51 67 110 203 255 255 255 149 83 55 43 33 10 3 1 0 0 0 0 0 0 0 0 0 0 0 0 0 0 0 0 0 0 0 0 0 0 0 0 0 0 0 1 4 17 37 49 64 102 188 255 110 22 255 255 148 82 56 48 36 11 3 1 0 0 0 0 0 0 0 0 1 6 21 39 48 67 95 118 96 68 50 41 22 6 1 0 0 0 0 0 0 0 0 0 0 0 0 0 0 0 0 0 0 0 0 1 4 18 40 50 64 100 150 148 96 62 49 40 18 4 1 0 0 0 0 0 0 0 1 2 10 31 42 52 77 138 255 255 25 2 13 255 255 148 83 56 47 36 11 3 1 0 0 0 0 0 0 0 1 5 21 41 51 66 108 198 255 77 4 0 2 52 255 210 114 69 52 46 23 6 1 0 0 0 0 0 0 0 0 0 0 0 0 0 0 0 0 0 0 0 0 0 0 0 0 0 0 0 0 0 1 5 20 43 51 67 97 131 111 78 56 47 25 8 2 0 0 0 0 0 0 0 0 0 0 0 0 0 0 0 0 0 0 0 0 0 0 0 0 0 1 5 18 41 48 61 98 179 255 116 6 0 0 0 0 0 0 0 0 0 0 0 0 0 0 0 0 0 0 2 42 255 235 126 72 51 43 33 9 2 1 0 0 0 0 0 1 4 14 38 50 59 89 161 255 255 11 0 0 0 0 0 0 0 0 0 0 0 0 0 0 0 0 0 0 0 0 3 57 255 216 116 69 51 44 22 6 1 0 0 0 0 0 0 0 1 3 14 38 46 59 92 169 255 205 9 0 0 0 0 0 0 0 0 0 0 0 0 0 0 1 19 255 255 147 82 54 44 32 13 3 1 0 0 0 0 0 0 0 1 5 20 39 46 61 98 181 255 134 6 0 0 0 0 0 0 0 2 45 255 232 125 73 52 45 29 9 2 0 0 0 0 0 0 0 0 0 1 5 20 37 47 63 91 120 104 74 53 41 22 7 2 0 0 0 0 0 0 0 0 0 0 0 0 0 0 0 0 1 5 17 39 47 63 101 157 151 97 61 47 37 15 4 1 0 0 0 0 0 0 0 1 3 11 34 43 56 85 126 138 97 64 49 40 19 5 1 0 0 0 0 0 0 0 0 0 0 0 0 0 0 0 1 3 13 38 47 60 94 171 255 146 7 0 0 0 0 0 0 0 0 0 0 0 0 0 0 0 0 0 0 0 0 0 0 0 0 0 0 0 0 0 0 2 40 255 226 124 72 51 43 27 8 2 0 0 0 0 0 0 0 0 0 2 7 28 40 49 69 118 219 255 44 2 0 0 0 0 0 0 0 0 0 0 0 0 0 0 0 0 9 207 255 163 90 58 45 36 12 3 1 0 0 0 0 0 0 0 0 0
0 1 0 0 0 0 0 0 0 0 0 0 0 0 0 1 4 17 50 57 60 83 144 255 255 193 107 68 54 46 29 6 1 0 0 0 0 0 0 0 0 0 0 0 0 0 0 0 0 0 0 0 0 0 0 0 0 0 0 0 0 1 2 11 36 56 59 80 129 226 255 255 255 186 107 69 57 58 35 7 1 0 0 0 0 0 0 0 0 0 1 3 14 40 51 56 56 58 56 58 56 44 15 3 1 0 0 0 0 0 0 0 0 0 0 0 0 0 0 0 0 0 0 0 0 0 2 12 44 58 60 68 77 77 69 60 58 41 12 2 0 0 0 0 0 0 0 0 0 1 6 26 44 51 65 100 173 255 245 18 133 255 187 106 68 55 53 36 7 1 0 0 0 0 0 0 0 0 1 3 14 44 57 62 83 138 246 255 43 3 25 255 255 146 85 60 57 57 18 4 1 0 0 0 0 0 0 0 0 0 0 0 0 0 0 0 0 0 0 0 0 0 0 0 0 0 0 0 0 0 1 3 14 48 56 59 61 64 62 60 61 62 20 4 1 0 0 0 0 0 0 0 0 0 0 0 0 0 0 0 0 0 0 0 0 0 0 0 0 0 1 3 12 47 52 55 75 124 218 255 57 3 0 0 0 0 0 0 0 0 0 0 0 0 0 0 0 0 1 20 255 255 160 93 62 52 49 30 6 1 0 0 0 0 0 0 0 2 9 38 61 59 72 113 201 255 122 6 0 0 0 0 0 0 0 0 0 0 0 0 0 0 0 0 0 0 1 29 255 255 148 88 63 56 53 16 3 1 0 0 0 0 0 0 0 0 2 9 40 51 56 74 118 206 255 95 4 0 0 0 0 0 0 0 0 0 0 0 0 0 8 186 255 185 105 67 53 49 27 7 2 0 0 0 0 0 0 0 0 1 3 13 38 50 57 76 124 216 255 64 3 0 0 0 0 0 1 23 255 255 157 92 62 53 53 23 5 1 0 0 0 0 0 0 0 0 0 1 3 13 36 51 55 57 59 58 59 59 45 15 4 1 0 0 0 0 0 0 0 0 0 0 0 0 0 0 0 0 1 3 11 42 50 56 69 80 79 70 59 54 37 10 2 0 0 0 0 0 0 0 0 0 1 7 31 48 59 64 68 69 64 57 57 42 12 3 1 0 0 0 0 0 0 0 0 0 0 0 0 0 0 0 0 2 9 42 54 58 75 120 212 255 68 3 0 0 0 0 0 0 0 0 0 0 0 0 0 0 0 0 0 0 0 0 0 0 0 0 0 0 0 0 1 18 255 255 154 90 61 52 50 22 5 1 0 0 0 0 0 0 0 0 0 1 4 22 42 52 60 88 152 255 255 23 1 0 0 0 0 0 0 0 0 0 0 0 0 0 0 5 98 255 206 115 72 56 48 35 8 2 0 0 0 0 0 0 0 0 0 0
0 0 0 0 0 0 0 0 0 0 0 0 0 0 0 0 2 15 91 122 89 91 118 157 177 134 101 84 88 72 28 5 1 0 0 0 0 0 0 0 0 0 0 0 0 0 0 0 0 0 0 0 0 0 0 0 0 0 0 0 0 0 1 8 45 118 93 89 109 166 255 255 241 142 100 92 106 124 43 6 1 0 0 0 0 0 0 0 0 0 0 2 11 54 88 68 39 32 40 75 115 67 12 2 0 0 0 0 0 0 0 0 0 0 0 0 0 0 0 0 0 0 0 0 0 0 2 10 70 124 90 61 46 46 66 99 130 60 9 1 0 0 0 0 0 0 0 0 0 1 4 22 68 86 85 96 131 208 255 255 255 232 141 99 86 94 99 43 6 1 0 0 0 0 0 0 0 0 0 2 11 67 117 96 92 114 174 255 255 37 231 255 182 117 90 86 115 136 18 3 0 0 0 0 0 0 0 0 0 0 0 0 0 0 0 0 0 0 0 0 0 0 0 0 0 0 0 0 0 0 0 2 12 80 108 81 48 37 41 67 126 180 23 3 1 0 0 0 0 0 0 0 0 0 0 0 0 0 0 0 0 0 0 0 0 0 0 0 0 0 0 2 11 90 102 81 84 105 158 255 255 30 1 0 0 0 0 0 0 0 0 0 0 0 0 0 0 0 9 199 255 192 123 92 85 96 88 29 4 1 0 0 0 0 0 0 0 1 7 53 145 104 88 102 146 236 255 62 3 0 0 0 0 0 0 0 0 0 0 0 0 0 0 0 0 1 12 255 255 180 118 93 95 113 114 16 2 0 0 0 0 0 0 0 0 0 1 8 60 97 90 88 104 149 243 255 51 2 0 0 0 0 0 0 0 0 0 0 0 4 90 255 218 137 98 84 88 87 24 5 1 0 0 0 0 0 0 0 0 0 2 9 48 94 91 85 105 155 255 255 34 1 0 0 0 0 10 228 255 190 122 91 86 97 104 21 3 1 0 0 0 0 0 0 0 0 0 0 2 9 42 90 72 43 34 39 68 122 78 12 2 0 0 0 0 0 0 0 0 0 0 0 0 0 0 0 0 0 0 2 9 64 87 79 61 47 48 67 97 116 48 7 1 0 0 0 0 0 0 0 0 0 1 5 32 85 112 67 43 40 54 82 121 63 10 2 0 0 0 0 0 0 0 0 0 0 0 0 0 0 0 0 0 1 8 67 111 97 89 106 154 253 255 35 2 0 0 0 0 0 0 0 0 0 0 0 0 0 0 0 0 0 0 0 0 0 0 0 0 0 0 0 8 167 255 191 121 90 81 90 96 20 3 1 0 0 0 0 0 0 0 0 0 1 3 17 60 95 85 92 122 192 255 250 11 0 0 0 0 0 0 0 0 0 0 0 0 0 2 54 255 244 150 104 86 89 82 41 6 1 0 0 0 0 0 0 0 0 0 0
0 0 0 0 0 0 0 0 0 0 0 0 0 0 0 0 3 36 255 255 255 188 122 99 98 107 144 223 255 255 47 5 1 0 0 0 0 0 0 0 0 0 0 0 0 0 0 0 0 0 0 0 0 0 0 0 0 0 0 0 0 0 1 11 153 255 255 193 131 134 177 210 157 128 150 255 255 255 145 10 1 0 0 0 0 0 0 0 0 0 0 2 15 184 255 198 42 22 47 243 255 255 22 2 0 0 0 0 0 0 0 0 0 0 0 0 0 0 0 0 0 0 0 0 0 0 2 23 255 255 255 107 37 39 132 255 255 247 18 1 0 0 0 0 0 0 0 0 0 0 3 34 255 255 245 148 122 152 255 255 255 167 127 147 238 255 255 127 9 1 0 0 0 0 0 0 0 0 0 2 23 255 255 255 190 130 133 191 255 255 255 205 137 126 179 255 255 255 60 4 0 0 0 0 0 0 0 0 0 0 0 0 0 0 0 0 0 0 0 0 0 0 0 0 0 0 0 0 0 0 0 2 28 255 255 255 66 26 43 188 255 255 90 6 0 0 0 0 0 0 0 0 0 0 0 0 0 0 0 0 0 0 0 0 0 0 0 0 0 0 0 2 35 255 255 255 193 129 128 180 255 255 14 1 0 0 0 0 0 0 0 0 0 0 0 0 0 4 94 255 213 139 121 158 255 255 255 62 5 1 0 0 0 0 0 0 0 1 15 227 255 255 231 141 124 161 255 255 32 1 0 0 0 0 0 0 0 0 0 0 0 0 0 0 0 6 116 255 200 134 125 177 255 255 255 48 3 0 0 0 0 0 0 0 0 0 1 18 255 255 255 212 134 124 166 255 255 28 1 0 0 0 0 0 0 0 0 0 2 51 255 243 152 122 143 231 255 255 48 4 1 0 0 0 0 0 0 0 0 0 1 12 150 255 255 191 128 126 176 255 255 15 1 0 0 5 105 255 209 138 121 159 255 255 255 51 4 0 0 0 0 0 0 0 0 0 0 0 1 10 110 255 230 53 23 39 190 255 255 30 2 0 0 0 0 0 0 0 0 0 0 0 0 0 0 0 0 0 0 2 20 255 255 255 97 36 41 130 255 255 188 13 1 0 0 0 0 0 0 0 0 0 1 6 68 255 255 157 39 30 84 255 255 255 20 2 0 0 0 0 0 0 0 0 0 0 0 0 0 0 0 0 0 2 22 255 255 255 212 137 127 173 255 255 17 1 0 0 0 0 0 0 0 0 0 0 0 0 0 0 0 0 0 0 0 0 0 0 0 0 0 4 77 255 212 140 122 157 252 255 255 47 4 0 0 0 0 0 0 0 0 0 0 0 2 23 228 255 255 169 127 140 210 255 110 5 0 0 0 0 0 0 0 0 0 0 0 1 31 255 255 166 126 139 211 255 255 105 9 1 0 0 0 0 0 0 0 0 0 0
0 0 0 0 0 0 0 0 0 0 0 0 0 0 0 1 12 228 255 255 255 255 155 69 57 99 223 255 255 255 255 17 1 0 0 0 0 0 0 0 0 0 0 0 0 0 0 0 0 0 0 0 0 0 0 0 0 0 0 0 0 0 4 64 255 255 255 255 188 108 93 96 94 127 232 255 255 255 255 59 3 0 0 0 0 0 0 0 0 0 0 5 82 255 255 255 128 30 158 255 255 255 123 7 0 0 0 0 0 0 0 0 0 0 0 0 0 0 0 0 0 0 0 0 0 0 8 147 255 255 255 255 66 75 255 255 255 255 105 6 0 0 0 0 0 0 0 0 0 1 11 200 255 255 255 241 133 106 138 186 148 110 127 232 255 255 255 255 53 3 0 0 0 0 0 0 0 0 0 7 141 255 255 255 255 175 105 118 197 255 227 128 105 162 255 255 255 244 255 25 1 0 0 0 0 0 0 0 0 0 0 0 0 0 0 0 0 0 0 0 0 0 0 0 0 0 0 0 0 0 1 9 176 255 255 255 237 41 124 255 255 232 255 39 2 0 0 0 0 0 0 0 0 0 0 0 0 0 0 0 0 0 0 0 0 0 0 0 0 0 1 13 255 255 255 255 255 194 110 112 173 255 139 7 0 0 0 0 0 0 0 0 0 0 0 0 2 48 255 211 126 101 143 255 255 255 255 255 26 1 0 0 0 0 0 0 0 5 89 255 255 255 255 220 117 103 149 255 255 14 1 0 0 0 0 0 0 0 0 0 0 0 0 0 3 54 255 196 120 103 160 255 255 255 254 255 19 1 0 0 0 0 0 0 0 0 6 124 255 255 255 255 204 114 106 158 255 255 13 1 0 0 0 0 0 0 0 1 27 255 246 142 102 124 231 255 255 255 255 18 1 0 0 0 0 0 0 0 0 0 4 63 255 255 255 255 192 110 109 167 255 127 6 0 2 52 255 205 124 100 146 255 255 255 255 255 20 1 0 0 0 0 0 0 0 0 0 0 3 47 255 255 255 193 33 107 255 255 255 194 10 1 0 0 0 0 0 0 0 0 0 0 0 0 0 0 0 0 0 6 119 255 255 255 255 57 74 255 255 255 255 78 4 0 0 0 0 0 0 0 0 0 2 29 255 255 255 255 87 50 255 255 255 255 122 7 0 0 0 0 0 0 0 0 0 0 0 0 0 0 0 0 0 8 150 255 255 255 255 203 113 109 169 255 157 8 0 0 0 0 0 0 0 0 0 0 0 0 0 0 0 0 0 0 0 0 0 0 0 0 2 38 255 213 127 102 149 255 255 255 255 255 20 1 0 0 0 0 0 0 0 0 0 0 7 130 255 255 255 255 153 103 123 201 255 51 2 0 0 0 0 0 0 0 0 0 1 15 255 255 157 106 115 210 255 255 255 255 46 2 0 0 0 0 0 0 0 0 0 0
0 0 0 0 0 0 0 0 0 0 0 0 0 0 0 4 81 255 155 138 154 167 140 52 36 90 166 170 162 182 255 128 6 0 0 0 0 0 0 0 0 0 0 0 0 0 0 0 0 0 0 0 0 0 0 0 0 0 0 0 0 1 28 255 194 148 152 169 159 80 44 39 51 107 165 157 142 145 194 255 24 1 0 0 0 0 0 0 0 0 2 38 255 193 166 184 255 171 255 169 145 169 255 50 3 0 0 0 0 0 0 0 0 0 0 0 0 0 0 0 0 0 0 0 0 3 59 255 166 140 157 213 252 244 193 149 139 173 255 44 2 0 0 0 0 0 0 0 0 4 78 255 181 160 167 174 122 66 61 70 62 63 110 170 166 153 158 205 255 23 1 0 0 0 0 0 0 0 3 60 255 172 143 151 166 151 79 63 89 127 99 67 75 146 172 157 137 143 251 167 9 0 0 0 0 0 0 0 0 0 0 0 0 0 0 0 0 0 0 0 0 0 0 0 0 0 0 0 0 0 4 71 255 165 146 169 255 224 255 179 132 132 216 255 15 1 0 0 0 0 0 0 0 0 0 0 0 0 0 0 0 0 0 0 0 0 0 0 0 0 5 94 255 159 147 163 177 167 89 61 85 164 255 60 3 0 0 0 0 0 0 0 0 0 0 1 22 255 214 107 64 68 134 175 163 150 165 255 172 9 0 0 0 0 0 0 2 38 255 174 137 142 163 167 100 60 74 138 255 106 5 0 0 0 0 0 0 0 0 0 0 0 0 1 25 255 200 100 63 74 144 168 151 137 149 255 138 7 0 0 0 0 0 0 0 3 55 255 181 154 156 169 166 96 61 77 144 255 118 6 0 0 0 0 0 0 1 12 249 255 126 71 62 112 173 169 156 165 255 120 6 0 0 0 0 0 0 0 0 1 26 255 197 157 156 173 166 90 61 83 159 255 55 4 24 255 207 104 63 69 137 175 162 147 156 255 135 7 0 0 0 0 0 0 0 0 0 1 20 255 214 166 180 255 183 255 175 142 160 255 76 4 0 0 0 0 0 0 0 0 0 0 0 0 0 0 0 0 3 51 255 178 160 173 222 200 229 193 151 146 187 255 34 2 0 0 0 0 0 0 0 1 11 219 248 163 147 182 255 220 235 165 144 171 255 51 3 0 0 0 0 0 0 0 0 0 0 0 0 0 0 0 3 62 255 170 145 150 166 163 93 62 83 156 255 64 3 0 0 0 0 0 0 0 0 0 0 0 0 0 0 0 0 0 0 0 0 0 0 1 16 255 225 110 65 70 140 179 169 154 162 255 155 8 0 0 0 0 0 0 0 0 0 3 55 255 187 156 163 172 137 70 63 101 202 255 22 1 0 0 0 0 0 0 0 0 6 128 255 143 77 60 96 165 170 160 170 219 255 20 1 0 0 0 0 0 0 0 0 0
0 0 0 0 0 0 0 0 0 0 0 0 0 0 2 34 255 154 78 59 64 75 81 36 25 64 82 75 71 88 153 255 56 3 0 0 0 0 0 0 0 0 0 0 0 0 0 0 0 0 0 0 0 0 0 0 0 0 0 0 0 10 208 237 105 67 65 76 85 49 20 16 26 65 79 68 60 65 106 245 166 8 0 0 0 0 0 0 0 1 16 255 218 105 77 98 206 255 186 87 66 89 185 255 20 1 0 0 0 0 0 0 0 0 0 0 0 0 0 0 0 0 0 0 1 25 255 177 86 62 72 121 255 255 108 67 62 92 195 255 17 1 0 0 0 0 0 0 2 35 255 167 91 70 73 85 78 37 24 23 23 33 70 83 72 65 71 112 255 163 8 0 0 0 0 0 0 1 26 255 183 90 63 64 75 83 49 30 34 42 36 31 47 85 78 66 58 69 130 255 63 3 0 0 0 0 0 0 0 0 0 0 0 0 0 0 0 0 0 0 0 0 0 0 0 0 0 0 0 2 34 255 173 86 66 83 156 255 210 95 59 63 116 255 101 5 0 0 0 0 0 0 0 0 0 0 0 0 0 0 0 0 0 0 0 0 0 0 0 2 39 255 154 79 63 68 79 89 58 31 38 79 181 255 25 1 0 0 0 0 0 0 0 0 0 8 149 255 109 48 30 42 84 83 70 64 77 133 255 63 3 0 0 0 0 1 15 255 207 93 61 60 71 83 66 32 33 64 148 255 44 2 0 0 0 0 0 0 0 0 0 0 0 9 194 251 103 45 30 46 84 77 64 58 73 141 255 56 3 0 0 0 0 0 1 23 255 190 94 67 66 75 86 64 32 35 67 157 255 54 3 0 0 0 0 0 5 98 255 132 57 32 35 74 85 74 67 80 145 255 50 3 0 0 0 0 0 0 0 9 167 238 107 70 67 78 90 60 31 37 79 185 255 37 183 255 106 47 30 42 85 82 69 62 76 141 255 54 3 0 0 0 0 0 0 0 0 8 160 255 119 79 92 175 255 222 95 65 81 165 255 34 2 0 0 0 0 0 0 0 0 0 0 0 0 0 0 1 23 255 191 94 71 80 126 255 253 107 68 65 100 217 230 12 1 0 0 0 0 0 0 4 83 255 133 76 67 101 240 255 134 77 65 90 187 255 21 1 0 0 0 0 0 0 0 0 0 0 0 0 0 1 27 255 178 87 62 63 74 84 60 32 37 75 175 255 29 1 0 0 0 0 0 0 0 0 0 0 0 0 0 0 0 0 0 0 0 0 0 6 111 255 116 50 31 43 86 85 73 66 79 145 255 62 3 0 0 0 0 0 0 0 1 23 255 187 96 69 70 80 81 42 29 45 104 255 156 8 0 0 0 0 0 0 0 3 53 255 150 66 34 32 62 84 76 69 77 120 255 151 7 0 0 0 0 0 0 0 0 0
0 0 0 0 0 0 0 0 0 0 0 0 0 1 12 243 217 85 36 23 24 29 35 21 15 35 34 29 28 39 81 192 255 26 1 0 0 0 0 0 0 0 0 0 0 0 0 0 0 0 0 0 0 0 0 0 0 0 0 0 4 80 255 128 51 28 25 30 35 24 9 6 12 30 31 25 22 27 52 130 255 64 3 0 0 0 0 0 0 6 131 255 119 51 34 48 108 175 99 42 29 43 103 255 151 7 0 0 0 0 0 0 0 0 0 0 0 0 0 0 0 0 0 0 9 172 249 98 40 26 31 63 136 132 57 29 26 43 107 255 115 6 0 0 0 0 0 1 14 255 223 91 41 28 28 34 38 18 9 8 8 15 33 33 27 25 30 55 135 255 65 3 0 0 0 0 0 9 188 248 99 42 25 24 29 35 25 13 12 13 12 13 24 37 31 24 22 31 68 171 255 28 1 0 0 0 0 0 0 0 0 0 0 0 0 0 0 0 0 0 0 0 0 0 0 0 0 0 1 13 255 232 95 40 28 38 81 152 105 46 25 28 58 145 255 42 2 0 0 0 0 0 0 0 0 0 0 0 0 0 0 0 0 0 0 0 0 0 1 14 255 205 82 36 24 25 31 37 30 15 16 36 96 247 161 8 0 0 0 0 0 0 0 0 3 58 255 133 51 21 13 22 39 33 26 25 33 69 167 255 25 1 0 0 0 6 108 255 115 45 25 22 27 34 33 16 14 29 77 197 255 18 1 0 0 0 0 0 0 0 0 0 4 79 255 133 49 20 14 24 37 30 24 22 33 74 182 255 23 1 0 0 0 0 8 155 255 102 44 27 25 29 36 33 16 15 30 80 197 255 25 1 0 0 0 2 44 255 161 64 25 14 18 37 35 28 26 36 78 191 255 21 1 0 0 0 0 0 3 63 255 125 52 29 26 30 38 31 15 16 36 101 255 255 255 133 50 20 13 22 39 33 26 24 34 75 182 255 21 1 0 0 0 0 0 0 3 65 255 142 60 35 43 92 171 116 48 29 38 91 225 240 12 1 0 0 0 0 0 0 0 0 0 0 0 0 0 9 179 255 106 44 29 34 68 152 137 57 29 27 47 116 255 84 4 0 0 0 0 0 2 37 255 163 68 33 29 53 124 150 71 34 27 42 103 255 137 7 0 0 0 0 0 0 0 0 0 0 0 0 0 9 181 244 97 40 25 24 28 35 30 15 16 34 95 240 205 10 0 0 0 0 0 0 0 0 0 0 0 0 0 0 0 0 0 0 0 0 2 46 255 144 56 22 14 22 40 34 27 25 35 75 178 255 25 1 0 0 0 0 0 0 8 154 255 101 44 28 27 32 36 21 13 20 50 133 255 63 3 0 0 0 0 0 1 21 255 187 76 29 14 15 31 35 29 27 32 59 142 255 64 3 0 0 0 0 0 0 0 0
0 0 0 0 0 0 0 0 0 0 0 0 0 5 93 255 125 44 16 9 8 10 13 10 8 15 12 10 10 17 40 110 255 233 11 0 0 0 0 0 0 0 0 0 0 0 0 0 0 0 0 0 0 0 0 0 0 0 0 2 37 255 176 70 25 11 9 10 12 9 4 3 5 11 11 9 8 11 25 72 182 255 27 1 0 0 0 0 3 58 255 160 63 24 15 22 48 68 44 19 12 20 55 148 255 63 3 0 0 0 0 0 0 0 0 0 0 0 0 0 0 0 0 4 71 255 137 51 19 10 13 29 55 55 27 12 10 20 57 152 255 50 2 0 0 0 0 5 104 255 127 47 18 10 10 12 14 7 3 2 3 6 12 12 10 9 12 27 74 186 255 29 1 0 0 0 4 74 255 137 51 19 10 9 10 13 10 5 4 4 4 5 10 13 11 8 8 13 34 101 254 196 10 0 0 0 0 0 0 0 0 0 0 0 0 0 0 0 0 0 0 0 0 0 0 0 0 0 5 103 255 131 49 19 11 16 36 58 44 20 11 12 28 83 213 255 17 1 0 0 0 0 0 0 0 0 0 0 0 0 0 0 0 0 0 0 0 0 5 110 255 118 42 16 9 9 11 13 12 6 7 16 49 134 255 65 3 0 0 0 0 0 0 1 25 255 188 73 24 9 6 9 15 12 9 9 14 34 98 255 196 9 0 0 2 47 255 159 62 21 10 8 9 12 13 7 6 13 39 115 255 128 6 0 0 0 0 0 0 0 0 2 38 255 182 72 24 9 6 10 14 11 8 8 14 37 106 255 172 8 0 0 0 3 63 255 140 52 20 10 9 10 13 13 7 6 13 39 111 255 196 9 0 0 1 18 255 217 89 31 11 6 8 14 13 10 10 16 40 112 255 155 8 0 0 0 0 1 29 255 181 69 25 11 9 11 14 13 7 7 17 55 160 255 214 76 24 9 6 9 15 12 9 9 15 37 105 255 160 8 0 0 0 0 0 1 30 255 189 78 29 15 20 42 66 51 23 12 18 46 126 255 96 5 0 0 0 0 0 0 0 0 0 0 0 0 4 74 255 146 55 21 12 15 33 64 60 28 12 11 22 63 166 255 38 2 0 0 0 1 14 255 228 93 33 14 13 25 53 60 33 15 11 20 54 144 255 57 3 0 0 0 0 0 0 0 0 0 0 0 4 71 255 134 50 18 9 8 10 12 12 6 7 16 48 133 255 80 4 0 0 0 0 0 0 0 0 0 0 0 0 0 0 0 0 0 0 1 20 255 207 81 27 10 6 9 15 12 10 9 15 37 101 255 174 9 0 0 0 0 0 3 63 255 141 53 20 11 9 11 13 9 5 9 24 73 188 255 28 1 0 0 0 0 7 145 255 107 37 13 6 6 12 12 10 10 13 29 78 193 255 30 1 0 0 0 0 0 0 0
0 0 0 0 0 0 0 0 0 0 0 0 2 43 255 181 75 24 7 3 3 3 4 4 3 5 4 3 4 7 21 62 157 255 97 5 0 0 0 0 0 0 0 0 0 0 0 0 0 0 0 0 0 0 0 0 0 0 1 15 255 245 107 38 12 5 3 3 4 3 1 1 2 3 3 3 3 4 12 40 112 255 220 10 0 0 0 1 27 255 214 94 34 12 6 9 18 24 17 8 5 10 30 89 205 255 29 1 0 0 0 0 0 0 0 0 0 0 0 0 0 0 2 35 255 199 82 27 9 4 5 12 20 20 11 5 4 10 31 93 219 255 23 1 0 0 2 48 255 177 74 25 8 4 3 4 5 3 1 1 1 2 4 4 3 3 5 13 41 114 255 255 12 1 0 2 35 255 193 81 27 9 4 3 3 4 3 2 1 1 1 2 3 4 3 3 3 6 18 58 147 255 81 4 0 0 0 0 0 0 0 0 0 0 0 0 0 0 0 0 0 0 0 0 0 0 0 2 46 255 177 75 26 9 5 7 14 20 16 8 4 5 14 47 131 255 143 7 0 0 0 0 0 0 0 0 0 0 0 0 0 0 0 0 0 0 0 2 52 255 177 70 22 7 3 3 3 4 4 2 3 8 26 81 200 255 33 1 0 0 0 0 0 10 214 255 117 40 12 4 2 3 5 4 3 3 6 18 57 153 255 88 4 1 20 255 222 96 34 10 4 3 3 4 4 3 2 6 20 67 166 255 56 3 0 0 0 0 0 0 1 18 255 250 110 39 12 4 2 3 4 3 3 3 6 19 61 155 255 73 4 0 1 31 255 203 84 28 9 4 3 3 4 4 3 2 6 20 62 156 255 79 4 1 7 159 255 131 49 15 5 2 3 5 4 3 4 7 21 64 159 255 67 3 0 0 1 12 255 255 114 39 12 5 3 4 4 4 3 3 8 30 83 140 104 42 12 4 2 3 5 4 3 3 6 19 61 160 255 71 3 0 0 0 1 12 255 255 114 42 14 7 8 16 23 19 9 5 8 25 74 183 255 48 2 0 0 0 0 0 0 0 0 0 0 2 35 255 198 85 30 10 5 6 14 24 23 12 5 5 11 35 103 243 255 17 1 0 0 5 106 255 136 52 17 6 5 10 20 21 13 6 5 9 29 87 208 255 26 1 0 0 0 0 0 0 0 0 0 2 34 255 194 80 26 8 4 3 3 4 4 2 3 7 25 78 189 255 38 2 0 0 0 0 0 0 0 0 0 0 0 0 0 0 0 0 0 8 176 255 129 45 13 4 2 3 5 4 3 3 6 19 57 149 255 73 4 0 0 0 1 30 255 203 85 28 9 4 3 4 4 3 2 4 12 41 116 255 223 11 0 0 0 3 60 255 156 61 19 6 2 2 4 4 3 3 5 14 43 118 255 250 12 1 0 0 0 0 0 0
0 0 0 0 0 0 0 0 0 0 0 1 19 255 242 115 46 13 4 1 1 1 1 1 1 1 1 1 1 3 11 37 96 199 255 47 2 0 0 0 0 0 0 0 0 0 0 0 0 0 0 0 0 0 0 0 0 0 6 118 255 150 65 22 6 2 1 1 1 1 0 0 1 1 1 1 1 2 6 23 70 162 255 98 5 0 0 10 216 255 133 56 19 6 3 3 6 8 6 3 2 5 17 54 128 255 238 11 1 0 0 0 0 0 0 0 0 0 0 0 0 1 16 255 255 127 51 15 4 2 2 4 7 7 4 2 2 5 18 58 139 255 195 9 0 1 24 255 237 111 44 13 4 1 1 1 1 1 0 0 0 1 1 1 1 1 2 6 24 70 162 255 114 5 1 14 255 255 123 49 15 4 1 1 1 1 1 1 0 0 0 1 1 1 1 1 1 3 10 35 93 203 255 41 2 0 0 0 0 0 0 0 0 0 0 0 0 0 0 0 0 0 0 0 0 0 1 19 255 233 111 44 14 4 2 2 5 6 5 3 2 2 8 28 82 180 255 64 3 0 0 0 0 0 0 0 0 0 0 0 0 0 0 0 0 0 1 24 255 232 113 44 12 3 1 1 1 1 1 1 1 4 14 51 129 255 255 15 1 0 0 0 4 88 255 166 73 24 6 2 1 1 1 1 1 1 3 10 36 97 208 255 48 11 182 255 140 58 19 5 2 1 1 1 1 1 1 3 11 41 104 222 255 26 1 0 0 0 0 0 8 180 255 154 66 22 6 2 1 1 1 1 1 1 3 10 37 98 209 255 36 2 14 255 255 130 52 16 4 2 1 1 1 1 1 1 3 10 36 96 202 255 37 5 75 255 180 80 28 8 2 1 1 1 1 1 1 3 11 39 99 214 255 34 1 0 5 112 255 164 72 23 6 2 1 1 1 1 1 1 4 15 39 56 46 22 6 2 1 1 1 1 1 1 3 10 38 102 214 255 34 2 0 0 6 116 255 162 70 24 7 3 3 6 7 6 4 2 4 13 45 116 244 255 24 1 0 0 0 0 0 0 0 0 1 14 255 255 124 51 16 5 2 2 5 8 8 4 2 2 5 20 65 152 255 152 7 0 2 51 255 187 85 30 9 3 2 4 6 7 5 2 2 5 16 54 133 255 225 11 0 0 0 0 0 0 0 0 1 14 255 255 124 49 15 4 1 1 1 1 1 1 1 4 14 47 120 254 255 16 1 0 0 0 0 0 0 0 0 0 0 0 0 0 0 0 4 77 255 175 80 27 7 2 1 1 1 1 1 1 3 10 34 95 208 255 37 2 0 1 12 255 255 129 53 16 4 2 1 1 1 1 1 2 6 24 71 160 255 90 4 0 1 27 255 213 99 36 10 3 1 1 1 1 1 1 2 7 25 71 160 255 102 5 0 0 0 0 0 0
0 0 0 0 0 0 0 0 0 0 0 7 150 255 149 72 29 7 2 1 0 0 0 0 0 0 0 0 1 1 6 22 59 122 242 255 22 1 0 0 0 0 0 0 0 0 0 0 0 0 0 0 0 0 0 0 0 3 53 255 187 93 41 12 3 1 0 0 0 0 0 0 0 0 0 0 0 1 3 14 46 102 206 255 51 3 5 90 255 165 81 35 10 3 1 1 2 2 2 1 1 2 10 34 79 164 255 100 5 0 0 0 0 0 0 0 0 0 0 0 0 7 153 255 160 79 33 9 2 1 1 1 2 2 1 1 1 2 10 37 86 174 255 83 5 10 220 255 148 70 28 7 2 1 0 0 0 0 0 0 0 0 0 0 0 0 1 3 14 45 100 200 255 56 9 132 255 157 76 31 8 2 1 0 0 0 0 0 0 0 0 0 0 0 0 0 0 1 5 21 60 128 255 255 18 1 0 0 0 0 0 0 0 0 0 0 0 0 0 0 0 0 0 0 0 0 8 170 255 144 69 27 7 2 1 1 1 2 2 1 1 1 4 17 53 112 221 255 31 1 0 0 0 0 0 0 0 0 0 0 0 0 0 0 0 0 10 214 255 142 70 28 7 2 1 0 0 0 0 0 1 2 8 33 81 164 255 145 7 0 0 2 42 255 202 103 47 14 3 1 0 0 0 0 0 0 1 5 22 62 129 254 255 155 255 179 87 37 11 3 1 0 0 0 0 0 0 1 6 25 66 139 255 234 11 0 0 0 0 4 87 255 188 93 42 13 3 1 0 0 0 0 0 0 1 6 23 62 131 255 255 24 132 255 165 81 33 9 2 1 0 0 0 0 0 0 1 5 22 59 126 255 255 67 255 220 111 51 17 4 1 0 0 0 0 0 1 1 6 24 63 135 255 255 16 3 53 255 198 101 47 14 3 1 0 0 0 0 0 1 2 7 16 21 18 10 3 1 0 0 0 0 0 0 1 6 24 65 132 255 255 15 1 3 58 255 199 100 45 14 4 1 1 2 2 2 1 1 2 7 29 73 150 255 234 11 0 0 0 0 0 0 0 0 6 127 255 156 76 32 9 2 1 1 2 2 2 1 1 1 3 12 42 94 185 255 66 4 26 255 238 118 54 18 5 1 1 1 2 2 1 1 1 2 9 35 83 168 255 100 5 0 0 0 0 0 0 0 6 128 255 160 78 32 8 2 1 0 0 0 0 0 0 2 8 30 75 155 255 143 7 0 0 0 0 0 0 0 0 0 0 0 0 0 0 2 38 255 212 108 51 16 4 1 0 0 0 0 0 0 1 5 21 61 132 255 255 16 1 5 109 255 164 81 34 9 2 1 0 0 0 0 0 1 3 14 45 99 199 255 43 2 11 246 255 134 63 22 5 1 0 0 0 0 0 0 1 4 14 45 98 196 255 49 2 0 0 0 0 0
0 0 0 0 0 0 0 0 0 0 3 64 255 177 90 46 18 4 1 0 0 0 0 0 0 0 0 0 0 1 3 13 36 73 146 255 208 9 0 0 0 0 0 0 0 0 0 0 0 0 0 0 0 0 0 0 1 24 255 226 114 58 26 7 2 0 0 0 0 0 0 0 0 0 0 0 0 0 2 8 30 64 124 242 255 28 47 255 200 100 50 21 6 1 0 0 1 1 1 0 0 1 5 21 50 99 197 255 48 2 0 0 0 0 0 0 0 0 0 0 3 73 255 189 95 49 20 5 1 0 0 0 1 1 0 0 0 1 6 23 54 104 205 255 48 106 255 173 89 45 17 4 1 0 0 0 0 0 0 0 0 0 0 0 0 0 0 2 8 29 61 119 232 255 136 255 191 95 48 19 5 1 0 0 0 0 0 0 0 0 0 0 0 0 0 0 0 1 3 12 39 78 152 255 152 7 0 0 0 0 0 0 0 0 0 0 0 0 0 0 0 0 0 0 0 4 76 255 180 88 43 16 4 1 0 0 0 0 0 0 0 1 2 10 34 68 134 255 255 13 1 0 0 0 0 0 0 0 0 0 0 0 0 0 0 4 92 255 171 85 44 17 4 1 0 0 0 0 0 0 0 1 5 21 51 97 191 255 71 3 1 20 255 246 123 63 30 8 2 0 0 0 0 0 0 0 1 3 13 40 77 155 255 255 231 110 55 24 6 1 0 0 0 0 0 0 0 1 3 15 42 84 167 255 104 5 0 0 2 47 255 216 111 57 26 7 2 0 0 0 0 0 0 0 1 3 13 40 79 159 255 255 255 195 98 51 21 5 1 0 0 0 0 0 0 0 1 3 12 37 76 156 255 255 255 133 67 32 9 2 0 0 0 0 0 0 0 1 3 14 41 81 161 255 156 35 255 230 118 62 30 8 2 0 0 0 0 0 0 0 1 3 6 7 6 3 1 0 0 0 0 0 0 0 1 3 14 41 79 157 255 136 8 31 255 233 119 61 28 8 2 1 0 1 1 1 0 0 1 4 18 46 89 173 255 98 5 0 0 0 0 0 0 3 62 255 190 94 47 19 5 1 0 0 0 1 1 0 0 0 1 7 27 58 110 214 255 48 229 255 145 73 35 11 2 1 0 0 1 1 0 0 0 1 5 22 52 101 202 255 52 2 0 0 0 0 0 3 59 255 188 96 50 20 5 1 0 0 0 0 0 0 0 1 4 18 48 93 184 255 64 3 0 0 0 0 0 0 0 0 0 0 0 0 1 17 255 255 128 65 32 9 2 0 0 0 0 0 0 0 1 3 13 40 80 155 255 141 9 52 255 194 98 51 21 5 1 0 0 0 0 0 0 0 2 8 28 61 122 242 255 25 109 255 167 83 41 13 3 1 0 0 0 0 0 0 0 2 8 28 60 119 236 255 24 1 0 0 0 0
0 0 0 0 0 0 0 0 0 1 30 255 210 105 53 28 10 2 0 0 0 0 0 0 0 0 0 0 0 0 2 7 21 43 85 172 255 94 4 0 0 0 0 0 0 0 0 0 0 0 0 0 0 0 0 0 10 217 255 136 67 35 15 4 1 0 0 0 0 0 0 0 0 0 0 0 0 0 1 4 18 39 72 142 255 255 255 245 120 59 30 12 3 1 0 0 0 0 0 0 0 1 3 11 31 59 117 234 255 22 1 0 0 0 0 0 0 0 0 2 36 255 216 110 56 30 11 3 1 0 0 0 0 0 0 0 0 1 3 13 33 61 122 255 255 255 205 100 52 27 9 2 0 0 0 0 0 0 0 0 0 0 0 0 0 0 0 1 4 17 37 69 140 255 255 247 115 57 29 11 2 1 0 0 0 0 0 0 0 0 0 0 0 0 0 0 0 0 1 7 24 47 88 174 255 67 3 0 0 0 0 0 0 0 0 0 0 0 0 0 0 0 0 0 2 35 255 208 106 53 26 9 2 0 0 0 0 0 0 0 0 0 1 5 20 41 78 158 255 113 6 0 0 0 0 0 0 0 0 0 0 0 0 0 2 44 255 200 100 51 26 9 2 0 0 0 0 0 0 0 0 1 3 12 31 57 111 220 255 38 11 204 255 148 72 38 17 4 1 0 0 0 0 0 0 0 0 2 7 24 47 91 175 226 131 66 34 14 3 1 0 0 0 0 0 0 0 0 2 8 26 51 98 198 255 52 2 1 22 255 245 126 63 34 15 4 1 0 0 0 0 0 0 0 0 2 7 24 48 95 200 255 255 118 58 31 12 3 1 0 0 0 0 0 0 0 0 1 7 22 47 96 199 255 163 79 41 19 5 1 0 0 0 0 0 0 0 0 2 8 25 49 93 186 255 255 255 138 68 37 17 4 1 0 0 0 0 0 0 0 0 1 2 2 2 1 0 0 0 0 0 0 0 0 0 2 8 24 47 92 186 255 102 255 255 138 69 36 16 4 1 0 0 0 0 0 0 0 0 2 10 28 52 99 196 255 47 2 0 0 0 0 1 32 255 224 113 56 29 11 3 1 0 0 0 0 0 0 0 0 1 4 15 34 64 129 255 255 255 167 84 44 21 6 1 0 0 0 0 0 0 0 0 1 3 12 32 60 120 238 255 26 1 0 0 0 1 28 255 221 111 57 30 11 3 1 0 0 0 0 0 0 0 0 2 10 29 55 108 214 255 30 1 0 0 0 0 0 0 0 0 0 0 0 7 150 255 151 74 39 18 5 1 0 0 0 0 0 0 0 0 2 7 24 47 90 182 255 139 255 230 115 58 31 12 3 1 0 0 0 0 0 0 0 1 4 16 37 71 144 255 255 255 197 98 50 25 7 2 0 0 0 0 0 0 0 0 1 4 16 36 70 141 255 208 10 0 0 0 0
0 0 0 0 0 0 0 0 1 12 251 255 127 60 31 15 5 1 0 0 0 0 0 0 0 0 0 0 0 0 1 3 11 25 49 100 203 255 48 2 0 0 0 0 0 0 0 0 0 0 0 0 0 0 0 4 90 255 166 79 39 20 7 2 0 0 0 0 0 0 0 0 0 0 0 0 0 0 0 2 9 22 41 82 175 255 255 150 70 35 17 6 1 0 0 0 0 0 0 0 0 0 1 6 17 34 67 139 255 202 9 0 0 0 0 0 0 0 1 15 255 255 127 62 32 16 5 1 0 0 0 0 0 0 0 0 0 0 2 6 18 36 72 158 255 255 125 58 30 15 4 1 0 0 0 0 0 0 0 0 0 0 0 0 0 0 0 0 2 8 21 40 83 171 232 138 68 34 16 5 1 0 0 0 0 0 0 0 0 0 0 0 0 0 0 0 0 0 1 3 13 27 50 102 211 255 33 1 0 0 0 0 0 0 0 0 0 0 0 0 0 0 0 1 14 255 252 123 61 31 15 4 1 0 0 0 0 0 0 0 0 0 1 3 10 23 45 91 186 255 53 3 0 0 0 0 0 0 0 0 0 0 0 1 19 255 238 118 58 30 14 4 1 0 0 0 0 0 0 0 0 0 1 6 17 33 63 129 255 255 147 255 176 85 42 21 9 2 0 0 0 0 0 0 0 0 0 1 4 13 27 50 80 95 66 38 19 7 2 0 0 0 0 0 0 0 0 0 1 4 14 29 57 117 233 255 24 10 197 255 143 70 36 18 7 2 0 0 0 0 0 0 0 0 0 1 4 13 28 55 106 167 127 68 34 17 6 1 0 0 0 0 0 0 0 0 0 1 3 12 28 55 95 120 83 45 23 10 3 1 0 0 0 0 0 0 0 0 1 4 13 28 53 112 246 255 182 82 39 21 8 2 0 0 0 0 0 0 0 0 0 0 0 1 1 0 0 0 0 0 0 0 0 0 0 1 4 13 27 53 111 240 255 255 163 78 39 20 8 2 0 0 0 0 0 0 0 0 0 1 5 15 29 56 115 236 255 23 1 0 0 1 14 255 255 132 64 33 16 5 1 0 0 0 0 0 0 0 0 0 0 2 7 19 37 77 170 255 221 101 48 25 11 3 1 0 0 0 0 0 0 0 0 0 1 6 18 35 68 140 255 230 11 0 0 1 12 253 255 132 63 33 16 5 1 0 0 0 0 0 0 0 0 0 1 5 16 32 62 128 255 239 12 1 0 0 0 0 0 0 0 0 0 3 69 255 180 87 43 22 9 2 1 0 0 0 0 0 0 0 0 1 4 13 27 52 109 243 255 255 140 66 34 17 6 1 0 0 0 0 0 0 0 0 0 2 8 21 42 86 193 255 255 120 57 30 13 4 1 0 0 0 0 0 0 0 0 0 2 8 20 40 81 167 255 89 4 0 0 0
0 0 0 0 0 0 0 0 5 102 255 162 76 36 17 7 2 1 0 0 0 0 0 0 0 0 0 0 0 0 0 1 5 13 28 59 124 248 255 23 1 0 0 0 0 0 0 0 0 0 0 0 0 0 2 43 255 204 101 48 22 10 3 1 0 0 0 0 0 0 0 0 0 0 0 0 0 0 0 1 4 11 23 49 104 190 172 92 43 20 8 3 1 0 0 0 0 0 0 0 0 0 1 3 8 19 40 84 177 255 93 4 0 0 0 0 0 0 6 136 255 155 74 36 18 7 2 1 0 0 0 0 0 0 0 0 0 0 1 3 9 20 44 91 151 131 74 35 16 7 2 0 0 0 0 0 0 0 0 0 0 0 0 0 0 0 0 0 1 4 10 23 48 82 100 71 39 19 8 2 1 0 0 0 0 0 0 0 0 0 0 0 0 0 0 0 0 0 0 2 6 14 29 61 133 255 255 16 1 0 0 0 0 0 0 0 0 0 0 0 0 0 0 6 116 255 155 73 35 17 7 2 0 0 0 0 0 0 0 0 0 0 0 1 4 12 26 54 114 236 255 27 1 0 0 0 0 0 0 0 0 0 0 7 154 255 147 69 34 16 6 2 0 0 0 0 0 0 0 0 0 0 1 2 8 18 36 76 162 255 255 228 107 51 24 11 4 1 0 0 0 0 0 0 0 0 0 0 2 6 14 25 34 37 31 20 9 3 1 0 0 0 0 0 0 0 0 0 0 2 6 16 33 69 142 255 226 118 255 176 84 40 20 9 3 1 0 0 0 0 0 0 0 0 0 0 2 6 15 31 53 70 59 37 19 8 3 1 0 0 0 0 0 0 0 0 0 0 1 5 15 29 42 48 39 24 12 4 1 0 0 0 0 0 0 0 0 0 0 2 6 15 31 67 124 155 101 50 23 10 4 1 0 0 0 0 0 0 0 0 0 0 0 0 0 0 0 0 0 0 0 0 0 0 0 0 2 6 15 31 68 144 255 211 102 46 22 10 4 1 0 0 0 0 0 0 0 0 0 1 2 7 16 32 68 147 255 230 10 0 0 6 126 255 165 78 38 18 7 2 1 0 0 0 0 0 0 0 0 0 0 1 3 9 22 47 93 139 111 60 29 13 5 1 0 0 0 0 0 0 0 0 0 0 1 3 8 20 40 82 169 255 102 5 0 5 113 255 166 79 37 18 8 2 1 0 0 0 0 0 0 0 0 0 1 2 7 17 36 76 162 255 95 5 0 0 0 0 0 0 0 0 2 36 255 223 110 52 25 11 4 1 0 0 0 0 0 0 0 0 0 0 2 6 14 31 67 142 240 182 88 40 19 8 2 1 0 0 0 0 0 0 0 0 0 1 4 11 24 54 110 177 138 73 34 16 6 2 0 0 0 0 0 0 0 0 0 0 1 3 10 23 48 101 207 255 44 2 0 0
0 0 0 0 0 0 0 2 50 255 216 112 53 23 9 3 1 0 0 0 0 0 0 0 0 0 0 0 0 0 0 1 2 6 16 39 84 167 255 203 9 0 0 0 0 0 0 0 0 0 0 0 0 1 20 255 255 140 70 31 12 4 1 0 0 0 0 0 0 0 0 0 0 0 0 0 0 0 0 0 2 5 13 32 64 92 87 59 28 11 4 1 0 0 0 0 0 0 0 0 0 0 0 1 4 10 25 58 122 232 255 51 2 0 0 0 0 3 67 255 211 107 50 22 9 3 1 0 0 0 0 0 0 0 0 0 0 0 0 1 4 11 28 54 71 65 45 22 8 3 1 0 0 0 0 0 0 0 0 0 0 0 0 0 0 0 0 0 0 1 5 13 28 40 44 37 23 10 3 1 0 0 0 0 0 0 0 0 0 0 0 0 0 0 0 0 0 0 0 1 2 7 17 42 92 183 255 168 7 0 0 0 0 0 0 0 0 0 0 0 0 0 3 58 255 209 107 50 22 9 3 1 0 0 0 0 0 0 0 0 0 0 0 1 2 6 15 36 79 163 255 255 13 1 0 0 0 0 0 0 0 0 3 72 255 198 101 48 20 8 3 1 0 0 0 0 0 0 0 0 0 0 0 1 3 9 22 52 114 215 255 150 75 34 14 5 2 0 0 0 0 0 0 0 0 0 0 0 1 2 6 11 14 14 13 9 4 1 0 0 0 0 0 0 0 0 0 0 0 1 3 8 20 46 97 197 255 255 244 121 57 25 10 4 1 0 0 0 0 0 0 0 0 0 0 0 1 2 7 16 25 29 27 19 10 3 1 0 0 0 0 0 0 0 0 0 0 0 1 2 7 14 18 19 17 12 5 2 0 0 0 0 0 0 0 0 0 0 0 1 2 7 19 42 63 72 56 32 13 5 1 0 0 0 0 0 0 0 0 0 0 0 0 0 0 0 0 0 0 0 0 0 0 0 0 0 1 2 7 19 46 89 128 112 68 31 12 4 1 0 0 0 0 0 0 0 0 0 0 0 1 3 8 20 47 101 198 255 103 5 3 61 255 211 111 54 23 9 3 1 0 0 0 0 0 0 0 0 0 0 0 0 1 4 12 29 51 64 56 37 17 6 2 1 0 0 0 0 0 0 0 0 0 0 0 1 4 10 25 56 115 225 255 54 5 60 255 222 114 55 23 9 3 1 0 0 0 0 0 0 0 0 0 0 0 1 3 9 22 53 112 216 255 47 2 0 0 0 0 0 0 1 17 255 255 153 76 34 14 5 2 0 0 0 0 0 0 0 0 0 0 0 1 2 7 19 46 84 115 98 60 26 10 3 1 0 0 0 0 0 0 0 0 0 0 0 2 5 14 35 64 83 72 47 21 8 3 1 0 0 0 0 0 0 0 0 0 0 0 1 5 13 31 70 143 255 255 21 1 0
0 0 0 0 0 0 1 25 255 255 172 106 51 15 4 1 0 0 0 0 0 0 0 0 0 0 0 0 0 0 0 0 1 3 9 33 81 138 223 255 97 4 0 0 0 0 0 0 0 0 0 0 0 8 185 255 201 124 68 24 7 2 1 0 0 0 0 0 0 0 0 0 0 0 0 0 0 0 0 0 1 2 7 23 48 52 52 45 19 5 2 0 0 0 0 0 0 0 0 0 0 0 0 0 1 5 18 57 112 179 255 255 30 1 0 0 1 35 255 255 168 101 47 14 4 1 0 0 0 0 0 0 0 0 0 0 0 0 0 0 2 6 18 35 38 37 30 13 4 1 0 0 0 0 0 0 0 0 0 0 0 0 0 0 0 0 0 0 0 1 2 6 15 20 21 19 12 4 1 0 0 0 0 0 0 0 0 0 0 0 0 0 0 0 0 0 0 0 0 0 1 3 11 38 90 149 241 255 89 4 0 0 0 0 0 0 0 0 0 0 0 1 34 255 255 169 102 48 14 4 1 0 0 0 0 0 0 0 0 0 0 0 0 0 1 2 8 29 80 138 222 255 138 6 0 0 0 0 0 0 0 2 39 255 255 161 97 44 13 4 1 0 0 0 0 0 0 0 0 0 0 0 0 0 1 4 15 50 103 135 146 118 74 26 8 2 1 0 0 0 0 0 0 0 0 0 0 0 0 1 2 4 5 5 5 3 1 0 0 0 0 0 0 0 0 0 0 0 0 0 1 4 13 41 96 165 255 255 188 113 55 17 5 2 0 0 0 0 0 0 0 0 0 0 0 0 0 1 3 7 11 12 12 9 4 1 0 0 0 0 0 0 0 0 0 0 0 0 0 1 3 5 7 7 7 5 2 1 0 0 0 0 0 0 0 0 0 0 0 0 1 3 11 28 37 38 36 21 7 2 1 0 0 0 0 0 0 0 0 0 0 0 0 0 0 0 0 0 0 0 0 0 0 0 0 0 0 1 3 12 39 67 74 71 58 23 7 2 1 0 0 0 0 0 0 0 0 0 0 0 0 1 4 13 43 96 157 252 255 57 38 255 255 166 102 51 16 4 1 0 0 0 0 0 0 0 0 0 0 0 0 0 1 2 6 18 31 33 32 24 9 3 1 0 0 0 0 0 0 0 0 0 0 0 0 0 2 5 17 53 107 176 255 255 80 255 255 173 107 52 16 5 1 0 0 0 0 0 0 0 0 0 0 0 0 0 1 4 15 51 106 173 255 255 25 1 0 0 0 0 0 8 178 255 209 130 75 27 8 2 1 0 0 0 0 0 0 0 0 0 0 0 0 1 3 12 37 61 66 63 50 18 5 1 0 0 0 0 0 0 0 0 0 0 0 0 1 2 8 25 43 46 44 34 13 4 1 0 0 0 0 0 0 0 0 0 0 0 0 1 2 7 24 69 124 200 255 215 9 0
0 0 0 0 0 0 12 255 255 224 183 183 93 13 2 1 0 0 0 0 0 0 0 0 0 0 0 0 0 0 0 0 0 1 7 43 166 178 195 255 255 54 2 0 0 0 0 0 0 0 0 0 4 88 255 249 189 183 142 25 4 1 0 0 0 0 0 0 0 0 0 0 0 0 0 0 0 0 0 0 0 1 4 17 46 40 42 44 12 3 1 0 0 0 0 0 0 0 0 0 0 0 0 0 1 3 17 118 180 182 227 255 255 16 1 1 18 255 255 216 180 182 86 12 2 1 0 0 0 0 0 0 0 0 0 0 0 0 0 0 1 3 10 24 24 24 20 7 2 0 0 0 0 0 0 0 0 0 0 0 0 0 0 0 0 0 0 0 0 0 1 2 6 9 9 9 5 2 1 0 0 0 0 0 0 0 0 0 0 0 0 0 0 0 0 0 0 0 0 0 0 2 8 56 174 179 201 255 255 54 2 0 0 0 0 0 0 0 0 0 1 19 255 255 223 183 181 92 12 2 1 0 0 0 0 0 0 0 0 0 0 0 0 0 0 1 6 36 174 179 193 255 255 73 3 0 0 0 0 0 1 20 255 255 216 182 180 74 10 2 0 0 0 0 0 0 0 0 0 0 0 0 0 0 1 2 13 94 164 122 114 146 155 30 5 1 0 0 0 0 0 0 0 0 0 0 0 0 0 0 1 1 2 2 2 1 0 0 0 0 0 0 0 0 0 0 0 0 0 0 0 2 10 65 190 183 182 187 178 185 117 17 3 1 0 0 0 0 0 0 0 0 0 0 0 0 0 0 1 3 4 5 4 3 1 1 0 0 0 0 0 0 0 0 0 0 0 0 0 0 1 2 2 2 2 1 1 0 0 0 0 0 0 0 0 0 0 0 0 0 0 1 6 18 24 24 24 12 3 1 0 0 0 0 0 0 0 0 0 0 0 0 0 0 0 0 0 0 0 0 0 0 0 0 0 0 0 0 2 8 43 82 64 69 82 20 4 1 0 0 0 0 0 0 0 0 0 0 0 0 0 0 2 10 70 176 177 206 255 255 255 255 221 180 176 96 14 2 1 0 0 0 0 0 0 0 0 0 0 0 0 0 0 1 3 9 18 19 19 14 4 1 0 0 0 0 0 0 0 0 0 0 0 0 0 0 1 3 15 103 183 181 225 255 255 255 223 181 182 97 14 3 1 0 0 0 0 0 0 0 0 0 0 0 0 0 1 2 13 96 181 184 228 255 255 11 0 0 0 0 4 91 255 255 189 178 159 31 5 1 0 0 0 0 0 0 0 0 0 0 0 0 0 0 2 8 37 65 55 60 61 14 3 1 0 0 0 0 0 0 0 0 0 0 0 0 0 1 4 17 34 32 33 27 7 2 0 0 0 0 0 0 0 0 0 0 0 0 0 0 1 4 26 150 179 187 250 255 112 5
0 0 0 0 0 6 120 255 237 196 237 255 255 37 3 0 0 0 0 0 0 0 0 0 0 0 0 0 0 0 0 0 0 1 12 185 255 255 204 209 255 255 28 1 0 0 0 0 0 0 0 2 48 255 255 200 215 255 255 77 6 1 0 0 0 0 0 0 0 0 0 0 0 0 0 0 0 0 0 0 0 0 2 13 61 42 49 57 10 2 0 0 0 0 0 0 0 0 0 0 0 0 0 0 0 4 53 255 255 231 193 237 255 186 8 9 191 255 230 195 239 255 255 36 3 0 0 0 0 0 0 0 0 0 0 0 0 0 0 0 0 1 5 13 14 15 10 3 1 0 0 0 0 0 0 0 0 0 0 0 0 0 0 0 0 0 0 0 0 0 0 1 2 3 3 3 2 1 0 0 0 0 0 0 0 0 0 0 0 0 0 0 0 0 0 0 0 0 0 0 0 1 18 255 255 255 198 211 255 255 32 1 0 0 0 0 0 0 0 0 10 246 255 235 196 241 255 255 39 3 0 0 0 0 0 0 0 0 0 0 0 0 0 0 0 1 9 143 255 255 204 202 255 255 41 2 0 0 0 0 10 229 255 227 197 248 255 255 29 2 0 0 0 0 0 0 0 0 0 0 0 0 0 0 0 3 40 255 255 202 168 255 255 96 7 1 0 0 0 0 0 0 0 0 0 0 0 0 0 0 0 0 0 0 0 0 0 0 0 0 0 0 0 0 0 0 0 0 0 0 0 2 24 255 255 240 156 147 212 255 255 57 4 0 0 0 0 0 0 0 0 0 0 0 0 0 0 0 0 1 1 1 1 1 0 0 0 0 0 0 0 0 0 0 0 0 0 0 0 0 0 1 1 1 1 0 0 0 0 0 0 0 0 0 0 0 0 0 0 0 0 1 3 9 14 15 13 6 2 0 0 0 0 0 0 0 0 0 0 0 0 0 0 0 0 0 0 0 0 0 0 0 0 0 0 0 0 0 1 9 89 222 129 160 255 34 3 0 0 0 0 0 0 0 0 0 0 0 0 0 0 0 2 27 255 255 250 197 227 255 255 242 198 243 255 255 41 3 0 0 0 0 0 0 0 0 0 0 0 0 0 0 0 0 1 4 8 9 9 6 2 1 0 0 0 0 0 0 0 0 0 0 0 0 0 0 0 3 46 255 255 233 200 248 255 243 199 236 255 255 41 3 0 0 0 0 0 0 0 0 0 0 0 0 0 0 0 3 40 255 255 237 196 238 255 123 6 0 0 2 49 255 255 201 211 255 255 109 8 1 0 0 0 0 0 0 0 0 0 0 0 0 0 0 1 7 51 142 94 116 155 17 2 0 0 0 0 0 0 0 0 0 0 0 0 0 0 0 2 10 26 24 26 19 4 1 0 0 0 0 0 0 0 0 0 0 0 0 0 0 1 6 85 255 255 216 200 255 255 71
0 0 0 0 3 61 255 225 159 168 220 250 255 255 14 1 0 0 0 0 0 0 0 0 0 0 0 0 0 0 0 0 0 4 80 255 255 239 193 154 184 255 255 13 1 0 0 0 0 0 1 26 255 255 173 158 204 242 255 255 34 2 0 0 0 0 0 0 0 0 0 0 0 0 0 0 0 0 0 0 0 0 2 17 147 76 103 133 13 1 0 0 0 0 0 0 0 0 0 0 0 0 0 0 1 23 255 255 249 218 164 157 220 255 101 103 255 215 157 172 223 255 255 255 15 1 0 0 0 0 0 0 0 0 0 0 0 0 0 0 0 1 2 5 6 6 4 1 0 0 0 0 0 0 0 0 0 0 0 0 0 0 0 0 0 0 0 0 0 0 0 0 1 1 1 1 1 0 0 0 0 0 0 0 0 0 0 0 0 0 0 0 0 0 0 0 0 0 0 0 0 7 132 255 255 232 184 152 188 255 255 15 1 0 0 0 0 0 0 5 118 255 217 157 168 221 254 255 255 15 1 0 0 0 0 0 0 0 0 0 0 0 0 0 0 3 63 255 254 235 194 153 178 255 255 20 1 0 0 5 113 255 213 156 173 225 255 255 206 10 1 0 0 0 0 0 0 0 0 0 0 0 0 0 1 17 255 255 255 255 255 255 255 255 43 2 0 0 0 0 0 0 0 0 0 0 0 0 0 0 0 0 0 0 0 0 0 0 0 0 0 0 0 0 0 0 0 0 0 0 0 9 176 255 251 217 155 142 206 246 255 255 28 1 0 0 0 0 0 0 0 0 0 0 0 0 0 0 0 0 0 0 0 0 0 0 0 0 0 0 0 0 0 0 0 0 0 0 0 0 0 0 0 0 0 0 0 0 0 0 0 0 0 0 0 0 0 0 0 0 0 0 1 4 6 6 5 2 1 0 0 0 0 0 0 0 0 0 0 0 0 0 0 0 0 0 0 0 0 0 0 0 0 0 0 0 0 0 2 35 255 255 255 255 255 195 11 1 0 0 0 0 0 0 0 0 0 0 0 0 0 1 10 216 255 255 230 181 159 192 200 160 172 226 255 255 255 16 1 0 0 0 0 0 0 0 0 0 0 0 0 0 0 0 0 1 3 3 3 2 1 0 0 0 0 0 0 0 0 0 0 0 0 0 0 0 1 20 255 255 252 220 169 148 158 148 169 221 252 255 255 17 1 0 0 0 0 0 0 0 0 0 0 0 0 0 1 16 255 255 251 219 166 159 227 255 62 3 1 24 255 255 173 155 201 241 255 255 50 3 0 0 0 0 0 0 0 0 0 0 0 0 0 0 1 14 205 255 255 255 255 63 4 0 0 0 0 0 0 0 0 0 0 0 0 0 0 0 1 5 15 16 17 10 2 0 0 0 0 0 0 0 0 0 0 0 0 0 0 0 2 39 255 255 243 206 158 172 255 255
0 0 0 1 32 255 229 129 100 122 144 148 177 255 112 6 0 0 0 0 0 0 0 0 0 0 0 0 0 0 0 0 2 38 255 212 160 147 137 105 107 170 255 117 6 0 0 0 0 1 12 255 255 155 104 112 140 145 165 255 255 13 1 0 0 0 0 0 0 0 0 0 0 0 0 0 0 0 0 0 0 0 4 55 255 255 255 255 44 3 0 0 0 0 0 0 0 0 0 0 0 0 0 0 9 176 255 170 147 145 120 98 124 218 255 255 216 123 100 126 146 150 179 255 134 6 0 0 0 0 0 0 0 0 0 0 0 0 0 0 0 0 1 2 2 2 1 0 0 0 0 0 0 0 0 0 0 0 0 0 0 0 0 0 0 0 0 0 0 0 0 0 0 0 0 0 0 0 0 0 0 0 0 0 0 0 0 0 0 0 0 0 0 0 0 0 0 0 0 0 3 60 255 200 156 147 134 102 106 167 255 138 7 0 0 0 0 0 3 57 255 204 121 98 122 143 148 174 255 112 6 0 0 0 0 0 0 0 0 0 0 0 0 0 1 30 255 221 158 145 138 107 104 158 255 181 8 0 3 57 255 207 121 100 125 144 151 183 255 88 4 0 0 0 0 0 0 0 0 0 0 0 0 0 7 161 255 180 164 194 208 170 168 242 255 19 1 0 0 0 0 0 0 0 0 0 0 0 0 0 0 0 0 0 0 0 0 0 0 0 0 0 0 0 0 0 0 0 0 0 4 74 255 190 149 142 137 133 145 146 171 255 255 13 1 0 0 0 0 0 0 0 0 0 0 0 0 0 0 0 0 0 0 0 0 0 0 0 0 0 0 0 0 0 0 0 0 0 0 0 0 0 0 0 0 0 0 0 0 0 0 0 0 0 0 0 0 0 0 0 0 0 0 1 2 2 2 1 0 0 0 0 0 0 0 0 0 0 0 0 0 0 0 0 0 0 0 0 0 0 0 0 0 0 0 0 0 1 13 255 255 230 255 243 214 255 85 4 0 0 0 0 0 0 0 0 0 0 0 0 0 5 98 255 191 154 148 132 99 90 91 95 124 146 150 175 255 126 6 0 0 0 0 0 0 0 0 0 0 0 0 0 0 0 0 0 1 1 1 1 0 0 0 0 0 0 0 0 0 0 0 0 0 0 0 0 8 165 255 173 148 145 119 83 74 83 120 145 149 177 255 145 7 0 0 0 0 0 0 0 0 0 0 0 0 0 7 134 255 176 148 143 120 100 130 226 255 31 12 223 255 151 101 108 140 146 163 235 255 23 1 0 0 0 0 0 0 0 0 0 0 0 0 0 5 85 255 255 255 255 233 255 27 1 0 0 0 0 0 0 0 0 0 0 0 0 0 0 1 2 6 8 8 4 1 0 0 0 0 0 0 0 0 0 0 0 0 0 0 1 17 255 249 164 146 141 111 103 154 255
0 0 1 14 255 255 129 69 59 75 79 79 101 178 255 51 2 0 0 0 0 0 0 0 0 0 0 0 0 0 0 1 17 255 242 124 86 79 80 65 59 91 178 255 52 3 0 0 0 6 120 255 160 82 59 70 80 78 92 149 255 106 5 0 0 0 0 0 0 0 0 0 0 0 0 0 0 0 0 0 0 1 22 255 228 255 255 228 255 14 1 0 0 0 0 0 0 0 0 0 0 0 0 4 74 255 161 95 78 80 75 57 66 123 255 255 123 67 60 78 80 79 101 180 255 62 3 0 0 0 0 0 0 0 0 0 0 0 0 0 0 0 0 0 1 1 0 0 0 0 0 0 0 0 0 0 0 0 0 0 0 0 0 0 0 0 0 0 0 0 0 0 0 0 0 0 0 0 0 0 0 0 0 0 0 0 0 0 0 0 0 0 0 0 0 0 0 0 0 1 27 255 211 115 84 80 81 63 57 88 174 255 63 3 0 0 0 1 25 255 216 110 63 58 75 78 77 98 173 255 49 2 0 0 0 0 0 0 0 0 0 0 0 1 12 255 255 131 87 78 82 67 58 84 166 255 77 5 26 255 220 113 65 60 77 78 79 104 193 255 44 2 0 0 0 0 0 0 0 0 0 0 0 3 71 255 177 103 90 107 115 95 96 144 255 157 8 0 0 0 0 0 0 0 0 0 0 0 0 0 0 0 0 0 0 0 0 0 0 0 0 0 0 0 0 0 0 0 0 2 34 255 197 108 80 82 103 107 88 78 95 161 255 120 6 0 0 0 0 0 0 0 0 0 0 0 0 0 0 0 0 0 0 0 0 0 0 0 0 0 0 0 0 0 0 0 0 0 0 0 0 0 0 0 0 0 0 0 0 0 0 0 0 0 0 0 0 0 0 0 0 0 0 0 1 1 0 0 0 0 0 0 0 0 0 0 0 0 0 0 0 0 0 0 0 0 0 0 0 0 0 0 0 0 0 0 0 5 111 255 160 128 131 126 131 200 255 42 2 0 0 0 0 0 0 0 0 0 0 0 2 48 255 196 109 82 81 80 56 40 39 51 74 79 78 99 174 255 57 3 0 0 0 0 0 0 0 0 0 0 0 0 0 0 0 0 0 0 0 0 0 0 0 0 0 0 0 0 0 0 0 0 0 0 0 3 70 255 169 97 78 79 71 43 34 44 71 79 79 100 174 255 63 3 0 0 0 0 0 0 0 0 0 0 0 3 59 255 175 99 78 78 74 58 69 126 255 255 147 255 160 80 57 68 81 78 89 139 255 207 9 0 0 0 0 0 0 0 0 0 0 0 0 2 40 255 199 156 155 148 155 255 213 10 0 0 0 0 0 0 0 0 0 0 0 0 0 0 0 1 2 3 3 1 0 0 0 0 0 0 0 0 0 0 0 0 0 0 0 7 137 255 145 91 78 80 70 58 80 129
0 0 6 119 255 148 68 36 33 41 40 40 55 104 220 255 23 1 0 0 0 0 0 0 0 0 0 0 0 0 0 7 160 255 143 69 44 39 42 36 31 47 100 216 255 23 1 0 3 58 255 187 87 43 32 39 41 39 49 85 178 255 50 2 0 0 0 0 0 0 0 0 0 0 0 0 0 0 0 0 0 8 177 255 169 163 154 162 255 98 5 0 0 0 0 0 0 0 0 0 0 0 2 36 255 198 93 51 39 41 42 32 35 63 111 111 63 35 33 43 40 39 54 103 213 255 29 1 0 0 0 0 0 0 0 0 0 0 0 0 0 0 0 0 0 0 0 0 0 0 0 0 0 0 0 0 0 0 0 0 0 0 0 0 0 0 0 0 0 0 0 0 0 0 0 0 0 0 0 0 0 0 0 0 0 0 0 0 0 0 0 0 0 0 0 0 0 0 0 11 228 255 123 62 42 40 44 36 30 45 98 211 255 32 1 0 0 10 203 255 124 57 32 32 41 39 38 53 102 219 255 23 1 0 0 0 0 0 0 0 0 0 0 5 105 255 151 73 45 39 43 38 31 44 92 198 255 54 226 255 125 58 34 33 41 39 40 57 113 237 255 19 1 0 0 0 0 0 0 0 0 0 1 32 255 204 100 56 47 53 55 49 52 82 168 255 67 3 0 0 0 0 0 0 0 0 0 0 0 0 0 0 0 0 0 0 0 0 0 0 0 0 0 0 0 0 0 0 1 14 255 250 115 59 41 46 70 77 51 40 50 89 185 255 58 3 0 0 0 0 0 0 0 0 0 0 0 0 0 0 0 0 0 0 0 0 0 0 0 0 0 0 0 0 0 0 0 0 0 0 0 0 0 0 0 0 0 0 0 0 0 0 0 0 0 0 0 0 0 0 0 0 0 0 0 0 0 0 0 0 0 0 0 0 0 0 0 0 0 0 0 0 0 0 0 0 0 0 0 0 0 0 0 0 0 0 3 53 255 183 94 66 60 60 73 119 241 255 18 1 0 0 0 0 0 0 0 0 0 1 21 255 230 112 59 41 41 42 28 17 16 25 39 39 39 53 101 215 255 27 1 0 0 0 0 0 0 0 0 0 0 0 0 0 0 0 0 0 0 0 0 0 0 0 0 0 0 0 0 0 0 0 0 0 1 32 255 201 96 52 38 39 37 21 15 22 37 39 39 54 99 206 255 28 1 0 0 0 0 0 0 0 0 0 1 27 255 210 101 54 39 39 40 32 36 67 152 255 255 207 90 42 31 38 42 39 47 77 163 255 86 4 0 0 0 0 0 0 0 0 0 0 1 17 255 241 124 84 73 73 92 158 255 87 4 0 0 0 0 0 0 0 0 0 0 0 0 0 0 0 1 1 1 0 0 0 0 0 0 0 0 0 0 0 0 0 0 0 3 63 255 172 81 48 39 41 39 31 37 50
0 3 57 255 186 85 37 19 17 20 19 19 30 60 136 255 192 9 0 0 0 0 0 0 0 0 0 0 0 0 4 76 255 182 84 38 22 18 20 18 16 25 56 133 255 201 9 2 29 255 228 110 48 22 16 20 19 19 26 49 109 233 255 24 1 0 0 0 0 0 0 0 0 0 0 0 0 0 0 0 4 76 255 177 112 84 82 109 186 255 46 2 0 0 0 0 0 0 0 0 0 1 16 255 255 123 54 27 18 19 21 16 17 29 44 44 30 18 17 21 19 19 29 58 129 255 253 12 1 0 0 0 0 0 0 0 0 0 0 0 0 0 0 0 0 0 0 0 0 0 0 0 0 0 0 0 0 0 0 0 0 0 0 0 0 0 0 0 0 0 0 0 0 0 0 0 0 0 0 0 0 0 0 0 0 0 0 0 0 0 0 0 0 0 0 0 0 0 5 93 255 160 71 34 21 19 21 18 15 24 55 129 255 255 13 1 4 83 255 161 70 30 16 16 19 18 18 28 59 137 255 219 10 0 0 0 0 0 0 0 0 0 2 48 255 189 89 41 23 19 21 20 16 23 51 121 255 255 255 164 71 31 17 17 20 18 19 31 65 143 255 151 7 0 0 0 0 0 0 0 0 1 13 255 255 123 56 30 23 24 25 24 28 47 101 210 255 31 1 0 0 0 0 0 0 0 0 0 0 0 0 0 0 0 0 0 0 0 0 0 0 0 0 0 0 0 0 0 6 117 255 152 67 32 21 26 47 53 30 21 26 50 110 230 255 30 1 0 0 0 0 0 0 0 0 0 0 0 0 0 0 0 0 0 0 0 0 0 0 0 0 0 0 0 0 0 0 0 0 0 0 0 0 0 0 0 0 0 0 0 0 0 0 0 0 0 0 0 0 0 0 0 0 0 0 0 0 0 0 0 0 0 0 0 0 0 0 0 0 0 0 0 0 0 0 0 0 0 0 0 0 0 0 0 0 1 24 255 230 113 55 33 27 28 40 70 145 255 162 8 0 0 0 0 0 0 0 0 0 9 191 255 138 63 31 20 19 20 13 7 7 11 18 18 18 29 59 132 255 255 12 1 0 0 0 0 0 0 0 0 0 0 0 0 0 0 0 0 0 0 0 0 0 0 0 0 0 0 0 0 0 0 0 1 13 255 255 123 55 28 18 17 17 9 6 10 17 18 19 29 57 126 255 241 11 1 0 0 0 0 0 0 0 0 11 239 255 129 57 29 19 18 20 16 18 37 94 205 235 123 52 22 16 19 20 19 24 44 96 201 255 40 2 0 0 0 0 0 0 0 0 0 6 129 255 146 74 44 34 35 53 97 198 255 41 2 0 0 0 0 0 0 0 0 0 0 0 0 0 0 0 0 0 0 0 0 0 0 0 0 0 0 0 0 0 0 0 1 32 255 221 104 47 25 18 19 19 15 16 18
1 28 255 237 118 52 21 9 7 8 8 9 16 37 86 176 255 80 4 0 0 0 0 0 0 0 0 0 0 2 41 255 227 114 52 22 11 8 8 8 7 13 34 84 177 255 87 17 255 255 143 67 27 11 7 8 8 8 13 29 69 149 255 223 10 0 0 0 0 0 0 0 0 0 0 0 0 0 0 2 36 255 217 117 75 46 46 76 127 247 255 22 1 0 0 0 0 0 0 0 0 7 140 255 162 77 33 14 8 8 9 7 8 12 16 16 12 8 7 9 8 8 15 35 80 169 255 107 5 0 0 0 0 0 0 0 0 0 0 0 0 0 0 0 0 0 0 0 0 0 0 0 0 0 0 0 0 0 0 0 0 0 0 0 0 0 0 0 0 0 0 0 0 0 0 0 0 0 0 0 0 0 0 0 0 0 0 0 0 0 0 0 0 0 0 0 0 2 45 255 205 102 45 19 10 8 9 8 7 12 33 80 167 255 131 8 39 255 208 103 43 16 8 7 8 7 8 15 37 87 182 255 100 5 0 0 0 0 0 0 0 1 22 255 242 120 55 23 11 8 9 8 7 12 31 78 173 255 233 109 44 17 8 7 8 7 9 17 40 89 183 255 68 3 0 0 0 0 0 0 0 5 111 255 162 76 34 16 11 10 10 11 14 28 63 134 255 255 13 1 0 0 0 0 0 0 0 0 0 0 0 0 0 0 0 0 0 0 0 0 0 0 0 0 0 0 0 3 54 255 194 96 42 18 11 14 31 36 17 10 14 29 68 145 255 255 13 1 0 0 0 0 0 0 0 0 0 0 0 0 0 0 0 0 0 0 0 0 0 0 0 0 0 0 0 0 0 0 0 0 0 0 0 0 0 0 0 0 0 0 0 0 0 0 0 0 0 0 0 0 0 0 0 0 0 0 0 0 0 0 0 0 0 0 0 0 0 0 0 0 0 0 0 0 0 0 0 0 0 0 0 0 0 0 0 10 206 255 145 71 34 17 11 13 22 43 91 188 255 79 4 0 0 0 0 0 0 0 4 84 255 182 86 38 17 9 8 8 5 3 2 4 7 7 8 15 36 83 175 255 117 6 0 0 0 0 0 0 0 0 0 0 0 0 0 0 0 0 0 0 0 0 0 0 0 0 0 0 0 0 0 0 0 6 117 255 164 77 33 14 8 7 6 4 3 4 6 7 8 15 34 79 169 255 103 5 0 0 0 0 0 0 0 5 99 255 172 81 35 15 8 7 8 7 9 22 57 98 107 69 31 12 7 8 8 8 12 26 60 127 255 255 18 1 0 0 0 0 0 0 0 3 59 255 186 93 47 24 16 17 32 62 128 254 255 18 1 0 0 0 0 0 0 0 0 0 0 0 0 0 0 0 0 0 0 0 0 0 0 0 0 0 0 0 0 0 1 15 255 255 141 66 28 13 8 8 8 6 6 6
14 255 255 154 79 35 11 4 3 3 3 4 8 24 59 116 218 255 38 2 0 0 0 0 0 0 0 0 1 21 255 255 147 76 35 13 5 3 3 3 3 7 22 59 117 220 255 255 255 180 93 45 16 5 3 3 3 3 6 18 49 99 187 255 97 5 0 0 0 0 0 0 0 0 0 0 0 0 1 16 255 255 144 83 56 28 29 60 93 164 255 230 10 0 0 0 0 0 0 0 3 64 255 199 106 54 21 7 3 3 3 3 3 4 6 6 4 3 3 3 3 4 8 22 55 112 211 255 53 2 0 0 0 0 0 0 0 0 0 0 0 0 0 0 0 0 0 0 0 0 0 0 0 0 0 0 0 0 0 0 0 0 0 0 0 0 0 0 0 0 0 0 0 0 0 0 0 0 0 0 0 0 0 0 0 0 0 0 0 0 0 0 0 0 0 0 1 20 255 255 135 70 30 10 4 3 3 3 3 6 20 54 110 210 255 111 255 255 138 70 29 9 3 2 3 3 3 8 24 61 119 221 255 51 2 0 0 0 0 0 0 9 189 255 158 81 38 13 5 3 3 3 3 6 19 55 104 149 124 75 30 9 3 3 3 3 4 9 25 61 121 231 255 35 1 0 0 0 0 0 3 56 255 208 109 53 21 8 4 4 4 4 7 17 43 90 176 255 124 6 0 0 0 0 0 0 0 0 0 0 0 0 0 0 0 0 0 0 0 0 0 0 0 0 0 0 1 27 255 243 128 66 28 10 5 7 18 22 9 5 7 18 46 95 180 255 124 6 0 0 0 0 0 0 0 0 0 0 0 0 0 0 0 0 0 0 0 0 0 0 0 0 0 0 0 0 0 0 0 0 0 0 0 0 0 0 0 0 0 0 0 0 0 0 0 0 0 0 0 0 0 0 0 0 0 0 0 0 0 0 0 0 0 0 0 0 0 0 0 0 0 0 0 0 0 0 0 0 0 0 0 0 0 0 4 89 255 186 97 49 21 8 5 5 12 29 64 124 234 255 43 2 0 0 0 0 0 2 42 255 223 120 60 24 8 4 3 2 2 1 1 1 2 2 3 8 23 58 114 212 255 59 3 0 0 0 0 0 0 0 0 0 0 0 0 0 0 0 0 0 0 0 0 0 0 0 0 0 0 0 0 0 3 57 255 206 109 54 21 7 3 2 2 1 1 1 2 2 3 7 22 56 113 213 255 53 2 0 0 0 0 0 2 49 255 212 114 57 22 8 3 3 3 3 4 12 33 46 48 38 17 6 3 3 3 3 6 15 40 85 166 255 168 8 0 0 0 0 0 0 1 31 255 238 125 65 31 13 7 8 20 45 87 164 255 177 8 0 0 0 0 0 0 0 0 0 0 0 0 0 0 0 0 0 0 0 0 0 0 0 0 0 0 0 0 0 7 157 255 178 93 46 17 6 3 3 3 2 2 2
165 255 187 105 61 25 6 2 1 1 1 1 4 16 47 84 146 255 255 17 1 0 0 0 0 0 0 0 10 211 255 175 99 59 25 7 2 1 1 1 1 3 14 46 85 150 255 255 235 123 69 33 10 3 1 1 1 1 3 11 38 74 124 220 255 49 2 0 0 0 0 0 0 0 0 0 0 0 7 148 255 176 101 70 48 19 21 57 78 113 198 255 112 5 0 0 0 0 0 1 32 255 237 132 78 42 13 4 1 1 1 1 1 1 2 2 1 1 1 1 1 1 4 14 44 81 140 251 255 26 1 0 0 0 0 0 0 0 0 0 0 0 0 0 0 0 0 0 0 0 0 0 0 0 0 0 0 0 0 0 0 0 0 0 0 0 0 0 0 0 0 0 0 0 0 0 0 0 0 0 0 0 0 0 0 0 0 0 0 0 0 0 0 0 0 0 8 184 255 166 94 55 21 5 2 1 1 1 1 3 13 42 80 140 255 255 255 174 97 55 20 5 1 1 1 1 1 4 16 49 85 144 255 255 24 1 0 0 0 0 4 87 255 190 108 63 28 8 2 1 1 1 1 3 12 42 63 71 66 54 22 5 2 1 1 1 2 5 16 49 87 153 255 255 17 1 0 0 0 1 29 255 252 140 80 42 13 4 2 1 1 2 3 10 33 70 119 214 255 62 3 0 0 0 0 0 0 0 0 0 0 0 0 0 0 0 0 0 0 0 0 0 0 0 0 0 11 240 255 161 91 52 19 5 2 3 8 10 4 2 3 11 35 70 119 210 255 58 3 0 0 0 0 0 0 0 0 0 0 0 0 0 0 0 0 0 0 0 0 0 0 0 0 0 0 0 0 0 0 0 0 0 0 0 0 0 0 0 0 0 0 0 0 0 0 0 0 0 0 0 0 0 0 0 0 0 0 0 0 0 0 0 0 0 0 0 0 0 0 0 0 0 0 0 0 0 0 0 0 0 0 0 0 2 45 255 222 125 73 39 13 4 2 2 6 20 51 89 153 255 255 21 1 0 0 0 1 21 255 255 146 85 47 16 4 2 1 1 0 0 0 0 1 1 1 4 15 46 82 139 251 255 33 1 0 0 0 0 0 0 0 0 0 0 0 0 0 0 0 0 0 0 0 0 0 0 0 0 0 0 0 1 28 255 247 137 80 43 13 4 1 1 1 0 0 0 1 1 1 4 14 45 82 141 255 255 28 1 0 0 0 1 25 255 255 140 82 46 14 4 1 1 1 1 2 6 17 21 21 19 9 3 1 1 1 1 3 9 30 65 112 201 255 76 4 0 0 0 0 1 15 255 255 159 91 54 22 7 3 4 12 35 68 112 202 255 84 4 0 0 0 0 0 0 0 0 0 0 0 0 0 0 0 0 0 0 0 0 0 0 0 0 0 0 0 4 76 255 211 118 70 35 10 3 1 1 1 1 1 1
255 222 123 80 54 19 4 1 0 0 0 1 2 10 42 70 101 172 255 153 7 0 0 0 0 0 0 5 96 255 195 114 76 53 18 4 1 0 0 0 1 2 10 40 71 107 170 211 143 91 61 26 6 1 0 0 0 0 2 7 32 64 89 143 255 255 25 1 0 0 0 0 0 0 0 0 0 3 68 255 203 118 83 77 52 15 18 72 84 89 129 225 255 60 3 0 0 0 1 14 255 255 154 93 66 36 8 2 1 0 0 0 0 0 0 0 0 0 0 0 0 1 2 9 39 68 97 162 255 239 11 0 0 0 0 0 0 0 0 0 0 0 0 0 0 0 0 0 0 0 0 0 0 0 0 0 0 0 0 0 0 0 0 0 0 0 0 0 0 0 0 0 0 0 0 0 0 0 0 0 0 0 0 0 0 0 0 0 0 0 0 0 0 0 0 4 82 255 196 112 75 49 15 3 1 0 0 0 0 2 8 36 68 99 165 255 216 123 78 49 14 3 1 0 0 0 1 2 11 43 69 98 163 255 200 9 0 0 0 2 46 255 227 126 82 58 21 4 1 0 0 0 0 2 8 32 38 35 36 38 15 3 1 0 0 0 1 2 11 45 72 105 180 255 169 8 0 0 1 13 255 255 162 98 69 38 9 2 1 0 0 1 1 6 27 63 88 139 245 255 32 1 0 0 0 0 0 0 0 0 0 0 0 0 0 0 0 0 0 0 0 0 0 0 0 5 104 255 185 109 74 46 13 3 1 1 3 3 2 1 2 6 29 60 85 136 242 255 28 1 0 0 0 0 0 0 0 0 0 0 0 0 0 0 0 0 0 0 0 0 0 0 0 0 0 0 0 0 0 0 0 0 0 0 0 0 0 0 0 0 0 0 0 0 0 0 0 0 0 0 0 0 0 0 0 0 0 0 0 0 0 0 0 0 0 0 0 0 0 0 0 0 0 0 0 0 0 0 0 0 0 0 1 21 255 255 145 90 66 33 8 2 1 1 3 14 49 72 102 172 255 217 10 0 0 0 10 221 255 172 100 69 43 11 2 1 0 0 0 0 0 0 0 0 1 2 10 41 67 96 162 255 255 15 1 0 0 0 0 0 0 0 0 0 0 0 0 0 0 0 0 0 0 0 0 0 0 0 0 0 1 13 255 255 160 96 68 38 9 2 1 0 0 0 0 0 0 0 1 2 9 40 69 99 165 255 255 12 1 0 0 11 234 255 167 98 68 41 10 2 1 0 0 0 1 3 7 8 8 8 3 1 0 0 0 0 1 5 23 60 84 131 229 255 37 2 0 0 0 7 154 255 185 109 76 53 15 4 1 2 7 29 63 85 133 231 255 44 2 0 0 0 0 0 0 0 0 0 0 0 0 0 0 0 0 0 0 0 0 0 0 0 0 0 2 39 255 235 135 86 62 28 6 1 0 0 0 0 0 0
254 145 89 73 58 15 2 0 0 0 0 0 1 8 42 73 80 114 201 255 72 3 0 0 0 0 2 50 255 222 125 82 70 60 13 2 0 0 0 0 0 1 7 39 75 81 91 100 86 76 68 22 4 1 0 0 0 0 1 5 29 69 75 98 165 255 223 10 0 0 0 0 0 0 0 0 1 33 255 233 132 88 90 131 87 15 24 165 138 89 92 143 252 255 32 1 0 0 7 146 255 180 104 76 70 33 6 1 0 0 0 0 0 0 0 0 0 0 0 0 0 0 1 7 41 70 77 108 186 255 104 5 0 0 0 0 0 0 0 0 0 0 0 0 0 0 0 0 0 0 0 0 0 0 0 0 0 0 0 0 0 0 0 0 0 0 0 0 0 0 0 0 0 0 0 0 0 0 0 0 0 0 0 0 0 0 0 0 0 0 0 0 0 0 2 40 255 225 128 84 73 52 11 2 0 0 0 0 0 1 6 34 72 79 99 127 114 90 77 52 10 2 0 0 0 0 0 1 8 43 70 76 107 186 255 89 4 0 1 22 255 255 148 91 74 67 17 3 1 0 0 0 0 1 5 21 22 17 20 24 8 2 0 0 0 0 0 1 9 52 74 82 117 203 255 79 4 0 6 123 255 184 107 79 72 41 7 1 0 0 0 0 1 4 24 73 76 95 157 255 255 14 1 0 0 0 0 0 0 0 0 0 0 0 0 0 0 0 0 0 0 0 0 0 2 53 255 215 121 82 75 49 10 2 0 0 1 1 1 0 1 4 24 63 72 93 156 255 247 12 1 0 0 0 0 0 0 0 0 0 0 0 0 0 0 0 0 0 0 0 0 0 0 0 0 0 0 0 0 0 0 0 0 0 0 0 0 0 0 0 0 0 0 0 0 0 0 0 0 0 0 0 0 0 0 0 0 0 0 0 0 0 0 0 0 0 0 0 0 0 0 0 0 0 0 0 0 0 0 0 0 0 9 202 255 167 99 76 76 31 5 1 0 0 2 11 59 72 78 111 196 255 105 5 0 5 98 255 197 113 79 69 47 8 1 0 0 0 0 0 0 0 0 0 0 1 7 41 69 76 106 181 255 162 7 0 0 0 0 0 0 0 0 0 0 0 0 0 0 0 0 0 0 0 0 0 0 0 0 0 6 126 255 185 107 78 71 39 6 1 0 0 0 0 0 0 0 0 0 1 7 42 72 79 108 184 255 110 5 0 5 100 255 187 110 79 70 43 7 1 0 0 0 0 0 1 2 3 3 2 1 0 0 0 0 0 1 3 19 70 74 91 148 255 255 16 1 0 4 76 255 210 120 83 80 70 12 2 1 1 5 27 77 78 93 147 255 255 23 1 0 0 0 0 0 0 0 0 0 0 0 0 0 0 0 0 0 0 0 0 0 0 0 1 18 255 255 150 92 73 68 24 4 1 0 0 0 0 0 0
124 94 77 91 92 14 2 0 0 0 0 0 1 7 58 111 81 85 131 233 255 37 2 0 0 1 25 255 255 143 86 72 93 107 14 2 0 0 0 0 0 1 6 48 109 74 51 49 55 82 117 24 3 0 0 0 0 0 1 4 31 108 85 77 108 186 255 93 5 0 0 0 0 0 0 1 14 255 255 151 92 85 170 255 255 40 86 255 255 151 82 95 159 255 255 15 1 3 70 255 209 118 80 82 110 36 5 1 0 0 0 0 0 0 0 0 0 0 0 0 0 0 1 7 57 103 79 80 121 215 255 53 2 0 0 0 0 0 0 0 0 0 0 0 0 0 0 0 0 0 0 0 0 0 0 0 0 0 0 0 0 0 0 0 0 0 0 0 0 0 0 0 0 0 0 0 0 0 0 0 0 0 0 0 0 0 0 0 0 0 0 0 0 1 19 255 255 145 90 78 102 77 11 1 0 0 0 0 0 1 5 39 111 78 63 61 62 75 105 76 10 1 0 0 0 0 0 1 7 56 102 77 79 122 222 255 48 3 9 196 255 165 99 78 94 123 18 2 0 0 0 0 0 1 3 10 11 8 9 11 4 1 0 0 0 0 0 1 10 95 111 79 84 129 230 255 42 5 59 255 208 119 80 81 109 62 7 1 0 0 0 0 1 3 27 130 90 77 103 178 255 138 6 0 0 0 0 0 0 0 0 0 0 0 0 0 0 0 0 0 0 0 0 1 29 255 254 140 87 77 108 72 9 1 0 0 0 0 0 0 1 3 24 97 81 75 104 181 255 110 5 0 0 0 0 0 0 0 0 0 0 0 0 0 0 0 0 0 0 0 0 0 0 0 0 0 0 0 0 0 0 0 0 0 0 0 0 0 0 0 0 0 0 0 0 0 0 0 0 0 0 0 0 0 0 0 0 0 0 0 0 0 0 0 0 0 0 0 0 0 0 0 0 0 0 0 0 0 0 0 0 4 94 255 193 110 78 88 139 37 5 1 0 0 2 13 122 109 76 81 126 224 255 57 5 48 255 220 126 82 79 97 75 9 1 0 0 0 0 0 0 0 0 0 0 1 7 52 103 79 78 116 207 255 83 4 0 0 0 0 0 0 0 0 0 0 0 0 0 0 0 0 0 0 0 0 0 0 0 3 64 255 211 120 81 81 107 52 6 1 0 0 0 0 0 0 0 0 0 1 7 60 106 81 80 118 209 255 52 5 50 255 214 121 81 82 103 59 7 1 0 0 0 0 0 0 1 1 1 1 0 0 0 0 0 0 0 3 21 132 91 75 99 172 255 140 7 2 40 255 235 133 86 82 131 172 18 2 0 1 4 32 151 102 77 99 170 255 231 10 0 0 0 0 0 0 0 0 0 0 0 0 0 0 0 0 0 0 0 0 0 0 0 8 165 255 172 99 73 85 111 24 3 0 0 0 0 0 0 0
60 64 92 189 237 29 2 0 0 0 0 0 1 13 167 230 130 76 88 146 255 255 18 1 1 11 246 255 159 92 69 95 218 255 34 3 0 0 0 0 0 1 10 108 210 100 34 26 45 146 250 50 4 0 0 0 0 0 1 5 57 230 162 80 77 117 209 255 46 2 0 0 0 0 0 6 118 255 170 98 77 141 255 255 255 255 255 242 251 255 120 74 100 176 255 155 9 35 255 230 130 82 78 148 233 70 6 1 0 0 0 0 0 0 0 0 0 0 0 0 0 0 1 14 185 224 131 75 83 135 247 255 28 1 0 0 0 0 0 0 0 0 0 0 0 0 0 0 0 0 0 0 0 0 0 0 0 0 0 0 0 0 0 0 0 0 0 0 0 0 0 0 0 0 0 0 0 0 0 0 0 0 0 0 0 0 0 0 0 0 0 0 0 8 181 255 165 95 73 107 212 212 21 2 0 0 0 0 0 1 7 86 227 122 47 31 37 86 203 209 20 2 0 0 0 0 0 1 12 140 219 127 73 85 141 255 255 30 93 255 185 104 74 95 203 255 43 3 0 0 0 0 0 0 1 3 4 3 3 4 2 0 0 0 0 0 0 2 30 255 245 122 72 86 144 255 255 62 255 236 130 81 74 133 229 221 16 1 0 0 0 0 0 5 63 252 177 83 75 112 203 255 69 3 0 0 0 0 0 0 0 0 0 0 0 0 0 0 0 0 0 0 1 13 255 255 158 93 74 112 223 212 19 2 0 0 0 0 0 0 0 4 42 228 157 79 76 115 209 255 57 3 0 0 0 0 0 0 0 0 0 0 0 0 0 0 0 0 0 0 0 0 0 0 0 0 0 0 0 0 0 0 0 0 0 0 0 0 0 0 0 0 0 0 0 0 0 0 0 0 0 0 0 0 0 0 0 0 0 0 0 0 0 0 0 0 0 0 0 0 0 0 0 0 0 0 0 0 0 0 2 49 255 219 121 79 83 174 255 100 8 1 0 0 3 42 255 255 123 72 84 139 249 255 64 255 247 136 84 72 124 220 249 21 2 0 0 0 0 0 0 0 0 0 0 1 11 138 225 135 72 80 128 231 255 45 2 0 0 0 0 0 0 0 0 0 0 0 0 0 0 0 0 0 0 0 0 0 1 34 255 239 132 82 76 138 223 146 11 1 0 0 0 0 0 0 0 0 0 1 15 186 222 132 73 81 132 240 255 59 255 247 135 82 73 135 222 174 14 1 0 0 0 0 0 0 0 0 0 0 0 0 0 0 0 0 0 4 51 255 193 87 75 110 195 255 67 23 255 255 145 87 74 132 255 255 63 4 0 1 7 90 255 216 91 74 107 187 255 97 5 0 0 0 0 0 0 0 0 0 0 0 0 0 0 0 0 0 0 0 0 0 4 73 255 192 108 73 79 171 243 45 4 0 0 0 0 0 0 0
29 52 170 255 251 134 8 0 0 0 0 0 4 59 255 253 235 98 63 85 156 255 172 8 6 109 255 170 91 61 75 209 255 240 173 10 1 0 0 0 0 2 37 255 233 195 36 18 65 244 226 255 17 1 0 0 0 0 1 18 255 237 255 132 62 71 123 237 255 22 1 0 0 0 3 54 255 185 99 66 92 224 203 177 203 255 255 174 164 203 206 78 64 100 188 255 114 255 255 132 76 62 116 251 238 255 23 1 0 0 0 0 0 0 0 0 0 0 0 0 0 0 4 69 255 255 245 103 61 80 144 255 255 13 1 0 0 0 0 0 0 0 0 0 0 0 0 0 0 0 0 0 0 0 0 0 0 0 0 0 0 0 0 0 0 0 0 0 0 0 0 0 0 0 0 0 0 0 0 0 0 0 0 0 0 0 0 0 0 0 0 0 4 79 255 179 96 63 79 206 255 255 86 5 0 0 0 0 0 2 31 255 237 226 56 19 31 153 242 255 80 5 0 0 0 0 0 3 47 255 255 249 101 62 83 148 255 255 255 207 108 66 68 177 255 225 236 14 1 0 0 0 0 0 0 1 1 1 1 1 1 0 0 0 0 0 0 9 160 253 255 231 89 60 84 155 255 255 255 139 77 60 103 240 255 255 88 5 0 0 0 0 1 23 255 223 249 145 64 70 118 220 255 35 2 0 0 0 0 0 0 0 0 0 0 0 0 0 0 0 0 0 6 122 255 166 91 63 86 215 252 255 81 5 0 0 0 0 0 0 1 13 215 247 255 138 63 72 122 230 255 28 1 0 0 0 0 0 0 0 0 0 0 0 0 0 0 0 0 0 0 0 0 0 0 0 0 0 0 0 0 0 0 0 0 0 0 0 0 0 0 0 0 0 0 0 0 0 0 0 0 0 0 0 0 0 0 0 0 0 0 0 0 0 0 0 0 0 0 0 0 0 0 0 0 0 0 0 0 1 24 255 238 127 74 64 139 250 228 255 38 2 0 1 15 255 233 255 249 96 60 80 144 255 255 255 146 80 59 92 242 255 255 113 6 0 0 0 0 0 0 0 0 0 0 3 48 255 255 251 102 59 76 132 246 255 20 1 0 0 0 0 0 0 0 0 0 0 0 0 0 0 0 0 0 0 0 1 15 255 255 139 78 61 107 244 255 255 53 3 0 0 0 0 0 0 0 0 0 4 68 255 255 240 99 60 78 142 255 255 255 146 80 60 98 243 255 255 62 4 0 0 0 0 0 0 0 0 0 0 0 0 0 0 0 0 1 17 255 220 255 164 68 69 114 218 255 255 255 154 84 60 93 233 232 210 255 25 1 2 35 255 222 244 169 69 66 106 196 255 45 2 0 0 0 0 0 0 0 0 0 0 0 0 0 0 0 0 0 0 0 2 35 255 208 111 67 63 146 255 232 217 13 1 0 0 0 0 0 0
16 63 202 174 173 255 54 3 0 0 0 1 23 255 188 168 189 147 50 46 80 163 255 81 58 255 179 88 48 43 116 217 169 161 255 65 3 0 0 0 1 12 232 212 171 196 62 23 142 173 166 255 117 6 0 0 0 0 5 96 255 174 181 195 64 42 64 129 255 189 9 0 0 1 24 255 204 99 53 48 123 164 114 96 112 158 136 99 90 118 172 101 43 52 99 214 255 255 141 68 42 57 176 183 172 253 127 7 0 0 0 0 0 0 0 0 0 0 0 0 0 1 30 255 189 175 195 165 53 44 74 149 255 113 6 0 0 0 0 0 0 0 0 0 0 0 0 0 0 0 0 0 0 0 0 0 0 0 0 0 0 0 0 0 0 0 0 0 0 0 0 0 0 0 0 0 0 0 0 0 0 0 0 0 0 0 0 0 0 0 0 2 36 255 188 93 51 45 111 199 169 176 255 36 2 0 0 0 1 10 185 232 172 186 105 19 43 192 163 172 255 33 2 0 0 0 1 16 255 195 177 199 169 54 46 77 164 255 255 115 57 42 83 200 165 159 255 85 5 0 0 0 0 0 0 0 0 0 0 0 0 0 0 0 0 0 3 62 255 159 157 192 139 47 46 82 169 255 157 75 43 53 166 191 169 183 255 40 2 0 0 0 7 137 255 162 170 199 72 42 60 117 241 255 15 1 0 0 0 0 0 0 0 0 0 0 0 0 0 0 0 3 56 255 172 84 48 47 128 197 166 175 255 33 2 0 0 0 0 0 4 85 255 181 188 208 70 43 63 123 255 218 11 0 0 0 0 0 0 0 0 0 0 0 0 0 0 0 0 0 0 0 0 0 0 0 0 0 0 0 0 0 0 0 0 0 0 0 0 0 0 0 0 0 0 0 0 0 0 0 0 0 0 0 0 0 0 0 0 0 0 0 0 0 0 0 0 0 0 0 0 0 0 0 0 0 0 0 0 10 205 255 127 64 43 67 192 170 157 218 253 13 1 6 110 255 155 155 198 162 50 44 75 157 255 168 79 44 48 147 199 174 178 255 50 2 0 0 0 0 0 0 0 0 1 17 255 199 176 194 170 53 42 66 130 255 150 7 0 0 0 0 0 0 0 0 0 0 0 0 0 0 0 0 0 0 0 6 112 255 139 70 43 54 168 190 174 197 255 20 1 0 0 0 0 0 0 0 1 29 255 187 172 192 162 52 44 77 163 255 164 78 45 52 155 190 174 188 255 25 1 0 0 0 0 0 0 0 0 0 0 0 0 0 0 0 6 109 255 158 167 206 82 43 60 122 255 255 174 80 45 47 140 179 137 139 255 173 9 13 242 226 151 155 197 84 41 54 104 214 255 19 1 0 0 0 0 0 0 0 0 0 0 0 0 0 0 0 0 0 1 14 255 235 112 57 41 75 212 179 168 255 77 4 0 0 0 0 0 0
14 81 123 95 106 189 255 22 1 0 0 8 143 252 114 90 106 144 47 24 37 81 186 255 255 210 91 41 24 38 154 125 89 96 173 255 28 1 0 0 4 83 255 130 99 114 130 60 208 102 98 157 255 51 3 0 0 2 38 255 149 101 101 143 75 26 30 62 144 255 74 4 1 8 164 255 108 47 27 39 121 86 55 44 50 59 53 46 43 58 94 112 33 25 47 108 218 168 73 32 24 60 146 103 98 142 255 50 3 0 0 0 0 0 0 0 0 0 0 0 1 11 238 237 113 92 109 155 56 24 34 72 159 255 48 2 0 0 0 0 0 0 0 0 0 0 0 0 0 0 0 0 0 0 0 0 0 0 0 0 0 0 0 0 0 0 0 0 0 0 0 0 0 0 0 0 0 0 0 0 0 0 0 0 0 0 0 0 0 0 1 14 255 221 97 43 25 37 132 115 91 110 217 255 13 1 0 0 4 71 255 134 97 108 188 35 66 123 91 109 223 255 13 1 0 0 5 102 255 119 95 112 160 57 25 36 77 138 110 55 28 29 99 121 88 94 159 255 36 2 0 0 0 0 0 0 0 0 0 0 0 0 0 0 0 1 27 255 177 92 81 107 151 46 24 37 70 98 67 35 24 57 155 108 88 108 217 255 17 1 0 3 55 255 141 93 95 136 87 27 28 55 125 255 115 6 0 0 0 0 0 0 0 0 0 0 0 0 0 0 1 24 255 195 87 39 24 41 145 114 89 108 221 233 12 1 0 0 0 2 40 255 171 107 105 147 87 27 30 58 131 255 80 4 0 0 0 0 0 0 0 0 0 0 0 0 0 0 0 0 0 0 0 0 0 0 0 0 0 0 0 0 0 0 0 0 0 0 0 0 0 0 0 0 0 0 0 0 0 0 0 0 0 0 0 0 0 0 0 0 0 0 0 0 0 0 0 0 0 0 0 0 0 0 0 0 0 0 4 85 255 141 61 30 26 75 136 94 87 126 255 99 8 50 255 160 88 79 109 162 52 23 35 66 97 70 37 24 48 153 110 90 105 200 255 21 1 0 0 0 0 0 0 0 6 116 255 120 93 109 159 59 23 30 61 142 255 59 3 0 0 0 0 0 0 0 0 0 0 0 0 0 0 0 0 0 2 46 255 151 67 32 24 57 151 107 93 119 255 150 7 0 0 0 0 0 0 0 10 203 237 113 91 109 157 56 25 36 69 100 69 36 25 54 152 107 91 115 246 175 9 0 0 0 0 0 0 0 0 0 0 0 0 0 0 2 45 255 150 92 91 130 103 30 29 60 126 155 83 38 24 44 143 98 69 77 138 255 86 102 255 128 83 84 122 104 29 26 49 113 255 133 7 0 0 0 0 0 0 0 0 0 0 0 0 0 0 0 0 0 6 113 255 123 53 27 28 100 144 100 101 161 255 32 2 0 0 0 0 0
16 97 62 46 56 107 255 148 8 1 3 55 255 133 61 43 54 90 43 14 16 38 102 255 255 116 43 18 13 39 123 65 43 50 99 243 218 11 1 2 35 255 159 73 51 71 228 255 148 63 53 88 197 255 21 1 1 14 255 205 87 51 51 75 80 19 14 28 72 173 255 32 5 64 255 133 52 21 14 31 82 42 24 18 19 20 19 18 18 26 47 91 27 13 21 46 80 66 32 15 15 59 80 52 50 82 188 255 21 1 0 0 0 0 0 0 0 0 0 0 5 94 255 131 59 43 55 91 56 15 15 32 82 199 255 21 1 0 0 0 0 0 0 0 0 0 0 0 0 0 0 0 0 0 0 0 0 0 0 0 0 0 0 0 0 0 0 0 0 0 0 0 0 0 0 0 0 0 0 0 0 0 0 0 0 0 0 0 0 0 5 99 255 119 46 19 13 34 106 60 45 59 121 255 94 5 0 2 34 255 172 75 50 66 163 95 119 64 46 60 126 255 110 5 0 2 45 255 151 67 46 57 93 57 15 16 30 47 40 22 13 24 95 61 43 49 90 217 255 14 1 0 0 0 0 0 0 0 0 0 0 0 0 0 0 10 200 248 101 47 38 55 100 46 14 15 25 32 24 15 15 60 91 55 42 56 121 255 139 7 1 24 255 185 79 47 47 71 94 21 13 24 61 155 255 53 3 0 0 0 0 0 0 0 0 0 0 0 0 0 9 171 255 105 40 17 13 38 104 59 44 58 123 255 92 5 0 0 1 18 255 222 97 56 52 77 95 21 14 26 65 162 255 34 2 0 0 0 0 0 0 0 0 0 0 0 0 0 0 0 0 0 0 0 0 0 0 0 0 0 0 0 0 0 0 0 0 0 0 0 0 0 0 0 0 0 0 0 0 0 0 0 0 0 0 0 0 0 0 0 0 0 0 0 0 0 0 0 0 0 0 0 0 0 0 0 0 2 41 255 174 71 28 14 18 74 70 46 43 68 159 255 92 255 203 87 44 37 54 97 53 14 14 24 31 25 15 14 49 98 56 42 54 111 255 154 8 0 0 0 0 0 0 3 51 255 148 65 45 55 93 65 15 13 28 73 180 255 25 1 0 0 0 0 0 0 0 0 0 0 0 0 0 0 0 1 17 255 195 79 30 14 15 57 87 54 45 64 144 255 65 3 0 0 0 0 0 4 77 255 129 60 44 56 95 60 16 15 25 32 25 15 15 56 93 54 43 61 133 255 67 3 0 0 0 0 0 0 0 0 0 0 0 0 1 18 255 199 84 48 44 67 104 25 14 25 46 54 33 16 13 42 93 49 32 38 75 188 255 255 165 69 41 40 63 104 24 12 22 56 143 255 57 3 0 0 0 0 0 0 0 0 0 0 0 0 0 0 0 2 51 255 157 61 24 13 24 115 76 50 53 94 226 240 12 1 0 0 0 0
20 103 34 21 28 57 141 255 59 4 23 255 187 76 31 20 25 44 34 9 7 18 51 113 122 58 20 8 8 36 70 33 20 25 53 136 255 90 5 14 255 227 92 39 27 57 204 255 114 39 27 45 112 255 145 8 6 101 255 119 47 25 23 38 74 16 7 13 35 97 236 232 48 255 183 72 25 9 7 21 42 19 10 7 6 6 6 6 7 11 23 57 20 7 8 17 26 22 12 7 11 50 38 24 24 44 111 255 147 7 0 0 0 0 0 0 0 0 0 2 43 255 172 71 30 20 25 44 50 11 7 14 40 114 255 164 8 0 0 0 0 0 0 0 0 0 0 0 0 0 0 0 0 0 0 0 0 0 0 0 0 0 0 0 0 0 0 0 0 0 0 0 0 0 0 0 0 0 0 0 0 0 0 0 0 0 0 0 0 2 42 255 159 62 21 8 7 28 63 30 21 30 66 160 255 40 3 14 255 243 101 40 25 41 114 255 231 46 23 31 69 170 255 54 3 18 255 212 89 36 21 26 45 51 11 7 10 14 13 8 7 20 71 31 19 24 48 125 255 102 5 0 0 0 0 0 0 0 0 0 0 0 0 0 4 77 255 136 53 23 17 26 52 42 9 6 8 9 8 6 11 58 45 25 19 27 64 159 255 63 13 215 255 109 41 22 22 37 86 19 6 11 30 86 209 255 25 1 0 0 0 0 0 0 0 0 0 0 0 3 67 255 139 53 19 8 8 31 56 29 20 29 68 171 255 44 2 0 7 146 255 126 51 27 24 39 87 19 7 11 32 92 229 241 12 1 0 0 0 0 0 0 0 0 0 0 0 0 0 0 0 0 0 0 0 0 0 0 0 0 0 0 0 0 0 0 0 0 0 0 0 0 0 0 0 0 0 0 0 0 0 0 0 0 0 0 0 0 0 0 0 0 0 0 0 0 0 0 0 0 0 0 0 0 0 0 1 17 255 228 96 35 12 6 14 63 34 21 20 35 92 246 255 255 117 45 21 16 25 47 49 10 6 8 9 8 6 10 45 49 26 19 26 58 145 255 64 3 0 0 0 0 1 23 255 206 85 34 21 26 46 68 12 6 12 36 103 255 191 9 0 0 0 0 0 0 0 0 0 0 0 0 0 0 0 6 132 255 111 39 14 6 11 50 42 25 20 33 81 194 255 31 1 0 0 0 2 35 255 174 71 30 20 26 48 61 12 6 8 10 8 6 11 54 47 26 20 31 74 180 255 29 1 0 0 0 0 0 0 0 0 0 0 0 7 142 255 115 44 23 20 35 82 21 7 9 15 17 12 7 8 34 47 23 14 18 39 110 255 249 99 36 19 18 33 81 21 6 10 27 79 198 255 27 1 0 0 0 0 0 0 0 0 0 0 0 0 0 1 23 255 209 87 30 11 7 24 102 41 23 26 51 129 255 93 5 0 0 0 0
27 96 23 10 13 30 83 197 255 38 175 255 114 42 16 9 11 19 20 5 3 8 22 42 45 25 9 4 6 27 34 16 9 12 28 78 187 255 55 112 255 135 52 21 16 49 126 149 85 27 14 24 62 152 255 65 53 255 172 70 25 11 10 21 62 13 4 6 17 52 138 255 255 255 112 39 12 4 4 11 17 8 4 2 2 2 2 2 2 4 11 29 13 4 3 6 8 7 4 3 8 35 18 10 11 23 63 155 255 64 3 0 0 0 0 0 0 0 1 17 255 228 100 38 15 8 11 21 39 8 3 6 20 63 158 255 70 3 0 0 0 0 0 0 0 0 0 0 0 0 0 0 0 0 0 0 0 0 0 0 0 0 0 0 0 0 0 0 0 0 0 0 0 0 0 0 0 0 0 0 0 0 0 0 0 0 0 0 1 17 255 221 94 33 10 4 5 19 31 15 9 14 35 95 227 255 25 133 255 142 56 21 13 28 103 248 222 55 14 16 38 98 224 255 37 134 255 124 49 18 10 11 21 38 8 3 3 4 4 3 4 15 43 16 8 11 25 71 170 255 46 2 0 0 0 0 0 0 0 0 0 0 0 2 34 255 184 78 28 11 7 12 24 32 6 2 2 3 2 3 9 52 23 11 8 13 34 91 209 255 200 255 155 62 22 10 10 22 68 17 4 5 14 46 123 255 215 10 0 0 0 0 0 0 0 0 0 0 1 30 255 191 79 27 9 3 5 20 25 13 9 14 37 101 230 255 18 4 64 255 165 69 27 13 11 22 68 16 4 5 16 50 133 255 94 5 0 0 0 0 0 0 0 0 0 0 0 0 0 0 0 0 0 0 0 0 0 0 0 0 0 0 0 0 0 0 0 0 0 0 0 0 0 0 0 0 0 0 0 0 0 0 0 0 0 0 0 0 0 0 0 0 0 0 0 0 0 0 0 0 0 0 0 0 0 0 7 139 255 132 51 17 5 3 11 45 17 9 9 18 53 138 248 171 69 23 9 7 11 22 38 8 2 2 3 2 2 7 36 23 12 8 12 30 84 200 255 32 1 0 0 0 9 205 255 122 47 17 9 12 25 73 12 3 6 18 57 148 255 81 4 0 0 0 0 0 0 0 0 0 0 0 0 0 3 60 255 164 63 20 6 3 8 38 20 11 9 16 44 114 255 253 12 1 0 1 14 255 244 104 38 15 9 12 25 61 10 3 2 3 2 3 9 48 23 11 9 15 40 107 255 209 10 0 0 0 0 0 0 0 0 0 0 3 64 255 162 65 23 11 9 19 53 17 4 3 5 5 4 3 5 22 21 10 6 8 20 57 111 109 53 19 8 8 18 53 17 4 4 13 43 119 255 235 11 0 0 0 0 0 0 0 0 0 0 0 0 0 10 211 255 122 46 15 5 5 22 75 25 11 12 27 75 178 255 43 2 0 0 0
41 85 19 5 6 16 49 124 255 255 255 164 69 24 8 4 4 7 8 3 1 3 8 14 15 9 4 2 4 15 14 7 4 5 15 45 114 254 255 255 186 82 30 11 11 40 68 69 57 18 8 12 35 94 214 255 255 239 108 41 13 5 5 13 47 11 2 3 8 29 89 217 255 170 70 22 6 2 2 4 6 3 1 1 1 1 1 1 1 2 5 11 6 2 1 2 2 2 1 1 5 18 8 4 5 12 37 95 212 255 33 1 0 0 0 0 0 0 7 150 255 138 57 20 7 3 4 10 23 5 2 3 10 36 95 207 255 34 2 0 0 0 0 0 0 0 0 0 0 0 0 0 0 0 0 0 0 0 0 0 0 0 0 0 0 0 0 0 0 0 0 0 0 0 0 0 0 0 0 0 0 0 0 0 0 0 0 0 6 129 255 135 55 18 5 2 2 9 12 6 4 7 19 57 141 255 255 255 187 83 32 11 8 23 92 132 137 72 12 8 20 57 136 255 255 255 171 74 28 9 4 5 10 22 5 1 1 1 1 1 2 8 21 8 4 5 13 41 105 233 255 22 1 0 0 0 0 0 0 0 0 0 1 13 255 251 114 45 15 5 3 5 10 19 4 1 1 1 1 1 8 44 13 5 3 6 18 52 130 255 255 219 94 36 11 5 5 14 48 13 3 2 7 25 71 162 255 91 4 0 0 0 0 0 0 0 0 1 11 234 255 119 46 14 4 2 3 9 10 5 4 7 21 59 138 255 150 42 255 213 98 39 14 6 5 14 47 13 3 2 8 28 81 186 255 45 2 0 0 0 0 0 0 0 0 0 0 0 0 0 0 0 0 0 0 0 0 0 0 0 0 0 0 0 0 0 0 0 0 0 0 0 0 0 0 0 0 0 0 0 0 0 0 0 0 0 0 0 0 0 0 0 0 0 0 0 0 0 0 0 0 0 0 0 0 3 63 255 175 77 28 8 3 2 7 27 9 4 4 9 30 69 104 80 38 12 4 3 4 10 24 5 1 1 1 1 1 5 22 10 5 3 6 16 49 124 255 255 14 1 0 4 85 255 166 72 27 9 4 5 18 86 13 2 3 9 33 90 201 255 41 2 0 0 0 0 0 0 0 0 0 0 0 1 28 255 218 101 37 10 3 2 5 22 9 4 4 8 24 66 152 255 110 5 1 6 127 255 147 61 21 7 4 5 15 63 10 2 1 1 1 1 7 40 12 5 4 7 22 63 152 255 82 4 0 0 0 0 0 0 0 0 1 32 255 216 98 38 12 5 4 10 29 10 2 1 1 1 1 1 3 10 8 4 2 4 10 26 43 43 25 9 4 4 10 29 10 2 2 7 24 69 159 255 94 5 0 0 0 0 0 0 0 0 0 0 0 5 97 255 167 71 25 7 2 3 18 48 15 5 6 15 44 109 238 255 19 1 0 0
105 85 17 3 3 9 30 81 184 255 243 109 44 14 4 1 1 2 2 1 1 1 3 4 5 3 1 1 2 6 5 3 2 2 8 27 71 159 255 255 122 52 18 6 7 30 35 32 34 12 4 6 21 60 142 255 255 153 68 25 7 2 2 8 31 8 1 1 4 18 56 110 140 93 44 13 3 1 1 1 2 1 0 0 0 0 0 0 0 1 2 3 2 1 0 0 1 1 0 1 2 7 3 2 2 6 22 60 135 255 255 15 1 0 0 0 0 3 69 255 184 85 34 11 3 1 2 4 10 3 1 1 5 20 58 129 255 255 13 1 0 0 0 0 0 0 0 0 0 0 0 0 0 0 0 0 0 0 0 0 0 0 0 0 0 0 0 0 0 0 0 0 0 0 0 0 0 0 0 0 0 0 0 0 0 0 0 3 60 255 183 85 33 9 2 1 1 3 4 2 2 3 11 36 92 206 255 255 120 51 18 6 5 21 83 71 81 117 15 5 11 34 84 183 255 255 114 46 16 5 2 2 4 9 3 1 0 0 0 0 1 4 8 3 2 2 7 24 65 147 255 219 10 0 0 0 0 0 0 0 0 0 6 114 255 154 70 27 8 2 1 2 4 7 2 1 0 0 0 1 6 32 8 2 1 3 9 32 82 168 217 128 59 21 6 2 2 8 30 9 2 1 4 14 42 99 204 255 45 2 0 0 0 0 0 0 0 5 92 255 159 74 28 7 2 1 1 3 3 2 2 3 11 35 84 181 255 255 255 134 59 22 7 2 2 8 27 8 2 1 4 16 51 119 244 255 20 1 0 0 0 0 0 0 0 0 0 0 0 0 0 0 0 0 0 0 0 0 0 0 0 0 0 0 0 0 0 0 0 0 0 0 0 0 0 0 0 0 0 0 0 0 0 0 0 0 0 0 0 0 0 0 0 0 0 0 0 0 0 0 0 0 0 0 1 31 255 223 108 46 15 4 1 1 4 11 4 2 2 5 15 31 41 35 19 6 2 1 2 4 10 3 1 0 0 0 1 3 9 4 2 1 3 9 30 76 164 255 127 6 2 41 255 205 102 44 15 4 2 3 19 128 18 2 1 5 19 56 126 255 255 19 1 0 0 0 0 0 0 0 0 0 1 12 253 255 135 62 22 6 1 1 3 9 4 2 2 4 13 40 93 198 255 55 6 62 255 193 92 38 12 3 2 3 13 76 11 1 0 0 0 1 5 28 7 2 2 4 12 39 96 199 255 39 2 0 0 0 0 0 0 1 14 255 255 135 61 22 6 2 2 5 12 5 1 0 0 0 0 0 1 3 3 1 1 1 4 11 16 15 10 4 2 2 5 12 5 1 1 3 13 42 97 198 255 44 2 0 0 0 0 0 0 0 0 0 2 51 255 210 103 43 14 4 1 2 11 27 9 3 3 8 26 68 149 255 164 8 0 0
255 163 22 3 1 5 19 57 108 161 129 74 30 8 2 1 0 1 1 0 0 0 1 1 1 1 0 0 1 2 2 1 1 1 4 17 48 96 153 138 81 36 11 3 5 18 17 15 18 6 2 3 12 42 93 159 165 98 47 16 4 1 1 4 15 4 1 1 2 10 34 54 61 49 26 7 2 0 0 0 0 0 0 0 0 0 0 0 0 0 1 1 1 0 0 0 0 0 0 0 1 2 1 1 1 3 13 40 87 172 255 155 7 0 0 0 1 33 255 228 119 57 22 6 1 1 1 1 3 1 0 1 3 12 38 83 165 255 114 6 0 0 0 0 0 0 0 0 0 0 0 0 0 0 0 0 0 0 0 0 0 0 0 0 0 0 0 0 0 0 0 0 0 0 0 0 0 0 0 0 0 0 0 0 0 0 1 30 255 235 120 57 21 5 1 0 0 1 1 1 1 1 6 24 64 120 179 141 78 34 10 3 4 20 81 45 67 217 30 4 6 21 55 107 165 137 78 32 9 2 1 1 1 2 1 0 0 0 0 0 0 1 2 1 1 1 4 15 44 95 187 255 96 5 0 0 0 0 0 0 0 3 55 255 201 101 47 16 4 1 0 1 1 2 1 0 0 0 0 1 4 17 4 1 1 1 5 20 52 84 98 71 38 12 3 1 1 4 14 4 1 1 2 7 27 64 132 254 255 20 1 0 0 0 0 0 2 44 255 204 104 49 17 4 1 0 0 1 1 1 1 2 6 22 57 124 255 255 185 89 39 13 3 1 1 4 11 4 1 1 2 9 34 78 156 255 181 8 0 0 0 0 0 0 0 0 0 0 0 0 0 0 0 0 0 0 0 0 0 0 0 0 0 0 0 0 0 0 0 0 0 0 0 0 0 0 0 0 0 0 0 0 0 0 0 0 0 0 0 0 0 0 0 0 0 0 0 0 0 0 0 0 0 1 14 255 255 144 70 30 8 2 1 0 1 3 2 1 1 2 6 13 15 14 8 3 1 0 1 2 3 1 0 0 0 0 0 1 3 2 1 1 1 5 18 51 104 200 255 62 23 255 255 131 66 28 8 2 1 3 34 198 36 3 1 3 11 37 82 162 255 173 8 0 0 0 0 0 0 0 0 0 5 114 255 175 87 41 13 3 1 0 1 3 1 1 1 2 7 25 62 128 245 255 76 255 239 124 61 24 6 2 1 2 16 131 16 2 0 0 0 1 3 14 4 1 1 2 7 26 64 131 255 255 18 1 0 0 0 0 0 6 129 255 170 86 40 13 3 1 1 2 4 2 1 0 0 0 0 0 0 1 1 0 0 1 2 4 5 5 4 1 1 1 2 4 2 1 0 2 7 26 63 128 251 255 20 1 0 0 0 0 0 0 0 1 25 255 254 133 66 28 8 2 1 1 5 11 4 1 1 4 16 45 96 187 255 74 4 0
255 255 71 5 1 3 13 43 66 78 71 55 21 5 1 0 0 0 0 0 0 0 0 0 0 0 0 0 0 0 0 0 0 1 2 10 35 61 75 72 57 26 6 2 2 7 7 6 7 3 1 2 8 32 65 81 83 66 36 10 2 1 1 2 5 2 0 0 1 6 19 26 27 25 14 4 1 0 0 0 0 0 0 0 0 0 0 0 0 0 0 0 0 0 0 0 0 0 0 0 0 0 0 0 0 2 8 30 66 118 216 255 79 4 0 1 15 255 255 155 86 44 14 3 1 0 0 0 1 0 0 0 1 7 27 63 116 214 255 56 3 0 0 0 0 0 0 0 0 0 0 0 0 0 0 0 0 0 0 0 0 0 0 0 0 0 0 0 0 0 0 0 0 0 0 0 0 0 0 0 0 0 0 0 0 1 15 255 255 161 89 45 14 3 1 0 0 0 0 0 0 1 3 16 48 72 86 76 56 24 6 2 3 22 109 45 101 221 106 8 4 13 40 65 80 74 57 24 5 1 0 0 0 1 0 0 0 0 0 0 0 0 1 0 0 0 2 9 34 72 127 228 255 49 2 0 0 0 0 0 1 28 255 255 141 77 36 10 2 0 0 0 0 1 0 0 0 0 0 0 2 6 2 1 0 1 3 12 34 43 46 41 25 7 2 0 1 2 4 2 0 0 1 4 17 49 93 170 255 174 8 0 0 0 0 1 23 255 255 143 78 37 10 2 0 0 0 0 0 0 0 1 3 14 46 92 146 171 119 69 29 7 2 1 1 1 3 1 0 0 1 5 24 61 110 201 255 83 4 0 0 0 0 0 0 0 0 0 0 0 0 0 0 0 0 0 0 0 0 0 0 0 0 0 0 0 0 0 0 0 0 0 0 0 0 0 0 0 0 0 0 0 0 0 0 0 0 0 0 0 0 0 0 0 0 0 0 0 0 0 0 0 0 6 136 255 187 102 54 20 5 1 0 0 0 1 0 0 0 1 2 4 5 5 3 1 0 0 0 0 1 0 0 0 0 0 0 0 1 0 0 0 1 2 11 38 76 136 251 255 255 255 176 94 50 19 4 1 1 7 104 206 142 9 1 1 6 27 62 112 204 255 79 4 0 0 0 0 0 0 0 3 59 255 223 122 66 30 8 2 0 0 0 1 0 0 0 1 4 16 48 91 167 255 255 255 163 89 47 16 4 1 0 3 39 255 39 3 0 0 0 0 1 4 2 0 0 1 4 17 50 96 178 255 159 7 0 0 0 0 3 65 255 217 118 65 30 8 2 0 0 1 1 1 0 0 0 0 0 0 0 0 0 0 0 0 1 1 2 1 1 1 0 0 1 1 1 0 0 1 4 17 48 92 171 255 187 9 0 0 0 0 0 0 0 10 228 255 169 93 50 19 4 1 0 1 2 4 2 1 1 2 9 34 71 130 238 255 40 2
205 255 255 33 2 2 8 35 45 42 44 45 15 3 1 0 0 0 0 0 0 0 0 0 0 0 0 0 0 0 0 0 0 0 1 6 27 44 41 42 46 18 4 1 1 2 2 2 2 1 0 1 5 25 51 47 47 52 29 6 1 0 0 1 1 1 0 0 1 3 8 11 12 11 6 2 0 0 0 0 0 0 0 0 0 0 0 0 0 0 0 0 0 0 0 0 0 0 0 0 0 0 0 0 0 1 5 25 67 101 154 255 255 44 2 7 147 255 196 120 81 42 9 2 0 0 0 0 0 0 0 0 1 4 21 63 101 156 255 255 29 1 0 0 0 0 0 0 0 0 0 0 0 0 0 0 0 0 0 0 0 0 0 0 0 0 0 0 0 0 0 0 0 0 0 0 0 0 0 0 0 0 0 0 0 7 156 255 203 125 86 45 9 2 0 0 0 0 0 0 0 0 2 11 41 49 46 47 46 18 4 1 4 41 224 120 254 209 255 46 4 8 32 45 43 45 47 17 3 1 0 0 0 0 0 0 0 0 0 0 0 0 0 0 0 0 1 6 30 71 104 161 255 255 25 1 0 0 0 1 13 255 255 178 114 78 32 6 1 0 0 0 0 0 0 0 0 0 0 0 1 2 1 0 0 0 1 6 20 23 22 23 14 4 1 0 0 1 1 1 0 0 0 2 12 48 85 129 211 255 83 4 0 0 0 10 225 255 188 117 78 33 7 1 0 0 0 0 0 0 0 0 2 10 48 83 88 92 85 68 25 5 1 0 0 0 1 0 0 0 1 3 18 62 98 148 245 255 44 2 0 0 0 0 0 0 0 0 0 0 0 0 0 0 0 0 0 0 0 0 0 0 0 0 0 0 0 0 0 0 0 0 0 0 0 0 0 0 0 0 0 0 0 0 0 0 0 0 0 0 0 0 0 0 0 0 0 0 0 0 0 0 3 68 255 226 138 92 54 14 3 1 0 0 0 0 0 0 0 0 1 1 2 1 1 0 0 0 0 0 0 0 0 0 0 0 0 0 0 0 0 0 0 1 7 33 73 111 183 255 255 232 135 88 48 13 3 1 2 44 255 243 255 63 3 1 4 20 62 97 148 245 255 40 2 0 0 0 0 0 1 31 255 255 159 103 69 23 5 1 0 0 0 0 0 0 0 0 2 11 47 85 132 219 255 212 129 85 46 11 2 0 1 12 211 231 203 11 1 0 0 0 1 1 1 0 0 0 2 12 51 91 135 217 255 76 4 0 0 1 34 255 255 156 101 65 24 5 1 0 0 0 0 0 0 0 0 0 0 0 0 0 0 0 0 0 0 0 0 0 0 0 0 0 0 0 0 0 0 0 2 11 47 86 130 214 255 89 4 0 0 0 0 0 5 99 255 205 126 84 48 13 2 0 0 0 1 1 1 0 0 1 6 30 71 108 170 255 255 22
147 204 255 255 15 2 6 28 34 26 30 41 10 2 0 0 0 0 0 0 0 0 0 0 0 0 0 0 0 0 0 0 0 0 1 4 19 33 25 28 41 12 2 1 0 1 1 1 1 0 0 1 3 19 46 32 31 47 23 4 1 0 0 0 0 0 0 0 0 1 3 4 4 4 2 1 0 0 0 0 0 0 0 0 0 0 0 0 0 0 0 0 0 0 0 0 0 0 0 0 0 0 0 0 0 1 4 25 109 122 127 175 255 255 28 75 255 226 146 122 118 58 8 1 0 0 0 0 0 0 0 0 0 3 20 106 124 130 183 255 255 13 1 0 0 0 0 0 0 0 0 0 0 0 0 0 0 0 0 0 0 0 0 0 0 0 0 0 0 0 0 0 0 0 0 0 0 0 0 0 0 0 0 0 4 78 255 228 149 124 126 65 9 1 0 0 0 0 0 0 0 0 1 8 38 39 29 33 44 12 2 1 12 216 255 255 255 236 255 255 22 6 25 34 26 31 43 12 2 0 0 0 0 0 0 0 0 0 0 0 0 0 0 0 0 0 1 5 33 111 120 130 188 255 252 11 0 0 0 6 148 255 208 138 123 126 38 5 1 0 0 0 0 0 0 0 0 0 0 0 0 0 0 0 0 0 1 3 10 11 10 11 6 2 0 0 0 0 0 0 0 0 0 2 10 74 119 122 155 248 255 47 2 0 5 102 255 213 143 126 127 39 5 1 0 0 0 0 0 0 0 0 1 10 78 105 67 59 80 103 25 4 1 0 0 0 0 0 0 0 0 2 17 101 126 127 172 255 255 22 1 0 0 0 0 0 0 0 0 0 0 0 0 0 0 0 0 0 0 0 0 0 0 0 0 0 0 0 0 0 0 0 0 0 0 0 0 0 0 0 0 0 0 0 0 0 0 0 0 0 0 0 0 0 0 0 0 0 0 0 0 2 38 255 255 160 123 122 87 13 2 0 0 0 0 0 0 0 0 0 0 0 0 0 0 0 0 0 0 0 0 0 0 0 0 0 0 0 0 0 0 0 0 1 5 37 117 124 144 200 223 160 127 129 74 11 2 1 21 255 255 255 255 255 35 2 3 19 104 122 125 172 255 255 20 1 0 0 0 1 14 255 255 183 130 123 124 24 3 1 0 0 0 0 0 0 0 0 1 10 74 123 127 138 157 136 126 127 68 9 1 0 5 91 255 246 255 84 4 0 0 0 0 0 0 0 0 0 2 11 80 131 125 156 250 255 41 2 1 15 255 255 179 128 123 108 23 3 1 0 0 0 0 0 0 0 0 0 0 0 0 0 0 0 0 0 0 0 0 0 0 0 0 0 0 0 0 0 0 0 1 10 74 125 123 155 246 255 48 2 0 0 0 2 49 255 234 150 119 118 67 11 2 0 0 0 0 0 0 0 0 1 5 33 117 123 135 197 255 255
118 149 197 255 140 7 4 19 24 16 22 36 7 1 0 0 0 0 0 0 0 0 0 0 0 0 0 0 0 0 0 0 0 0 0 2 11 23 15 19 36 8 1 0 0 0 0 0 0 0 0 0 2 13 43 24 23 50 17 3 0 0 0 0 0 0 0 0 0 0 1 1 1 1 1 0 0 0 0 0 0 0 0 0 0 0 0 0 0 0 0 0 0 0 0 0 0 0 0 0 0 0 0 0 0 0 4 51 255 213 133 127 184 255 255 255 247 152 125 170 239 188 15 1 0 0 0 0 0 0 0 0 0 4 43 255 215 136 132 196 255 128 6 0 0 0 0 0 0 0 0 0 0 0 0 0 0 0 0 0 0 0 0 0 0 0 0 0 0 0 0 0 0 0 0 0 0 0 0 0 0 0 0 2 41 255 243 151 124 167 242 221 18 1 0 0 0 0 0 0 0 0 1 6 33 34 20 27 47 9 2 5 97 255 255 255 231 207 194 255 201 13 17 25 17 22 39 9 1 0 0 0 0 0 0 0 0 0 0 0 0 0 0 0 0 0 1 6 71 254 199 130 133 199 255 114 5 0 3 74 255 225 143 128 185 255 96 8 1 0 0 0 0 0 0 0 0 0 0 0 0 0 0 0 0 0 0 1 3 4 4 4 2 1 0 0 0 0 0 0 0 0 0 2 23 255 238 156 125 165 255 255 26 3 53 255 228 144 127 184 255 94 8 1 0 0 0 0 0 0 0 0 2 24 255 206 80 55 127 233 48 4 0 0 0 0 0 0 0 0 0 3 36 255 224 141 128 182 255 215 10 0 0 0 0 0 0 0 0 0 0 0 0 0 0 0 0 0 0 0 0 0 0 0 0 0 0 0 0 0 0 0 0 0 0 0 0 0 0 0 0 0 0 0 0 0 0 0 0 0 0 0 0 0 0 0 0 0 0 0 1 19 255 255 170 124 145 228 255 28 2 0 0 0 0 0 0 0 0 0 0 0 0 0 0 0 0 0 0 0 0 0 0 0 0 0 0 0 0 0 0 0 0 1 7 83 255 194 126 113 115 116 156 248 255 23 2 10 220 255 202 198 193 255 255 19 4 39 255 221 138 128 184 255 213 9 0 0 0 6 132 255 192 130 132 211 255 54 4 0 0 0 0 0 0 0 0 0 2 23 255 243 157 96 86 98 161 250 237 19 2 2 46 255 237 219 235 255 41 2 0 0 0 0 0 0 0 0 2 24 255 240 154 125 167 255 255 20 8 149 255 189 129 133 214 255 48 4 0 0 0 0 0 0 0 0 0 0 0 0 0 0 0 0 0 0 0 0 0 0 0 0 0 0 0 0 0 0 0 0 2 23 255 246 157 125 163 255 255 23 1 0 1 23 255 255 157 122 156 238 216 19 2 0 0 0 0 0 0 0 0 1 6 76 255 199 130 138 217 255
100 105 124 199 255 70 6 9 13 9 14 26 5 1 0 0 0 0 0 0 0 0 0 0 0 0 0 0 0 0 0 0 0 0 0 1 5 11 8 11 26 5 1 0 0 0 0 0 0 0 0 0 2 9 37 18 19 58 13 2 0 0 0 0 0 0 0 0 0 0 0 0 0 0 0 0 0 0 0 0 0 0 0 0 0 0 0 0 0 0 0 0 0 0 0 0 0 0 0 0 0 0 0 0 0 1 17 255 250 241 164 101 115 197 255 255 154 103 123 216 255 255 76 4 0 0 0 0 0 0 0 0 1 14 254 251 240 162 103 120 203 255 62 3 0 0 0 0 0 0 0 0 0 0 0 0 0 0 0 0 0 0 0 0 0 0 0 0 0 0 0 0 0 0 0 0 0 0 0 0 0 0 1 18 255 255 146 100 119 208 253 255 85 5 0 0 0 0 0 0 0 0 1 4 25 27 14 22 57 9 4 50 255 219 174 150 140 143 132 191 255 115 14 14 9 14 30 6 1 0 0 0 0 0 0 0 0 0 0 0 0 0 0 0 0 0 1 27 255 255 238 155 100 122 206 255 56 4 37 255 227 134 101 138 221 245 255 38 2 0 0 0 0 0 0 0 0 0 0 0 0 0 0 0 0 0 0 0 1 1 1 1 1 0 0 0 0 0 0 0 0 0 0 7 130 255 255 204 116 107 164 255 255 45 255 244 139 100 130 216 242 255 36 2 0 0 0 0 0 0 0 0 7 131 255 255 185 109 253 247 255 16 1 0 0 0 0 0 0 0 1 10 182 252 242 174 105 113 185 255 97 5 0 0 0 0 0 0 0 0 0 0 0 0 0 0 0 0 0 0 0 0 0 0 0 0 0 0 0 0 0 0 0 0 0 0 0 0 0 0 0 0 0 0 0 0 0 0 0 0 0 0 0 0 0 0 0 0 0 0 8 174 255 169 108 109 188 252 255 159 9 1 0 0 0 0 0 0 0 0 0 0 0 0 0 0 0 0 0 0 0 0 0 0 0 0 0 0 0 0 0 0 0 2 32 255 253 228 127 68 62 94 189 252 255 128 12 99 255 191 132 127 127 178 255 175 22 215 253 247 174 104 115 191 255 95 5 0 3 64 255 198 118 100 159 237 238 255 18 1 0 0 0 0 0 0 0 0 7 137 255 255 194 83 54 87 198 254 255 97 7 21 255 249 155 150 155 253 255 17 1 0 0 0 0 0 0 0 7 123 255 246 193 114 107 165 255 185 97 255 198 117 101 161 241 251 255 16 1 0 0 0 0 0 0 0 0 0 0 0 0 0 0 0 0 0 0 0 0 0 0 0 0 0 0 0 0 0 0 0 7 128 255 255 200 115 105 160 255 199 9 1 10 222 255 157 104 116 208 255 255 94 5 0 0 0 0 0 0 0 0 2 30 255 252 232 146 102 132 213
80 69 71 110 213 255 39 5 5 4 7 13 3 1 0 0 0 0 0 0 0 0 0 0 0 0 0 0 0 0 0 0 0 0 0 1 2 4 3 6 12 3 1 0 0 0 0 0 0 0 0 0 1 6 24 12 18 78 13 2 0 0 0 0 0 0 0 0 0 0 0 0 0 0 0 0 0 0 0 0 0 0 0 0 0 0 0 0 0 0 0 0 0 0 0 0 0 0 0 0 0 0 0 0 0 6 115 255 177 162 156 86 69 103 166 141 86 71 119 166 173 201 255 36 2 0 0 0 0 0 0 0 5 96 255 175 160 149 84 71 112 214 255 29 1 0 0 0 0 0 0 0 0 0 0 0 0 0 0 0 0 0 0 0 0 0 0 0 0 0 0 0 0 0 0 0 0 0 0 0 0 0 7 140 255 143 80 68 114 162 165 188 255 37 2 0 0 0 0 0 0 0 0 3 14 17 9 21 81 12 25 255 231 128 95 74 74 82 80 108 203 255 74 9 5 8 17 4 1 0 0 0 0 0 0 0 0 0 0 0 0 0 0 0 0 0 9 185 255 180 167 151 80 71 114 219 255 49 255 245 125 74 73 134 161 171 235 255 15 1 0 0 0 0 0 0 0 0 0 0 0 0 0 0 0 0 0 0 0 0 0 0 0 0 0 0 0 0 0 0 0 0 3 56 255 187 168 167 109 69 89 166 255 255 255 138 78 71 124 157 169 234 246 13 1 0 0 0 0 0 0 3 56 255 183 187 255 255 222 193 255 115 6 0 0 0 0 0 0 0 4 68 255 173 159 156 90 68 102 195 255 47 2 0 0 0 0 0 0 0 0 0 0 0 0 0 0 0 0 0 0 0 0 0 0 0 0 0 0 0 0 0 0 0 0 0 0 0 0 0 0 0 0 0 0 0 0 0 0 0 0 0 0 0 0 0 0 0 0 4 72 255 171 92 67 100 164 165 181 255 68 3 0 0 0 0 0 0 0 0 0 0 0 0 0 0 0 0 0 0 0 0 0 0 0 0 0 0 0 0 0 0 1 11 225 247 174 159 118 45 36 82 153 160 186 255 185 255 194 105 77 72 74 97 173 255 255 255 175 162 159 90 70 104 195 255 44 4 32 255 214 110 69 82 150 158 166 255 113 6 0 0 0 0 0 0 0 3 60 255 186 163 156 81 41 87 156 162 186 255 59 185 255 141 90 87 90 144 255 138 7 0 0 0 0 0 0 3 52 255 179 159 159 105 68 90 171 255 255 223 110 70 84 152 161 176 255 109 6 0 0 0 0 0 0 0 0 0 0 0 0 0 0 0 0 0 0 0 0 0 0 0 0 0 0 0 0 0 0 3 54 255 182 164 163 107 68 87 162 255 80 9 95 255 164 87 69 113 171 172 195 255 43 2 0 0 0 0 0 0 1 11 212 255 176 162 141 77 71 90
57 41 38 56 116 245 255 18 2 2 3 4 1 0 0 0 0 0 0 0 0 0 0 0 0 0 0 0 0 0 0 0 0 0 0 0 1 1 1 2 4 1 0 0 0 0 0 0 0 0 0 0 1 3 10 7 21 120 17 2 0 0 0 0 0 0 0 0 0 0 0 0 0 0 0 0 0 0 0 0 0 0 0 0 0 0 0 0 0 0 0 0 0 0 0 0 0 0 0 0 0 0 0 0 2 49 255 165 104 92 106 70 40 47 62 56 43 49 94 98 95 124 239 255 15 1 0 0 0 0 0 2 42 255 170 104 90 100 65 40 57 116 253 232 11 1 0 0 0 0 0 0 0 0 0 0 0 0 0 0 0 0 0 0 0 0 0 0 0 0 0 0 0 0 0 0 0 0 0 0 0 3 57 255 155 73 42 46 91 96 91 117 227 255 14 1 0 0 0 0 0 0 0 1 5 7 6 27 143 33 211 255 127 66 46 33 34 40 43 56 107 221 255 41 4 3 6 2 0 0 0 0 0 0 0 0 0 0 0 0 0 0 0 0 0 4 73 255 151 103 96 106 62 40 58 121 255 255 255 136 63 40 53 100 94 98 142 255 109 6 0 0 0 0 0 0 0 0 0 0 0 0 0 0 0 0 0 0 0 0 0 0 0 0 0 0 0 0 0 0 0 1 25 255 203 112 91 100 88 44 46 88 194 255 161 73 42 50 94 92 97 141 255 96 5 0 0 0 0 0 1 25 255 202 114 115 185 232 148 125 176 255 55 3 0 0 0 0 0 1 28 255 181 106 89 100 72 41 52 104 219 255 20 1 0 0 0 0 0 0 0 0 0 0 0 0 0 0 0 0 0 0 0 0 0 0 0 0 0 0 0 0 0 0 0 0 0 0 0 0 0 0 0 0 0 0 0 0 0 0 0 0 0 0 0 0 0 0 1 32 255 187 89 47 42 83 103 91 110 196 255 33 1 0 0 0 0 0 0 0 0 0 0 0 0 0 0 0 0 0 0 0 0 0 0 0 0 0 0 0 0 0 5 92 255 146 99 89 86 32 24 65 91 87 115 236 255 254 107 53 39 36 38 49 94 218 255 206 110 91 103 73 41 53 103 219 255 35 255 251 117 56 40 64 103 89 99 158 255 46 2 0 0 0 0 0 1 27 255 202 111 88 93 77 39 83 93 88 115 237 255 255 157 73 47 44 48 75 159 255 59 3 0 0 0 0 1 22 255 204 111 88 97 85 43 47 95 211 245 121 57 41 67 103 91 104 167 255 47 2 0 0 0 0 0 0 0 0 0 0 0 0 0 0 0 0 0 0 0 0 0 0 0 0 0 0 0 0 1 23 255 201 109 88 97 86 44 45 85 181 255 124 255 182 86 46 46 94 102 95 120 223 255 18 1 0 0 0 0 0 4 81 255 148 100 92 101 57 35 34
37 23 19 27 58 134 255 130 7 1 1 1 0 0 0 0 0 0 0 0 0 0 0 0 0 0 0 0 0 0 0 0 0 0 0 0 0 0 0 1 1 0 0 0 0 0 0 0 0 0 0 0 0 1 3 5 35 163 30 3 0 0 0 0 0 0 0 0 0 0 0 0 0 0 0 0 0 0 0 0 0 0 0 0 0 0 0 0 0 0 0 0 0 0 0 0 0 0 0 0 0 0 0 1 20 255 206 95 56 48 59 52 22 19 21 20 19 31 61 51 48 68 135 255 126 6 0 0 0 0 1 19 255 220 99 56 47 55 44 23 28 59 139 255 89 5 0 0 0 0 0 0 0 0 0 0 0 0 0 0 0 0 0 0 0 0 0 0 0 0 0 0 0 0 0 0 0 0 0 0 1 24 255 194 84 36 21 30 61 50 46 64 130 255 108 5 0 0 0 0 0 0 0 1 2 3 6 58 206 255 255 150 65 31 20 14 14 17 20 27 53 118 245 255 18 2 2 1 0 0 0 0 0 0 0 0 0 0 0 0 0 0 0 0 2 34 255 183 86 54 50 61 43 22 28 64 159 255 183 75 31 21 35 60 50 52 79 164 255 48 2 0 0 0 0 0 0 0 0 0 0 0 0 0 0 0 0 0 0 0 0 0 0 0 0 0 0 0 0 0 0 10 201 255 117 61 46 52 59 28 23 42 86 118 74 36 22 33 58 48 51 80 172 255 45 2 0 0 0 0 9 182 255 118 65 65 97 114 84 73 103 214 255 27 1 0 0 0 0 11 219 248 107 59 46 54 50 24 25 52 121 255 161 8 0 0 0 0 0 0 0 0 0 0 0 0 0 0 0 0 0 0 0 0 0 0 0 0 0 0 0 0 0 0 0 0 0 0 0 0 0 0 0 0 0 0 0 0 0 0 0 0 0 0 0 0 0 1 12 245 241 104 44 23 26 59 55 47 60 113 248 255 13 1 0 0 0 0 0 0 0 0 0 0 0 0 0 0 0 0 0 0 0 0 0 0 0 0 0 0 0 2 46 255 179 83 51 46 52 22 17 45 47 44 64 122 196 126 55 26 18 16 17 23 47 104 158 105 62 48 56 52 24 25 51 123 255 255 255 138 59 28 23 46 58 46 54 93 205 255 18 1 0 0 0 0 10 220 255 115 60 44 50 67 44 72 50 45 65 139 255 215 89 37 22 20 23 38 87 198 255 27 1 0 0 0 8 172 255 119 61 45 52 58 27 24 46 88 98 57 28 24 48 58 47 56 96 211 255 20 1 0 0 0 0 0 0 0 0 0 0 0 0 0 0 0 0 0 0 0 0 0 0 0 0 0 0 0 8 159 255 116 59 44 51 58 27 23 42 104 255 255 255 102 43 23 30 64 54 48 66 127 255 134 7 0 0 0 0 2 37 255 177 83 52 48 58 38 17 12
20 11 8 12 29 72 167 255 55 3 0 0 0 0 0 0 0 0 0 0 0 0 0 0 0 0 0 0 0 0 0 0 0 0 0 0 0 0 0 0 0 0 0 0 0 0 0 0 0 0 0 0 0 0 1 7 84 149 66 5 0 0 0 0 0 0 0 0 0 0 0 0 0 0 0 0 0 0 0 0 0 0 0 0 0 0 0 0 0 0 0 0 0 0 0 0 0 0 0 0 0 0 0 8 161 255 124 53 29 24 31 33 12 7 7 7 8 18 34 25 23 36 77 177 255 59 3 0 0 0 8 171 255 134 56 29 23 27 26 12 13 30 78 182 255 42 2 0 0 0 0 0 0 0 0 0 0 0 0 0 0 0 0 0 0 0 0 0 0 0 0 0 0 0 0 0 0 0 0 0 9 176 255 117 45 17 10 18 35 25 22 35 75 177 255 51 2 0 0 0 0 0 0 0 1 2 19 255 237 255 215 87 33 14 8 5 5 6 8 12 25 61 142 255 143 7 1 0 0 0 0 0 0 0 0 0 0 0 0 0 0 0 0 1 14 255 252 111 48 27 25 31 26 12 14 33 77 121 86 39 15 11 20 32 25 26 43 97 222 255 23 1 0 0 0 0 0 0 0 0 0 0 0 0 0 0 0 0 0 0 0 0 0 0 0 0 0 0 0 0 4 88 255 154 65 32 22 25 33 16 11 19 34 42 30 16 11 20 31 24 26 45 103 230 255 20 1 0 0 4 75 255 152 66 36 34 45 50 43 41 58 128 255 251 12 1 0 0 5 93 255 147 62 31 23 27 30 13 12 26 66 162 255 72 4 0 0 0 0 0 0 0 0 0 0 0 0 0 0 0 0 0 0 0 0 0 0 0 0 0 0 0 0 0 0 0 0 0 0 0 0 0 0 0 0 0 0 0 0 0 0 0 0 0 0 0 0 5 95 255 142 56 22 11 15 36 28 23 32 62 144 255 115 6 0 0 0 0 0 0 0 0 0 0 0 0 0 0 0 0 0 0 0 0 0 0 0 0 0 0 1 22 255 236 107 46 26 22 26 13 11 27 22 21 33 56 77 55 26 12 7 6 7 10 22 44 60 47 31 24 28 31 13 12 26 72 186 255 204 81 30 13 12 28 29 23 28 52 125 255 151 7 0 0 0 4 88 255 151 64 31 21 28 59 60 63 28 22 36 72 121 98 47 18 10 8 10 18 46 118 255 213 10 0 0 4 72 255 157 67 33 22 26 34 16 12 20 33 35 23 13 13 30 29 23 29 54 128 255 180 8 0 0 0 0 0 0 0 0 0 0 0 0 0 0 0 0 0 0 0 0 0 0 0 0 0 0 3 66 255 154 65 31 21 25 33 16 11 21 59 147 229 138 56 21 12 18 38 27 24 35 72 165 255 58 3 0 0 1 16 255 243 107 46 26 23 29 21 8 4
8 5 3 6 14 41 105 224 255 25 1 0 0 0 0 0 0 0 0 0 0 0 0 0 0 0 0 0 0 0 0 0 0 0 0 0 0 0 0 0 0 0 0 0 0 0 0 0 0 0 0 0 0 0 2 28 255 156 255 20 1 0 0 0 0 0 0 0 0 0 0 0 0 0 0 0 0 0 0 0 0 0 0 0 0 0 0 0 0 0 0 0 0 0 0 0 0 0 0 0 0 0 4 74 255 178 78 31 15 11 15 18 6 3 2 2 4 9 16 12 11 19 46 111 231 255 28 1 0 4 79 255 185 84 33 15 10 12 12 6 6 16 46 117 252 255 20 1 0 0 0 0 0 0 0 0 0 0 0 0 0 0 0 0 0 0 0 0 0 0 0 0 0 0 0 0 0 0 0 4 77 255 166 72 25 9 5 9 17 12 11 19 46 114 239 255 24 1 0 0 0 0 0 0 0 7 141 255 220 185 118 52 18 6 3 2 2 2 3 5 12 33 85 183 255 63 3 0 0 0 0 0 0 0 0 0 0 0 0 0 0 0 0 6 121 255 158 69 28 13 11 14 13 6 7 16 35 47 37 19 7 5 10 14 11 13 24 60 144 255 199 9 0 0 0 0 0 0 0 0 0 0 0 0 0 0 0 0 0 0 0 0 0 0 0 0 0 0 0 2 46 255 211 97 39 17 10 11 16 8 5 7 12 14 11 7 5 9 14 11 13 26 63 146 255 193 9 0 2 38 255 210 97 40 20 17 19 21 21 22 35 78 170 255 114 5 0 2 47 255 205 95 38 17 11 12 15 7 6 13 38 102 219 255 37 2 0 0 0 0 0 0 0 0 0 0 0 0 0 0 0 0 0 0 0 0 0 0 0 0 0 0 0 0 0 0 0 0 0 0 0 0 0 0 0 0 0 0 0 0 0 0 0 0 0 0 2 45 255 195 89 32 11 5 8 19 13 11 17 37 89 196 255 57 3 0 0 0 0 0 0 0 0 0 0 0 0 0 0 0 0 0 0 0 0 0 0 0 0 0 9 192 255 149 65 27 13 10 11 6 6 12 10 10 15 23 28 22 11 5 3 2 2 4 9 17 22 19 14 11 13 16 7 6 14 43 101 150 108 48 16 6 6 14 13 11 15 31 80 182 255 71 3 0 2 42 255 202 94 38 16 10 18 66 139 69 19 11 18 35 48 41 23 9 4 3 4 9 26 72 166 255 87 4 2 35 255 212 100 41 17 10 12 17 8 5 8 11 12 9 5 7 16 14 11 15 32 80 180 255 80 4 0 0 0 0 0 0 0 0 0 0 0 0 0 0 0 0 0 0 0 0 0 0 0 0 1 32 255 214 99 39 16 10 11 16 8 5 11 33 73 99 69 31 11 6 9 19 13 11 19 43 105 224 255 27 1 0 7 144 255 154 66 26 13 11 13 10 3 2
3 2 1 2 7 26 73 153 255 212 10 0 0 0 0 0 0 0 0 0 0 0 0 0 0 0 0 0 0 0 0 0 0 0 0 0 0 0 0 0 0 0 0 0 0 0 0 0 0 0 0 0 0 1 9 188 255 255 255 123 6 0 0 0 0 0 0 0 0 0 0 0 0 0 0 0 0 0 0 0 0 0 0 0 0 0 0 0 0 0 0 0 0 0 0 0 0 0 0 0 0 2 39 255 234 124 57 20 7 5 6 7 3 1 1 1 1 3 6 5 5 10 31 77 154 255 255 12 2 41 255 233 124 60 22 8 4 4 4 2 3 8 30 82 169 255 197 9 0 0 0 0 0 0 0 0 0 0 0 0 0 0 0 0 0 0 0 0 0 0 0 0 0 0 0 0 0 0 2 41 255 228 117 51 15 4 2 4 6 5 5 10 32 80 160 255 216 10 0 0 0 0 0 0 3 70 255 217 169 102 66 33 10 3 1 1 1 1 1 2 6 20 58 124 235 255 30 1 0 0 0 0 0 0 0 0 0 0 0 0 0 0 3 58 255 207 109 49 17 6 5 5 5 3 3 7 14 18 15 8 3 2 4 5 5 6 14 43 100 191 255 86 4 0 0 0 0 0 0 0 0 0 0 0 0 0 0 0 0 0 0 0 0 0 0 0 0 0 1 22 255 255 142 69 26 9 4 4 6 3 2 3 4 4 4 2 2 4 5 4 6 15 45 101 198 255 91 5 16 255 255 145 69 27 11 7 8 8 9 12 22 54 114 219 255 59 4 22 255 255 140 68 25 9 5 5 5 3 3 7 25 71 148 255 255 18 1 0 0 0 0 0 0 0 0 0 0 0 0 0 0 0 0 0 0 0 0 0 0 0 0 0 0 0 0 0 0 0 0 0 0 0 0 0 0 0 0 0 0 0 0 0 0 0 0 1 23 255 255 134 63 20 6 2 3 7 5 5 8 23 63 133 251 255 29 1 0 0 0 0 0 0 0 0 0 0 0 0 0 0 0 0 0 0 0 0 0 0 0 4 88 255 192 100 45 16 6 4 4 2 2 4 4 4 6 9 10 8 4 2 1 1 1 2 3 6 7 7 6 4 5 6 3 3 8 26 54 68 56 29 9 3 3 5 5 4 7 20 59 126 238 255 38 2 20 255 255 138 66 24 8 6 20 181 255 186 22 6 9 15 19 17 10 4 2 1 2 4 15 50 114 218 255 44 18 255 255 145 70 27 9 5 5 6 3 2 3 4 4 3 2 3 6 5 5 7 20 57 122 228 255 40 2 0 0 0 0 0 0 0 0 0 0 0 0 0 0 0 0 0 0 0 0 0 0 1 15 255 255 148 71 26 9 4 4 6 3 2 6 18 35 42 34 16 5 3 4 7 5 5 10 29 74 152 255 254 12 4 72 255 206 107 47 16 6 4 5 3 1 1
1 1 0 1 4 18 61 113 194 255 93 4 0 0 0 0 0 0 0 0 0 0 0 0 0 0 0 0 0 0 0 0 0 0 0 0 0 0 0 0 0 0 0 0 0 0 0 0 0 0 0 0 0 4 80 255 216 247 222 255 56 3 0 0 0 0 0 0 0 0 0 0 0 0 0 0 0 0 0 0 0 0 0 0 0 0 0 0 0 0 0 0 0 0 0 0 0 0 0 0 1 18 255 255 159 96 49 13 4 2 2 2 1 0 0 0 0 1 2 2 2 6 23 64 111 191 255 122 27 255 255 157 94 50 15 4 2 1 1 1 1 5 22 69 120 205 255 95 4 0 0 0 0 0 0 0 0 0 0 0 0 0 0 0 0 0 0 0 0 0 0 0 0 0 0 0 0 1 20 255 255 158 93 42 10 2 1 1 2 2 2 6 24 68 114 195 255 96 5 0 0 0 0 2 38 255 250 161 128 67 41 20 5 1 0 0 0 0 0 1 3 13 47 95 161 255 255 12 1 0 0 0 0 0 0 0 0 0 0 0 0 1 29 255 250 143 86 41 11 3 2 2 1 1 1 3 5 6 5 3 1 1 1 2 2 3 9 35 80 132 228 255 43 2 0 0 0 0 0 0 0 0 0 0 0 0 0 0 0 0 0 0 0 0 0 0 0 0 9 210 255 175 104 59 18 5 2 2 2 1 1 1 1 1 1 1 1 1 2 2 3 9 37 82 137 235 255 62 161 255 180 107 60 19 6 3 3 3 3 5 15 45 88 148 255 255 46 206 255 173 104 59 18 5 2 2 2 1 1 4 18 59 108 185 255 173 8 0 0 0 0 0 0 0 0 0 0 0 0 0 0 0 0 0 0 0 0 0 0 0 0 0 0 0 0 0 0 0 0 0 0 0 0 0 0 0 0 0 0 0 0 0 0 0 0 10 238 255 176 102 53 14 3 1 1 2 2 2 4 16 54 99 167 255 255 13 1 0 0 0 0 0 0 0 0 0 0 0 0 0 0 0 0 0 0 0 0 0 2 47 255 233 132 79 37 10 3 1 1 1 1 1 1 1 2 3 3 3 1 1 0 0 0 1 1 2 2 2 2 2 2 2 1 1 4 14 28 32 29 16 5 1 1 2 2 2 4 14 52 98 161 255 255 29 188 255 177 103 56 17 5 6 78 255 255 255 81 7 4 6 7 6 4 1 1 0 1 2 10 41 89 151 255 255 252 255 185 107 60 19 5 2 2 2 1 1 1 1 1 1 1 1 2 2 2 4 14 49 93 155 255 255 19 1 0 0 0 0 0 0 0 0 0 0 0 0 0 0 0 0 0 0 0 0 0 7 154 255 190 111 62 19 5 2 1 2 1 1 3 8 16 18 15 8 2 1 1 2 2 2 5 21 63 112 193 255 117 50 255 247 142 86 39 10 3 2 1 1 0 0
0 0 0 1 3 14 63 94 132 223 255 46 2 0 0 0 0 0 0 0 0 0 0 0 0 0 0 0 0 0 0 0 0 0 0 0 0 0 0 0 0 0 0 0 0 0 0 0 0 0 0 0 2 39 255 229 168 175 171 247 255 27 1 0 0 0 0 0 0 0 0 0 0 0 0 0 0 0 0 0 0 0 0 0 0 0 0 0 0 0 0 0 0 0 0 0 0 0 0 0 7 157 255 178 112 87 53 10 2 1 1 1 0 0 0 0 0 0 0 1 1 3 18 65 91 129 218 255 255 255 177 110 84 51 11 2 1 0 0 0 1 3 18 72 95 135 231 255 51 2 0 0 0 0 0 0 0 0 0 0 0 0 0 0 0 0 0 0 0 0 0 0 0 0 0 0 0 9 195 255 178 113 87 42 7 1 0 0 1 1 1 4 20 71 93 131 223 255 49 2 0 0 1 17 255 255 164 121 103 53 26 11 3 1 0 0 0 0 0 0 2 9 46 85 114 184 255 119 6 0 0 0 0 0 0 0 0 0 0 0 1 12 253 255 164 105 82 40 8 2 1 0 0 0 0 1 2 2 2 1 0 0 0 0 1 1 6 33 78 100 151 255 255 21 1 0 0 0 0 0 0 0 0 0 0 0 0 0 0 0 0 0 0 0 0 0 0 5 96 255 197 119 88 62 14 3 1 0 0 0 0 0 0 0 0 0 0 0 0 1 1 6 35 82 102 153 255 255 255 210 123 91 67 15 3 1 1 1 1 3 10 46 82 106 166 255 255 255 197 119 90 64 14 3 1 0 0 0 1 2 14 60 90 124 203 255 78 4 0 0 0 0 0 0 0 0 0 0 0 0 0 0 0 0 0 0 0 0 0 0 0 0 0 0 0 0 0 0 0 0 0 0 0 0 0 0 0 0 0 0 0 0 0 0 5 104 255 199 122 90 54 11 2 0 0 1 1 1 2 12 57 86 115 189 255 124 6 0 0 0 0 0 0 0 0 0 0 0 0 0 0 0 0 0 0 0 0 1 23 255 255 154 100 77 33 6 1 1 0 0 0 0 0 0 1 1 1 1 0 0 0 0 0 0 0 1 1 1 1 0 0 0 0 1 2 6 13 14 13 7 2 1 0 0 0 1 2 11 56 88 113 182 255 255 255 202 122 89 58 13 4 37 255 235 199 234 255 38 3 2 2 2 1 0 0 0 0 1 7 40 83 110 182 255 255 221 128 92 65 15 3 1 1 1 0 0 0 0 0 0 0 0 0 1 1 2 10 51 84 110 177 255 180 8 0 0 0 0 0 0 0 0 0 0 0 0 0 0 0 0 0 0 0 0 4 76 255 211 128 94 68 15 3 1 0 0 0 0 1 3 6 7 6 3 1 0 0 1 1 1 3 17 68 94 131 221 255 255 255 161 105 83 38 7 1 1 0 0 0 0
0 0 0 0 2 14 89 91 94 141 253 255 21 1 0 0 0 0 0 0 0 0 0 0 0 0 0 0 0 0 0 0 0 0 0 0 0 0 0 0 0 0 0 0 0 0 0 0 0 0 0 1 17 255 255 150 123 118 124 161 255 248 12 1 0 0 0 0 0 0 0 0 0 0 0 0 0 0 0 0 0 0 0 0 0 0 0 0 0 0 0 0 0 0 0 0 0 0 0 3 72 255 194 113 87 97 80 10 1 0 0 0 0 0 0 0 0 0 0 0 0 3 17 91 90 92 142 255 255 209 116 86 94 67 10 1 0 0 0 0 0 3 18 100 88 94 144 254 255 25 1 0 0 0 0 0 0 0 0 0 0 0 0 0 0 0 0 0 0 0 0 0 0 0 0 0 4 86 255 192 113 89 99 51 7 1 0 0 0 0 0 3 19 99 91 93 141 251 255 23 1 0 7 150 255 171 108 97 91 50 17 5 1 0 0 0 0 0 0 0 1 8 62 95 88 119 209 255 59 3 0 0 0 0 0 0 0 0 0 0 5 114 255 178 107 88 99 48 7 1 0 0 0 0 0 0 0 1 0 0 0 0 0 0 0 1 5 38 95 87 101 166 255 212 9 0 0 0 0 0 0 0 0 0 0 0 0 0 0 0 0 0 0 0 0 0 2 50 255 219 125 88 90 88 14 2 0 0 0 0 0 0 0 0 0 0 0 0 0 0 1 5 40 104 87 103 173 255 255 138 92 94 106 16 2 1 0 0 0 2 9 64 97 85 109 190 255 244 131 89 95 95 14 2 0 0 0 0 0 2 13 80 89 89 127 223 255 39 2 0 0 0 0 0 0 0 0 0 0 0 0 0 0 0 0 0 0 0 0 0 0 0 0 0 0 0 0 0 0 0 0 0 0 0 0 0 0 0 0 0 0 0 0 2 52 255 213 124 90 96 73 10 1 0 0 0 0 0 2 12 88 92 87 119 205 255 59 3 0 0 0 0 0 0 0 0 0 0 0 0 0 0 0 0 0 0 0 10 219 255 163 101 87 97 36 5 1 0 0 0 0 0 0 0 0 0 0 0 0 0 0 0 0 0 0 0 0 0 0 0 0 0 0 0 1 2 5 5 5 3 1 0 0 0 0 0 1 11 85 99 88 119 213 255 250 133 91 94 82 14 17 255 255 166 135 166 255 255 16 1 1 1 0 0 0 0 0 1 6 48 96 91 120 191 218 137 94 96 98 15 2 0 0 0 0 0 0 0 0 0 0 0 0 0 0 1 10 70 95 87 114 195 255 79 4 0 0 0 0 0 0 0 0 0 0 0 0 0 0 0 0 0 0 2 41 255 233 131 92 96 105 16 2 0 0 0 0 0 0 1 2 2 2 1 0 0 0 0 0 0 2 17 100 94 94 144 255 255 182 107 87 100 45 6 1 0 0 0 0 0
0 0 0 0 2 24 188 121 78 91 157 255 180 9 0 0 0 0 0 0 0 0 0 0 0 0 0 0 0 0 0 0 0 0 0 0 0 0 0 0 0 0 0 0 0 0 0 0 0 0 0 7 159 255 164 99 91 84 91 105 177 255 111 5 0 0 0 0 0 0 0 0 0 0 0 0 0 0 0 0 0 0 0 0 0 0 0 0 0 0 0 0 0 0 0 0 0 0 2 38 255 225 121 78 85 152 210 21 2 0 0 0 0 0 0 0 0 0 0 0 0 3 28 192 127 78 93 144 177 120 80 85 148 150 15 1 0 0 0 0 0 3 29 185 112 74 90 155 255 238 11 0 0 0 0 0 0 0 0 0 0 0 0 0 0 0 0 0 0 0 0 0 0 0 0 2 43 255 216 118 78 86 143 101 10 1 0 0 0 0 0 3 30 191 125 77 90 155 255 193 9 4 71 255 192 106 77 88 96 62 13 3 1 0 0 0 0 0 0 0 1 14 155 148 85 82 131 238 255 28 1 0 0 0 0 0 0 0 0 3 58 255 207 111 76 94 157 94 9 1 0 0 0 0 0 0 0 0 0 0 0 0 0 0 0 1 7 66 155 100 75 104 189 255 96 5 0 0 0 0 0 0 0 0 0 0 0 0 0 0 0 0 0 0 0 1 25 255 251 136 82 78 133 195 24 2 0 0 0 0 0 0 0 0 0 0 0 0 0 0 1 7 73 171 99 76 102 145 128 90 83 142 230 31 3 0 0 0 0 1 16 177 165 89 77 108 151 126 87 83 145 206 26 2 0 0 0 0 0 2 20 163 122 75 83 139 255 255 19 1 0 0 0 0 0 0 0 0 0 0 0 0 0 0 0 0 0 0 0 0 0 0 0 0 0 0 0 0 0 0 0 0 0 0 0 0 0 0 0 0 0 0 1 27 255 247 131 81 80 136 165 17 2 0 0 0 0 0 2 24 225 144 80 79 127 235 255 29 1 0 0 0 0 0 0 0 0 0 0 0 0 0 0 0 0 0 5 102 255 185 101 74 100 170 60 6 1 0 0 0 0 0 0 0 0 0 0 0 0 0 0 0 0 0 0 0 0 0 0 0 0 0 0 0 0 1 1 2 1 1 0 0 0 0 0 0 2 22 209 154 87 82 119 167 132 88 82 140 194 33 153 255 169 112 96 113 170 255 138 7 0 0 0 0 0 0 0 1 9 92 146 92 79 93 100 82 81 143 217 28 2 0 0 0 0 0 0 0 0 0 0 0 0 0 0 1 17 173 150 87 78 120 218 255 38 2 0 0 0 0 0 0 0 0 0 0 0 0 0 0 0 0 1 19 255 255 144 85 78 138 219 30 3 0 0 0 0 0 0 0 1 1 0 0 0 0 0 0 0 0 3 31 207 132 80 93 139 155 106 77 95 157 88 8 1 0 0 0 0 0
0 0 0 0 5 83 252 218 93 66 98 182 255 77 4 0 0 0 0 0 0 0 0 0 0 0 0 0 0 0 0 0 0 0 0 0 0 0 0 0 0 0 0 0 0 0 0 0 0 0 4 78 255 195 105 72 72 67 72 73 112 208 255 56 3 0 0 0 0 0 0 0 0 0 0 0 0 0 0 0 0 0 0 0 0 0 0 0 0 0 0 0 0 0 0 0 0 1 18 255 255 142 79 66 134 252 255 82 5 0 0 0 0 0 0 0 0 0 0 0 0 6 99 253 234 98 65 72 79 67 66 136 253 255 52 3 0 0 0 0 0 6 88 230 202 85 63 96 180 255 106 5 0 0 0 0 0 0 0 0 0 0 0 0 0 0 0 0 0 0 0 0 0 0 1 20 255 255 136 76 64 124 223 255 31 2 0 0 0 0 1 7 97 237 224 94 65 97 180 255 89 44 255 228 121 71 65 103 138 132 15 2 0 0 0 0 0 0 0 0 3 57 255 255 128 68 84 147 255 233 11 1 0 0 0 0 0 0 1 28 255 240 130 75 69 156 240 255 31 2 0 0 0 0 0 0 0 0 0 0 0 0 0 0 0 1 20 255 235 175 75 71 117 215 255 49 2 0 0 0 0 0 0 0 0 0 0 0 0 0 0 0 0 0 0 10 215 255 155 86 64 110 244 255 84 5 0 0 0 0 0 0 0 0 0 0 0 0 0 0 1 23 255 235 171 73 60 65 63 64 115 241 241 130 8 1 0 0 0 4 70 255 255 154 67 60 67 63 65 121 246 251 88 6 0 0 0 0 0 4 60 255 226 95 62 89 165 255 204 9 0 0 0 0 0 0 0 0 0 0 0 0 0 0 0 0 0 0 0 0 0 0 0 0 0 0 0 0 0 0 0 0 0 0 0 0 0 0 0 0 0 1 13 255 255 155 84 62 106 233 255 55 4 0 0 0 0 0 6 105 255 255 121 63 81 148 255 251 12 1 0 0 0 0 0 0 0 0 0 0 0 0 0 0 0 2 52 255 215 115 69 72 180 241 253 17 1 0 0 0 0 0 0 0 0 0 0 0 0 0 0 0 0 0 0 0 0 0 0 0 0 0 0 0 0 0 0 0 0 0 0 0 0 0 0 0 5 78 255 249 137 66 65 74 67 65 113 244 255 255 255 202 110 80 74 81 110 195 255 63 3 0 0 0 0 0 0 2 29 255 235 139 60 46 46 53 105 239 249 108 7 0 0 0 0 0 0 0 0 0 0 0 0 0 0 4 62 255 255 140 66 77 136 255 255 16 1 0 0 0 0 0 0 0 0 0 0 0 0 0 0 0 8 168 255 162 89 64 101 229 237 115 7 0 0 0 0 0 0 0 0 0 0 0 0 0 0 0 0 1 7 122 243 229 100 64 67 70 62 70 158 236 255 29 2 0 0 0 0 0
0 0 0 2 36 255 201 219 165 62 63 108 205 255 37 2 0 0 0 0 0 0 0 0 0 0 0 0 0 0 0 0 0 0 0 0 0 0 0 0 0 0 0 0 0 0 0 0 0 2 42 255 218 116 67 54 61 61 61 54 70 123 232 255 27 1 0 0 0 0 0 0 0 0 0 0 0 0 0 0 0 0 0 0 0 0 0 0 0 0 0 0 0 0 0 0 0 8 157 255 158 85 56 84 227 213 199 255 35 2 0 0 0 0 0 0 0 0 0 0 2 43 255 206 222 178 57 35 34 38 81 232 224 216 255 20 1 0 0 0 2 34 255 194 222 154 56 61 106 200 255 52 2 0 0 0 0 0 0 0 0 0 0 0 0 0 0 0 0 0 0 0 0 0 8 183 255 150 81 53 78 207 223 242 169 9 1 0 0 0 2 38 255 197 218 171 61 62 107 208 255 255 255 136 74 51 74 162 224 255 44 3 0 0 0 0 0 0 0 1 26 255 221 224 220 81 57 87 163 255 97 5 0 0 0 0 0 1 11 235 255 141 78 56 98 230 225 252 196 10 1 0 0 0 0 0 0 0 0 0 0 0 0 0 0 6 119 255 231 234 117 55 71 126 239 255 23 1 0 0 0 0 0 0 0 0 0 0 0 0 0 0 0 0 4 88 255 168 91 57 70 211 222 202 255 37 2 0 0 0 0 0 0 0 0 0 0 0 0 0 7 129 255 219 228 110 39 29 31 60 199 209 191 255 54 3 0 0 2 33 255 217 219 238 91 36 29 32 66 212 212 194 255 35 2 0 0 0 1 23 255 206 227 185 63 58 97 183 255 90 4 0 0 0 0 0 0 0 0 0 0 0 0 0 0 0 0 0 0 0 0 0 0 0 0 0 0 0 0 0 0 0 0 0 0 0 0 0 0 0 0 6 121 255 171 91 56 67 190 218 204 255 20 1 0 0 0 2 47 255 200 217 222 75 55 87 163 255 107 5 0 0 0 0 0 0 0 0 0 0 0 0 0 0 1 24 255 235 126 71 54 113 233 224 255 99 5 0 0 0 0 0 0 0 0 0 0 0 0 0 0 0 0 0 0 0 0 0 0 0 0 0 0 0 0 0 0 0 0 0 0 0 0 0 0 2 32 255 193 210 225 78 36 32 34 63 199 223 241 255 247 124 72 59 60 60 71 117 218 255 30 1 0 0 0 0 0 9 159 255 228 214 66 24 22 46 177 207 194 255 44 2 0 0 0 0 0 0 0 0 0 0 0 0 1 25 255 209 221 232 85 54 81 153 255 132 6 0 0 0 0 0 0 0 0 0 0 0 0 0 0 4 74 255 178 94 57 64 181 206 190 255 48 2 0 0 0 0 0 0 0 0 0 0 0 0 0 0 0 3 52 255 200 212 174 55 32 30 38 97 229 225 255 183 9 0 0 0 0 0
0 0 1 14 255 237 149 148 197 81 42 59 115 237 255 15 1 0 0 0 0 0 0 0 0 0 0 0 0 0 0 0 0 0 0 0 0 0 0 0 0 0 0 0 0 0 0 0 1 20 255 241 119 62 40 40 52 58 52 38 41 66 128 255 224 11 0 0 0 0 0 0 0 0 0 0 0 0 0 0 0 0 0 0 0 0 0 0 0 0 0 0 0 0 0 0 3 66 255 165 83 48 47 146 182 136 139 236 255 13 1 0 0 0 0 0 0 0 0 1 18 255 225 148 146 194 71 19 15 28 133 182 143 151 255 148 7 0 0 1 13 252 232 152 155 208 73 39 57 109 220 255 25 1 0 0 0 0 0 0 0 0 0 0 0 0 0 0 0 0 0 0 0 4 79 255 165 80 46 44 134 185 151 157 255 65 3 0 0 1 14 255 223 148 146 198 82 41 59 120 255 255 152 74 43 43 121 200 208 204 230 13 1 0 0 0 0 0 0 10 212 255 149 142 184 130 45 49 88 181 255 47 2 0 0 0 0 5 99 255 149 74 45 52 166 173 147 162 255 76 4 0 0 0 0 0 0 0 0 0 0 0 0 0 3 50 255 175 155 169 188 58 42 67 132 255 220 10 0 0 0 0 0 0 0 0 0 0 0 0 0 0 0 2 42 255 184 90 50 42 111 198 145 147 238 255 16 1 0 0 0 0 0 0 0 0 0 0 0 3 53 255 167 147 166 180 36 13 18 76 182 136 136 209 255 25 1 1 13 255 251 144 136 173 157 30 13 20 91 183 138 141 229 237 12 1 0 0 8 170 255 154 152 208 98 41 53 97 192 255 42 2 0 0 0 0 0 0 0 0 0 0 0 0 0 0 0 0 0 0 0 0 0 0 0 0 0 0 0 0 0 0 0 0 0 0 0 0 0 0 3 55 255 178 90 50 41 104 193 144 147 255 142 7 0 0 1 20 255 221 138 138 190 127 44 49 88 180 255 51 2 0 0 0 0 0 0 0 0 0 0 0 0 0 9 183 255 129 66 42 58 185 165 150 178 255 43 2 0 0 0 0 0 0 0 0 0 0 0 0 0 0 0 0 0 0 0 0 0 0 0 0 0 0 0 0 0 0 0 0 0 0 0 0 1 12 252 241 137 134 176 122 26 14 21 86 187 145 144 164 117 68 45 42 48 43 43 63 122 254 251 12 1 0 0 0 3 61 255 161 150 171 98 18 13 58 180 134 138 215 255 17 1 0 0 0 0 0 0 0 0 0 0 0 9 195 255 146 140 181 143 46 47 83 167 255 58 3 0 0 0 0 0 0 0 0 0 0 0 0 2 36 255 196 96 51 40 94 194 138 139 215 255 22 1 0 0 0 0 0 0 0 0 0 0 0 0 0 1 23 255 212 143 141 187 66 17 14 33 163 171 149 164 255 73 4 0 0 0 0
0 0 5 109 255 135 90 89 131 119 33 30 57 128 255 118 6 0 0 0 0 0 0 0 0 0 0 0 0 0 0 0 0 0 0 0 0 0 0 0 0 0 0 0 0 0 0 0 8 168 255 129 58 31 22 27 43 55 42 25 22 32 63 140 255 89 4 0 0 0 0 0 0 0 0 0 0 0 0 0 0 0 0 0 0 0 0 0 0 0 0 0 0 0 0 1 30 255 187 85 40 27 54 177 109 76 80 132 255 105 5 0 0 0 0 0 0 0 0 7 128 255 129 87 85 120 98 16 8 31 164 106 80 89 154 255 62 3 0 5 96 255 136 95 95 142 114 30 29 53 119 255 210 10 0 0 0 0 0 0 0 0 0 0 0 0 0 0 0 0 0 0 2 36 255 185 85 40 25 50 181 117 87 97 181 255 29 1 0 5 93 255 130 89 87 128 120 33 31 60 115 133 74 36 24 50 188 152 131 137 255 82 4 0 0 0 0 0 4 81 255 148 85 79 110 164 46 27 44 97 217 255 22 1 0 0 2 48 255 174 77 37 26 64 169 104 82 96 177 255 33 2 0 0 0 0 0 0 0 0 0 0 0 1 20 255 200 103 86 102 160 77 27 33 66 149 255 92 4 0 0 0 0 0 0 0 0 0 0 0 0 0 1 18 255 221 99 45 26 40 162 118 83 87 136 255 125 6 0 0 0 0 0 0 0 0 0 0 1 22 255 194 99 83 100 160 47 9 16 100 105 77 80 122 255 190 10 6 104 255 138 80 73 101 170 37 8 20 125 105 78 84 131 255 89 5 0 3 68 255 149 94 90 132 163 38 27 47 100 219 255 18 1 0 0 0 0 0 0 0 0 0 0 0 0 0 0 0 0 0 0 0 0 0 0 0 0 0 0 0 0 0 0 0 0 0 0 0 0 1 24 255 201 92 43 26 40 165 122 84 90 152 255 61 3 0 8 154 255 125 80 77 113 174 47 26 43 96 209 255 23 1 0 0 0 0 0 0 0 0 0 0 0 4 73 255 142 63 32 27 80 162 99 84 106 213 255 19 1 0 0 0 0 0 0 0 0 0 0 0 0 0 0 0 0 0 0 0 0 0 0 0 0 0 0 0 0 0 0 0 0 0 0 0 5 97 255 138 82 75 102 157 28 8 19 121 111 80 69 63 47 32 24 26 34 27 24 32 61 136 255 99 5 0 0 1 25 255 182 97 83 100 138 22 13 83 109 78 81 124 255 117 6 0 0 0 0 0 0 0 0 0 0 4 80 255 146 85 77 106 170 52 26 41 88 196 255 27 1 0 0 0 0 0 0 0 0 0 0 1 14 255 234 105 47 27 35 148 124 83 84 126 255 173 8 0 0 0 0 0 0 0 0 0 0 0 0 0 9 196 255 123 84 83 117 88 14 9 41 166 103 83 97 181 255 33 2 0 0 0
0 2 48 255 161 72 48 48 75 141 33 16 27 65 158 255 51 3 0 0 0 0 0 0 0 0 0 0 0 0 0 0 0 0 0 0 0 0 0 0 0 0 0 0 0 0 0 3 69 255 150 63 27 14 11 16 33 50 31 14 10 14 29 72 171 255 41 2 0 0 0 0 0 0 0 0 0 0 0 0 0 0 0 0 0 0 0 0 0 0 0 0 0 0 1 11 222 244 103 41 19 17 69 120 62 39 42 71 164 255 50 2 0 0 0 0 0 0 3 54 255 151 68 45 44 65 123 19 7 38 118 60 40 47 84 189 255 28 3 43 255 164 76 52 53 82 154 33 15 25 58 141 255 87 4 0 0 0 0 0 0 0 0 0 0 0 0 0 0 0 0 1 14 255 228 99 41 19 17 69 133 70 46 53 104 246 219 11 2 39 255 157 72 48 47 73 141 34 16 25 42 47 30 16 17 80 156 98 73 85 161 255 36 2 0 0 0 2 35 255 172 78 44 40 62 122 53 16 21 48 119 255 187 9 0 1 21 255 213 93 37 17 19 86 106 59 42 50 99 232 255 13 1 0 0 0 0 0 0 0 0 0 0 7 139 255 113 54 43 56 93 105 22 16 31 76 176 255 43 2 0 0 0 0 0 0 0 0 0 0 0 0 7 133 255 121 49 21 15 49 141 68 43 46 72 159 255 55 3 0 0 0 0 0 0 0 0 0 8 148 255 111 53 42 55 90 61 10 19 112 56 39 42 64 140 255 79 54 255 164 72 41 36 56 106 48 9 24 126 58 40 44 72 163 255 40 3 31 255 182 82 51 49 78 161 48 15 21 48 120 255 130 7 0 0 0 0 0 0 0 0 0 0 0 0 0 0 0 0 0 0 0 0 0 0 0 0 0 0 0 0 0 0 0 0 0 0 0 0 9 170 255 110 44 20 15 51 153 73 45 49 85 192 255 28 5 64 255 147 65 41 40 65 133 60 16 20 46 114 255 171 8 0 0 0 0 0 0 0 0 0 0 2 34 255 178 74 30 15 23 121 96 55 43 56 121 255 155 7 0 0 0 0 0 0 0 0 0 0 0 0 0 0 0 0 0 0 0 0 0 0 0 0 0 0 0 0 0 0 0 0 0 0 2 43 255 166 75 44 38 58 121 35 7 23 131 61 38 29 22 17 13 11 14 19 14 11 14 29 70 166 255 44 2 1 9 169 252 105 52 42 58 133 31 19 122 59 40 43 66 150 255 48 2 0 0 0 0 0 0 0 0 2 38 255 179 79 45 39 60 117 67 17 19 43 108 255 221 11 0 0 0 0 0 0 0 0 0 0 6 110 255 127 51 22 15 41 154 74 45 45 67 147 255 69 4 0 0 0 0 0 0 0 0 0 0 0 4 85 255 146 65 44 43 63 111 16 9 53 101 58 42 51 101 235 255 13 1 0 0
1 21 255 210 90 37 23 24 46 112 38 10 12 32 87 204 255 22 1 0 0 0 0 0 0 0 0 0 0 0 0 0 0 0 0 0 0 0 0 0 0 0 0 0 0 0 1 32 255 187 79 30 12 6 5 9 22 42 21 7 4 6 13 35 95 222 255 16 1 0 0 0 0 0 0 0 0 0 0 0 0 0 0 0 0 0 0 0 0 0 0 0 0 0 4 90 255 133 52 19 9 15 91 66 33 19 20 36 92 214 255 23 1 0 0 0 0 1 25 255 199 83 35 21 21 39 116 24 8 41 62 31 19 23 43 107 254 201 30 255 216 92 40 26 27 51 131 43 9 11 28 74 180 255 43 2 0 0 0 0 0 0 0 0 0 0 0 0 0 0 0 5 110 255 126 49 19 9 16 108 76 39 23 27 56 136 255 94 21 255 217 90 37 23 24 44 111 40 10 10 14 15 11 7 20 156 97 58 39 48 97 229 255 15 1 0 1 13 255 229 96 39 21 19 33 68 60 12 10 23 61 149 255 74 4 8 165 255 118 46 17 9 19 116 59 30 20 25 52 132 255 118 6 0 0 0 0 0 0 0 0 0 3 57 255 146 59 27 20 28 53 128 24 8 14 37 96 222 255 18 1 0 0 0 0 0 0 0 0 0 0 3 56 255 152 62 23 10 11 61 84 38 21 22 36 86 202 255 25 1 0 0 0 0 0 0 0 3 58 255 143 59 27 20 27 46 83 13 23 96 33 19 20 32 75 183 255 255 221 91 36 19 17 28 53 60 11 27 88 34 19 21 37 94 222 255 31 239 245 103 43 25 25 46 100 63 11 10 23 62 154 255 55 3 0 0 0 0 0 0 0 0 0 0 0 0 0 0 0 0 0 0 0 0 0 0 0 0 0 0 0 0 0 0 0 0 0 0 3 67 255 140 56 21 9 12 73 94 44 23 25 44 109 255 228 47 255 190 80 33 19 19 35 75 81 14 10 22 58 145 255 72 4 0 0 0 0 0 0 0 0 1 14 255 240 101 37 14 8 28 152 58 28 21 29 64 156 255 67 3 0 0 0 0 0 0 0 0 0 0 0 0 0 0 0 0 0 0 0 0 0 0 0 0 0 0 0 0 0 0 0 0 1 18 255 216 92 38 21 18 32 67 39 8 28 98 36 17 11 7 6 4 4 6 8 6 4 6 13 34 92 215 255 18 4 69 255 138 56 26 20 35 87 48 35 147 40 20 20 34 84 201 255 19 1 0 0 0 0 0 0 1 15 255 232 100 40 21 19 31 65 90 15 9 20 56 141 255 91 4 0 0 0 0 0 0 0 0 2 49 255 162 66 24 10 10 52 103 45 23 22 34 79 183 255 30 1 0 0 0 0 0 0 0 0 0 2 42 255 186 79 33 21 21 38 115 22 11 71 51 29 20 25 53 132 255 100 5 0 0
9 181 255 121 47 18 10 12 28 69 43 7 6 15 45 117 255 154 8 0 0 0 0 0 0 0 0 0 0 0 0 0 0 0 0 0 0 0 0 0 0 0 0 0 0 1 13 255 249 108 40 14 5 2 2 4 13 30 12 4 2 2 6 17 50 126 255 116 6 0 0 0 0 0 0 0 0 0 0 0 0 0 0 0 0 0 0 0 0 0 0 0 0 2 45 255 180 74 26 9 5 18 123 40 16 8 9 18 48 123 255 213 10 0 0 0 0 9 191 255 117 44 17 9 10 26 83 29 9 38 29 15 9 10 22 57 142 255 255 255 126 49 20 12 14 33 82 63 9 5 13 38 103 232 255 19 1 0 0 0 0 0 0 0 0 0 0 0 0 0 2 52 255 169 69 24 8 5 24 166 50 20 11 13 29 76 184 255 255 255 128 49 19 11 12 27 68 46 7 4 4 4 4 5 38 203 71 33 20 26 55 134 255 119 6 1 5 100 255 132 51 19 9 9 16 35 67 11 5 10 30 81 186 255 39 78 255 156 63 23 8 5 25 135 40 15 9 12 27 73 174 255 55 3 0 0 0 0 0 0 0 1 26 255 199 84 31 13 9 14 36 117 30 6 6 18 49 126 255 133 7 0 0 0 0 0 0 0 0 0 1 27 255 203 85 31 11 5 12 83 45 20 10 10 18 45 117 255 185 9 0 0 0 0 0 0 1 25 255 192 81 30 13 9 12 29 129 21 25 65 21 9 9 15 40 111 255 255 132 49 18 8 7 13 28 85 15 26 49 19 9 10 19 50 129 255 255 255 140 55 21 12 12 25 55 93 12 5 11 31 87 203 255 24 1 0 0 0 0 0 0 0 0 0 0 0 0 0 0 0 0 0 0 0 0 0 0 0 0 0 0 0 0 0 0 0 0 1 32 255 188 78 28 9 5 15 127 55 24 11 11 23 58 145 255 255 255 112 42 16 8 9 18 44 123 17 5 10 29 81 192 255 36 2 0 0 0 0 0 0 0 6 126 255 136 54 18 6 6 38 126 42 15 9 14 33 87 197 255 30 1 0 0 0 0 0 0 0 0 0 0 0 0 0 0 0 0 0 0 0 0 0 0 0 0 0 0 0 0 0 0 0 7 152 255 126 48 19 9 8 16 32 38 10 28 57 21 8 4 2 2 1 1 2 2 2 2 2 6 16 48 123 255 142 45 255 190 79 29 12 10 20 52 102 84 123 33 10 9 17 45 117 255 145 7 0 0 0 0 0 0 6 125 255 131 53 20 10 8 16 40 130 19 5 9 28 77 182 255 44 2 0 0 0 0 0 0 1 21 255 213 92 34 11 5 10 70 57 26 11 10 16 41 106 249 229 11 1 0 0 0 0 0 0 0 1 18 255 234 105 41 16 9 10 26 93 27 18 114 30 14 9 12 27 72 171 255 45 2 0
92 255 160 67 25 9 4 6 15 37 45 7 3 7 23 64 153 255 62 3 0 0 0 0 0 0 0 0 0 0 0 0 0 0 0 0 0 0 0 0 0 0 0 0 0 5 102 255 143 59 20 6 2 1 1 2 6 15 6 2 1 1 2 8 26 70 165 255 51 3 0 0 0 0 0 0 0 0 0 0 0 0 0 0 0 0 0 0 0 0 0 0 1 20 255 233 106 40 13 4 4 27 139 33 8 4 4 9 25 67 159 255 93 4 0 0 4 77 255 151 65 23 8 4 5 17 49 29 10 29 13 6 4 4 10 30 85 217 255 186 74 26 10 5 7 20 51 130 13 3 6 19 55 134 255 148 7 0 0 0 0 0 0 0 0 0 0 0 0 1 25 255 221 98 37 12 4 5 44 159 46 11 5 6 15 42 111 255 255 191 76 26 9 5 6 15 37 52 7 2 1 1 2 7 84 138 60 20 10 13 30 76 172 255 56 5 44 255 172 75 27 9 4 4 7 21 76 12 3 5 15 43 108 253 255 255 204 89 33 11 4 5 34 116 33 8 4 5 14 39 99 216 255 25 1 0 0 0 0 0 0 10 205 255 119 46 16 6 4 7 27 83 36 5 3 8 25 69 163 255 58 3 0 0 0 0 0 0 0 1 12 255 255 121 47 16 5 3 17 131 31 10 4 4 8 23 64 151 255 73 4 0 0 0 0 0 10 206 255 115 45 15 6 4 7 31 169 41 25 37 12 4 3 7 21 62 127 136 71 26 8 3 3 6 23 145 24 20 23 10 4 4 9 27 76 191 255 208 83 30 10 5 6 13 38 154 19 3 5 16 47 119 255 216 10 0 0 0 0 0 0 0 0 0 0 0 0 0 0 0 0 0 0 0 0 0 0 0 0 0 0 0 0 0 0 0 1 14 255 255 112 43 14 4 4 30 196 47 13 5 5 11 31 86 211 255 162 64 22 7 3 4 10 37 165 28 4 5 14 44 113 251 255 16 1 0 0 0 0 0 3 61 255 177 76 28 9 3 7 54 80 30 8 4 6 17 46 114 255 247 12 1 0 0 0 0 0 0 0 0 0 0 0 0 0 0 0 0 0 0 0 0 0 0 0 0 0 0 0 0 0 3 68 255 165 70 26 9 4 3 7 15 31 10 23 28 11 3 1 1 1 0 0 1 1 1 1 1 2 8 25 68 166 255 255 255 114 44 15 6 5 12 52 255 255 105 28 6 4 8 24 66 161 255 63 3 0 0 0 0 3 57 255 172 73 27 10 4 4 8 35 152 30 4 4 14 41 105 232 255 19 1 0 0 0 0 0 8 181 255 125 50 17 5 3 14 115 36 13 5 4 8 21 58 143 255 91 5 0 0 0 0 0 0 0 7 141 255 134 56 21 7 4 5 19 63 34 38 186 31 7 4 5 13 39 99 223 255 20 1
255 208 92 37 13 4 2 3 7 20 44 7 2 3 12 35 90 199 255 28 1 0 0 0 0 0 0 0 0 0 0 0 0 0 0 0 0 0 0 0 0 0 0 0 2 46 255 178 81 32 10 3 1 0 0 1 3 5 2 1 0 0 1 4 13 38 97 217 255 24 1 0 0 0 0 0 0 0 0 0 0 0 0 0 0 0 0 0 0 0 0 0 8 179 255 136 59 21 6 2 5 41 115 33 6 2 2 4 13 36 90 195 255 47 2 2 37 255 192 86 35 12 4 2 3 9 25 23 8 16 6 2 1 2 5 16 49 107 149 95 42 14 4 2 3 12 54 245 34 3 3 9 29 74 164 255 64 3 0 0 0 0 0 0 0 0 0 0 0 10 213 255 130 55 20 6 2 9 103 107 47 8 2 3 7 23 63 132 175 103 44 14 4 2 2 7 22 64 8 1 0 0 2 23 255 91 51 13 5 6 16 42 100 220 255 55 255 224 102 41 14 4 2 1 4 17 91 14 2 2 7 22 62 155 255 255 124 50 17 5 2 5 45 80 28 5 2 2 6 20 54 125 255 208 10 0 0 0 0 0 4 86 255 153 67 25 8 3 2 4 18 51 43 6 2 4 13 38 95 210 255 27 1 0 0 0 0 0 0 5 106 255 157 68 25 8 2 3 32 178 35 6 2 2 4 12 35 86 191 255 33 2 0 0 0 4 86 255 157 66 24 8 2 2 5 42 144 130 28 18 6 2 1 3 11 30 51 53 33 13 4 1 1 4 34 191 55 14 9 4 2 2 4 14 43 96 145 102 47 16 5 2 2 8 42 176 39 4 2 8 25 68 159 255 93 5 0 0 0 0 0 0 0 0 0 0 0 0 0 0 0 0 0 0 0 0 0 0 0 0 0 0 0 0 0 0 6 122 255 150 64 23 7 2 6 67 158 56 9 2 2 5 17 48 99 129 82 36 11 3 1 2 7 42 141 52 5 2 7 23 63 145 255 136 7 0 0 0 0 1 31 255 219 102 42 14 4 2 10 95 49 20 5 2 3 8 24 63 148 255 103 5 0 0 0 0 0 0 0 0 0 0 0 0 0 0 0 0 0 0 0 0 0 0 0 0 0 0 0 0 1 32 255 206 95 39 13 4 2 1 3 7 19 7 13 11 5 1 1 0 0 0 0 0 0 0 0 0 1 4 12 38 102 243 255 159 67 24 7 3 2 12 106 255 255 133 30 5 2 4 12 37 95 205 255 28 1 0 0 1 26 255 215 100 40 14 4 2 2 6 37 123 55 6 2 7 22 58 135 255 168 8 0 0 0 0 4 81 255 164 71 27 8 3 3 28 190 37 8 2 2 3 10 32 82 185 255 43 2 0 0 0 0 0 3 59 255 166 74 29 10 3 2 3 12 38 52 160 173 46 6 2 2 6 20 55 133 255 177 9
255 127 53 20 6 2 1 1 3 11 37 6 1 2 6 19 51 122 255 233 11 0 0 0 0 0 0 0 0 0 0 0 0 0 0 0 0 0 0 0 0 0 0 1 21 255 229 107 45 17 5 1 0 0 0 0 1 1 1 0 0 0 0 2 6 21 56 133 255 222 10 0 0 0 0 0 0 0 0 0 0 0 0 0 0 0 0 0 0 0 0 4 81 255 170 77 32 11 3 1 7 76 83 34 5 1 1 2 6 19 50 114 240 255 23 17 255 251 117 49 18 6 2 1 1 4 11 13 5 6 2 1 0 1 2 8 25 47 58 43 21 7 2 1 2 12 91 182 121 8 2 4 15 41 97 210 255 31 1 0 0 0 0 0 0 0 0 0 4 90 255 162 74 30 10 3 3 31 255 90 51 7 1 1 3 12 33 58 70 49 23 7 2 1 1 4 17 98 11 1 0 0 6 89 237 92 47 9 3 3 8 23 57 134 255 255 255 137 58 22 7 2 1 1 3 19 116 19 2 1 3 12 36 88 160 138 71 28 9 2 1 8 70 53 21 4 1 1 3 10 29 71 161 255 87 4 0 0 0 2 44 255 197 90 38 13 4 1 1 2 11 31 52 7 1 2 6 20 54 128 255 240 11 0 0 0 0 0 2 49 255 189 90 38 13 4 1 7 83 148 52 6 1 1 2 6 18 49 116 255 255 14 1 0 2 41 255 197 93 38 13 4 1 1 7 69 133 255 92 11 3 1 1 1 5 12 18 19 13 6 2 1 1 6 65 156 245 22 4 1 1 1 2 7 22 43 57 45 24 8 2 1 1 8 59 130 103 8 2 4 13 38 93 198 255 46 2 0 0 0 0 0 0 0 0 0 0 0 0 0 0 0 0 0 0 0 0 0 0 0 0 0 0 0 0 3 56 255 184 86 36 12 3 2 19 250 109 80 10 2 1 2 8 24 42 50 36 18 6 2 1 1 7 52 100 152 12 2 3 12 35 83 179 255 64 3 0 0 1 13 255 255 130 57 22 7 2 2 24 219 46 12 3 1 1 4 12 35 87 189 255 51 2 0 0 0 0 0 0 0 0 0 0 0 0 0 0 0 0 0 0 0 0 0 0 0 0 0 0 1 13 255 255 123 54 21 6 2 1 1 1 3 8 4 5 4 2 1 0 0 0 0 0 0 0 0 0 0 0 2 6 22 59 116 141 85 38 13 4 1 2 27 231 150 149 154 44 5 1 2 6 20 54 123 255 241 11 1 0 10 207 255 128 56 22 7 2 1 1 6 41 91 166 13 2 3 11 32 77 173 255 78 4 0 0 2 40 255 206 97 40 14 4 1 6 78 174 60 7 1 1 1 5 17 47 111 239 255 19 1 0 0 0 1 26 255 209 98 41 15 5 1 1 2 7 35 255 255 157 92 9 1 1 3 10 31 77 172 255 93
125 72 31 10 3 1 0 0 2 6 25 5 1 1 3 10 30 74 161 255 97 5 0 0 0 0 0 0 0 0 0 0 0 0 0 0 0 0 0 0 0 0 0 8 177 255 141 63 26 8 2 1 0 0 0 0 0 0 0 0 0 0 0 1 3 11 33 79 170 255 93 5 0 0 0 0 0 0 0 0 0 0 0 0 0 0 0 0 0 0 2 43 255 212 102 45 17 5 1 2 20 237 76 36 5 1 0 1 3 10 28 66 145 255 237 183 255 152 69 28 9 3 1 0 1 2 4 5 2 2 1 0 0 0 1 4 11 18 21 17 9 3 1 0 2 23 199 143 255 45 3 2 7 23 57 130 255 255 14 1 0 0 0 0 0 0 0 2 45 255 201 96 43 16 5 2 9 159 222 123 78 9 1 1 2 5 15 23 26 21 11 3 1 0 1 3 26 193 23 2 0 2 35 255 152 106 55 8 2 1 4 12 34 82 178 255 198 88 35 12 3 1 0 0 3 27 144 32 3 1 2 6 20 45 66 60 37 15 4 1 1 16 167 45 14 3 1 0 1 5 16 42 97 201 255 42 2 0 1 22 255 250 121 53 21 7 2 0 0 1 6 21 78 9 1 1 3 11 32 76 165 255 104 5 0 0 0 1 23 255 233 113 52 21 7 2 2 29 255 126 110 10 1 0 1 3 9 28 70 156 255 139 6 1 18 255 246 120 55 22 6 2 1 1 18 222 159 232 255 42 3 0 0 1 2 4 6 6 5 2 1 0 1 17 223 158 255 108 7 1 0 0 1 3 10 17 20 18 10 4 1 0 1 12 120 116 255 35 2 2 7 22 54 119 242 255 21 1 0 0 0 0 0 0 0 0 0 0 0 0 0 0 0 0 0 0 0 0 0 0 0 0 0 0 1 26 255 225 110 50 20 6 2 6 96 255 126 172 18 2 0 1 4 10 16 18 14 7 2 1 0 1 9 86 111 255 50 3 2 6 19 48 108 223 255 33 1 0 6 125 255 160 75 32 12 3 1 6 84 220 87 11 2 0 1 2 6 20 51 116 238 255 25 1 0 0 0 0 0 0 0 0 0 0 0 0 0 0 0 0 0 0 0 0 0 0 0 0 0 5 107 255 155 72 31 11 3 1 0 0 0 1 2 1 1 1 1 0 0 0 0 0 0 0 0 0 0 0 0 1 3 11 31 51 57 41 20 6 2 1 6 86 211 101 85 142 105 9 1 1 3 11 31 73 162 255 100 5 5 88 255 162 75 32 11 3 1 0 1 6 52 111 255 53 4 2 5 17 45 104 215 255 41 2 1 18 255 252 124 57 23 7 2 2 29 255 142 159 13 1 0 1 2 9 27 66 146 255 160 8 0 0 0 10 206 255 130 57 23 7 2 1 0 1 9 122 255 234 168 255 27 2 0 1 5 17 46 104 220 255
52 37 17 5 1 0 0 0 1 3 11 3 1 0 1 5 17 45 97 196 255 47 2 0 0 0 0 0 0 0 0 0 0 0 0 0 0 0 0 0 0 0 4 74 255 174 85 38 14 4 1 0 0 0 0 0 0 0 0 0 0 0 0 0 1 6 19 48 101 199 255 43 2 0 0 0 0 0 0 0 0 0 0 0 0 0 0 0 0 1 22 255 254 127 60 26 9 2 1 5 89 255 134 47 5 1 0 0 1 5 15 39 85 179 255 255 195 91 42 16 5 1 0 0 0 1 1 1 1 1 0 0 0 0 0 1 4 6 7 6 3 1 0 0 5 73 233 154 218 255 18 2 3 12 34 78 161 255 120 6 0 0 0 0 0 0 1 21 255 244 122 57 24 8 2 4 62 255 158 185 222 20 2 0 1 2 5 8 9 7 4 1 0 0 0 5 63 204 65 5 1 13 255 240 125 140 107 11 1 1 2 6 20 49 92 130 100 54 21 6 2 0 0 0 4 47 141 78 6 1 1 3 9 20 25 24 17 7 2 1 4 53 254 82 12 2 0 0 1 2 8 24 58 121 245 255 19 1 9 192 255 150 72 32 11 3 1 0 0 1 3 24 173 18 2 0 1 5 18 46 98 198 255 50 2 0 0 10 216 255 141 67 30 11 3 1 10 185 251 171 255 33 2 0 0 1 5 16 43 94 191 255 71 11 159 255 148 71 32 12 3 1 0 5 79 255 198 158 244 255 15 1 0 0 1 1 2 2 1 1 0 0 5 80 255 186 191 255 45 2 0 0 0 1 3 6 7 6 4 1 0 0 2 35 255 168 228 243 13 1 3 11 32 70 145 255 201 9 0 0 0 0 0 0 0 0 0 0 0 0 0 0 0 0 0 0 0 0 0 0 0 0 0 0 11 252 255 136 65 29 10 3 3 44 255 179 181 251 52 4 0 0 1 3 5 6 5 3 1 0 0 2 23 237 176 197 255 18 2 3 10 28 64 135 255 255 15 4 63 255 193 94 44 18 6 2 2 35 255 165 241 24 2 0 0 1 3 10 30 69 143 255 210 10 0 0 0 0 0 0 0 0 0 0 0 0 0 0 0 0 0 0 0 0 0 0 0 0 2 52 255 190 92 43 17 5 1 0 0 0 0 0 1 0 0 0 0 0 0 0 0 0 0 0 0 0 0 0 0 0 1 5 14 20 21 17 9 3 1 2 32 255 143 73 58 134 255 33 2 0 1 5 17 45 97 195 255 51 49 255 201 98 45 18 6 1 0 0 1 10 114 177 191 255 19 2 2 9 26 62 129 255 255 20 8 159 255 149 72 33 12 3 1 10 186 255 179 255 51 3 0 0 1 4 15 40 87 175 255 68 3 0 4 88 255 162 78 34 12 3 1 0 0 3 44 255 192 139 178 246 136 8 1 1 2 9 27 63 135 255
20 16 8 2 1 0 0 0 0 1 3 1 0 0 1 2 9 26 56 115 233 255 23 1 0 0 0 0 0 0 0 0 0 0 0 0 0 0 0 0 0 2 34 255 200 100 49 22 7 2 0 0 0 0 0 0 0 0 0 0 0 0 0 0 1 3 10 27 57 115 232 255 18 1 0 0 0 0 0 0 0 0 0 0 0 0 0 0 0 10 212 255 146 72 35 14 4 1 2 39 255 174 222 130 10 1 0 0 1 2 7 22 49 105 208 219 114 54 24 8 2 1 0 0 0 0 0 0 0 0 0 0 0 0 0 1 1 2 2 2 1 0 0 1 29 255 168 146 148 255 136 7 2 6 19 45 91 183 255 55 3 0 0 0 0 0 9 182 255 142 69 33 13 4 2 27 255 200 131 213 255 77 5 0 0 1 2 3 3 2 1 1 0 0 1 18 255 149 255 22 6 98 255 149 108 185 255 32 2 0 1 3 10 26 42 51 44 30 11 3 1 0 0 1 10 129 135 255 27 2 0 1 4 7 9 8 6 3 1 1 20 255 178 234 24 2 0 0 0 1 4 13 33 69 144 255 161 12 81 255 167 84 42 18 6 1 0 0 0 1 5 57 228 56 4 0 1 2 9 26 56 114 228 255 23 1 5 97 255 167 81 38 16 5 2 4 72 255 167 198 222 183 10 1 0 1 2 8 25 54 110 220 255 182 255 175 85 41 18 6 1 0 2 34 255 184 170 108 145 255 100 5 0 0 0 0 0 1 0 0 0 2 36 255 184 165 133 223 255 17 1 0 0 0 1 2 2 2 1 0 0 1 10 177 214 202 162 255 103 5 2 6 17 40 82 171 255 90 4 0 0 0 0 0 0 0 0 0 0 0 0 0 0 0 0 0 0 0 0 0 0 0 0 5 109 255 163 78 37 16 5 2 20 255 234 138 191 180 255 16 1 0 0 1 2 2 1 1 0 0 0 6 99 251 222 152 255 123 7 2 5 15 37 76 154 255 150 43 255 223 111 54 25 9 3 1 14 255 245 162 239 90 6 0 0 0 1 5 17 40 80 161 255 88 4 0 0 0 0 0 0 0 0 0 0 0 0 0 0 0 0 0 0 0 0 0 0 1 25 255 228 111 53 24 9 2 1 0 0 0 0 0 0 0 0 0 0 0 0 0 0 0 0 0 0 0 0 0 0 0 1 2 5 7 7 6 3 1 1 11 209 236 114 57 50 141 219 189 10 1 1 2 9 26 56 114 234 255 255 247 119 57 26 9 3 1 0 0 2 37 255 211 147 255 120 7 1 4 14 35 72 147 255 182 94 255 176 85 41 18 6 2 4 73 255 165 180 195 255 18 1 0 0 2 8 23 50 101 204 255 32 3 44 255 195 94 45 19 6 2 0 0 1 16 255 211 114 86 141 165 255 56 3 0 1 4 15 37 74 122
7 6 3 1 0 0 0 0 0 0 1 0 0 0 0 1 4 13 30 62 132 255 209 10 0 0 0 0 0 0 0 0 0 0 0 0 0 0 0 0 1 14 255 242 113 53 26 11 3 1 0 0 0 0 0 0 0 0 0 0 0 0 0 0 0 1 5 14 30 61 131 255 138 7 0 0 0 0 0 0 0 0 0 0 0 0 0 0 4 89 255 162 77 38 18 7 2 1 16 255 232 138 203 255 46 3 0 0 0 1 3 11 26 53 87 90 57 29 12 4 1 0 0 0 0 0 0 0 0 0 0 0 0 0 0 0 0 1 1 1 0 0 1 10 196 248 132 114 96 167 255 60 4 3 10 24 48 101 213 255 27 1 0 0 0 4 74 255 161 76 37 17 6 2 11 219 255 124 103 154 169 255 30 2 0 0 0 1 1 1 0 0 0 0 5 92 255 161 255 129 56 255 174 92 99 180 218 164 9 1 0 1 4 11 16 18 17 13 5 1 0 0 0 2 41 255 181 246 150 8 1 0 1 2 3 3 2 1 1 7 133 255 158 235 87 6 0 0 0 0 2 6 17 37 77 164 255 187 255 191 90 44 22 9 3 1 0 0 0 1 15 221 156 255 19 1 0 1 4 13 30 60 128 255 167 11 49 255 191 91 43 20 8 2 2 32 255 189 115 149 157 255 73 4 0 0 1 4 13 29 58 125 255 255 226 99 46 22 9 3 1 1 13 255 240 127 109 71 85 170 255 45 2 0 0 0 0 0 0 0 1 15 255 240 126 112 86 131 255 131 7 0 0 0 0 0 1 1 0 0 0 4 69 255 154 152 115 185 255 49 3 3 8 21 44 93 194 255 45 2 0 0 0 0 0 0 0 0 0 0 0 0 0 0 0 0 0 0 0 0 0 0 2 53 255 184 88 42 20 7 3 8 158 255 139 99 135 140 255 94 5 0 0 0 0 0 0 0 0 0 2 42 255 171 162 113 164 255 52 3 2 7 19 40 83 177 255 255 255 125 59 29 12 4 1 6 108 255 151 128 153 255 34 2 0 0 1 2 8 21 42 88 187 255 43 2 0 0 0 0 0 0 0 0 0 0 0 0 0 0 0 0 0 0 0 0 0 10 207 255 129 60 29 12 4 1 0 0 0 0 0 0 0 0 0 0 0 0 0 0 0 0 0 0 0 0 0 0 0 0 0 1 2 2 2 2 1 1 4 81 255 141 81 49 51 118 144 255 72 4 0 1 4 13 30 62 138 255 255 143 65 31 13 4 1 0 0 1 12 228 214 170 111 162 255 50 3 2 7 18 38 78 166 255 255 213 98 46 22 9 3 2 33 255 189 109 129 139 255 115 6 0 0 1 3 11 26 54 116 249 250 36 255 232 111 51 24 10 3 1 0 0 6 107 255 129 64 53 91 112 202 255 24 1 1 2 7 19 35 48
2 2 1 0 0 0 0 0 0 0 0 0 0 0 0 0 2 6 14 31 68 153 255 87 4 0 0 0 0 0 0 0 0 0 0 0 0 0 0 0 6 111 255 135 58 26 12 5 1 0 0 0 0 0 0 0 0 0 0 0 0 0 0 0 0 1 2 6 14 30 69 157 255 60 3 0 0 0 0 0 0 0 0 0 0 0 0 2 41 255 182 84 38 18 8 3 1 6 119 255 136 97 139 199 255 18 1 0 0 0 1 5 12 23 32 32 24 13 5 2 0 0 0 0 0 0 0 0 0 0 0 0 0 0 0 0 0 0 0 0 0 0 4 74 255 142 89 77 59 94 200 255 28 2 4 11 24 51 119 255 240 11 0 0 2 33 255 184 85 38 18 8 3 5 88 255 145 72 71 89 115 234 189 10 1 0 0 0 0 0 0 0 0 2 39 255 158 135 157 255 255 230 98 56 86 122 147 255 65 3 0 1 2 4 5 6 6 4 2 1 0 0 1 13 237 196 176 152 255 57 3 0 0 1 1 1 1 0 3 54 255 158 117 146 255 32 2 0 0 0 1 3 8 18 39 90 218 255 255 108 46 21 10 4 1 0 0 0 0 4 72 255 153 255 126 7 0 1 2 6 14 30 65 147 255 142 255 223 103 46 21 9 3 2 12 235 239 109 71 89 103 185 255 34 2 0 0 2 6 14 29 65 139 198 115 52 23 10 4 1 1 5 103 255 137 76 60 43 47 98 214 255 18 1 0 0 0 0 0 0 6 134 255 138 76 64 52 73 158 255 59 3 0 0 0 0 0 0 0 0 1 32 255 184 104 90 73 105 216 255 22 2 4 10 21 47 104 227 255 21 1 0 0 0 0 0 0 0 0 0 0 0 0 0 0 0 0 0 0 0 0 1 25 255 214 99 44 20 9 3 4 65 255 155 77 63 79 96 161 255 40 2 0 0 0 0 0 0 0 1 17 255 217 117 93 75 96 202 255 24 2 3 9 19 42 99 229 255 152 65 29 13 5 2 3 46 255 167 88 86 107 220 252 13 1 0 0 1 3 9 20 44 103 226 255 20 1 0 0 0 0 0 0 0 0 0 0 0 0 0 0 0 0 0 0 0 4 82 255 146 66 30 14 5 2 0 0 0 0 0 0 0 0 0 0 0 0 0 0 0 0 0 0 0 0 0 0 0 0 0 0 0 0 1 1 1 0 2 36 255 175 82 53 43 55 82 93 179 255 32 2 1 2 6 14 31 72 141 139 73 33 15 6 2 0 0 0 5 88 255 141 104 76 97 201 255 21 2 3 8 18 39 92 211 246 117 51 22 10 4 2 13 255 239 109 66 77 88 156 255 47 2 0 0 1 5 12 27 60 137 255 255 255 128 57 26 11 4 1 0 0 2 46 255 159 73 35 31 51 66 117 255 176 9 1 1 3 8 13 16
1 0 0 0 0 0 0 0 0 0 0 0 0 0 0 0 1 2 6 14 33 80 180 255 40 2 0 0 0 0 0 0 0 0 0 0 0 0 0 2 48 255 162 70 28 12 5 2 1 0 0 0 0 0 0 0 0 0 0 0 0 0 0 0 0 0 1 2 6 14 34 85 197 255 28 1 0 0 0 0 0 0 0 0 0 0 1 16 255 221 98 41 17 8 3 1 3 50 255 158 76 62 80 126 255 121 6 0 0 0 1 2 4 8 10 10 8 5 2 1 0 0 0 0 0 0 0 0 0 0 0 0 0 0 0 0 0 0 0 0 0 2 33 255 176 80 53 45 34 49 112 255 220 11 2 4 10 25 60 144 255 96 5 1 13 252 235 101 42 17 7 3 3 39 255 175 78 40 42 47 68 133 255 70 4 0 0 0 0 0 0 0 1 16 255 219 104 93 104 235 255 133 53 35 64 72 96 186 255 31 1 0 1 1 2 2 2 1 1 0 0 0 5 93 255 131 118 99 185 255 23 1 0 0 0 0 0 1 23 255 194 92 75 101 221 221 11 1 0 0 0 1 3 8 18 46 110 193 132 57 22 9 4 1 0 0 0 0 1 29 255 159 124 157 255 54 3 0 1 2 6 13 32 81 210 255 255 125 51 21 9 4 2 5 92 255 133 58 40 47 60 107 238 255 13 1 0 1 2 6 13 29 56 73 49 24 10 4 1 1 2 46 255 167 75 41 29 22 25 51 119 255 134 7 0 0 0 0 0 3 63 255 166 74 41 33 28 39 88 200 255 27 1 0 0 0 0 0 0 1 12 232 243 109 62 47 41 55 119 255 156 8 2 4 9 22 52 125 255 187 9 0 0 0 0 0 0 0 0 0 0 0 0 0 0 0 0 0 0 0 0 10 225 255 118 49 21 9 4 3 29 255 188 83 40 36 42 58 97 215 255 15 1 0 0 0 0 0 0 6 131 255 125 68 48 43 52 116 255 180 9 2 3 8 20 48 100 126 72 31 13 6 2 2 18 255 206 92 48 51 67 131 255 105 5 0 0 0 1 4 9 21 52 125 255 169 8 0 0 0 0 0 0 0 0 0 0 0 0 0 0 0 0 0 0 2 38 255 177 76 32 14 6 2 1 0 0 0 0 0 0 0 0 0 0 0 0 0 0 0 0 0 0 0 0 0 0 0 0 0 0 0 0 0 0 0 1 13 255 228 99 45 32 40 60 53 55 104 238 250 12 1 1 2 6 14 32 52 52 32 15 6 2 1 0 0 2 40 255 172 86 57 47 53 114 255 151 8 1 3 8 18 44 87 98 55 24 10 4 2 6 99 255 132 58 36 40 50 90 201 255 19 1 0 1 2 5 12 29 76 194 255 170 68 27 12 5 2 0 0 1 19 255 207 90 38 18 16 25 35 62 143 255 71 4 1 1 3 4 5
0 0 0 0 0 0 0 0 0 0 0 0 0 0 0 0 0 1 2 6 15 39 100 227 255 16 1 0 0 0 0 0 0 0 0 0 0 0 1 21 255 210 89 35 13 5 2 1 0 0 0 0 0 0 0 0 0 0 0 0 0 0 0 0 0 0 0 1 2 6 16 43 112 255 209 10 0 0 0 0 0 0 0 0 0 0 6 119 255 124 49 19 7 3 1 1 22 255 204 88 41 35 43 74 156 255 51 3 0 0 0 1 1 2 3 3 3 2 1 0 0 0 0 0 0 0 0 0 0 0 0 0 0 0 0 0 0 0 0 0 1 12 250 239 102 43 29 23 17 25 58 141 255 90 5 2 4 11 29 76 176 255 44 7 101 255 133 52 20 7 3 2 16 255 225 98 40 21 22 23 37 76 176 255 29 1 0 0 0 0 0 0 6 122 255 129 63 57 62 105 121 66 28 21 41 40 57 111 254 255 13 1 0 0 0 1 0 0 0 0 0 2 45 255 171 84 69 60 111 255 167 8 0 0 0 0 0 9 187 255 113 51 45 64 132 255 87 4 0 0 0 0 1 3 8 21 48 72 54 26 10 4 1 1 0 0 0 1 11 224 244 108 87 97 203 255 24 1 0 1 2 6 15 43 114 214 158 67 25 9 4 1 3 42 255 173 73 30 20 22 32 57 133 255 107 5 0 0 1 2 5 12 20 24 18 10 4 2 1 1 18 255 214 93 39 20 13 10 12 25 63 155 255 58 3 0 0 0 1 32 255 207 91 38 20 15 13 19 45 113 255 203 10 0 0 0 0 0 0 5 92 255 134 59 33 23 21 28 62 149 255 64 4 2 4 10 25 64 154 255 79 4 0 0 0 0 0 0 0 0 0 0 0 0 0 0 0 0 0 0 4 89 255 148 61 23 9 4 2 11 194 251 107 42 20 17 20 31 53 123 255 105 5 0 0 0 0 0 3 60 255 161 69 36 23 22 28 62 147 255 72 4 1 3 9 21 37 44 29 14 5 2 1 7 134 255 117 48 25 27 39 75 174 255 50 2 0 0 0 1 4 9 25 65 157 255 71 4 0 0 0 0 0 0 0 0 0 0 0 0 0 0 0 0 1 15 255 231 100 38 14 6 2 1 0 0 0 0 0 0 0 0 0 0 0 0 0 0 0 0 0 0 0 0 0 0 0 0 0 0 0 0 0 0 0 0 5 94 255 128 52 23 19 38 69 34 31 56 134 255 94 5 1 1 2 6 12 17 17 12 6 2 1 0 0 1 16 255 226 100 48 29 25 28 62 151 255 65 4 1 3 8 18 31 34 22 10 4 2 3 44 255 169 71 30 18 19 26 48 117 255 136 7 0 0 1 2 5 14 39 89 128 80 34 13 5 2 1 0 0 7 154 255 119 47 19 8 7 11 17 32 79 186 255 33 2 0 1 1 2
0 0 0 0 0 0 0 0 0 0 0 0 0 0 0 0 0 0 1 2 7 19 52 130 255 125 6 0 0 0 0 0 0 0 0 0 0 0 8 163 255 124 48 17 6 2 1 0 0 0 0 0 0 0 0 0 0 0 0 0 0 0 0 0 0 0 0 0 1 2 7 22 60 144 255 82 4 0 0 0 0 0 0 0 0 3 55 255 167 68 25 9 3 1 1 8 159 255 121 48 21 18 22 41 92 209 255 22 1 0 0 0 0 1 1 1 1 0 0 0 0 0 0 0 0 0 0 0 0 0 0 0 0 0 0 0 0 0 0 0 5 101 255 138 56 23 14 10 8 12 30 79 184 255 44 3 2 5 14 39 100 226 255 85 255 177 74 27 9 3 1 6 114 255 130 52 20 10 9 11 19 42 106 250 208 10 0 0 0 0 0 3 53 255 168 74 37 33 32 42 45 29 14 11 22 21 32 63 147 255 113 6 0 0 0 0 0 0 0 0 1 22 255 232 105 52 38 36 65 153 255 74 4 0 0 0 4 79 255 156 64 28 26 39 80 181 255 40 2 0 0 0 0 1 3 9 18 24 20 11 4 1 1 0 0 0 0 4 89 255 146 70 57 59 122 255 215 10 1 0 1 2 7 21 53 84 67 33 12 4 1 1 17 255 228 101 39 15 9 10 15 30 74 176 255 52 2 0 0 1 2 4 6 7 6 3 1 1 1 7 137 255 125 50 19 9 5 4 5 12 33 90 206 255 27 1 0 1 13 255 255 119 48 19 9 6 5 9 23 61 146 255 79 4 0 0 0 0 2 44 255 180 76 31 16 10 9 13 32 85 196 255 28 2 1 4 11 33 85 193 255 37 2 0 0 0 0 0 0 0 0 0 0 0 0 0 0 0 0 2 41 255 184 81 31 11 4 2 4 75 255 141 58 21 9 7 9 15 29 70 167 255 47 2 0 0 0 1 30 255 211 93 38 18 10 10 14 32 83 190 255 33 2 1 3 8 13 14 10 5 2 1 3 60 255 162 66 25 12 13 21 42 101 223 255 23 1 0 0 0 1 4 12 33 88 196 255 33 1 0 0 0 0 0 0 0 0 0 0 0 0 0 0 0 6 111 255 133 53 19 6 2 1 0 0 0 0 0 0 0 0 0 0 0 0 0 0 0 0 0 0 0 0 0 0 0 0 0 0 0 0 0 0 0 0 2 41 255 170 72 27 12 12 43 88 26 17 30 76 175 255 42 2 0 1 2 4 5 5 4 2 1 0 0 0 6 128 255 131 55 25 14 12 14 33 87 201 255 31 2 1 3 6 10 11 8 4 2 1 19 255 223 98 38 15 8 8 12 25 65 159 255 61 3 0 0 1 2 6 17 36 46 33 15 5 2 1 0 0 3 69 255 162 66 24 9 4 3 4 7 16 42 110 250 255 13 1 0 0 0
0 0 0 0 0 0 0 0 0 0 0 0 0 0 0 0 0 0 0 1 3 9 28 75 174 255 59 3 0 0 0 0 0 0 0 0 0 3 68 255 162 71 26 8 2 1 0 0 0 0 0 0 0 0 0 0 0 0 0 0 0 0 0 0 0 0 0 0 0 1 3 11 32 83 189 255 39 2 0 0 0 0 0 0 1 26 255 220 100 38 12 4 1 1 4 69 255 160 70 26 11 8 11 22 53 127 255 177 8 0 0 0 0 0 0 0 0 0 0 0 0 0 0 0 0 0 0 0 0 0 0 0 0 0 0 0 0 0 0 2 48 255 183 81 31 12 6 4 3 5 15 44 110 237 255 19 1 2 6 20 55 136 255 255 254 107 42 14 4 1 3 52 255 174 76 28 10 4 4 4 9 23 62 146 255 83 4 0 0 0 1 24 255 216 99 42 21 17 15 15 15 11 6 5 9 10 17 36 84 182 255 52 2 0 0 0 0 0 0 0 10 214 255 139 62 31 20 20 38 92 204 255 38 2 0 2 38 255 198 92 36 15 14 23 48 110 238 255 17 1 0 0 0 0 1 3 6 7 6 4 2 1 0 0 0 0 2 41 255 188 89 46 37 36 72 162 255 93 5 0 0 1 3 9 22 30 25 14 5 2 1 7 134 255 134 57 21 7 4 4 7 15 41 105 228 255 26 1 0 0 1 1 2 2 2 1 0 0 3 58 255 166 71 27 9 4 2 1 2 6 17 50 124 255 245 11 1 6 114 255 150 66 25 9 4 2 2 4 11 33 84 189 255 36 2 0 0 1 20 255 235 108 43 16 7 4 4 6 17 47 118 255 214 11 1 2 5 16 46 114 246 255 15 1 0 0 0 0 0 0 0 0 0 0 0 0 0 0 1 18 255 237 108 44 15 5 2 2 35 255 189 83 31 11 4 3 3 7 15 40 101 225 255 21 1 0 1 13 255 255 125 52 20 8 4 4 6 17 46 114 254 255 14 1 1 2 4 4 3 2 1 2 29 255 213 97 37 13 6 6 10 23 57 132 255 193 9 0 0 0 1 2 5 17 48 116 254 255 13 1 0 0 0 0 0 0 0 0 0 0 0 0 0 2 51 255 173 76 29 9 3 1 0 0 0 0 0 0 0 0 0 0 0 0 0 0 0 0 0 0 0 0 0 0 0 0 0 0 0 0 0 0 0 0 1 16 255 230 103 40 14 6 10 70 136 27 10 16 42 104 230 255 17 1 0 1 1 1 1 1 1 0 0 0 3 59 255 173 76 30 12 6 5 7 18 49 120 255 255 13 1 1 2 3 3 2 1 1 7 139 255 133 55 20 7 3 3 5 13 37 95 213 255 31 1 0 0 1 2 7 13 15 12 6 2 1 0 0 2 34 255 208 96 37 12 4 1 1 1 3 8 23 62 146 255 112 6 0 0 0
0 0 0 0 0 0 0 0 0 0 0 0 0 0 0 0 0 0 0 0 1 4 15 43 104 221 255 30 1 0 0 0 0 0 0 0 1 32 255 203 95 40 14 4 1 0 0 0 0 0 0 0 0 0 0 0 0 0 0 0 0 0 0 0 0 0 0 0 0 0 1 5 17 48 114 244 255 16 1 0 0 0 0 0 10 212 255 132 58 21 6 2 1 2 35 255 207 95 40 14 5 3 5 12 30 75 165 255 75 4 0 0 0 0 0 0 0 0 0 0 0 0 0 0 0 0 0 0 0 0 0 0 0 0 0 0 0 0 1 22 255 231 110 47 17 5 2 1 1 2 8 24 63 140 255 141 7 1 3 10 32 84 188 255 146 64 23 7 2 2 25 255 224 105 44 15 5 2 1 2 4 12 36 88 192 255 40 2 0 0 9 188 255 130 57 24 11 7 6 5 5 4 2 2 3 4 8 20 47 107 224 255 24 1 0 0 0 0 0 5 96 255 171 80 36 17 10 11 22 54 123 255 255 17 1 17 255 248 117 52 20 8 7 12 28 64 141 255 141 7 0 0 0 0 0 1 2 2 2 1 1 0 0 0 0 1 18 255 239 113 54 29 22 22 42 95 198 255 46 2 0 0 1 4 8 10 9 5 2 1 3 63 255 175 78 32 11 3 1 1 3 8 23 60 136 255 231 11 1 0 0 0 1 1 0 0 0 1 26 255 210 99 41 14 4 1 1 0 1 3 9 28 72 161 255 101 8 54 255 184 86 36 13 4 1 1 1 2 5 17 48 115 246 255 14 1 0 8 167 255 139 62 24 8 3 1 1 3 8 26 68 153 255 89 5 1 2 8 25 64 144 255 120 6 0 0 0 0 0 0 0 0 0 0 0 0 0 0 8 160 255 142 61 24 7 2 1 15 255 253 116 48 17 5 2 1 1 3 7 22 59 136 255 189 9 1 5 109 255 156 71 29 10 4 2 1 3 8 26 66 151 255 120 6 1 1 1 1 1 1 1 12 255 255 128 56 21 6 2 2 5 12 32 75 163 255 83 4 0 0 0 1 2 8 26 66 149 255 113 5 0 0 0 0 0 0 0 0 0 0 0 0 1 25 255 226 104 43 15 4 1 0 0 0 0 0 0 0 0 0 0 0 0 0 0 0 0 0 0 0 0 0 0 0 0 0 0 0 0 0 0 0 0 0 6 134 255 138 60 22 7 4 21 241 196 47 7 8 23 60 138 255 126 6 0 0 0 0 0 0 0 0 0 1 29 255 218 103 44 16 6 2 2 3 9 28 69 153 255 107 5 1 1 1 1 1 1 3 62 255 169 78 31 10 3 1 1 2 6 21 56 129 255 255 13 1 0 0 1 2 4 5 4 2 1 0 0 1 16 255 255 123 55 20 6 2 1 0 0 1 3 12 35 85 184 255 52 3 0 0
0 0 0 0 0 0 0 0 0 0 0 0 0 0 0 0 0 0 0 0 1 2 7 24 60 131 255 255 13 1 0 0 0 0 0 1 14 255 255 122 55 22 7 2 0 0 0 0 0 0 0 0 0 0 0 0 0 0 0 0 0 0 0 0 0 0 0 0 0 0 1 2 9 27 66 144 255 124 6 0 0 0 0 4 88 255 158 75 33 11 3 1 1 15 255 255 125 55 22 7 2 1 2 6 17 43 97 201 255 36 2 0 0 0 0 0 0 0 0 0 0 0 0 0 0 0 0 0 0 0 0 0 0 0 0 0 0 0 8 175 255 137 63 26 9 2 1 0 0 1 4 13 35 80 167 255 59 3 1 5 18 48 88 110 74 36 12 3 1 10 195 255 134 61 25 8 2 1 0 1 2 6 20 52 116 244 255 18 1 4 75 255 161 75 33 13 5 3 2 2 1 1 1 1 1 2 4 10 26 60 134 255 218 10 0 0 0 0 2 47 255 200 98 46 20 8 4 5 12 31 70 148 255 139 15 152 255 147 67 29 10 4 3 6 15 37 82 176 255 63 3 0 0 0 0 0 0 1 1 0 0 0 0 0 0 7 157 255 143 65 32 17 12 12 24 54 115 236 255 20 1 0 0 1 2 3 3 2 1 2 32 255 219 105 46 17 5 1 1 1 1 4 12 34 77 162 255 97 5 0 0 0 0 0 0 0 0 9 191 255 126 57 23 7 2 1 0 0 0 1 4 15 41 93 191 255 99 255 224 108 48 19 6 2 1 0 0 1 2 9 27 66 144 255 114 6 4 72 255 169 80 35 13 4 1 1 0 1 4 14 40 90 194 255 44 2 1 4 13 36 83 179 255 56 3 0 0 0 0 0 0 0 0 0 0 0 0 3 70 255 173 82 35 12 3 1 6 123 255 150 68 28 9 2 1 0 0 1 3 12 34 79 169 255 81 7 52 255 186 89 40 16 5 1 1 1 1 4 14 38 88 184 255 56 3 0 0 0 0 0 6 115 255 159 73 32 11 3 1 1 2 6 17 42 95 200 255 42 2 0 0 0 1 4 13 37 87 185 255 55 3 0 0 0 0 0 0 0 0 0 0 0 11 228 255 136 61 24 8 2 1 0 0 0 0 0 0 0 0 0 0 0 0 0 0 0 0 0 0 0 0 0 0 0 0 0 0 0 0 0 0 0 0 3 62 255 177 81 35 12 4 6 88 255 206 162 13 5 12 35 80 172 255 56 3 0 0 0 0 0 0 0 1 12 255 255 130 59 25 8 3 1 1 1 4 15 39 88 185 255 50 2 0 0 0 0 1 30 255 213 100 45 17 5 1 1 0 1 3 11 32 73 155 255 110 5 0 0 0 1 1 1 1 1 0 0 0 7 155 255 153 70 31 11 3 1 0 0 0 0 2 6 19 49 109 224 255 23 1 0
0 0 0 0 0 0 0 0 0 0 0 0 0 0 0 0 0 0 0 0 0 1 4 13 34 74 156 255 112 5 0 0 0 0 0 6 132 255 153 70 31 11 3 1 0 0 0 0 0 0 0 0 0 0 0 0 0 0 0 0 0 0 0 0 0 0 0 0 0 0 0 1 4 14 37 82 174 255 54 3 0 0 2 44 255 194 91 42 17 5 1 1 6 131 255 150 71 32 12 3 1 0 1 2 9 24 55 119 252 255 16 1 0 0 0 0 0 0 0 0 0 0 0 0 0 0 0 0 0 0 0 0 0 0 0 0 0 4 74 255 165 78 35 14 4 1 0 0 0 0 2 6 19 45 98 208 255 28 2 2 9 24 37 42 33 18 6 2 4 80 255 161 76 35 13 4 1 0 0 0 1 3 11 30 67 144 255 162 9 35 255 195 94 43 18 6 2 1 1 0 0 0 0 0 0 1 1 5 14 34 76 164 255 92 5 0 0 1 20 255 233 115 54 25 10 4 2 2 6 17 39 83 174 255 255 255 179 84 38 15 5 2 1 3 8 20 47 103 211 255 29 1 0 0 0 0 0 0 0 0 0 0 0 0 3 68 255 173 82 38 17 8 5 6 13 30 64 139 255 162 8 0 0 0 1 1 1 1 1 13 255 255 129 60 26 9 2 1 0 0 0 2 6 18 43 92 192 255 47 2 0 0 0 0 0 0 4 80 255 156 72 32 12 3 1 0 0 0 0 1 2 8 23 52 113 255 255 255 135 61 26 10 3 1 0 0 0 0 1 4 15 38 84 180 255 56 39 255 204 98 45 19 6 2 0 0 0 1 2 7 22 52 116 239 255 20 1 2 6 19 47 106 221 255 27 1 0 0 0 0 0 0 0 0 0 0 1 33 255 206 100 46 19 6 2 3 54 255 178 86 39 15 4 1 0 0 0 0 2 6 19 45 97 201 255 85 255 226 109 50 22 8 2 1 0 0 0 2 7 21 50 107 221 255 26 1 0 0 0 3 55 255 189 91 42 17 5 1 0 0 1 2 8 23 54 118 246 255 20 1 0 0 0 2 7 20 49 109 227 255 28 1 0 0 0 0 0 0 0 0 0 5 92 255 163 77 35 13 4 1 0 0 0 0 0 0 0 0 0 0 0 0 0 0 0 0 0 0 0 0 0 0 0 0 0 0 0 0 0 0 0 0 1 30 255 216 105 47 19 6 3 36 255 181 185 255 58 5 6 19 46 102 216 255 26 1 0 0 0 0 0 0 5 110 255 158 74 33 13 4 1 0 0 1 2 7 22 50 108 227 255 24 1 0 0 1 13 255 255 128 58 25 8 2 1 0 0 0 1 5 17 41 88 182 255 50 2 0 0 0 0 0 0 0 0 0 3 72 255 182 87 39 16 5 1 0 0 0 0 0 1 3 10 27 61 132 255 196 9 0
0 0 0 0 0 0 0 0 0 0 0 0 0 0 0 0 0 0 0 0 0 0 2 6 18 41 88 186 255 53 3 0 0 0 3 63 255 184 87 40 16 5 1 0 0 0 0 0 0 0 0 0 0 0 0 0 0 0 0 0 0 0 0 0 0 0 0 0 0 0 0 0 2 7 20 46 102 214 255 24 1 1 21 255 241 115 51 22 8 2 1 3 62 255 179 85 39 17 5 2 0 0 0 1 4 12 30 67 148 255 151 7 0 0 0 0 0 0 0 0 0 0 0 0 0 0 0 0 0 0 0 0 0 0 0 0 2 35 255 200 95 43 19 7 2 0 0 0 0 0 1 3 9 24 56 126 255 231 11 2 4 10 14 15 13 8 3 2 38 255 195 92 42 18 6 2 0 0 0 0 0 1 5 16 38 82 176 255 118 255 250 116 53 23 9 3 1 0 0 0 0 0 0 0 0 0 1 2 6 18 43 93 194 255 45 2 0 8 162 255 135 63 29 13 5 2 1 1 2 8 21 46 104 244 255 240 106 47 20 7 2 1 0 1 3 10 26 57 124 255 255 13 1 0 0 0 0 0 0 0 0 0 0 1 31 255 205 99 46 21 8 4 2 3 6 15 35 78 165 255 69 3 0 0 0 0 0 0 5 103 255 151 72 33 13 4 1 0 0 0 0 1 3 9 23 51 112 231 255 20 1 0 0 0 0 2 40 255 197 91 41 17 6 2 0 0 0 0 0 0 1 3 11 29 65 145 247 172 80 34 14 4 1 0 0 0 0 0 0 2 7 20 48 106 226 255 255 255 121 55 24 9 3 1 0 0 0 0 1 3 11 29 65 139 255 158 8 1 3 10 26 60 130 255 239 11 0 0 0 0 0 0 0 0 0 1 14 255 255 121 56 25 9 3 2 24 255 215 103 48 21 7 2 0 0 0 0 0 1 3 9 24 54 119 255 255 255 136 61 27 11 3 1 0 0 0 0 1 3 11 27 60 130 255 227 11 0 0 1 25 255 223 109 51 23 8 2 1 0 0 0 1 4 12 30 66 144 255 174 8 0 0 0 1 3 10 27 61 133 255 252 12 1 0 0 0 0 0 0 0 2 43 255 190 92 43 19 6 2 0 0 0 0 0 0 0 0 0 0 0 0 0 0 0 0 0 0 0 0 0 0 0 0 0 0 0 0 0 0 0 0 1 12 255 255 127 59 26 10 3 14 246 238 132 145 198 255 23 4 10 25 58 130 255 207 10 0 0 0 0 0 2 52 255 186 89 41 18 6 2 0 0 0 0 1 3 11 27 61 135 255 213 10 0 0 5 104 255 154 72 32 13 4 1 0 0 0 0 1 2 8 22 48 106 222 255 22 1 0 0 0 0 0 0 0 2 35 255 211 103 48 21 8 2 1 0 0 0 0 0 0 1 4 14 34 74 162 255 86 4
0 0 0 0 0 0 0 0 0 0 0 0 0 0 0 0 0 0 0 0 0 0 1 3 8 21 49 108 225 255 25 1 0 1 31 255 218 105 48 21 8 2 1 0 0 0 0 0 0 0 0 0 0 0 0 0 0 0 0 0 0 0 0 0 0 0 0 0 0 0 0 0 1 3 10 25 57 128 255 185 9 10 199 255 142 65 28 11 4 1 2 32 255 218 103 47 21 8 2 1 0 0 0 0 2 6 16 38 84 179 255 72 3 0 0 0 0 0 0 0 0 0 0 0 0 0 0 0 0 0 0 0 0 0 0 1 14 255 251 119 53 23 9 3 1 0 0 0 0 0 0 1 4 12 31 72 156 255 92 5 2 3 4 5 4 3 2 17 255 246 116 52 23 9 3 1 0 0 0 0 0 1 2 7 20 46 103 227 255 255 151 66 29 12 4 1 0 0 0 0 0 0 0 0 0 0 0 1 3 9 23 52 113 238 255 22 4 68 255 166 76 34 15 6 2 1 0 0 1 3 10 25 60 128 190 125 60 26 10 3 1 0 0 0 1 5 13 31 70 156 255 121 6 0 0 0 0 0 0 0 0 0 1 12 246 255 121 55 25 10 4 1 1 1 2 7 18 43 96 204 255 33 1 0 0 0 0 2 48 255 182 85 39 17 6 2 0 0 0 0 0 0 1 4 11 27 62 135 255 151 7 0 0 0 1 17 255 246 118 52 22 8 3 1 0 0 0 0 0 0 0 1 5 15 36 71 102 80 44 18 6 2 1 0 0 0 0 0 0 1 3 10 26 61 139 255 255 159 69 30 12 4 1 0 0 0 0 0 0 1 5 15 36 78 168 255 70 4 1 4 13 33 73 159 255 105 5 0 0 0 0 0 0 0 0 6 136 255 151 68 30 12 4 2 10 204 255 128 58 26 11 3 1 0 0 0 0 0 0 1 4 12 30 69 155 255 175 80 34 14 5 1 0 0 0 0 0 0 1 5 14 33 73 160 255 96 5 1 11 231 255 131 60 27 11 4 1 0 0 0 0 0 2 5 15 36 80 168 255 73 4 0 0 0 1 5 14 34 74 158 255 111 5 0 0 0 0 0 0 1 18 255 235 111 50 23 9 3 1 0 0 0 0 0 0 0 0 0 0 0 0 0 0 0 0 0 0 0 0 0 0 0 0 0 0 0 0 0 0 0 0 5 104 255 154 71 32 14 5 6 97 255 147 93 102 134 255 159 9 5 13 33 73 156 255 85 4 0 0 0 1 25 255 226 108 49 22 8 3 1 0 0 0 0 0 1 5 14 34 76 164 255 92 5 2 47 255 183 87 40 17 6 2 0 0 0 0 0 0 1 4 11 26 59 132 255 181 9 0 0 0 0 0 0 1 14 255 254 122 56 26 10 3 1 0 0 0 0 0 0 0 1 2 6 18 42 94 200 255 47
0 0 0 0 0 0 0 0 0 0 0 0 0 0 0 0 0 0 0 0 0 0 0 1 4 10 27 61 134 255 232 11 1 13 255 255 129 59 26 10 3 1 0 0 0 0 0 0 0 0 0 0 0 0 0 0 0 0 0 0 0 0 0 0 0 0 0 0 0 0 0 0 0 1 4 13 32 74 162 255 91 96 255 172 81 36 15 5 2 1 15 255 255 131 59 26 10 3 1 0 0 0 0 0 1 2 7 20 47 104 217 255 38 2 0 0 0 0 0 0 0 0 0 0 0 0 0 0 0 0 0 0 0 0 0 5 109 255 147 68 30 12 4 1 0 0 0 0 0 0 0 0 2 6 17 41 91 191 255 43 3 1 1 1 1 1 7 135 255 147 67 29 11 4 1 0 0 0 0 0 0 0 1 3 10 25 59 131 244 198 93 39 15 5 2 0 0 0 0 0 0 0 0 0 0 0 0 0 1 4 11 28 64 143 255 207 46 255 206 98 43 18 7 2 1 0 0 0 0 1 4 13 32 59 77 58 32 13 5 1 0 0 0 0 1 2 6 16 40 91 192 255 58 3 0 0 0 0 0 0 0 0 5 101 255 152 69 30 12 5 1 1 0 0 1 3 9 23 55 124 255 255 14 1 0 0 1 23 255 232 109 48 21 8 3 1 0 0 0 0 0 0 0 2 5 14 34 77 167 255 66 3 0 0 7 139 255 145 67 29 11 4 1 0 0 0 0 0 0 0 0 1 2 7 18 31 39 33 21 9 3 1 0 0 0 0 0 0 0 0 1 5 14 35 81 155 165 91 40 16 6 2 0 0 0 0 0 0 0 1 2 7 19 44 99 211 255 36 2 2 6 17 41 92 196 255 52 2 0 0 0 0 0 0 3 65 255 186 87 38 16 6 2 5 89 255 166 75 32 13 5 1 0 0 0 0 0 0 0 0 2 6 16 39 76 108 83 45 18 6 2 1 0 0 0 0 0 0 1 2 6 17 41 93 196 255 48 7 102 255 164 75 33 14 5 2 0 0 0 0 0 0 1 2 7 19 44 97 204 255 36 2 0 0 1 2 6 18 41 91 193 255 56 3 0 0 0 0 0 7 156 255 141 63 28 11 4 1 0 0 0 0 0 0 0 0 0 0 0 0 0 0 0 0 0 0 0 0 0 0 0 0 0 0 0 0 0 0 0 0 2 48 255 186 89 40 17 6 4 46 255 186 93 66 71 89 165 255 68 5 6 17 41 91 196 255 41 2 0 0 10 214 255 136 61 27 11 4 1 0 0 0 0 0 0 1 2 7 18 43 95 200 255 46 25 255 231 109 49 21 8 3 1 0 0 0 0 0 0 0 1 5 13 33 77 166 255 78 4 0 0 0 0 0 6 110 255 149 68 31 13 5 1 0 0 0 0 0 0 0 0 0 1 3 8 23 54 119 252 255
0 0 0 0 0 0 0 0 0 0 0 0 0 0 0 0 0 0 0 0 0 0 0 0 1 5 14 35 79 171 255 107 11 117 255 160 76 34 14 5 1 0 0 0 0 0 0 0 0 0 0 0 0 0 0 0 0 0 0 0 0 0 0 0 0 0 0 0 0 0 0 0 0 1 2 6 18 44 100 215 255 255 213 102 47 20 7 2 1 7 142 255 164 77 34 13 5 1 0 0 0 0 0 0 0 1 3 10 27 61 132 255 255 18 1 0 0 0 0 0 0 0 0 0 0 0 0 0 0 0 0 0 0 0 2 52 255 189 89 40 16 5 2 0 0 0 0 0 0 0 0 0 1 3 8 23 54 118 244 255 20 1 0 0 0 3 60 255 184 88 39 16 5 2 0 0 0 0 0 0 0 0 0 1 4 13 34 70 107 93 54 23 8 2 1 0 0 0 0 0 0 0 0 0 0 0 0 0 0 2 5 15 38 85 177 255 255 255 128 58 24 9 3 1 0 0 0 0 0 1 2 6 15 25 29 25 15 6 2 1 0 0 0 0 0 1 3 8 23 54 115 230 255 28 1 0 0 0 0 0 0 2 49 255 195 92 41 16 6 2 1 0 0 0 0 1 4 12 32 74 159 255 131 6 0 0 10 222 255 144 66 28 10 3 1 0 0 0 0 0 0 0 0 1 2 7 19 46 103 217 255 34 2 3 64 255 181 86 39 16 5 2 0 0 0 0 0 0 0 0 0 0 1 3 7 12 14 13 9 4 1 0 0 0 0 0 0 0 0 0 1 2 7 19 44 68 71 48 22 8 2 1 0 0 0 0 0 0 0 0 1 3 9 25 59 131 255 255 17 1 3 8 23 55 119 238 255 25 1 0 0 0 0 1 33 255 226 112 52 21 8 2 3 45 255 207 101 45 18 6 2 1 0 0 0 0 0 0 0 0 1 2 8 20 34 43 36 22 9 3 1 0 0 0 0 0 0 0 0 1 3 8 23 55 120 245 255 101 255 204 99 44 18 6 2 1 0 0 0 0 0 0 0 1 3 9 24 57 127 255 255 16 1 0 0 1 3 8 23 53 118 236 255 28 1 0 0 0 3 72 255 180 85 37 15 5 2 0 0 0 0 0 0 0 0 0 0 0 0 0 0 0 0 0 0 0 0 0 0 0 0 0 0 0 0 0 0 0 0 1 22 255 236 114 52 22 8 4 21 255 240 118 62 51 52 62 106 212 255 33 4 9 23 55 122 250 255 18 1 4 87 255 168 81 35 14 5 2 0 0 0 0 0 0 0 0 1 3 9 24 56 122 247 255 255 255 144 65 28 11 4 1 0 0 0 0 0 0 0 0 1 2 6 18 45 101 209 255 39 2 0 0 0 2 50 255 186 89 39 16 6 2 1 0 0 0 0 0 0 0 0 0 0 1 4 12 31 72 158 255
0 0 0 0 0 0 0 0 0 0 0 0 0 0 0 0 0 0 0 0 0 0 0 0 1 2 7 20 50 106 210 255 226 255 202 99 47 19 7 2 1 0 0 0 0 0 0 0 0 0 0 0 0 0 0 0 0 0 0 0 0 0 0 0 0 0 0 0 0 0 0 0 0 0 1 3 9 27 65 140 255 255 137 64 28 10 3 1 3 67 255 197 100 48 20 7 2 1 0 0 0 0 0 0 0 0 1 5 15 37 80 161 255 177 8 0 0 0 0 0 0 0 0 0 0 0 0 0 0 0 0 0 0 1 25 255 239 120 56 24 8 2 1 0 0 0 0 0 0 0 0 0 0 1 4 12 34 74 154 255 191 9 0 0 1 28 255 225 115 55 23 8 2 1 0 0 0 0 0 0 0 0 0 1 2 6 18 35 44 41 29 12 4 1 0 0 0 0 0 0 0 0 0 0 0 0 0 0 0 1 2 7 22 53 114 237 255 178 83 36 13 4 1 0 0 0 0 0 0 0 1 2 6 9 10 9 6 2 1 0 0 0 0 0 0 0 1 4 12 32 70 142 255 255 12 1 0 0 0 0 1 23 255 243 124 59 24 8 2 1 0 0 0 0 0 1 2 6 18 46 98 196 255 62 3 5 100 255 180 90 41 16 5 1 0 0 0 0 0 0 0 0 0 0 1 3 10 28 66 138 255 255 18 34 255 227 114 54 23 8 2 1 0 0 0 0 0 0 0 0 0 0 0 1 2 4 4 4 3 1 0 0 0 0 0 0 0 0 0 0 0 1 3 9 21 28 29 23 11 4 1 0 0 0 0 0 0 0 0 0 0 1 4 14 37 81 163 255 162 8 1 4 12 33 73 147 255 233 11 0 0 0 1 14 255 255 140 69 31 11 4 2 23 255 253 129 63 28 10 3 1 0 0 0 0 0 0 0 0 0 0 1 3 8 14 16 14 10 4 1 0 0 0 0 0 0 0 0 0 0 1 4 13 34 74 155 255 255 255 128 62 27 9 3 1 0 0 0 0 0 0 0 0 0 1 4 13 35 79 162 255 156 7 0 0 0 1 4 12 32 72 146 255 255 13 1 0 2 38 255 223 113 53 22 7 2 1 0 0 0 0 0 0 0 0 0 0 0 0 0 0 0 0 0 0 0 0 0 0 0 0 0 0 0 0 0 0 0 0 9 205 255 149 71 32 12 4 9 158 255 151 76 45 43 41 47 71 136 255 255 15 5 12 34 76 154 255 148 9 43 255 205 104 50 21 7 2 1 0 0 0 0 0 0 0 0 0 1 4 13 34 75 157 255 255 190 91 41 16 5 2 0 0 0 0 0 0 0 0 0 0 1 3 10 28 64 132 255 255 17 1 0 1 22 255 235 118 55 23 8 2 1 0 0 0 0 0 0 0 0 0 0 0 0 2 6 18 45 97 168
0 0 0 0 0 0 0 0 0 0 0 0 0 0 0 0 0 0 0 0 0 0 0 0 0 1 3 11 33 69 135 255 255 255 132 65 30 11 3 1 0 0 0 0 0 0 0 0 0 0 0 0 0 0 0 0 0 0 0 0 0 0 0 0 0 0 0 0 0 0 0 0 0 0 0 1 5 17 45 88 137 136 86 43 17 5 1 2 34 255 232 123 64 31 11 3 1 0 0 0 0 0 0 0 0 0 1 2 7 23 52 100 193 255 81 4 0 0 0 0 0 0 0 0 0 0 0 0 0 0 0 0 0 11 243 255 152 78 38 14 4 1 0 0 0 0 0 0 0 0 0 0 0 0 2 6 21 50 98 190 255 85 4 1 11 236 255 144 74 37 14 4 1 0 0 0 0 0 0 0 0 0 0 0 1 3 8 15 17 17 13 5 2 0 0 0 0 0 0 0 0 0 0 0 0 0 0 0 0 0 1 4 13 35 73 123 152 104 57 23 7 2 1 0 0 0 0 0 0 0 0 1 2 3 3 3 2 1 0 0 0 0 0 0 0 0 0 2 6 19 46 90 176 255 110 5 0 0 0 0 10 217 255 153 80 39 14 4 1 0 0 0 0 0 0 0 1 3 10 30 64 124 234 255 33 55 255 215 113 59 27 9 2 1 0 0 0 0 0 0 0 0 0 0 0 1 5 17 44 89 172 255 255 255 255 145 74 36 13 4 1 0 0 0 0 0 0 0 0 0 0 0 0 0 1 1 1 1 1 0 0 0 0 0 0 0 0 0 0 0 0 0 1 4 9 11 11 9 4 1 0 0 0 0 0 0 0 0 0 0 0 1 2 7 23 53 103 198 255 79 4 2 6 20 48 92 180 255 106 5 0 0 6 133 255 169 88 45 19 6 2 10 223 255 160 82 42 17 5 1 0 0 0 0 0 0 0 0 0 0 0 0 1 3 5 5 5 3 1 0 0 0 0 0 0 0 0 0 0 0 0 2 6 21 50 102 194 255 162 84 41 16 5 1 0 0 0 0 0 0 0 0 0 0 1 2 7 22 52 103 197 255 72 3 0 0 0 2 6 20 47 92 179 255 138 6 1 18 255 255 142 73 35 12 4 1 0 0 0 0 0 0 0 0 0 0 0 0 0 0 0 0 0 0 0 0 0 0 0 0 0 0 0 0 0 0 0 0 4 90 255 184 95 48 19 6 5 69 255 185 98 55 36 41 37 41 53 90 170 255 116 8 7 22 51 98 188 255 127 255 255 132 67 32 12 3 1 0 0 0 0 0 0 0 0 0 0 1 2 7 21 51 103 186 205 119 62 27 9 2 1 0 0 0 0 0 0 0 0 0 0 0 1 5 16 43 84 162 255 142 7 1 9 204 255 150 77 37 13 4 1 0 0 0 0 0 0 0 0 0 0 0 0 0 1 3 10 29 57 78
0 0 0 0 0 0 0 0 0 0 0 0 0 0 0 0 0 0 0 0 0 0 0 0 0 0 2 6 22 51 93 163 227 160 92 49 20 6 1 0 0 0 0 0 0 0 0 0 0 0 0 0 0 0 0 0 0 0 0 0 0 0 0 0 0 0 0 0 0 0 0 0 0 0 0 1 2 10 33 56 66 66 54 30 10 2 1 14 255 255 151 82 46 20 6 1 0 0 0 0 0 0 0 0 0 0 0 1 4 14 37 69 125 229 255 41 2 0 0 0 0 0 0 0 0 0 0 0 0 0 0 0 5 104 255 188 102 57 27 8 2 0 0 0 0 0 0 0 0 0 0 0 0 0 1 3 13 37 70 124 225 255 42 7 103 255 181 97 54 25 7 2 0 0 0 0 0 0 0 0 0 0 0 0 0 1 3 6 6 6 5 2 1 0 0 0 0 0 0 0 0 0 0 0 0 0 0 0 0 0 0 2 7 24 49 64 70 61 41 15 4 1 0 0 0 0 0 0 0 0 0 0 1 1 1 1 1 0 0 0 0 0 0 0 0 0 0 1 3 11 32 64 116 213 255 54 3 0 0 5 105 255 192 102 58 28 8 2 0 0 0 0 0 0 0 0 0 1 5 20 47 84 153 255 255 255 255 140 78 43 17 4 1 0 0 0 0 0 0 0 0 0 0 0 0 1 2 10 32 64 113 217 255 255 184 98 55 25 7 2 0 0 0 0 0 0 0 0 0 0 0 0 0 0 0 0 0 0 0 0 0 0 0 0 0 0 0 0 0 0 0 0 0 1 3 4 4 3 2 1 0 0 0 0 0 0 0 0 0 0 0 0 1 4 14 39 72 129 236 255 43 3 3 12 34 65 118 220 255 57 3 3 67 255 208 111 62 32 11 3 6 99 255 194 105 59 30 9 2 1 0 0 0 0 0 0 0 0 0 0 0 0 0 1 1 2 1 1 0 0 0 0 0 0 0 0 0 0 0 0 0 1 3 13 38 71 104 124 94 60 29 9 2 1 0 0 0 0 0 0 0 0 0 0 0 1 3 14 38 72 129 233 255 36 2 0 0 1 3 12 33 64 116 215 255 70 11 166 255 173 94 53 24 7 2 0 0 0 0 0 0 0 0 0 0 0 0 0 0 0 0 0 0 0 0 0 0 0 0 0 0 0 0 0 0 0 0 2 46 255 222 121 68 35 12 5 34 255 228 124 71 45 34 46 37 42 47 68 114 206 255 56 6 13 36 69 127 255 255 255 173 90 49 21 6 2 0 0 0 0 0 0 0 0 0 0 0 0 1 3 13 38 69 94 98 75 46 18 5 1 0 0 0 0 0 0 0 0 0 0 0 0 1 2 9 30 60 107 199 255 66 8 94 255 192 102 56 25 7 2 0 0 0 0 0 0 0 0 0 0 0 0 0 0 0 1 5 18 33 36
0 0 0 0 0 0 0 0 0 0 0 0 0 0 0 0 0 0 0 0 0 0 0 0 0 0 1 3 15 43 73 95 111 94 73 43 13 3 1 0 0 0 0 0 0 0 0 0 0 0 0 0 0 0 0 0 0 0 0 0 0 0 0 0 0 0 0 0 0 0 0 0 0 0 0 0 1 6 22 36 34 33 35 20 5 1 6 132 255 183 106 66 38 12 3 1 0 0 0 0 0 0 0 0 0 0 0 0 2 8 28 58 91 155 255 255 20 1 0 0 0 0 0 0 0 0 0 0 0 0 0 2 53 255 224 129 80 50 19 4 1 0 0 0 0 0 0 0 0 0 0 0 0 0 0 2 8 30 60 92 153 255 255 94 255 225 128 78 47 18 4 1 0 0 0 0 0 0 0 0 0 0 0 0 0 0 1 2 2 2 1 1 0 0 0 0 0 0 0 0 0 0 0 0 0 0 0 0 0 0 0 1 4 15 34 35 34 36 30 9 2 0 0 0 0 0 0 0 0 0 0 0 0 0 0 0 0 0 0 0 0 0 0 0 0 0 0 0 1 6 24 55 87 145 255 255 28 1 3 56 255 234 133 81 50 19 4 1 0 0 0 0 0 0 0 0 0 1 3 12 39 68 110 200 255 255 180 102 65 36 10 2 1 0 0 0 0 0 0 0 0 0 0 0 0 0 1 6 24 55 88 145 233 220 131 79 47 18 4 1 0 0 0 0 0 0 0 0 0 0 0 0 0 0 0 0 0 0 0 0 0 0 0 0 0 0 0 0 0 0 0 0 0 0 1 1 1 1 0 0 0 0 0 0 0 0 0 0 0 0 0 0 0 2 8 31 61 94 158 255 255 21 2 7 25 56 89 149 255 255 35 39 255 252 142 85 52 23 6 4 51 255 228 132 81 52 21 5 1 0 0 0 0 0 0 0 0 0 0 0 0 0 0 0 0 0 0 0 0 0 0 0 0 0 0 0 0 0 0 0 0 0 2 8 31 55 59 61 58 49 21 5 1 0 0 0 0 0 0 0 0 0 0 0 0 0 2 8 30 60 94 157 255 255 17 1 0 0 1 6 24 55 87 144 249 255 189 255 208 120 75 46 16 4 1 0 0 0 0 0 0 0 0 0 0 0 0 0 0 0 0 0 0 0 0 0 0 0 0 0 0 0 0 0 0 0 1 22 255 255 151 91 58 27 7 16 255 255 158 94 65 47 39 78 51 60 57 66 89 143 253 255 30 9 28 60 99 170 255 215 126 75 43 13 3 1 0 0 0 0 0 0 0 0 0 0 0 0 0 2 8 30 50 50 50 51 37 11 2 1 0 0 0 0 0 0 0 0 0 0 0 0 0 1 5 22 52 83 138 243 255 121 255 233 134 82 49 18 4 1 0 0 0 0 0 0 0 0 0 0 0 0 0 0 0 1 2 9 17 17
0 0 0 0 0 0 0 0 0 0 0 0 0 0 0 0 0 0 0 0 0 0 0 0 0 0 0 2 10 46 74 64 61 65 74 49 9 2 0 0 0 0 0 0 0 0 0 0 0 0 0 0 0 0 0 0 0 0 0 0 0 0 0 0 0 0 0 0 0 0 0 0 0 0 0 0 1 3 13 23 18 17 22 12 3 4 68 255 225 135 95 76 39 8 2 0 0 0 0 0 0 0 0 0 0 0 0 0 1 5 24 67 88 118 189 255 198 9 0 0 0 0 0 0 0 0 0 0 0 0 1 29 255 255 158 107 87 57 14 3 0 0 0 0 0 0 0 0 0 0 0 0 0 0 0 1 5 27 72 91 118 189 255 255 255 162 109 88 56 13 2 0 0 0 0 0 0 0 0 0 0 0 0 0 0 0 0 0 1 1 0 0 0 0 0 0 0 0 0 0 0 0 0 0 0 0 0 0 0 0 0 0 2 8 22 19 18 22 19 5 1 0 0 0 0 0 0 0 0 0 0 0 0 0 0 0 0 0 0 0 0 0 0 0 0 0 0 0 1 4 20 66 88 115 180 255 255 14 29 255 255 163 109 88 56 14 3 1 0 0 0 0 0 0 0 0 0 0 2 8 40 79 102 144 211 194 133 97 77 34 7 1 0 0 0 0 0 0 0 0 0 0 0 0 0 0 1 4 19 65 91 106 124 122 106 89 54 13 2 0 0 0 0 0 0 0 0 0 0 0 0 0 0 0 0 0 0 0 0 0 0 0 0 0 0 0 0 0 0 0 0 0 0 0 0 0 0 0 0 0 0 0 0 0 0 0 0 0 0 0 0 0 0 1 5 27 74 91 119 189 255 196 10 4 20 67 89 116 181 255 255 255 255 175 113 88 62 18 5 28 255 255 160 107 86 64 16 3 1 0 0 0 0 0 0 0 0 0 0 0 0 0 0 0 0 0 0 0 0 0 0 0 0 0 0 0 0 0 0 0 0 0 1 5 26 50 39 34 42 48 15 3 1 0 0 0 0 0 0 0 0 0 0 0 0 0 1 5 25 70 90 120 195 255 182 8 0 0 1 4 19 65 87 112 175 255 255 255 151 102 82 50 11 2 0 0 0 0 0 0 0 0 0 0 0 0 0 0 0 0 0 0 0 0 0 0 0 0 0 0 0 0 0 0 0 0 10 228 255 185 117 90 68 23 12 154 255 195 123 98 95 83 102 255 193 217 149 116 98 116 178 255 255 19 25 77 100 117 138 125 107 89 48 9 2 0 0 0 0 0 0 0 0 0 0 0 0 0 0 1 5 23 41 30 29 39 30 7 1 0 0 0 0 0 0 0 0 0 0 0 0 0 0 1 3 16 60 88 112 174 255 255 255 166 110 90 57 13 2 0 0 0 0 0 0 0 0 0 0 0 0 0 0 0 0 0 1 4 7 7
0 0 0 0 0 0 0 0 0 0 0 0 0 0 0 0 0 0 0 0 0 0 0 0 0 0 0 1 10 75 127 61 42 62 123 90 10 1 0 0 0 0 0 0 0 0 0 0 0 0 0 0 0 0 0 0 0 0 0 0 0 0 0 0 0 0 0 0 0 0 0 0 0 0 0 0 0 1 6 11 8 8 10 5 3 38 255 255 163 124 136 170 63 7 1 0 0 0 0 0 0 0 0 0 0 0 0 0 1 4 28 159 144 121 142 218 255 94 4 0 0 0 0 0 0 0 0 0 0 1 15 255 255 188 130 127 165 117 15 2 0 0 0 0 0 0 0 0 0 0 0 0 0 0 0 1 4 34 164 154 125 149 231 255 195 136 134 180 130 14 2 0 0 0 0 0 0 0 0 0 0 0 0 0 0 0 0 0 0 0 0 0 0 0 0 0 0 0 0 0 0 0 0 0 0 0 0 0 0 0 0 0 1 4 11 9 8 10 9 2 1 0 0 0 0 0 0 0 0 0 0 0 0 0 0 0 0 0 0 0 0 0 0 0 0 0 0 0 0 3 23 162 151 124 138 207 255 180 255 255 184 129 128 170 118 15 2 0 0 0 0 0 0 0 0 0 0 0 1 8 66 176 144 119 118 114 118 150 184 49 6 1 0 0 0 0 0 0 0 0 0 0 0 0 0 0 0 3 21 146 161 103 78 80 118 173 116 14 2 0 0 0 0 0 0 0 0 0 0 0 0 0 0 0 0 0 0 0 0 0 0 0 0 0 0 0 0 0 0 0 0 0 0 0 0 0 0 0 0 0 0 0 0 0 0 0 0 0 0 0 0 0 0 1 4 35 181 148 121 141 215 255 94 8 24 165 152 123 138 215 255 255 207 136 124 157 146 21 16 255 255 189 130 125 167 171 20 2 0 0 0 0 0 0 0 0 0 0 0 0 0 0 0 0 0 0 0 0 0 0 0 0 0 0 0 0 0 0 0 0 0 0 1 4 23 60 31 22 37 63 12 2 0 0 0 0 0 0 0 0 0 0 0 0 0 0 1 4 29 157 145 123 146 225 255 92 4 0 0 3 22 159 149 121 139 203 253 179 131 131 165 96 11 1 0 0 0 0 0 0 0 0 0 0 0 0 0 0 0 0 0 0 0 0 0 0 0 0 0 0 0 0 0 0 0 5 111 255 215 141 123 152 149 33 99 255 231 148 130 184 255 255 255 255 255 255 255 255 217 134 140 208 255 171 44 200 159 100 82 87 125 184 106 11 1 0 0 0 0 0 0 0 0 0 0 0 0 0 0 1 3 16 36 19 18 31 22 4 1 0 0 0 0 0 0 0 0 0 0 0 0 0 0 0 2 17 135 165 128 143 210 255 196 137 130 169 123 14 2 0 0 0 0 0 0 0 0 0 0 0 0 0 0 0 0 0 0 1 2 2
0 0 0 0 0 0 0 0 0 0 0 0 0 0 0 0 0 0 0 0 0 0 0 0 0 0 0 2 24 255 255 127 49 131 255 255 32 2 0 0 0 0 0 0 0 0 0 0 0 0 0 0 0 0 0 0 0 0 0 0 0 0 0 0 0 0 0 0 0 0 0 0 0 0 0 0 0 1 2 4 3 3 4 3 18 255 255 173 129 159 255 255 255 22 1 0 0 0 0 0 0 0 0 0 0 0 0 0 1 6 98 255 255 185 127 149 236 255 48 2 0 0 0 0 0 0 0 0 0 7 158 255 201 136 138 223 255 255 45 3 0 0 0 0 0 0 0 0 0 0 0 0 0 0 0 1 8 128 255 255 196 133 135 148 129 143 231 255 255 54 3 0 0 0 0 0 0 0 0 0 0 0 0 0 0 0 0 0 0 0 0 0 0 0 0 0 0 0 0 0 0 0 0 0 0 0 0 0 0 0 0 0 0 1 4 3 3 4 3 1 0 0 0 0 0 0 0 0 0 0 0 0 0 0 0 0 0 0 0 0 0 0 0 0 0 0 0 0 0 6 88 255 255 198 129 145 235 255 255 204 133 133 217 255 255 45 3 0 0 0 0 0 0 0 0 0 0 0 1 22 255 255 255 132 77 81 150 255 255 232 15 1 0 0 0 0 0 0 0 0 0 0 0 0 0 0 0 4 63 255 255 168 69 77 203 255 255 47 3 0 0 0 0 0 0 0 0 0 0 0 0 0 0 0 0 0 0 0 0 0 0 0 0 0 0 0 0 0 0 0 0 0 0 0 0 0 0 0 0 0 0 0 0 0 0 0 0 0 0 0 0 0 0 1 9 138 255 255 184 126 148 235 255 64 94 255 255 193 129 146 206 205 145 131 202 255 255 91 165 255 202 136 136 223 255 255 76 5 0 0 0 0 0 0 0 0 0 0 0 0 0 0 0 0 0 0 0 0 0 0 0 0 0 0 0 0 0 0 0 0 0 0 0 3 23 111 32 17 48 148 16 2 0 0 0 0 0 0 0 0 0 0 0 0 0 0 1 6 90 255 255 184 127 152 242 255 50 2 1 5 76 255 255 201 130 121 129 120 145 243 255 255 35 2 0 0 0 0 0 0 0 0 0 0 0 0 0 0 0 0 0 0 0 0 0 0 0 0 0 0 0 0 0 0 3 59 255 233 148 128 191 255 255 255 255 253 158 133 197 255 255 255 255 254 255 255 255 255 255 226 136 146 232 255 255 255 255 135 66 88 215 255 255 42 3 0 0 0 0 0 0 0 0 0 0 0 0 0 0 0 2 10 29 12 10 22 12 3 0 0 0 0 0 0 0 0 0 0 0 0 0 0 0 0 4 57 255 255 212 137 127 139 125 138 217 255 255 47 3 0 0 0 0 0 0 0 0 0 0 0 0 0 0 0 0 0 0 0 1 1
0 0 0 0 0 0 0 0 0 0 0 0 0 0 0 0 0 0 0 0 0 0 0 0 0 0 0 8 145 255 255 255 203 255 255 255 223 11 1 0 0 0 0 0 0 0 0 0 0 0 0 0 0 0 0 0 0 0 0 0 0 0 0 0 0 0 0 0 0 0 0 0 0 0 0 0 0 0 1 1 1 1 1 8 167 255 166 108 113 197 240 247 255 155 8 0 0 0 0 0 0 0 0 0 0 0 0 0 2 45 255 240 241 223 130 101 140 243 255 22 1 0 0 0 0 0 0 0 3 72 255 197 120 103 163 233 236 244 255 17 1 0 0 0 0 0 0 0 0 0 0 0 0 0 0 3 56 255 240 236 223 129 78 72 87 158 227 230 241 255 23 1 0 0 0 0 0 0 0 0 0 0 0 0 0 0 0 0 0 0 0 0 0 0 0 0 0 0 0 0 0 0 0 0 0 0 0 0 0 0 0 0 0 1 1 1 1 1 1 0 0 0 0 0 0 0 0 0 0 0 0 0 0 0 0 0 0 0 0 0 0 0 0 0 0 0 0 0 2 41 255 237 238 226 139 103 140 230 207 126 102 156 228 233 243 255 17 1 0 0 0 0 0 0 0 0 0 0 7 142 255 240 226 164 66 77 190 228 237 255 92 5 0 0 0 0 0 0 0 0 0 0 0 0 0 0 1 25 255 231 230 232 111 126 229 231 247 255 20 1 0 0 0 0 0 0 0 0 0 0 0 0 0 0 0 0 0 0 0 0 0 0 0 0 0 0 0 0 0 0 0 0 0 0 0 0 0 0 0 0 0 0 0 0 0 0 0 0 0 0 0 0 0 3 59 255 234 237 223 130 101 141 255 255 255 239 237 225 138 96 98 98 98 145 227 238 254 255 255 206 121 102 161 236 234 230 255 34 2 0 0 0 0 0 0 0 0 0 0 0 0 0 0 0 0 0 0 0 0 0 0 0 0 0 0 0 0 0 0 0 0 0 0 4 50 248 69 24 163 255 50 3 0 0 0 0 0 0 0 0 0 0 0 0 0 0 2 38 255 235 239 219 127 102 143 246 255 24 3 34 255 234 241 232 138 74 66 86 169 236 242 255 230 12 1 0 0 0 0 0 0 0 0 0 0 0 0 0 0 0 0 0 0 0 0 0 0 0 0 0 0 0 0 1 30 255 238 138 102 134 222 240 255 255 255 150 105 132 214 217 200 187 163 144 139 144 156 176 205 220 147 105 139 245 255 245 223 201 90 142 224 229 252 255 16 1 0 0 0 0 0 0 0 0 0 0 0 0 0 0 1 5 17 7 5 10 5 1 0 0 0 0 0 0 0 0 0 0 0 0 0 0 0 1 23 255 238 234 225 141 79 69 82 150 226 232 241 255 18 1 0 0 0 0 0 0 0 0 0 0 0 0 0 0 0 0 0 0 0 0
0 0 0 0 0 0 0 0 0 0 0 0 0 0 0 0 0 0 0 0 0 0 0 0 0 0 3 62 255 180 169 243 255 241 168 173 255 94 5 0 0 0 0 0 0 0 0 0 0 0 0 0 0 0 0 0 0 0 0 0 0 0 0 0 0 0 0 0 0 0 0 0 0 0 0 0 0 0 0 0 0 0 4 77 255 170 89 66 97 153 143 141 179 255 67 3 0 0 0 0 0 0 0 0 0 0 0 1 21 255 232 150 140 154 122 69 76 134 255 193 9 0 0 0 0 0 0 2 34 255 202 105 67 79 144 148 136 157 255 120 6 0 0 0 0 0 0 0 0 0 0 0 0 0 1 26 255 216 148 136 148 111 47 36 60 131 140 129 152 255 179 9 0 0 0 0 0 0 0 0 0 0 0 0 0 0 0 0 0 0 0 0 0 0 0 0 0 0 0 0 0 0 0 0 0 0 0 0 0 0 0 0 0 0 0 0 0 0 0 0 0 0 0 0 0 0 0 0 0 0 0 0 0 0 0 0 0 0 0 0 0 0 0 0 0 0 0 1 17 255 237 150 137 151 129 73 72 95 89 69 81 143 147 133 155 255 118 6 0 0 0 0 0 0 0 0 0 3 59 255 174 137 136 145 74 92 151 134 139 187 255 42 2 0 0 0 0 0 0 0 0 0 0 0 0 0 9 184 255 150 137 172 226 215 155 134 158 255 149 7 0 0 0 0 0 0 0 0 0 0 0 0 0 0 0 0 0 0 0 0 0 0 0 0 0 0 0 0 0 0 0 0 0 0 0 0 0 0 0 0 0 0 0 0 0 0 0 0 0 0 0 0 1 27 255 210 144 137 155 124 70 78 144 255 255 156 137 152 127 62 43 44 65 132 151 138 161 255 226 114 69 79 145 148 131 145 245 255 13 1 0 0 0 0 0 0 0 0 0 0 0 0 0 0 0 0 0 0 0 0 0 0 0 0 0 0 0 0 0 0 0 0 1 16 255 213 255 147 255 206 255 17 1 0 0 0 0 0 0 0 0 0 0 0 0 1 16 255 235 150 139 152 116 68 76 135 255 197 26 255 248 149 137 152 125 49 35 64 140 144 137 162 255 89 5 0 0 0 0 0 0 0 0 0 0 0 0 0 0 0 0 0 0 0 0 0 0 0 0 0 0 0 1 13 255 255 130 75 70 124 152 141 154 185 133 80 70 116 140 117 99 86 75 69 64 66 73 86 107 134 128 75 75 115 156 137 135 175 189 202 149 131 155 255 129 6 0 0 0 0 0 0 0 0 0 0 0 0 0 0 1 2 6 3 2 3 2 1 0 0 0 0 0 0 0 0 0 0 0 0 0 0 0 8 163 255 152 133 144 120 51 35 56 130 144 133 155 255 148 7 0 0 0 0 0 0 0 0 0 0 0 0 0 0 0 0 0 0 0 0
0 0 0 0 0 0 0 0 0 0 0 0 0 0 0 0 0 0 0 0 0 0 0 0 0 1 28 255 202 110 97 139 188 137 95 103 186 255 45 2 0 0 0 0 0 0 0 0 0 0 0 0 0 0 0 0 0 0 0 0 0 0 0 0 0 0 0 0 0 0 0 0 0 0 0 0 0 0 0 0 0 2 39 255 198 92 46 40 75 90 75 73 102 200 255 32 1 0 0 0 0 0 0 0 0 0 0 8 168 255 136 83 73 86 93 47 40 70 156 255 79 4 0 0 0 0 1 14 255 244 112 53 37 59 96 80 71 91 166 255 52 3 0 0 0 0 0 0 0 0 0 0 0 0 10 196 255 128 80 70 80 78 29 19 41 84 74 66 85 155 255 76 4 0 0 0 0 0 0 0 0 0 0 0 0 0 0 0 0 0 0 0 0 0 0 0 0 0 0 0 0 0 0 0 0 0 0 0 0 0 0 0 0 0 0 0 0 0 0 0 0 0 0 0 0 0 0 0 0 0 0 0 0 0 0 0 0 0 0 0 0 0 0 0 0 0 0 6 130 255 136 82 71 83 95 51 34 35 34 36 62 99 80 70 89 165 255 53 3 0 0 0 0 0 0 0 1 26 255 199 101 71 73 98 101 121 95 71 73 110 227 255 19 1 0 0 0 0 0 0 0 0 0 0 0 4 75 255 152 86 76 115 218 200 101 73 89 160 255 60 3 0 0 0 0 0 0 0 0 0 0 0 0 0 0 0 0 0 0 0 0 0 0 0 0 0 0 0 0 0 0 0 0 0 0 0 0 0 0 0 0 0 0 0 0 0 0 0 0 0 0 0 11 239 255 125 78 71 87 96 49 42 71 124 122 86 72 84 93 40 19 20 43 93 83 72 85 111 97 56 39 59 97 79 67 80 141 255 108 5 0 0 0 0 0 0 0 0 0 0 0 0 0 0 0 0 0 0 0 0 0 0 0 0 0 0 0 0 0 0 0 0 6 106 255 189 255 255 221 163 255 122 6 0 0 0 0 0 0 0 0 0 0 0 0 7 137 255 141 84 73 85 88 45 39 69 153 255 255 255 146 84 71 82 89 34 20 47 87 76 70 94 178 255 41 2 0 0 0 0 0 0 0 0 0 0 0 0 0 0 0 0 0 0 0 0 0 0 0 0 0 0 6 114 255 146 67 39 49 93 85 73 74 74 56 40 45 83 75 56 43 35 30 29 26 27 30 37 50 69 86 51 38 48 62 65 76 127 233 179 93 70 88 169 255 59 3 0 0 0 0 0 0 0 0 0 0 0 0 0 0 1 2 1 1 1 1 0 0 0 0 0 0 0 0 0 0 0 0 0 0 0 3 66 255 153 86 69 76 81 33 19 39 86 77 69 89 166 255 68 3 0 0 0 0 0 0 0 0 0 0 0 0 0 0 0 0 0 0 0
0 0 0 0 0 0 0 0 0 0 0 0 0 0 0 0 0 0 0 0 0 0 0 0 1 12 251 255 123 64 54 70 84 69 52 60 111 235 255 20 1 0 0 0 0 0 0 0 0 0 0 0 0 0 0 0 0 0 0 0 0 0 0 0 0 0 0 0 0 0 0 0 0 0 0 0 0 0 0 0 1 17 255 251 116 48 24 25 52 48 37 36 57 120 255 255 14 1 0 0 0 0 0 0 0 0 4 72 255 164 77 44 36 46 62 33 21 37 88 195 255 37 2 0 0 0 6 111 255 142 60 27 21 41 56 41 36 51 100 216 255 23 1 0 0 0 0 0 0 0 0 0 0 4 80 255 153 72 42 34 40 47 18 11 26 46 36 33 46 91 199 255 38 2 0 0 0 0 0 0 0 0 0 0 0 0 0 0 0 0 0 0 0 0 0 0 0 0 0 0 0 0 0 0 0 0 0 0 0 0 0 0 0 0 0 0 0 0 0 0 0 0 0 0 0 0 0 0 0 0 0 0 0 0 0 0 0 0 0 0 0 0 0 0 0 0 3 59 255 171 77 43 35 44 60 35 16 13 13 18 46 61 42 36 50 100 219 255 25 1 0 0 0 0 0 0 10 214 255 122 56 36 39 70 166 165 65 38 38 62 138 255 176 8 0 0 0 0 0 0 0 0 0 0 2 36 255 196 91 49 43 76 136 129 67 40 49 94 202 255 26 1 0 0 0 0 0 0 0 0 0 0 0 0 0 0 0 0 0 0 0 0 0 0 0 0 0 0 0 0 0 0 0 0 0 0 0 0 0 0 0 0 0 0 0 0 0 0 0 0 0 5 100 255 157 71 41 36 46 65 35 22 32 48 49 42 36 44 58 26 9 10 28 57 43 35 39 43 38 25 22 42 57 40 33 43 82 183 255 53 2 0 0 0 0 0 0 0 0 0 0 0 0 0 0 0 0 0 0 0 0 0 0 0 0 0 0 0 0 0 0 2 49 255 183 146 180 224 139 119 177 255 58 3 0 0 0 0 0 0 0 0 0 0 3 63 255 176 82 46 37 45 59 30 21 36 91 225 255 203 88 46 35 42 55 23 13 31 47 37 35 52 108 239 255 19 1 0 0 0 0 0 0 0 0 0 0 0 0 0 0 0 0 0 0 0 0 0 0 0 0 3 53 255 179 81 34 21 33 61 45 35 31 28 22 19 28 52 38 25 17 13 11 11 10 10 12 15 22 34 50 33 18 19 23 29 43 90 157 125 60 38 49 100 216 255 29 1 0 0 0 0 0 0 0 0 0 0 0 0 0 0 0 0 0 0 0 0 0 0 0 0 0 0 0 0 0 0 0 0 0 1 31 255 199 91 47 34 38 47 21 11 25 50 39 35 50 98 213 255 36 2 0 0 0 0 0 0 0 0 0 0 0 0 0 0 0 0 0 0
0 0 0 0 0 0 0 0 0 0 0 0 0 0 0 0 0 0 0 0 0 0 0 0 5 113 255 168 77 40 30 33 36 33 28 36 69 148 255 168 8 0 0 0 0 0 0 0 0 0 0 0 0 0 0 0 0 0 0 0 0 0 0 0 0 0 0 0 0 0 0 0 0 0 0 0 0 0 0 0 7 147 255 156 69 27 12 15 34 26 18 18 33 74 164 255 133 6 0 0 0 0 0 0 0 2 36 255 216 103 46 24 18 24 39 21 12 20 52 123 255 255 16 1 0 3 53 255 192 88 34 14 12 27 31 21 18 29 62 140 255 207 9 0 0 0 0 0 0 0 0 0 2 41 255 207 97 43 22 16 20 25 10 6 14 23 17 16 26 55 128 255 255 18 1 0 0 0 0 0 0 0 0 0 0 0 0 0 0 0 0 0 0 0 0 0 0 0 0 0 0 0 0 0 0 0 0 0 0 0 0 0 0 0 0 0 0 0 0 0 0 0 0 0 0 0 0 0 0 0 0 0 0 0 0 0 0 0 0 0 0 0 0 0 0 1 28 255 228 110 47 23 17 23 36 22 8 5 5 10 33 36 22 18 29 63 142 255 208 10 0 0 0 0 0 5 98 255 169 76 33 19 24 76 225 200 65 22 20 37 87 186 255 79 4 0 0 0 0 0 0 0 0 1 17 255 255 127 57 29 27 52 79 78 46 24 28 57 131 255 217 10 0 0 0 0 0 0 0 0 0 0 0 0 0 0 0 0 0 0 0 0 0 0 0 0 0 0 0 0 0 0 0 0 0 0 0 0 0 0 0 0 0 0 0 0 0 0 0 0 2 49 255 203 98 43 22 18 25 42 24 11 13 18 19 19 17 23 34 15 5 5 16 32 22 16 17 16 14 11 12 28 32 20 16 24 50 118 242 255 27 1 0 0 0 0 0 0 0 0 0 0 0 0 0 0 0 0 0 0 0 0 0 0 0 0 0 0 0 0 1 24 255 243 130 108 100 105 85 90 122 237 255 31 1 0 0 0 0 0 0 0 0 1 31 255 227 111 50 25 18 24 36 19 11 20 56 120 167 112 54 26 17 21 31 14 8 18 24 18 17 31 68 153 255 172 8 0 0 0 0 0 0 0 0 0 0 0 0 0 0 0 0 0 0 0 0 0 0 0 1 27 255 237 112 47 18 11 22 37 24 16 12 10 8 8 16 29 18 10 7 5 4 4 3 3 4 6 9 16 26 19 9 7 8 13 26 66 94 84 42 22 29 61 137 255 255 12 1 0 0 0 0 0 0 0 0 0 0 0 0 0 0 0 0 0 0 0 0 0 0 0 0 0 0 0 0 0 0 0 1 14 255 255 130 56 26 17 18 24 11 6 14 26 19 17 29 61 135 255 255 16 1 0 0 0 0 0 0 0 0 0 0 0 0 0 0 0 0 0
0 0 0 0 0 0 0 0 0 0 0 0 0 0 0 0 0 0 0 0 0 0 0 3 57 255 220 116 57 26 17 15 15 15 15 23 49 102 195 255 77 4 0 0 0 0 0 0 0 0 0 0 0 0 0 0 0 0 0 0 0 0 0 0 0 0 0 0 0 0 0 0 0 0 0 0 0 0 0 3 68 255 201 105 47 16 6 8 19 13 8 9 20 52 112 209 255 64 3 0 0 0 0 0 1 16 255 255 148 73 30 13 9 13 22 12 6 11 35 86 173 255 162 7 1 26 255 252 133 62 21 7 6 14 16 10 9 17 45 99 192 255 93 4 0 0 0 0 0 0 0 1 20 255 255 144 69 28 11 7 9 11 5 3 6 9 7 7 15 39 90 175 255 167 8 0 0 0 0 0 0 0 0 0 0 0 0 0 0 0 0 0 0 0 0 0 0 0 0 0 0 0 0 0 0 0 0 0 0 0 0 0 0 0 0 0 0 0 0 0 0 0 0 0 0 0 0 0 0 0 0 0 0 0 0 0 0 0 0 0 0 0 0 0 1 12 255 255 155 78 32 13 8 11 19 11 4 2 2 6 21 20 11 9 17 45 99 188 255 95 4 0 0 0 2 53 255 226 118 55 21 11 23 145 203 197 113 20 11 25 62 126 232 255 40 2 0 0 0 0 0 0 0 8 177 255 178 90 41 18 17 39 50 50 34 15 17 41 93 185 255 92 5 0 0 0 0 0 0 0 0 0 0 0 0 0 0 0 0 0 0 0 0 0 0 0 0 0 0 0 0 0 0 0 0 0 0 0 0 0 0 0 0 0 0 0 0 0 0 1 23 255 255 138 69 29 12 9 14 26 14 6 5 6 7 7 8 11 17 8 2 3 8 15 10 7 6 6 5 4 6 16 16 10 8 14 35 83 162 255 238 11 0 0 0 0 0 0 0 0 0 0 0 0 0 0 0 0 0 0 0 0 0 0 0 0 0 0 0 0 11 248 255 168 104 90 61 53 59 81 97 163 255 255 14 1 0 0 0 0 0 0 1 14 255 255 153 78 34 14 9 12 20 11 6 12 35 64 77 62 35 15 8 10 15 7 4 8 10 8 9 19 49 106 199 255 77 4 0 0 0 0 0 0 0 0 0 0 0 0 0 0 0 0 0 0 0 0 0 1 12 252 255 162 78 30 10 6 12 21 12 7 4 3 3 3 7 13 8 4 2 2 1 1 1 1 1 2 3 7 11 8 4 3 3 6 17 53 62 62 32 13 18 43 95 185 255 116 6 0 0 0 0 0 0 0 0 0 0 0 0 0 0 0 0 0 0 0 0 0 0 0 0 0 0 0 0 0 0 0 6 141 255 184 93 40 15 8 8 10 5 3 7 12 9 8 17 43 93 178 255 170 7 0 0 0 0 0 0 0 0 0 0 0 0 0 0 0 0 0
0 0 0 0 0 0 0 0 0 0 0 0 0 0 0 0 0 0 0 0 0 0 1 29 255 255 154 96 53 19 9 6 6 6 7 15 43 86 140 242 255 41 2 0 0 0 0 0 0 0 0 0 0 0 0 0 0 0 0 0 0 0 0 0 0 0 0 0 0 0 0 0 0 0 0 0 0 0 2 35 255 247 143 86 39 10 3 4 7 5 3 4 13 46 91 147 253 255 33 1 0 0 0 0 7 146 255 188 113 65 23 7 4 6 10 5 3 7 26 74 128 219 255 83 16 252 255 174 104 54 15 4 3 6 6 4 4 11 39 86 139 235 255 48 2 0 0 0 0 0 0 9 214 255 187 112 64 21 6 3 3 4 2 1 2 3 3 3 9 32 78 127 213 255 78 4 0 0 0 0 0 0 0 0 0 0 0 0 0 0 0 0 0 0 0 0 0 0 0 0 0 0 0 0 0 0 0 0 0 0 0 0 0 0 0 0 0 0 0 0 0 0 0 0 0 0 0 0 0 0 0 0 0 0 0 0 0 0 0 0 0 0 0 0 6 123 255 197 117 69 25 7 4 5 8 5 2 1 1 3 10 10 5 4 11 39 84 136 235 255 52 2 0 1 28 255 255 159 97 50 15 9 53 255 185 192 255 41 8 18 55 99 160 255 255 19 1 0 0 0 0 0 4 85 255 218 130 80 34 12 11 30 36 36 25 9 11 35 82 136 230 255 46 2 0 0 0 0 0 0 0 0 0 0 0 0 0 0 0 0 0 0 0 0 0 0 0 0 0 0 0 0 0 0 0 0 0 0 0 0 0 0 0 0 0 0 0 0 0 10 224 255 177 106 61 21 6 4 6 13 7 2 2 2 2 3 3 4 7 3 1 1 3 6 4 3 2 2 2 2 3 6 7 4 3 8 28 73 119 197 255 105 5 0 0 0 0 0 0 0 0 0 0 0 0 0 0 0 0 0 0 0 0 0 0 0 0 0 0 5 115 255 207 129 110 100 47 33 53 107 103 124 198 255 154 7 0 0 0 0 0 0 7 147 255 194 115 69 26 8 4 5 8 5 3 6 21 35 38 36 23 8 4 4 6 3 2 3 3 3 4 12 43 88 141 239 255 39 2 0 0 0 0 0 0 0 0 0 0 0 0 0 0 0 0 0 0 0 0 5 118 255 199 120 69 22 6 3 5 9 5 2 1 1 1 1 3 5 3 1 1 0 0 0 0 0 0 1 1 2 4 3 1 1 1 3 12 49 53 56 25 8 11 36 81 133 225 255 58 3 0 0 0 0 0 0 0 0 0 0 0 0 0 0 0 0 0 0 0 0 0 0 0 0 0 0 0 0 0 3 68 255 222 133 83 34 9 4 3 3 2 1 2 4 3 4 10 35 79 128 219 255 83 4 0 0 0 0 0 0 0 0 0 0 0 0 0 0 0 0
0 0 0 0 0 0 0 0 0 0 0 0 0 0 0 0 0 0 0 0 0 1 13 255 255 174 118 103 70 15 4 2 2 2 3 11 50 98 115 167 255 255 19 1 0 0 0 0 0 0 0 0 0 0 0 0 0 0 0 0 0 0 0 0 0 0 0 0 0 0 0 0 0 0 0 0 0 1 16 255 255 169 114 92 40 7 2 1 2 2 1 2 10 52 96 116 172 255 255 15 1 0 0 3 70 255 215 135 105 84 20 4 2 2 3 2 1 4 23 90 110 152 248 255 255 255 200 129 102 65 12 2 1 2 2 1 2 8 42 100 115 161 255 255 24 1 0 0 0 0 5 102 255 211 134 107 84 18 3 1 1 1 1 0 1 1 1 1 6 31 91 108 147 242 255 41 2 0 0 0 0 0 0 0 0 0 0 0 0 0 0 0 0 0 0 0 0 0 0 0 0 0 0 0 0 0 0 0 0 0 0 0 0 0 0 0 0 0 0 0 0 0 0 0 0 0 0 0 0 0 0 0 0 0 0 0 0 0 0 0 0 0 0 3 62 255 227 141 107 84 23 4 2 2 2 1 1 0 0 1 3 3 2 2 8 42 97 114 163 255 255 26 2 13 255 255 179 121 103 61 13 22 255 235 189 204 255 234 17 15 66 99 121 187 255 197 9 0 0 0 0 2 45 255 242 150 111 100 35 8 7 22 28 25 16 5 8 38 98 115 160 255 255 23 1 0 0 0 0 0 0 0 0 0 0 0 0 0 0 0 0 0 0 0 0 0 0 0 0 0 0 0 0 0 0 0 0 0 0 0 0 0 0 0 0 0 0 0 5 99 255 204 130 103 75 17 4 2 2 4 2 1 1 1 1 1 1 1 2 1 0 0 1 2 1 1 1 1 0 1 1 2 2 1 2 5 25 87 106 139 227 255 53 2 0 0 0 0 0 0 0 0 0 0 0 0 0 0 0 0 0 0 0 0 0 0 0 0 3 58 255 231 146 125 171 172 58 28 87 223 175 121 140 223 255 75 4 0 0 0 0 4 78 255 225 139 106 87 23 5 2 2 2 2 1 3 11 18 19 20 12 4 2 1 2 1 1 1 1 1 2 9 49 97 114 164 255 255 19 1 0 0 0 0 0 0 0 0 0 0 0 0 0 0 0 0 0 0 3 63 255 229 140 105 85 19 4 1 2 3 2 1 0 0 0 0 1 1 1 0 0 0 0 0 0 0 0 0 0 1 1 1 0 0 0 2 10 57 64 70 21 6 8 37 95 111 155 255 255 31 1 0 0 0 0 0 0 0 0 0 0 0 0 0 0 0 0 0 0 0 0 0 0 0 0 0 0 0 2 35 255 249 152 112 99 36 6 2 1 1 1 0 1 1 1 2 7 35 92 109 150 244 255 44 2 0 0 0 0 0 0 0 0 0 0 0 0 0 0 0
0 0 0 0 0 0 0 0 0 0 0 0 0 0 0 0 0 0 0 0 0 6 128 255 189 120 111 156 180 20 3 1 1 1 2 11 102 164 117 118 177 255 185 8 0 0 0 0 0 0 0 0 0 0 0 0 0 0 0 0 0 0 0 0 0 0 0 0 0 0 0 0 0 0 0 0 0 7 146 255 182 119 112 142 60 7 1 0 1 1 1 2 11 101 143 111 119 183 255 142 7 0 2 38 255 240 142 109 131 183 28 3 1 1 1 1 1 4 30 166 121 113 163 255 255 241 137 109 133 131 15 2 0 1 1 1 1 8 74 163 118 116 172 255 218 10 0 0 0 2 54 255 228 138 109 135 188 26 3 1 0 0 0 0 0 0 0 1 5 44 157 119 110 157 255 255 21 1 0 0 0 0 0 0 0 0 0 0 0 0 0 0 0 0 0 0 0 0 0 0 0 0 0 0 0 0 0 0 0 0 0 0 0 0 0 0 0 0 0 0 0 0 0 0 0 0 0 0 0 0 0 0 0 0 0 0 0 0 0 0 0 0 1 31 255 247 148 111 129 159 31 4 1 1 1 0 0 0 0 0 1 1 1 1 8 68 158 120 116 171 255 239 18 138 255 191 122 110 149 132 25 161 255 194 180 188 204 255 124 25 134 140 109 127 203 255 87 4 0 0 1 23 255 255 156 111 122 177 55 7 4 13 18 15 8 3 8 67 165 120 117 173 255 225 10 0 0 0 0 0 0 0 0 0 0 0 0 0 0 0 0 0 0 0 0 0 0 0 0 0 0 0 0 0 0 0 0 0 0 0 0 0 0 0 0 0 0 2 51 255 222 136 109 137 157 21 3 1 1 1 1 0 0 0 0 0 0 0 1 0 0 0 0 0 0 0 0 0 0 0 0 1 1 0 1 4 32 157 124 109 150 254 255 27 1 0 0 0 0 0 0 0 0 0 0 0 0 0 0 0 0 0 0 0 0 0 0 1 30 255 250 149 115 161 250 255 181 66 255 255 255 167 114 145 238 255 38 2 0 0 2 43 255 244 146 110 131 178 31 4 1 1 1 1 1 1 4 8 8 9 5 2 1 0 0 0 0 0 0 0 1 10 87 150 114 117 180 255 173 8 0 0 0 0 0 0 0 0 0 0 0 0 0 0 0 0 0 1 35 255 253 150 109 121 168 25 3 1 1 1 1 0 0 0 0 0 0 0 0 0 0 0 0 0 0 0 0 0 0 0 0 0 0 0 0 1 12 110 163 161 25 4 7 55 161 117 113 167 255 255 15 1 0 0 0 0 0 0 0 0 0 0 0 0 0 0 0 0 0 0 0 0 0 0 0 0 0 1 15 255 255 161 112 119 164 56 6 1 0 0 0 0 0 0 0 1 6 51 161 119 110 156 255 255 21 1 0 0 0 0 0 0 0 0 0 0 0 0 0 0
0 0 0 0 0 0 0 0 0 0 0 0 0 0 0 0 0 0 0 0 3 65 255 204 117 90 135 240 255 70 5 1 0 0 3 36 255 245 151 93 110 189 255 81 4 0 0 0 0 0 0 0 0 0 0 0 0 0 0 0 0 0 0 0 0 0 0 0 0 0 0 0 0 0 0 0 3 64 255 192 112 91 139 219 209 15 1 0 0 0 0 2 34 255 229 136 90 113 198 255 69 4 18 255 255 147 95 106 200 255 90 6 1 0 0 0 1 6 76 234 166 96 105 162 202 138 96 113 204 255 42 3 0 0 0 0 2 22 255 227 151 93 107 181 255 98 5 0 1 28 255 245 138 92 107 203 255 85 6 1 0 0 0 0 0 0 0 1 10 144 228 166 95 101 166 255 197 9 0 0 0 0 0 0 0 0 0 0 0 0 0 0 0 0 0 0 0 0 0 0 0 0 0 0 0 0 0 0 0 0 0 0 0 0 0 0 0 0 0 0 0 0 0 0 0 0 0 0 0 0 0 0 0 0 0 0 0 0 0 0 0 1 13 255 255 149 96 103 188 243 91 7 1 0 0 0 0 0 0 0 0 0 0 1 19 243 227 156 93 106 178 255 255 255 205 116 89 126 224 255 255 255 198 146 148 148 149 213 255 236 255 224 124 91 123 213 255 42 2 1 10 235 255 162 99 95 167 230 205 15 3 5 9 7 3 2 22 255 230 156 95 109 184 255 100 5 0 0 0 0 0 0 0 0 0 0 0 0 0 0 0 0 0 0 0 0 0 0 0 0 0 0 0 0 0 0 0 0 0 0 0 0 0 0 0 0 1 27 255 246 136 93 112 213 255 60 4 1 0 0 0 0 0 0 0 0 0 0 0 0 0 0 0 0 0 0 0 0 0 0 0 0 0 0 1 7 85 235 183 101 98 154 255 255 12 1 0 0 0 0 0 0 0 0 0 0 0 0 0 0 0 0 0 0 0 0 1 14 255 255 152 97 108 194 211 230 255 255 255 217 214 207 114 95 143 255 255 16 1 1 20 255 255 146 96 104 198 250 89 7 1 0 0 0 0 1 1 3 3 3 2 1 0 0 0 0 0 0 0 0 2 26 255 227 146 92 111 188 255 78 4 0 0 0 0 0 0 0 0 0 0 0 0 0 0 0 1 16 255 255 153 97 100 179 247 70 5 1 0 0 0 0 0 0 0 0 0 0 0 0 0 0 0 0 0 0 0 0 0 0 0 0 0 0 0 2 36 255 255 255 76 7 15 197 229 157 94 105 176 255 139 7 0 0 0 0 0 0 0 0 0 0 0 0 0 0 0 0 0 0 0 0 0 0 0 0 0 6 133 255 167 101 93 157 222 208 15 1 0 0 0 0 0 0 0 1 13 175 236 167 93 99 161 255 183 9 0 0 0 0 0 0 0 0 0 0 0 0 0 0
0 0 0 0 0 0 0 0 0 0 0 0 0 0 0 0 0 0 0 1 33 255 219 115 70 77 163 196 197 255 28 1 0 1 12 227 237 206 174 83 68 106 200 255 37 2 0 0 0 0 0 0 0 0 0 0 0 0 0 0 0 0 0 0 0 0 0 0 0 0 0 0 0 0 0 1 29 255 207 108 68 79 167 213 255 72 4 0 0 0 1 11 210 237 213 168 78 68 112 214 255 47 157 255 151 83 67 120 192 193 255 37 2 0 0 0 1 26 255 183 178 95 65 74 83 70 70 132 201 207 232 13 1 0 0 0 6 108 255 203 170 85 66 102 196 255 50 3 12 255 255 139 78 66 121 188 189 255 34 2 0 0 0 0 0 0 0 3 53 255 204 184 97 65 92 170 255 82 4 0 0 0 0 0 0 0 0 0 0 0 0 0 0 0 0 0 0 0 0 0 0 0 0 0 0 0 0 0 0 0 0 0 0 0 0 0 0 0 0 0 0 0 0 0 0 0 0 0 0 0 0 0 0 0 0 0 0 0 0 0 0 5 108 255 155 84 65 109 188 200 255 37 2 0 0 0 0 0 0 0 0 0 0 5 90 255 205 174 85 66 103 214 255 247 118 69 73 152 205 255 255 233 122 98 104 101 98 128 249 255 255 211 153 72 71 121 236 255 19 6 99 255 170 90 64 95 178 196 255 74 5 2 3 2 1 7 120 255 206 172 89 68 103 195 255 49 2 0 0 0 0 0 0 0 0 0 0 0 0 0 0 0 0 0 0 0 0 0 0 0 0 0 0 0 0 0 0 0 0 0 0 0 0 0 0 1 12 255 255 141 78 68 131 198 198 255 22 1 0 0 0 0 0 0 0 0 0 0 0 0 0 0 0 0 0 0 0 0 0 0 0 0 0 0 2 31 255 195 191 109 66 87 163 255 118 6 0 0 0 0 0 0 0 0 0 0 0 0 0 0 0 0 0 0 0 0 6 119 255 160 85 66 108 154 139 158 228 255 184 137 133 158 119 66 80 147 255 139 7 9 177 255 145 81 65 114 191 191 255 33 2 0 0 0 0 0 0 1 1 1 1 0 0 0 0 0 0 0 0 0 7 131 249 209 174 83 68 106 204 255 40 2 0 0 0 0 0 0 0 0 0 0 0 0 0 0 7 143 255 153 84 65 108 190 188 255 26 1 0 0 0 0 0 0 0 0 0 0 0 0 0 0 0 0 0 0 0 0 0 0 0 0 0 0 1 12 217 240 233 222 255 38 81 255 204 178 90 66 97 180 255 61 3 0 0 0 0 0 0 0 0 0 0 0 0 0 0 0 0 0 0 0 0 0 0 0 3 62 255 178 94 64 91 174 200 255 75 4 0 0 0 0 0 0 0 4 61 255 207 186 93 63 90 168 255 77 4 0 0 0 0 0 0 0 0 0 0 0 0 0
0 0 0 0 0 0 0 0 0 0 0 0 0 0 0 0 0 0 1 14 255 250 119 59 41 71 135 119 132 247 215 10 1 4 84 255 150 126 133 78 41 55 107 230 255 15 1 0 0 0 0 0 0 0 0 0 0 0 0 0 0 0 0 0 0 0 0 0 0 0 0 0 0 0 1 11 219 248 113 56 41 73 140 145 174 255 29 1 0 0 4 87 255 156 135 141 72 41 58 116 255 255 255 162 77 44 51 118 125 136 227 255 15 1 0 0 8 153 240 138 128 92 39 30 31 32 54 127 131 144 255 89 5 0 0 2 43 255 158 131 132 81 41 53 106 220 255 30 103 255 148 70 42 50 117 122 133 230 231 12 1 0 0 0 0 0 1 22 255 196 143 136 98 44 48 88 184 255 38 2 0 0 0 0 0 0 0 0 0 0 0 0 0 0 0 0 0 0 0 0 0 0 0 0 0 0 0 0 0 0 0 0 0 0 0 0 0 0 0 0 0 0 0 0 0 0 0 0 0 0 0 0 0 0 0 0 0 0 0 0 2 48 255 168 81 44 46 107 128 144 228 255 14 1 0 0 0 0 0 0 0 0 2 36 255 164 134 132 79 41 55 104 162 115 61 40 65 135 133 149 178 115 67 58 62 60 57 69 122 186 153 137 139 62 40 62 131 255 168 61 255 181 88 47 43 94 128 131 173 255 31 2 1 1 3 50 255 164 132 130 83 43 53 104 220 255 24 1 0 0 0 0 0 0 0 0 0 0 0 0 0 0 0 0 0 0 0 0 0 0 0 0 0 0 0 0 0 0 0 0 0 0 0 0 0 5 108 255 151 73 43 54 125 126 140 255 150 8 0 0 0 0 0 0 0 0 0 0 0 0 0 0 0 0 0 0 0 0 0 0 0 0 0 1 11 225 232 144 132 111 47 46 85 179 255 56 3 0 0 0 0 0 0 0 0 0 0 0 0 0 0 0 0 0 0 3 52 255 169 82 45 46 93 93 80 89 113 131 96 74 73 92 102 48 43 77 165 255 74 82 255 159 74 42 47 111 125 135 225 218 11 1 0 0 0 0 0 0 0 0 0 0 0 0 0 0 0 0 0 3 52 255 156 134 139 79 41 55 111 235 255 17 1 0 0 0 0 0 0 0 0 0 0 0 0 3 62 255 165 78 44 46 111 131 139 250 178 9 0 0 0 0 0 0 0 0 0 0 0 0 0 0 0 0 0 0 0 0 0 0 0 0 0 0 4 83 255 152 122 142 250 255 255 184 138 135 88 42 50 94 198 255 28 1 0 0 0 0 0 0 0 0 0 0 0 0 0 0 0 0 0 0 0 0 0 1 31 255 204 96 49 42 90 132 136 175 255 32 2 0 0 0 0 0 1 24 255 182 139 135 94 42 47 88 187 255 36 2 0 0 0 0 0 0 0 0 0 0 0 0
0 0 0 0 0 0 0 0 0 0 0 0 0 0 0 0 0 0 5 110 255 134 58 28 25 62 83 65 77 142 255 90 6 38 255 169 88 68 78 65 26 27 53 127 255 118 6 0 0 0 0 0 0 0 0 0 0 0 0 0 0 0 0 0 0 0 0 0 0 0 0 0 0 0 4 84 255 135 57 27 25 64 88 83 110 238 208 10 1 2 42 255 179 94 76 88 64 25 28 59 143 255 221 90 38 23 39 89 72 81 134 255 125 6 0 3 61 255 140 87 77 76 25 12 11 15 41 91 76 91 169 255 42 2 1 16 255 204 98 74 80 70 27 26 52 120 255 255 255 171 75 34 22 39 88 70 79 132 255 90 5 0 0 0 0 0 8 157 255 121 84 82 86 31 24 43 100 227 255 15 1 0 0 0 0 0 0 0 0 0 0 0 0 0 0 0 0 0 0 0 0 0 0 0 0 0 0 0 0 0 0 0 0 0 0 0 0 0 0 0 0 0 0 0 0 0 0 0 0 0 0 0 0 0 0 0 0 0 0 1 22 255 209 90 39 23 34 85 76 86 135 255 109 6 0 0 0 0 0 0 0 1 14 255 219 103 76 79 67 27 26 43 58 46 28 24 58 89 73 70 69 48 32 30 31 30 29 33 51 72 74 76 92 52 23 30 67 158 255 255 231 96 42 23 30 82 77 75 108 237 235 12 1 1 21 255 200 98 74 78 70 27 26 51 121 255 201 9 0 0 0 0 0 0 0 0 0 0 0 0 0 0 0 0 0 0 0 0 0 0 0 0 0 0 0 0 0 0 0 0 0 0 0 0 2 48 255 170 76 35 23 43 89 72 86 152 255 65 3 0 0 0 0 0 0 0 0 0 0 0 0 0 0 0 0 0 0 0 0 0 0 0 0 5 90 255 140 88 79 91 35 24 41 94 206 255 25 1 0 0 0 0 0 0 0 0 0 0 0 0 0 0 0 0 1 23 255 202 89 40 23 31 65 49 40 42 47 50 42 35 35 48 69 33 22 38 88 207 255 255 191 83 36 22 35 85 72 81 133 255 84 4 0 0 0 0 0 0 0 0 0 0 0 0 0 0 0 0 1 22 255 195 98 75 84 68 26 27 55 128 255 128 6 0 0 0 0 0 0 0 0 0 0 0 1 27 255 193 87 38 22 34 92 78 88 145 255 73 4 0 0 0 0 0 0 0 0 0 0 0 0 0 0 0 0 0 0 0 0 0 0 0 0 2 38 255 173 87 61 79 151 255 255 119 81 82 77 28 24 46 109 253 226 11 0 0 0 0 0 0 0 0 0 0 0 0 0 0 0 0 0 0 0 0 1 12 254 252 112 47 25 29 81 81 79 109 236 240 12 1 0 0 0 0 8 153 255 113 80 80 83 30 23 43 102 232 255 14 1 0 0 0 0 0 0 0 0 0 0 0
0 0 0 0 0 0 0 0 0 0 0 0 0 0 0 0 0 2 50 255 167 70 28 13 16 48 44 34 42 80 181 255 76 255 230 98 47 35 41 47 16 13 26 67 162 255 52 3 0 0 0 0 0 0 0 0 0 0 0 0 0 0 0 0 0 0 0 0 0 0 0 0 0 2 38 255 174 72 28 13 16 49 49 45 63 138 255 84 5 19 255 229 103 52 39 48 49 16 13 29 69 123 98 45 18 12 27 55 40 44 75 166 255 57 4 27 255 189 85 51 44 53 16 5 4 8 28 53 42 53 100 227 255 20 7 122 255 121 55 39 44 53 18 13 25 63 165 255 255 99 37 16 12 28 54 38 44 75 172 255 43 2 0 0 0 3 64 255 149 69 46 47 64 22 12 20 50 127 255 119 6 0 0 0 0 0 0 0 0 0 0 0 0 0 0 0 0 0 0 0 0 0 0 0 0 0 0 0 0 0 0 0 0 0 0 0 0 0 0 0 0 0 0 0 0 0 0 0 0 0 0 0 0 0 0 0 0 0 0 8 170 255 120 46 18 12 23 55 42 47 76 164 255 48 2 0 0 0 0 0 0 5 103 255 128 59 40 42 49 17 11 15 19 16 12 15 46 49 35 29 24 18 14 13 13 13 12 14 19 26 31 37 50 39 14 14 33 90 220 255 132 50 20 12 21 61 43 40 61 138 255 100 5 8 160 255 117 54 38 42 50 18 13 24 62 148 255 79 4 0 0 0 0 0 0 0 0 0 0 0 0 0 0 0 0 0 0 0 0 0 0 0 0 0 0 0 0 0 0 0 0 0 0 1 20 255 210 92 37 16 13 31 52 39 48 88 196 255 31 1 0 0 0 0 0 0 0 0 0 0 0 0 0 0 0 0 0 0 0 0 0 0 2 43 255 177 82 50 45 61 25 12 19 46 114 255 200 10 0 0 0 0 0 0 0 0 0 0 0 0 0 0 0 0 8 168 255 115 44 18 11 18 37 24 18 17 17 17 16 14 15 23 38 20 11 18 45 119 255 255 111 42 17 11 24 53 39 45 78 175 255 40 2 0 0 0 0 0 0 0 0 0 0 0 0 0 0 0 9 180 255 116 55 40 46 51 17 13 26 66 156 255 54 3 0 0 0 0 0 0 0 0 0 0 10 211 255 108 43 18 11 25 63 45 51 85 186 255 34 2 0 0 0 0 0 0 0 0 0 0 0 0 0 0 0 0 0 0 0 0 0 0 1 14 255 229 101 46 29 41 81 148 126 68 44 46 59 19 12 22 56 140 255 85 4 0 0 0 0 0 0 0 0 0 0 0 0 0 0 0 0 0 0 0 5 107 255 138 57 23 12 20 63 46 43 62 135 255 91 5 0 0 0 3 59 255 141 64 43 44 62 21 12 21 52 129 255 114 6 0 0 0 0 0 0 0 0 0 0 0
0 0 0 0 0 0 0 0 0 0 0 0 0 0 0 0 1 21 255 218 96 36 13 6 9 31 22 16 22 44 107 255 255 255 140 55 25 17 20 28 10 6 12 35 94 213 255 22 1 0 0 0 0 0 0 0 0 0 0 0 0 0 0 0 0 0 0 0 0 0 0 0 1 15 255 235 103 38 13 6 10 32 25 23 36 81 187 255 54 165 255 134 57 28 20 24 32 10 6 13 29 45 38 20 8 6 16 29 20 23 41 95 214 255 43 225 255 115 50 29 24 32 10 3 2 4 16 26 22 29 57 135 255 171 75 255 166 70 31 19 23 34 11 6 12 33 86 153 122 54 19 7 6 17 28 20 23 42 103 235 255 20 1 0 1 28 255 196 87 38 24 26 41 14 6 9 25 70 170 255 56 3 0 0 0 0 0 0 0 0 0 0 0 0 0 0 0 0 0 0 0 0 0 0 0 0 0 0 0 0 0 0 0 0 0 0 0 0 0 0 0 0 0 0 0 0 0 0 0 0 0 0 0 0 0 0 0 0 4 70 255 156 66 23 9 6 14 30 22 24 41 96 219 255 21 1 0 0 0 0 2 47 255 172 75 33 20 21 29 10 5 5 6 5 5 9 32 25 16 11 8 6 5 5 5 5 5 5 6 9 12 16 24 23 8 7 17 47 99 119 67 25 9 6 14 39 23 21 34 80 185 255 57 74 255 159 66 29 19 21 30 10 6 11 31 82 188 255 36 2 0 0 0 0 0 0 0 0 0 0 0 0 0 0 0 0 0 0 0 0 0 0 0 0 0 0 0 0 0 0 0 0 0 8 162 255 123 48 18 7 7 18 26 20 26 49 116 255 255 14 1 0 0 0 0 0 0 0 0 0 0 0 0 0 0 0 0 0 0 0 0 1 20 255 234 104 46 27 25 35 15 6 9 23 61 152 255 87 4 0 0 0 0 0 0 0 0 0 0 0 0 0 0 3 70 255 153 63 22 8 5 9 16 10 7 6 6 6 5 5 6 10 16 10 5 8 23 62 121 119 58 21 8 6 14 28 20 24 44 105 239 255 18 1 0 0 0 0 0 0 0 0 0 0 0 0 0 4 78 255 157 66 30 20 23 33 10 6 12 33 89 208 255 24 1 0 0 0 0 0 0 0 0 4 85 255 146 58 21 8 6 16 37 25 28 48 111 249 255 14 1 0 0 0 0 0 0 0 0 0 0 0 0 0 0 0 0 0 0 0 0 0 6 112 255 133 55 24 14 20 37 57 51 34 23 25 38 12 6 10 29 78 180 255 38 2 0 0 0 0 0 0 0 0 0 0 0 0 0 0 0 0 0 2 52 255 181 76 29 11 6 14 43 25 22 34 78 178 255 41 2 0 1 26 255 195 84 36 22 24 39 14 6 10 26 72 174 255 55 3 0 0 0 0 0 0 0 0 0 0
0 0 0 0 0 0 0 0 0 0 0 0 0 0 0 0 8 164 255 134 55 19 6 3 5 15 10 7 11 25 65 154 255 200 89 33 13 7 9 12 5 3 6 18 54 131 255 180 9 0 0 0 0 0 0 0 0 0 0 0 0 0 0 0 0 0 0 0 0 0 0 0 6 120 255 143 60 21 6 3 5 16 12 11 20 49 117 255 255 255 178 79 32 14 9 11 16 5 3 5 11 15 13 8 3 3 7 12 9 11 22 55 133 255 255 255 162 70 29 15 12 15 5 1 1 2 7 11 10 15 33 80 177 255 255 241 105 42 17 9 11 17 6 3 5 17 40 61 52 27 9 3 3 8 12 9 11 24 62 144 255 170 8 1 11 229 255 123 51 21 12 13 22 8 3 4 13 40 105 228 255 28 1 0 0 0 0 0 0 0 0 0 0 0 0 0 0 0 0 0 0 0 0 0 0 0 0 0 0 0 0 0 0 0 0 0 0 0 0 0 0 0 0 0 0 0 0 0 0 0 0 0 0 0 0 0 0 1 33 255 205 94 37 12 4 3 7 14 10 12 23 56 137 255 178 8 0 0 0 1 22 255 234 107 44 18 10 10 13 5 2 2 2 2 2 5 17 11 6 4 3 2 2 2 2 1 1 2 2 3 4 6 10 11 4 3 8 22 40 46 30 12 4 3 8 21 12 10 19 48 114 250 255 255 215 98 39 15 9 10 14 5 3 5 16 46 116 252 255 15 1 0 0 0 0 0 0 0 0 0 0 0 0 0 0 0 0 0 0 0 0 0 0 0 0 0 0 0 0 0 0 0 4 74 255 172 73 26 8 3 3 8 11 9 13 28 68 158 255 129 6 0 0 0 0 0 0 0 0 0 0 0 0 0 0 0 0 0 0 0 0 8 185 255 144 62 26 14 12 17 8 3 4 11 34 92 204 255 44 2 0 0 0 0 0 0 0 0 0 0 0 0 2 34 255 206 93 35 11 4 2 4 6 4 3 2 2 2 2 2 2 4 6 4 2 4 11 29 48 48 28 10 4 3 6 12 10 12 25 63 147 255 145 7 0 0 0 0 0 0 0 0 0 0 0 0 2 38 255 207 96 39 16 9 11 16 5 3 6 17 52 130 255 216 10 0 0 0 0 0 0 0 2 41 255 197 89 33 10 4 3 8 18 13 15 28 65 151 255 117 6 0 0 0 0 0 0 0 0 0 0 0 0 0 0 0 0 0 0 0 0 3 53 255 183 80 31 12 6 9 15 20 19 15 11 12 20 7 3 5 15 44 112 245 255 15 1 0 0 0 0 0 0 0 0 0 0 0 0 0 0 0 1 24 255 233 111 43 14 5 3 8 25 13 11 19 46 111 241 255 17 1 10 221 255 124 51 20 11 12 21 8 3 4 13 41 108 232 255 28 1 0 0 0 0 0 0 0 0 0
0 0 0 0 0 0 0 0 0 0 0 0 0 0 0 3 70 255 177 85 34 10 3 1 2 5 4 3 5 14 41 85 124 101 56 20 6 3 3 4 2 1 3 10 33 84 178 255 80 4 0 0 0 0 0 0 0 0 0 0 0 0 0 0 0 0 0 0 0 0 0 3 58 255 193 92 37 11 3 1 2 6 5 5 11 31 77 168 255 250 118 50 18 7 4 4 6 2 1 2 3 5 4 3 1 1 3 4 4 5 12 35 87 187 255 234 109 46 17 8 5 5 2 1 0 1 2 4 4 8 20 51 117 247 255 155 70 26 9 4 4 6 3 1 2 7 17 23 21 12 4 1 1 3 4 4 5 14 39 91 184 255 75 9 100 255 168 79 32 12 5 6 9 4 1 2 7 24 67 145 255 244 11 1 0 0 0 0 0 0 0 0 0 0 0 0 0 0 0 0 0 0 0 0 0 0 0 0 0 0 0 0 0 0 0 0 0 0 0 0 0 0 0 0 0 0 0 0 0 0 0 0 0 0 0 0 1 15 255 255 133 59 21 6 2 1 2 5 4 5 13 36 87 179 255 79 4 0 0 10 230 255 151 69 28 9 4 4 5 2 1 1 0 0 1 2 7 4 2 1 1 1 0 0 0 0 0 0 1 1 1 2 3 3 2 1 3 9 15 16 12 5 2 1 3 8 5 5 10 30 74 161 255 255 143 64 24 8 4 4 5 2 1 2 8 28 73 159 255 129 6 0 0 0 0 0 0 0 0 0 0 0 0 0 0 0 0 0 0 0 0 0 0 0 0 0 0 0 0 0 0 2 39 255 223 111 47 15 4 1 1 3 4 4 6 16 43 99 200 255 63 3 0 0 0 0 0 0 0 0 0 0 0 0 0 0 0 0 0 0 4 83 255 187 91 39 15 7 5 6 3 1 2 6 20 58 130 255 255 20 1 0 0 0 0 0 0 0 0 0 0 1 15 255 255 134 60 21 6 2 1 1 2 1 1 1 1 1 1 1 1 1 2 1 1 2 5 12 18 18 12 4 2 1 2 4 4 6 14 40 92 186 255 66 3 0 0 0 0 0 0 0 0 0 0 1 17 255 255 132 61 24 8 4 4 6 2 1 3 9 32 84 177 255 97 5 0 0 0 0 0 1 18 255 255 127 57 19 5 2 1 3 7 6 7 16 42 96 196 255 56 3 0 0 0 0 0 0 0 0 0 0 0 0 0 0 0 0 0 0 1 24 255 237 120 52 18 6 3 3 5 7 7 6 4 5 8 3 1 2 8 27 71 155 255 126 6 0 0 0 0 0 0 0 0 0 0 0 0 0 0 0 10 207 255 146 69 26 7 2 1 4 11 6 5 10 28 71 153 255 139 12 99 255 174 81 33 11 5 5 8 3 1 2 7 25 68 147 255 255 13 1 0 0 0 0 0 0 0 0
0 0 0 0 0 0 0 0 0 0 0 0 0 0 2 34 255 225 119 59 22 6 1 1 1 2 1 1 2 8 26 46 55 50 35 12 3 1 1 1 1 1 1 5 22 60 119 226 255 41 2 0 0 0 0 0 0 0 0 0 0 0 0 0 0 0 0 0 0 0 1 30 255 245 130 66 25 6 2 1 1 2 2 2 6 21 57 104 154 132 81 36 11 3 1 1 2 1 0 1 1 1 1 1 0 0 1 1 1 2 7 24 62 111 158 127 78 34 10 3 2 2 1 0 0 0 1 1 2 4 11 36 80 128 141 97 52 17 5 2 2 2 1 1 1 3 6 8 7 4 2 1 0 1 1 1 2 8 26 63 121 226 255 136 255 216 114 57 21 6 2 2 3 1 1 1 4 15 47 96 181 255 101 5 0 0 0 0 0 0 0 0 0 0 0 0 0 0 0 0 0 0 0 0 0 0 0 0 0 0 0 0 0 0 0 0 0 0 0 0 0 0 0 0 0 0 0 0 0 0 0 0 0 0 0 0 7 148 255 177 91 42 13 3 1 0 1 1 1 2 7 24 61 119 226 255 41 2 5 101 255 193 102 51 18 5 2 1 1 1 0 0 0 0 0 1 2 1 1 0 0 0 0 0 0 0 0 0 0 0 0 1 1 1 1 1 1 3 5 5 4 2 1 1 1 2 2 2 5 19 54 103 162 158 97 47 15 4 1 1 1 1 0 1 4 17 52 107 200 255 60 3 0 0 0 0 0 0 0 0 0 0 0 0 0 0 0 0 0 0 0 0 0 0 0 0 0 0 0 0 1 19 255 255 146 77 32 9 2 1 0 1 1 1 3 9 30 68 130 242 255 32 1 0 0 0 0 0 0 0 0 0 0 0 0 0 0 0 0 2 42 255 225 122 64 27 8 3 2 2 1 1 1 3 12 41 87 163 255 179 8 0 0 0 0 0 0 0 0 0 0 7 143 255 174 91 42 12 3 1 0 0 0 0 0 0 0 0 0 0 0 0 0 0 0 1 2 4 6 6 4 2 1 0 1 1 1 3 8 27 64 123 235 255 35 2 0 0 0 0 0 0 0 0 0 7 149 255 169 89 43 15 4 2 1 2 1 1 1 5 21 60 118 221 255 50 2 0 0 0 0 8 171 255 166 86 40 11 3 1 1 1 2 2 3 9 29 67 130 246 255 28 1 0 0 0 0 0 0 0 0 0 0 0 0 0 0 0 0 0 10 209 255 155 82 37 11 3 1 1 2 2 2 2 2 2 2 1 1 1 4 17 51 105 200 255 60 3 0 0 0 0 0 0 0 0 0 0 0 0 0 4 92 255 186 97 48 16 4 1 1 2 3 2 2 5 18 51 104 196 255 216 255 220 117 60 22 6 2 2 2 1 1 1 4 16 48 97 184 255 128 6 0 0 0 0 0 0 0 0
0 0 0 0 0 0 0 0 0 0 0 0 0 1 15 255 255 157 91 50 15 3 1 0 0 0 0 0 1 4 14 24 25 25 20 6 2 0 0 0 0 0 1 3 15 51 91 155 255 255 20 1 0 0 0 0 0 0 0 0 0 0 0 0 0 0 0 0 0 1 13 255 255 166 97 57 18 4 1 0 0 0 1 1 3 14 48 69 77 72 61 28 6 2 1 0 0 0 0 0 0 0 0 0 0 0 0 0 0 1 4 16 50 69 78 72 62 28 6 2 1 0 0 0 0 0 0 0 1 2 7 28 60 68 71 65 44 11 2 1 0 0 0 0 0 1 2 2 2 1 1 0 0 0 0 0 1 4 18 53 90 159 255 255 255 152 89 50 15 3 1 1 1 0 0 0 2 9 38 75 125 220 255 49 2 0 0 0 0 0 0 0 0 0 0 0 0 0 0 0 0 0 0 0 0 0 0 0 0 0 0 0 0 0 0 0 0 0 0 0 0 0 0 0 0 0 0 0 0 0 0 0 0 0 0 3 72 255 214 124 74 34 8 2 0 0 0 0 0 1 4 17 52 91 155 255 255 22 52 255 228 132 81 44 11 3 1 0 0 0 0 0 0 0 0 0 0 0 0 0 0 0 0 0 0 0 0 0 0 0 0 0 0 0 0 0 0 1 1 2 1 1 0 0 0 1 1 1 3 13 45 71 83 82 71 39 10 2 1 0 0 0 0 1 2 11 43 82 139 249 255 32 1 0 0 0 0 0 0 0 0 0 0 0 0 0 0 0 0 0 0 0 0 0 0 0 0 0 0 0 8 177 255 183 105 63 24 5 1 0 0 0 0 1 1 5 22 56 95 163 255 255 14 1 0 0 0 0 0 0 0 0 0 0 0 0 0 0 1 21 255 255 153 90 53 19 4 1 1 1 0 0 0 2 7 31 69 114 203 255 80 4 0 0 0 0 0 0 0 0 3 72 255 217 122 73 34 8 2 0 0 0 0 0 0 0 0 0 0 0 0 0 0 0 0 0 1 1 2 2 1 1 0 0 0 0 0 1 4 19 54 93 162 255 255 17 1 0 0 0 0 0 0 0 3 68 255 207 118 71 35 9 2 1 0 0 0 0 1 3 14 50 89 150 255 255 24 1 0 0 4 82 255 208 118 70 31 7 1 0 0 0 1 1 1 5 21 57 97 167 255 255 13 1 0 0 0 0 0 0 0 0 0 0 0 0 0 0 0 4 89 255 194 111 67 30 7 1 0 0 0 1 1 1 0 1 1 0 0 1 2 11 43 83 140 250 255 32 1 0 0 0 0 0 0 0 0 0 0 0 2 48 255 230 130 76 38 10 2 0 0 0 1 1 1 3 12 44 82 141 255 255 255 154 91 53 16 3 1 1 1 0 0 0 2 10 39 76 126 222 255 65 3 0 0 0 0 0 0 0
0 0 0 0 0 0 0 0 0 0 0 0 0 7 151 255 192 120 89 55 11 2 0 0 0 0 0 0 0 2 6 11 11 12 9 3 1 0 0 0 0 0 0 2 11 57 89 117 185 255 210 9 0 0 0 0 0 0 0 0 0 0 0 0 0 0 0 0 0 5 114 255 195 122 92 65 14 2 0 0 0 0 0 0 2 10 47 52 43 45 54 23 4 1 0 0 0 0 0 0 0 0 0 0 0 0 0 0 0 0 2 12 47 48 43 47 59 23 4 1 0 0 0 0 0 0 0 0 0 1 4 23 52 41 40 49 41 8 1 0 0 0 0 0 0 0 1 1 1 0 0 0 0 0 0 0 1 2 13 58 89 124 196 255 185 120 90 57 11 2 0 0 0 0 0 0 1 7 36 78 102 155 255 255 23 1 0 0 0 0 0 0 0 0 0 0 0 0 0 0 0 0 0 0 0 0 0 0 0 0 0 0 0 0 0 0 0 0 0 0 0 0 0 0 0 0 0 0 0 0 0 0 0 0 2 40 255 250 148 102 79 33 6 1 0 0 0 0 0 0 2 13 56 89 117 186 255 255 255 255 156 105 84 48 8 1 0 0 0 0 0 0 0 0 0 0 0 0 0 0 0 0 0 0 0 0 0 0 0 0 0 0 0 0 0 0 0 0 0 0 0 0 0 0 0 0 0 0 2 9 45 57 48 48 61 37 7 1 0 0 0 0 0 0 1 8 45 83 110 172 255 255 14 1 0 0 0 0 0 0 0 0 0 0 0 0 0 0 0 0 0 0 0 0 0 0 0 0 0 4 83 255 211 130 94 68 19 3 1 0 0 0 0 0 1 3 17 61 88 119 192 255 132 6 0 0 0 0 0 0 0 0 0 0 0 0 0 0 9 209 255 185 115 86 58 14 3 1 0 0 0 0 0 1 5 27 72 98 143 238 255 40 2 0 0 0 0 0 0 2 39 255 252 151 102 78 32 5 1 0 0 0 0 0 0 0 0 0 0 0 0 0 0 0 0 0 0 0 1 1 0 0 0 0 0 0 0 1 3 15 60 90 121 193 255 186 8 0 0 0 0 0 0 1 34 255 245 146 100 77 33 6 1 0 0 0 0 0 0 2 11 53 87 114 178 255 255 11 1 2 45 255 244 146 101 77 27 5 1 0 0 0 0 0 1 3 16 64 91 123 199 255 124 6 0 0 0 0 0 0 0 0 0 0 0 0 0 0 2 45 255 231 139 98 73 26 5 1 0 0 0 0 0 0 0 0 0 0 0 0 1 8 45 85 112 173 255 255 15 1 0 0 0 0 0 0 0 0 0 1 24 255 255 160 105 79 35 7 1 0 0 0 0 0 0 2 9 48 87 116 174 240 181 121 92 63 12 2 0 0 0 0 0 0 1 7 36 79 102 152 255 255 34 1 0 0 0 0 0 0
0 0 0 0 0 0 0 0 0 0 0 0 3 72 255 219 138 115 132 102 12 1 0 0 0 0 0 0 0 1 2 4 4 4 3 1 0 0 0 0 0 0 0 2 13 110 131 113 134 214 255 105 5 0 0 0 0 0 0 0 0 0 0 0 0 0 0 0 3 56 255 222 139 112 129 135 16 2 0 0 0 0 0 0 1 9 59 48 28 32 57 18 3 1 0 0 0 0 0 0 0 0 0 0 0 0 0 0 0 0 1 9 53 40 27 37 73 20 3 0 0 0 0 0 0 0 0 0 0 1 3 18 55 29 26 44 43 7 1 0 0 0 0 0 0 0 0 0 0 0 0 0 0 0 0 0 0 2 14 113 138 117 120 134 118 118 142 117 13 2 0 0 0 0 0 0 1 6 46 129 115 121 178 255 206 10 0 0 0 0 0 0 0 0 0 0 0 0 0 0 0 0 0 0 0 0 0 0 0 0 0 0 0 0 0 0 0 0 0 0 0 0 0 0 0 0 0 0 0 0 0 0 0 1 21 255 255 170 117 115 136 45 5 1 0 0 0 0 0 0 2 13 101 134 113 136 225 255 255 186 120 112 139 87 9 1 0 0 0 0 0 0 0 0 0 0 0 0 0 0 0 0 0 0 0 0 0 0 0 0 0 0 0 0 0 0 0 0 0 0 0 0 0 0 0 0 0 0 1 8 59 60 33 35 69 40 6 1 0 0 0 0 0 0 1 8 69 128 115 128 195 255 135 6 0 0 0 0 0 0 0 0 0 0 0 0 0 0 0 0 0 0 0 0 0 0 0 0 2 46 255 243 147 111 122 119 20 3 0 0 0 0 0 0 0 2 17 115 125 110 137 222 255 66 3 0 0 0 0 0 0 0 0 0 0 0 0 5 95 255 211 134 111 127 109 15 2 0 0 0 0 0 0 1 4 28 126 118 116 164 255 255 19 1 0 0 0 0 1 20 255 255 170 119 118 134 41 5 1 0 0 0 0 0 0 0 0 0 0 0 0 0 0 0 0 0 0 0 0 0 0 0 0 0 0 0 0 0 2 15 119 136 113 137 219 255 88 4 0 0 0 0 1 17 255 255 169 118 118 141 43 5 1 0 0 0 0 0 0 1 11 89 129 111 130 207 255 118 7 24 255 255 166 118 120 137 31 4 1 0 0 0 0 0 0 2 18 129 130 113 140 224 255 61 3 0 0 0 0 0 0 0 0 0 0 0 0 1 22 255 255 161 117 123 128 30 4 1 0 0 0 0 0 0 0 0 0 0 0 0 1 8 74 134 116 129 198 255 164 7 0 0 0 0 0 0 0 0 0 11 240 255 182 122 114 136 44 6 1 0 0 0 0 0 0 1 10 89 146 121 113 123 113 117 144 132 15 2 0 0 0 0 0 0 1 6 46 132 112 118 172 255 255 16 1 0 0 0 0 0
0 0 0 0 0 0 0 0 0 0 0 2 37 255 240 146 115 157 255 255 35 2 0 0 0 0 0 0 0 0 1 1 1 1 1 0 0 0 0 0 0 0 0 3 38 255 255 158 114 143 234 255 58 3 0 0 0 0 0 0 0 0 0 0 0 0 0 1 30 255 253 150 113 148 250 255 48 3 0 0 0 0 0 0 1 12 125 66 22 29 83 17 2 0 0 0 0 0 0 0 0 0 0 0 0 0 0 0 0 0 1 10 82 42 21 42 143 23 3 0 0 0 0 0 0 0 0 0 0 0 2 16 80 25 19 47 52 7 1 0 0 0 0 0 0 0 0 0 0 0 0 0 0 0 0 0 0 3 41 255 255 152 84 74 88 161 255 255 42 3 0 0 0 0 0 0 1 10 136 255 194 119 127 197 255 92 4 0 0 0 0 0 0 0 0 0 0 0 0 0 0 0 0 0 0 0 0 0 0 0 0 0 0 0 0 0 0 0 0 0 0 0 0 0 0 0 0 0 0 0 0 0 0 9 197 255 185 122 121 195 255 162 11 1 0 0 0 0 0 0 3 35 255 255 158 117 148 218 195 133 119 187 255 255 29 2 0 0 0 0 0 0 0 0 0 0 0 0 0 0 0 0 0 0 0 0 0 0 0 0 0 0 0 0 0 0 0 0 0 0 0 0 0 0 0 0 0 0 1 13 144 108 32 35 124 62 7 1 0 0 0 0 0 0 1 20 255 255 174 115 134 215 255 66 3 0 0 0 0 0 0 0 0 0 0 0 0 0 0 0 0 0 0 0 0 0 0 1 23 255 255 161 114 133 231 255 45 4 0 0 0 0 0 0 0 3 45 255 255 147 113 149 247 255 35 1 0 0 0 0 0 0 0 0 0 0 2 49 255 229 141 113 159 255 255 41 3 0 0 0 0 0 0 1 5 63 255 214 124 120 181 255 184 8 0 0 0 0 9 215 255 186 121 120 200 255 120 9 1 0 0 0 0 0 0 0 0 0 0 0 0 0 0 0 0 0 0 0 0 0 0 0 0 0 0 0 0 0 3 44 255 255 152 113 145 234 255 44 2 0 0 0 8 191 255 189 123 124 211 255 142 10 1 0 0 0 0 0 0 2 28 255 254 160 114 139 222 255 81 253 255 181 120 124 209 255 77 6 1 0 0 0 0 0 0 4 52 255 255 147 113 149 248 255 31 1 0 0 0 0 0 0 0 0 0 0 0 10 214 255 178 120 130 223 255 76 6 1 0 0 0 0 0 0 0 0 0 0 0 0 2 23 255 255 175 116 134 215 255 79 4 0 0 0 0 0 0 0 5 106 255 199 127 117 187 255 135 10 1 0 0 0 0 0 0 2 30 255 255 174 88 69 82 159 255 255 46 3 0 0 0 0 0 0 1 10 136 255 192 117 122 187 255 154 7 0 0 0 0 0
0 0 0 0 0 0 0 0 0 0 1 16 255 255 145 97 114 208 247 253 216 11 1 0 0 0 0 0 0 0 0 0 0 0 0 0 0 0 0 0 0 0 1 13 244 247 248 214 117 96 139 244 255 31 1 0 0 0 0 0 0 0 0 0 0 0 1 14 255 255 153 100 111 205 243 230 255 17 1 0 0 0 0 0 3 38 255 204 30 40 179 25 3 0 0 0 0 0 0 0 0 0 0 0 0 0 0 0 0 0 2 22 207 75 24 105 241 58 4 0 0 0 0 0 0 0 0 0 0 0 2 24 179 33 18 65 85 9 1 0 0 0 0 0 0 0 0 0 0 0 0 0 0 0 0 0 1 14 255 246 243 197 76 47 85 204 239 243 255 16 1 0 0 0 0 0 3 52 255 252 237 146 96 121 209 255 46 2 0 0 0 0 0 0 0 0 0 0 0 0 0 0 0 0 0 0 0 0 0 0 0 0 0 0 0 0 0 0 0 0 0 0 0 0 0 0 0 0 0 0 0 0 4 81 255 184 112 95 155 236 251 255 64 3 0 0 0 0 0 1 12 226 255 246 214 119 92 100 96 94 148 238 253 255 178 9 1 0 0 0 0 0 0 0 0 0 0 0 0 0 0 0 0 0 0 0 0 0 0 0 0 0 0 0 0 0 0 0 0 0 0 0 0 0 0 0 0 0 3 49 255 255 72 73 250 219 16 1 0 0 0 0 0 0 6 120 255 255 225 127 95 130 227 255 34 1 0 0 0 0 0 0 0 0 0 0 0 0 0 0 0 0 0 0 0 0 0 10 211 255 160 102 103 186 244 238 253 15 1 0 0 0 0 0 1 17 255 249 252 211 112 98 148 255 255 16 1 0 0 0 0 0 0 0 0 1 25 255 245 137 95 116 221 254 253 255 15 1 0 0 0 0 0 1 23 255 239 242 162 97 112 188 255 84 4 0 0 5 97 255 189 113 94 151 233 245 255 47 3 0 0 0 0 0 0 0 0 0 0 0 0 0 0 0 0 0 0 0 0 0 0 0 0 0 0 0 0 1 16 255 243 243 207 112 95 139 248 255 21 1 0 4 89 255 195 116 98 160 239 248 255 57 3 0 0 0 0 0 0 8 153 255 251 220 121 95 133 249 255 255 184 110 96 158 234 233 255 29 2 0 0 0 0 0 1 21 255 239 244 202 108 98 150 255 255 14 1 0 0 0 0 0 0 0 0 0 4 92 255 183 111 100 170 238 243 255 31 2 0 0 0 0 0 0 0 0 0 0 0 0 7 133 255 251 222 127 94 128 221 255 40 2 0 0 0 0 0 2 52 255 205 120 94 139 231 246 255 54 3 0 0 0 0 0 1 10 196 255 243 210 91 47 81 204 235 232 255 16 1 0 0 0 0 0 3 52 255 249 238 147 93 114 195 255 71 3 0 0 0 0
0 0 0 0 0 0 0 0 0 0 6 121 255 142 78 64 111 160 149 163 255 86 4 0 0 0 0 0 0 0 0 0 0 0 0 0 0 0 0 0 0 0 5 89 255 162 150 164 118 65 74 132 255 255 13 1 0 0 0 0 0 0 0 0 0 0 6 118 255 153 82 65 110 165 148 155 255 113 6 0 0 0 0 1 11 190 213 255 123 133 210 75 5 0 0 0 0 0 0 0 0 0 0 0 0 0 0 0 0 0 5 79 233 255 97 255 190 255 19 1 0 0 0 0 0 0 0 0 0 0 5 71 214 88 29 155 205 21 2 0 0 0 0 0 0 0 0 0 0 0 0 0 0 0 0 0 5 101 255 159 143 151 79 38 92 151 141 158 255 118 6 0 0 0 0 1 22 255 208 164 161 146 75 69 115 227 255 21 1 0 0 0 0 0 0 0 0 0 0 0 0 0 0 0 0 0 0 0 0 0 0 0 0 0 0 0 0 0 0 0 0 0 0 0 0 0 0 0 0 0 0 2 36 255 187 97 63 78 155 162 162 201 255 27 1 0 0 0 0 5 95 255 167 150 163 116 55 43 44 68 149 164 150 166 255 68 4 0 0 0 0 0 0 0 0 0 0 0 0 0 0 0 0 0 0 0 0 0 0 0 0 0 0 0 0 0 0 0 0 0 0 0 0 0 0 0 0 1 17 255 210 246 255 255 227 255 77 5 0 0 0 0 0 3 54 255 183 159 162 128 68 71 124 251 255 15 1 0 0 0 0 0 0 0 0 0 0 0 0 0 0 0 0 0 0 0 4 85 255 159 85 63 97 166 155 164 255 102 5 0 0 0 0 0 6 130 255 166 154 169 113 64 79 147 255 150 7 0 0 0 0 0 0 0 0 11 232 255 135 74 64 118 166 152 167 255 115 6 0 0 0 0 0 8 164 255 164 157 156 83 66 101 196 255 41 2 2 46 255 191 100 64 77 150 158 162 213 255 18 1 0 0 0 0 0 0 0 0 0 0 0 0 0 0 0 0 0 0 0 0 0 0 0 0 0 0 0 6 112 255 159 145 161 112 62 74 136 255 177 8 2 44 255 196 103 67 81 154 157 158 206 255 24 1 0 0 0 0 3 63 255 170 155 167 125 65 74 136 255 201 101 64 80 152 154 160 246 207 10 1 0 0 0 0 8 158 255 160 148 163 106 63 80 149 255 125 6 0 0 0 0 0 0 0 0 2 44 255 188 98 65 86 156 154 165 248 216 11 1 0 0 0 0 0 0 0 0 0 0 3 55 255 175 154 160 127 67 70 120 237 255 19 1 0 0 0 1 26 255 220 111 67 72 141 160 160 210 255 25 1 0 0 0 0 4 77 255 165 143 148 101 42 91 151 139 153 255 110 6 0 0 0 0 1 22 255 207 162 163 152 75 65 104 201 255 34 2 0 0 0
0 0 0 0 0 0 0 0 0 3 51 255 155 70 39 41 86 89 77 93 172 255 40 2 0 0 0 0 0 0 0 0 0 0 0 0 0 0 0 0 0 2 38 255 163 91 77 90 92 43 37 63 135 255 97 5 0 0 0 0 0 0 0 0 0 2 50 255 162 75 41 42 88 93 77 88 153 255 46 2 0 0 0 4 69 255 147 179 255 255 170 255 28 1 0 0 0 0 0 0 0 0 0 0 0 0 0 0 0 2 32 255 175 255 255 235 157 255 106 6 0 0 0 0 0 0 0 0 0 1 26 255 156 255 169 255 229 65 4 0 0 0 0 0 0 0 0 0 0 0 0 0 0 0 0 2 45 255 163 89 72 83 75 38 87 82 72 88 160 255 51 3 0 0 0 8 149 255 122 86 87 100 56 37 56 121 255 178 8 0 0 0 0 0 0 0 0 0 0 0 0 0 0 0 0 0 0 0 0 0 0 0 0 0 0 0 0 0 0 0 0 0 0 0 0 0 0 0 0 0 1 14 255 223 99 47 34 60 103 87 85 115 245 189 9 0 0 0 2 45 255 175 95 78 89 87 33 18 20 47 101 87 76 94 176 255 29 1 0 0 0 0 0 0 0 0 0 0 0 0 0 0 0 0 0 0 0 0 0 0 0 0 0 0 0 0 0 0 0 0 0 0 0 0 0 0 0 6 104 255 138 154 255 255 163 168 255 31 2 0 0 0 1 24 255 201 106 82 88 95 48 37 61 134 255 121 6 0 0 0 0 0 0 0 0 0 0 0 0 0 0 0 0 0 0 2 39 255 174 80 41 38 80 99 82 95 165 255 48 2 0 0 0 3 55 255 158 92 79 94 91 42 39 72 159 255 65 3 0 0 0 0 0 0 5 94 255 145 66 37 43 92 90 78 93 162 255 49 2 0 0 0 3 71 255 150 92 84 100 65 37 49 102 222 255 18 21 255 213 98 48 35 59 101 85 86 123 255 130 6 0 0 0 0 0 0 0 0 0 0 0 0 0 0 0 0 0 0 0 0 0 0 0 0 0 0 2 48 255 156 89 75 90 88 41 37 67 149 255 78 26 255 220 101 49 36 62 100 83 83 119 255 168 9 0 0 0 1 29 255 187 100 80 92 97 45 38 62 99 83 48 36 62 99 83 89 140 255 79 4 0 0 0 3 67 255 152 89 77 92 85 40 40 74 164 255 56 3 0 0 0 0 0 0 1 18 255 214 98 48 37 66 96 82 90 139 255 79 4 0 0 0 0 0 0 0 0 0 1 23 255 192 100 79 87 94 46 35 58 127 255 163 8 0 0 0 10 219 255 118 54 35 53 100 87 86 124 255 191 9 0 0 0 2 34 255 175 92 72 80 95 48 93 83 71 86 156 255 48 2 0 0 0 8 151 255 123 86 88 105 59 35 50 106 235 255 14 1 0 0
0 0 0 0 0 0 0 0 1 21 255 193 81 33 18 24 50 41 35 47 95 220 255 17 1 0 0 0 0 0 0 0 0 0 0 0 0 0 0 0 1 15 255 213 90 46 35 42 54 26 17 28 66 157 255 41 2 0 0 0 0 0 0 0 1 20 255 194 83 35 19 25 54 44 35 44 84 195 255 17 1 0 1 31 255 168 94 110 220 220 153 237 196 10 0 0 0 0 0 0 0 0 0 0 0 0 0 0 1 12 239 230 133 164 231 139 106 146 255 43 2 0 0 0 0 0 0 0 0 8 156 240 146 255 255 210 155 255 22 1 0 0 0 0 0 0 0 0 0 0 0 0 0 0 1 19 255 207 89 44 33 40 60 40 67 40 33 43 86 197 255 22 1 0 3 61 255 140 64 41 41 52 35 19 26 59 146 255 75 4 0 0 0 0 0 0 0 0 0 0 0 0 0 0 0 0 0 0 0 0 0 0 0 0 0 0 0 0 0 0 0 0 0 0 0 0 0 0 0 0 6 116 255 121 47 21 18 38 53 41 39 59 131 255 71 4 0 1 18 255 212 95 48 36 41 49 18 8 9 27 51 39 34 47 98 236 204 10 0 0 0 0 0 0 0 0 0 0 0 0 0 0 0 0 0 0 0 0 0 0 0 0 0 0 0 0 0 0 0 0 0 0 0 0 0 0 2 43 255 147 80 83 130 136 96 106 228 239 12 1 0 0 9 191 255 110 53 38 41 53 29 18 28 66 154 255 51 3 0 0 0 0 0 0 0 0 0 0 0 0 0 0 0 0 1 15 255 218 92 37 19 22 52 48 39 49 92 209 255 22 1 0 1 24 255 192 84 45 36 45 55 25 19 34 81 187 255 30 1 0 0 0 0 2 43 255 170 72 31 18 26 54 42 35 46 87 197 255 20 1 0 2 34 255 184 82 46 40 50 41 20 23 48 118 255 173 190 255 114 46 22 18 38 52 40 41 65 148 255 56 3 0 0 0 0 0 0 0 0 0 0 0 0 0 0 0 0 0 0 0 0 0 0 0 0 1 21 255 199 85 44 34 42 53 24 18 31 76 183 255 255 255 119 48 22 19 39 49 38 39 61 135 255 65 3 0 1 11 214 245 105 51 37 43 56 28 18 24 33 29 20 19 39 50 40 44 75 168 255 35 2 0 1 32 255 184 80 43 35 43 53 24 19 35 85 195 255 24 1 0 0 0 0 0 7 134 255 115 46 22 20 41 47 38 43 73 163 255 34 2 0 0 0 0 0 0 0 0 8 171 255 106 50 36 41 52 28 17 26 62 150 255 71 3 0 4 84 255 138 57 25 18 34 53 41 41 64 139 255 73 4 0 1 12 237 225 96 46 33 40 71 60 79 42 33 43 86 201 255 21 1 0 3 60 255 140 64 41 42 55 39 18 23 50 126 255 104 5 0 0
0 0 0 0 0 0 0 0 7 148 255 108 39 15 8 12 23 17 15 22 48 122 255 136 7 0 0 0 0 0 0 0 0 0 0 0 0 0 0 0 6 108 255 120 45 21 15 18 24 13 8 12 31 85 209 255 16 1 0 0 0 0 0 0 7 143 255 107 40 15 9 13 25 18 15 20 42 110 255 118 6 1 12 253 241 100 54 58 95 102 104 142 255 80 4 0 0 0 0 0 0 0 0 0 0 0 0 0 5 98 255 134 83 80 94 69 61 88 204 255 18 1 0 0 0 0 0 0 3 61 255 141 111 146 194 130 119 251 120 7 0 0 0 0 0 0 0 0 0 0 0 0 0 0 7 140 255 116 45 20 14 19 41 40 43 19 14 20 42 109 255 173 8 2 29 255 187 76 31 18 17 22 17 9 11 28 76 182 255 35 2 0 0 0 0 0 0 0 0 0 0 0 0 0 0 0 0 0 0 0 0 0 0 0 0 0 0 0 0 0 0 0 0 0 0 0 0 0 0 3 54 255 160 62 22 9 9 19 22 17 17 28 70 172 255 31 2 7 134 255 115 46 22 15 17 21 9 3 4 12 20 16 14 22 50 129 255 80 4 0 0 0 0 0 0 0 0 0 0 0 0 0 0 0 0 0 0 0 0 0 0 0 0 0 0 0 0 0 0 0 0 0 0 0 0 1 17 255 204 84 42 39 51 55 48 60 130 255 90 5 0 4 77 255 140 56 25 16 17 23 15 8 12 31 81 196 255 21 1 0 0 0 0 0 0 0 0 0 0 0 0 0 0 0 6 115 255 120 45 17 8 11 26 21 17 23 46 116 255 173 8 1 10 205 255 107 42 20 15 19 26 13 8 15 38 102 245 234 11 1 0 0 1 18 255 214 91 34 13 8 13 24 17 15 21 43 110 255 161 8 1 13 255 238 101 41 21 17 21 20 10 10 22 60 161 255 255 154 57 21 9 9 19 22 17 18 32 81 195 255 25 1 0 0 0 0 0 0 0 0 0 0 0 0 0 0 0 0 0 0 0 0 0 0 0 8 174 255 113 43 20 14 18 25 12 8 14 37 104 255 255 162 61 22 10 9 19 20 16 17 29 72 178 255 29 2 4 82 255 131 53 24 16 18 25 14 8 8 10 9 7 9 20 21 17 20 37 93 228 255 15 1 12 239 243 102 40 20 15 18 25 12 8 15 40 106 255 167 8 0 0 0 0 3 57 255 150 58 21 10 10 20 19 16 19 36 91 227 255 13 1 0 0 0 0 0 0 4 72 255 141 54 24 15 17 23 14 8 12 29 78 187 255 34 3 38 255 170 70 26 11 8 17 23 17 18 31 73 173 255 31 2 5 88 255 123 48 21 14 19 48 83 59 22 14 20 43 114 255 188 9 2 26 255 183 75 31 18 18 23 20 9 10 23 64 158 255 45 2 0
0 0 0 0 0 0 0 3 60 255 146 57 19 6 3 5 8 6 6 10 23 64 158 255 58 3 0 0 0 0 0 0 0 0 0 0 0 0 0 2 47 255 160 65 23 9 6 7 9 5 3 5 14 43 120 255 111 6 0 0 0 0 0 3 61 255 150 57 19 7 4 5 9 7 6 9 21 59 152 255 51 8 105 255 137 56 29 27 36 43 60 85 183 255 38 2 0 0 0 0 0 0 0 0 0 0 0 2 47 255 175 77 46 35 35 30 32 49 121 255 132 7 0 0 0 0 0 1 27 255 188 88 72 70 80 69 81 145 255 49 2 0 0 0 0 0 0 0 0 0 0 0 0 3 58 255 150 60 22 9 6 9 24 36 24 9 6 8 20 57 149 255 76 15 231 255 108 39 15 7 6 8 7 4 5 13 38 102 239 255 14 1 0 0 0 0 0 0 0 0 0 0 0 0 0 0 0 0 0 0 0 0 0 0 0 0 0 0 0 0 0 0 0 0 0 0 0 0 1 25 255 210 89 31 10 4 4 7 8 6 7 13 36 99 242 242 15 59 255 154 60 22 9 6 6 7 3 1 2 4 7 6 5 10 25 71 177 255 38 2 0 0 0 0 0 0 0 0 0 0 0 0 0 0 0 0 0 0 0 0 0 0 0 0 0 0 0 0 0 0 0 0 0 0 0 6 128 255 119 45 21 16 18 20 22 32 73 170 255 39 4 35 255 182 76 27 11 6 6 8 6 3 5 14 41 112 255 151 8 0 0 0 0 0 0 0 0 0 0 0 0 0 0 2 51 255 159 64 22 7 4 5 10 8 7 10 23 60 148 255 70 8 85 255 146 56 20 9 6 7 9 5 4 6 18 52 136 255 97 5 0 0 7 139 255 121 45 16 6 3 5 9 6 6 9 21 58 152 255 72 9 104 255 132 52 20 9 7 7 8 4 4 10 31 91 208 204 87 29 9 4 4 7 8 6 7 15 42 111 255 186 9 0 0 0 0 0 0 0 0 0 0 0 0 0 0 0 0 0 0 0 0 0 0 4 73 255 152 60 21 9 6 7 9 5 3 6 18 54 126 158 82 30 10 4 4 7 7 6 7 14 37 103 252 251 14 39 255 174 71 26 11 6 7 9 6 3 3 3 3 3 4 7 7 6 8 18 49 131 255 129 11 99 255 133 52 19 8 6 7 9 5 4 7 19 54 141 255 65 3 0 0 1 24 255 197 83 29 10 4 4 7 7 6 8 17 48 130 255 112 5 0 0 0 0 0 2 34 255 188 78 27 11 6 6 8 5 3 5 13 39 105 243 255 32 255 229 95 35 12 5 4 7 8 7 7 14 36 99 239 228 14 41 255 167 66 24 9 6 10 37 130 49 12 6 9 21 60 153 255 82 14 191 255 106 39 15 7 7 8 8 4 4 11 31 88 212 255 19 1
0 0 0 0 0 0 1 26 255 197 84 30 9 3 1 2 2 2 2 4 11 33 89 203 255 25 1 0 0 0 0 0 0 0 0 0 0 0 1 21 255 216 92 34 11 4 2 2 3 2 1 2 7 22 67 163 255 49 2 0 0 0 1 28 255 201 87 30 9 3 1 2 3 2 2 4 10 32 89 211 255 97 255 180 77 30 15 11 13 18 31 49 108 240 255 16 1 0 0 0 0 0 0 0 0 0 1 20 255 225 102 43 23 14 12 12 15 27 69 161 255 57 3 0 0 0 0 10 206 255 114 53 42 31 31 34 51 93 207 255 21 1 0 0 0 0 0 0 0 0 0 0 1 27 255 201 85 31 10 4 2 4 12 25 12 4 2 4 10 30 84 197 255 237 255 145 59 20 7 3 2 2 2 1 2 6 19 54 137 255 108 5 0 0 0 0 0 0 0 0 0 0 0 0 0 0 0 0 0 0 0 0 0 0 0 0 0 0 0 0 0 0 0 0 0 0 0 0 10 198 255 121 47 16 5 2 1 2 2 2 3 6 18 54 141 255 210 255 206 89 32 10 4 2 2 2 1 1 1 1 2 2 2 4 12 38 105 238 255 15 1 0 0 0 0 0 0 0 0 0 0 0 0 0 0 0 0 0 0 0 0 0 0 0 0 0 0 0 0 0 0 0 0 0 3 58 255 163 67 24 10 6 6 7 9 16 39 99 227 255 32 255 242 106 40 13 5 2 2 2 2 1 2 6 21 62 154 255 64 3 0 0 0 0 0 0 0 0 0 0 0 0 1 23 255 213 92 33 10 3 1 2 3 3 2 4 11 31 83 192 255 105 255 188 82 29 10 4 2 2 3 2 1 3 8 27 76 182 255 48 2 3 64 255 163 66 23 7 2 1 2 3 2 2 4 10 31 87 201 255 123 255 173 72 26 9 4 2 2 2 1 2 5 15 45 85 84 43 14 4 2 1 2 2 2 3 7 21 60 149 255 79 4 0 0 0 0 0 0 0 0 0 0 0 0 0 0 0 0 0 0 0 0 2 34 255 194 85 31 10 4 2 2 3 2 1 3 8 25 50 59 36 14 4 2 1 2 2 2 3 6 19 57 146 255 164 255 237 103 37 13 5 2 2 3 2 1 1 1 1 1 1 2 2 2 3 8 26 73 174 255 195 255 179 74 27 9 3 2 2 3 2 1 3 9 28 81 189 255 28 1 0 9 203 255 115 44 14 4 2 1 2 2 2 3 8 25 74 176 255 52 3 0 0 0 1 13 255 248 109 42 14 5 2 2 2 2 1 2 6 19 55 138 255 255 255 135 51 17 5 2 1 2 2 2 3 6 18 53 137 255 158 255 234 99 35 11 4 3 7 43 171 58 9 3 4 10 31 85 195 255 235 255 146 58 20 7 3 2 3 2 1 2 5 15 47 125 255 166 8
0 0 0 0 0 0 10 199 255 118 47 15 4 1 1 1 1 1 1 2 5 17 48 120 255 211 10 0 0 0 0 0 0 0 0 0 0 0 8 160 255 129 52 18 5 2 1 1 1 1 0 1 3 11 37 97 218 255 22 1 0 0 11 228 255 119 48 16 4 1 1 1 1 1 1 2 5 17 51 129 255 255 251 106 43 16 7 4 5 7 15 27 60 140 255 147 7 0 0 0 0 0 0 0 0 0 8 167 255 131 56 23 11 5 4 4 7 14 38 94 209 255 26 1 0 0 4 83 255 150 66 31 22 13 12 16 31 57 126 255 159 8 0 0 0 0 0 0 0 0 0 0 11 245 255 121 47 16 5 2 1 2 5 12 5 2 1 1 5 16 47 119 255 255 207 85 32 10 3 1 1 1 1 0 1 3 9 29 77 174 255 47 2 0 0 0 0 0 0 0 0 0 0 0 0 0 0 0 0 0 0 0 0 0 0 0 0 0 0 0 0 0 0 0 0 0 0 4 77 255 153 67 25 8 2 1 0 1 1 1 1 3 9 30 84 204 255 255 126 49 16 5 2 1 1 1 0 0 0 0 1 1 1 2 6 20 58 137 255 125 6 0 0 0 0 0 0 0 0 0 0 0 0 0 0 0 0 0 0 0 0 0 0 0 0 0 0 0 0 0 0 0 0 1 29 255 214 96 38 12 4 2 2 2 3 7 21 55 134 255 255 255 141 58 21 6 2 1 1 1 1 0 1 3 10 34 90 203 255 30 1 0 0 0 0 0 0 0 0 0 0 0 9 173 255 127 51 17 5 1 1 1 1 1 1 2 5 16 45 117 255 255 255 112 45 15 4 1 1 1 1 1 1 1 4 13 42 107 233 255 26 33 255 211 95 36 11 3 1 0 1 1 1 1 1 5 16 48 120 255 255 255 104 40 13 4 1 1 1 1 1 1 2 7 19 31 31 19 7 2 1 0 1 1 1 1 3 10 33 86 196 255 40 2 0 0 0 0 0 0 0 0 0 0 0 0 0 0 0 0 0 0 1 14 255 250 113 46 16 5 1 1 1 1 1 1 1 4 10 18 20 14 6 2 1 0 1 1 1 1 3 10 31 85 199 255 255 142 58 20 6 2 1 1 1 1 0 0 0 0 0 0 1 1 1 1 4 13 40 103 246 255 255 109 41 13 4 1 1 1 1 1 1 1 4 14 45 114 255 219 11 5 84 255 157 65 23 7 2 1 0 1 1 1 1 4 13 41 102 220 255 23 1 0 0 5 110 255 143 60 22 7 2 1 1 1 1 0 1 3 9 30 82 204 255 193 80 28 8 2 1 0 1 1 1 1 3 9 29 81 202 255 255 143 57 19 5 2 1 8 69 146 101 11 2 2 5 16 46 116 255 255 220 88 32 10 3 1 1 1 1 1 1 2 7 25 71 167 255 86
0 0 0 0 0 4 79 255 152 67 26 8 2 1 0 0 0 0 0 1 2 8 26 68 157 255 92 4 0 0 0 0 0 0 0 0 0 3 67 255 163 74 29 9 2 1 0 0 0 0 0 0 1 6 20 55 131 255 182 9 1 5 96 255 153 67 26 8 2 1 0 0 0 0 0 1 2 9 29 78 174 247 140 61 23 8 3 2 2 3 6 14 34 80 177 255 68 3 0 0 0 0 0 0 0 4 71 255 165 73 31 12 5 2 1 1 3 7 21 53 125 255 242 11 1 2 39 255 190 88 38 17 10 5 4 7 17 34 74 163 255 69 3 0 0 0 0 0 0 0 0 5 104 255 157 69 26 8 2 1 0 1 2 4 2 1 0 1 2 8 26 69 145 195 113 49 17 5 1 0 0 0 0 0 0 1 4 15 43 102 220 255 20 1 0 0 0 0 0 0 0 0 0 0 0 0 0 0 0 0 0 0 0 0 0 0 0 0 0 0 0 0 0 0 0 0 2 35 255 189 87 36 13 4 1 0 0 0 0 0 0 1 4 16 49 113 203 159 74 28 8 2 1 0 0 0 0 0 0 0 0 0 0 1 3 10 32 78 177 255 59 3 0 0 0 0 0 0 0 0 0 0 0 0 0 0 0 0 0 0 0 0 0 0 0 0 0 0 0 0 0 0 1 13 255 255 127 54 20 6 2 1 1 1 1 3 10 31 82 198 255 203 85 32 10 3 1 0 0 0 0 0 0 1 5 18 51 121 255 253 12 1 0 0 0 0 0 0 0 0 0 4 70 255 159 71 28 9 2 1 0 0 0 0 0 1 2 8 25 69 157 241 149 65 24 7 2 1 0 0 0 0 0 0 2 7 22 59 136 255 255 255 255 124 53 19 6 1 0 0 0 0 0 0 1 2 8 26 69 153 230 140 61 22 6 2 1 0 0 0 0 0 1 3 7 10 10 7 3 1 0 0 0 0 0 0 1 5 17 48 116 247 255 18 1 0 0 0 0 0 0 0 0 0 0 0 0 0 0 0 0 0 6 129 255 146 63 25 8 2 1 0 0 0 0 0 0 1 3 6 6 5 2 1 0 0 0 0 0 0 1 5 17 48 113 218 185 85 33 10 3 1 0 0 0 0 0 0 0 0 0 0 0 0 0 1 2 6 22 59 129 205 138 64 23 7 2 1 0 0 0 0 0 1 2 7 24 65 150 255 95 47 255 193 91 36 12 3 1 0 0 0 0 0 1 2 6 22 56 128 255 180 9 1 2 52 255 180 81 33 11 3 1 0 0 0 0 0 0 1 4 16 47 101 144 96 45 15 4 1 0 0 0 0 0 0 1 4 16 48 117 219 177 84 32 10 3 1 1 15 165 120 220 25 2 1 2 8 25 67 144 198 120 52 18 5 1 0 0 0 0 0 0 1 4 13 40 97 213 255
0 0 0 0 2 38 255 200 93 39 14 4 1 0 0 0 0 0 0 0 1 4 14 40 95 204 255 47 2 0 0 0 0 0 0 0 1 32 255 211 99 43 16 4 1 0 0 0 0 0 0 0 1 3 10 32 78 170 255 76 6 49 255 199 92 39 14 4 1 0 0 0 0 0 0 0 1 4 16 45 83 106 72 35 12 4 1 1 1 1 2 7 18 46 106 219 255 33 1 0 0 0 0 0 2 34 255 211 100 42 16 5 2 1 0 1 1 3 11 31 74 167 255 106 6 17 255 251 118 52 21 8 4 2 2 3 8 19 45 100 214 255 34 1 0 0 0 0 0 0 2 52 255 198 94 40 14 4 1 0 0 0 1 1 1 0 0 0 1 4 14 37 66 81 56 27 9 2 1 0 0 0 0 0 0 1 2 7 23 59 137 255 160 8 0 0 0 0 0 0 0 0 0 0 0 0 0 0 0 0 0 0 0 0 0 0 0 0 0 0 0 0 0 0 0 1 15 255 255 118 50 19 6 2 0 0 0 0 0 0 0 1 2 9 27 58 85 73 41 15 4 1 0 0 0 0 0 0 0 0 0 0 0 0 1 5 17 46 109 227 255 28 1 0 0 0 0 0 0 0 0 0 0 0 0 0 0 0 0 0 0 0 0 0 0 0 0 0 0 0 0 0 6 116 255 164 75 31 10 3 1 0 0 0 0 1 5 18 50 104 151 106 51 18 5 1 0 0 0 0 0 0 0 1 2 9 29 71 158 255 113 5 0 0 0 0 0 0 0 0 1 33 255 206 96 41 15 4 1 0 0 0 0 0 0 0 1 4 14 39 77 103 74 37 13 4 1 0 0 0 0 0 0 0 1 3 12 34 80 181 255 255 165 73 30 10 3 1 0 0 0 0 0 0 0 1 4 14 39 73 98 69 34 12 3 1 0 0 0 0 0 0 0 1 2 3 3 2 1 0 0 0 0 0 0 0 1 2 9 28 68 150 255 165 8 0 0 0 0 0 0 0 0 0 0 0 0 0 0 0 0 3 65 255 190 87 36 13 4 1 0 0 0 0 0 0 0 0 1 2 2 1 1 0 0 0 0 0 0 0 1 2 9 27 60 94 84 48 18 5 1 0 0 0 0 0 0 0 0 0 0 0 0 0 0 0 1 3 11 32 62 85 65 35 12 3 1 0 0 0 0 0 0 0 1 3 13 38 92 202 255 255 255 118 53 20 6 1 0 0 0 0 0 0 0 1 3 11 32 75 166 255 79 5 26 255 234 111 47 18 5 1 0 0 0 0 0 0 0 1 2 8 24 46 57 44 23 8 2 0 0 0 0 0 0 0 1 2 8 28 61 94 81 47 18 5 1 1 3 48 255 158 225 83 6 1 1 4 13 36 66 82 59 29 9 2 1 0 0 0 0 0 0 0 2 7 22 57 134 255
0 0 0 1 19 255 255 137 62 24 7 2 0 0 0 0 0 0 0 0 0 2 7 25 64 136 255 255 23 1 0 0 0 0 0 1 15 255 255 143 66 26 8 2 1 0 0 0 0 0 0 0 0 1 5 19 52 113 223 255 79 255 255 134 62 24 7 2 0 0 0 0 0 0 0 0 0 2 8 25 39 45 35 19 6 2 0 0 0 0 1 3 10 29 69 145 255 255 14 1 0 0 0 1 14 255 255 142 66 27 8 2 1 0 0 0 0 1 5 18 50 111 217 255 72 165 255 166 79 34 12 4 1 1 1 1 4 11 29 68 145 255 255 15 1 0 0 0 0 1 27 255 255 131 62 25 7 2 0 0 0 0 0 0 0 0 0 0 0 2 7 19 29 33 27 14 4 1 0 0 0 0 0 0 0 0 1 4 13 39 93 190 255 72 3 0 0 0 0 0 0 0 0 0 0 0 0 0 0 0 0 0 0 0 0 0 0 0 0 0 0 0 0 0 0 7 140 255 172 80 32 11 3 1 0 0 0 0 0 0 0 0 1 4 14 28 35 32 21 8 2 0 0 0 0 0 0 0 0 0 0 0 0 0 1 2 9 30 72 150 255 244 11 1 0 0 0 0 0 0 0 0 0 0 0 0 0 0 0 0 0 0 0 0 0 0 0 0 0 0 0 3 57 255 210 107 49 19 5 1 0 0 0 0 0 1 2 10 30 54 67 54 30 10 3 1 0 0 0 0 0 0 0 0 1 5 17 47 106 214 255 61 3 0 0 0 0 0 0 1 13 255 255 141 64 25 8 2 0 0 0 0 0 0 0 0 0 2 7 21 36 43 35 20 6 2 0 0 0 0 0 0 0 0 0 1 6 20 54 119 212 207 112 49 18 5 1 0 0 0 0 0 0 0 0 0 2 7 20 34 41 33 18 6 1 0 0 0 0 0 0 0 0 0 1 1 1 1 0 0 0 0 0 0 0 0 0 1 4 16 44 99 197 255 79 4 0 0 0 0 0 0 0 0 0 0 0 0 0 0 1 35 255 247 127 58 22 7 2 0 0 0 0 0 0 0 0 0 0 0 0 0 0 0 0 0 0 0 0 0 0 1 4 14 30 40 38 25 9 2 1 0 0 0 0 0 0 0 0 0 0 0 0 0 0 0 0 1 5 16 29 35 30 18 6 2 0 0 0 0 0 0 0 0 0 2 7 24 63 142 255 255 178 81 34 11 3 1 0 0 0 0 0 0 0 0 1 5 19 50 113 226 255 62 255 255 156 74 30 10 3 1 0 0 0 0 0 0 0 0 1 4 11 19 22 19 11 3 1 0 0 0 0 0 0 0 0 1 4 15 31 40 36 24 9 2 1 1 16 255 213 226 192 255 34 2 1 2 6 18 29 34 28 15 5 1 0 0 0 0 0 0 0 0 1 3 12 38 86 143
0 0 0 9 194 255 192 109 54 16 4 1 0 0 0 0 0 0 0 0 0 1 4 17 53 106 182 255 236 10 0 0 0 0 0 7 162 255 197 112 57 18 4 1 0 0 0 0 0 0 0 0 0 1 3 12 42 92 164 255 255 255 183 105 52 16 4 1 0 0 0 0 0 0 0 0 0 1 4 12 18 19 17 9 3 1 0 0 0 0 0 1 5 20 57 110 195 255 135 6 0 0 0 6 142 255 191 110 55 18 4 1 0 0 0 0 0 1 3 11 40 90 156 255 255 255 220 126 68 25 7 2 1 0 0 0 2 5 21 59 112 193 255 144 7 0 0 0 1 12 255 255 180 102 51 16 4 1 0 0 0 0 0 0 0 0 0 0 0 1 3 8 12 13 11 6 2 0 0 0 0 0 0 0 0 0 0 2 8 30 79 142 246 255 37 2 0 0 0 0 0 0 0 0 0 0 0 0 0 0 0 0 0 0 0 0 0 0 0 0 0 0 0 0 3 66 255 220 130 69 24 6 1 0 0 0 0 0 0 0 0 0 0 2 6 12 15 14 9 3 1 0 0 0 0 0 0 0 0 0 0 0 0 0 0 1 5 21 60 114 198 255 110 5 0 0 0 0 0 0 0 0 0 0 0 0 0 0 0 0 0 0 0 0 0 0 0 0 0 0 1 31 255 255 151 86 39 11 3 1 0 0 0 0 0 0 1 5 17 28 31 28 17 5 1 0 0 0 0 0 0 0 0 0 1 2 10 38 88 156 255 255 35 1 0 0 0 0 0 6 128 255 191 110 55 17 4 1 0 0 0 0 0 0 0 0 0 1 3 10 17 18 16 9 3 1 0 0 0 0 0 0 0 0 0 1 3 13 44 87 113 113 85 40 11 3 1 0 0 0 0 0 0 0 0 0 1 3 9 15 17 15 8 3 1 0 0 0 0 0 0 0 0 0 0 0 0 0 0 0 0 0 0 0 0 0 0 1 2 9 34 80 143 250 255 45 2 0 0 0 0 0 0 0 0 0 0 0 0 1 16 255 255 173 100 48 14 3 1 0 0 0 0 0 0 0 0 0 0 0 0 0 0 0 0 0 0 0 0 0 0 0 2 6 14 17 16 12 4 1 0 0 0 0 0 0 0 0 0 0 0 0 0 0 0 0 0 1 2 7 12 14 13 8 3 1 0 0 0 0 0 0 0 0 0 1 4 16 56 113 170 186 129 71 24 6 1 0 0 0 0 0 0 0 0 0 1 3 11 40 92 166 255 255 255 209 119 62 21 5 1 0 0 0 0 0 0 0 0 0 0 2 4 7 8 7 4 1 0 0 0 0 0 0 0 0 0 0 2 7 14 17 16 11 4 1 1 6 116 255 213 237 219 255 255 14 1 1 3 8 12 14 12 6 2 1 0 0 0 0 0 0 0 0 0 2 7 28 62 77
0 0 4 93 255 226 150 118 67 13 2 0 0 0 0 0 0 0 0 0 0 0 2 13 63 113 144 220 255 110 5 0 0 0 4 83 255 235 153 118 73 14 3 1 0 0 0 0 0 0 0 0 0 0 2 8 45 109 143 213 255 230 151 114 63 12 2 0 0 0 0 0 0 0 0 0 0 0 2 5 7 8 7 3 1 0 0 0 0 0 0 1 3 16 69 115 151 231 255 67 3 0 3 74 255 234 150 115 67 14 3 1 0 0 0 0 0 0 1 8 43 105 136 202 255 255 172 124 88 22 4 1 0 0 0 0 1 3 17 76 118 151 231 255 70 3 0 0 6 136 255 215 143 111 61 12 2 0 0 0 0 0 0 0 0 0 0 0 0 0 1 3 4 5 4 2 1 0 0 0 0 0 0 0 0 0 0 1 5 29 98 130 181 255 255 19 1 0 0 0 0 0 0 0 0 0 0 0 0 0 0 0 0 0 0 0 0 0 0 0 0 0 0 1 34 255 255 164 123 90 21 4 1 0 0 0 0 0 0 0 0 0 0 1 2 5 5 5 3 1 0 0 0 0 0 0 0 0 0 0 0 0 0 0 0 1 3 17 73 117 154 240 255 59 3 0 0 0 0 0 0 0 0 0 0 0 0 0 0 0 0 0 0 0 0 0 0 0 0 1 16 255 255 190 131 101 40 8 1 0 0 0 0 0 0 0 1 2 8 14 15 14 8 2 1 0 0 0 0 0 0 0 0 0 0 1 7 40 106 133 190 255 255 19 1 0 0 0 3 68 255 235 151 116 69 13 2 0 0 0 0 0 0 0 0 0 0 0 1 4 6 7 6 4 1 0 0 0 0 0 0 0 0 0 0 0 2 9 46 81 72 73 84 41 7 1 0 0 0 0 0 0 0 0 0 0 0 1 4 6 6 6 3 1 0 0 0 0 0 0 0 0 0 0 0 0 0 0 0 0 0 0 0 0 0 0 0 0 1 6 33 98 128 181 255 255 24 1 0 0 0 0 0 0 0 0 0 0 0 8 173 255 205 139 110 56 11 2 0 0 0 0 0 0 0 0 0 0 0 0 0 0 0 0 0 0 0 0 0 0 0 0 1 2 5 6 6 5 2 0 0 0 0 0 0 0 0 0 0 0 0 0 0 0 0 0 0 0 1 3 4 5 5 3 1 0 0 0 0 0 0 0 0 0 0 0 2 13 72 113 107 109 110 96 22 4 1 0 0 0 0 0 0 0 0 0 0 1 8 45 109 142 212 255 255 164 120 78 18 3 1 0 0 0 0 0 0 0 0 0 0 1 1 2 3 2 1 1 0 0 0 0 0 0 0 0 0 0 1 3 5 6 6 4 2 1 3 57 255 236 213 213 221 217 255 123 6 1 1 3 4 5 4 2 1 0 0 0 0 0 0 0 0 0 0 1 4 21 55 49
0 2 51 255 252 166 149 191 181 18 2 0 0 0 0 0 0 0 0 0 0 0 2 16 153 187 148 164 245 255 58 3 0 2 45 255 255 171 148 187 206 21 2 0 0 0 0 0 0 0 0 0 0 0 1 9 92 209 161 148 165 149 153 192 160 16 2 0 0 0 0 0 0 0 0 0 0 0 1 1 2 3 2 1 0 0 0 0 0 0 0 0 2 20 179 185 146 170 255 255 38 3 41 255 255 173 149 185 169 19 2 0 0 0 0 0 0 0 1 9 82 201 160 151 176 166 152 180 217 32 3 1 0 0 0 0 0 3 24 208 188 148 170 255 255 38 2 3 70 255 241 161 148 193 156 15 2 0 0 0 0 0 0 0 0 0 0 0 0 0 0 1 1 1 1 1 0 0 0 0 0 0 0 0 0 0 0 1 5 47 208 166 152 207 255 201 9 0 0 0 0 0 0 0 0 0 0 0 0 0 0 0 0 0 0 0 0 0 0 0 0 0 1 16 255 255 186 147 170 212 33 3 0 0 0 0 0 0 0 0 0 0 0 0 1 1 2 2 1 0 0 0 0 0 0 0 0 0 0 0 0 0 0 0 0 0 3 22 175 183 148 176 255 255 34 1 0 0 0 0 0 0 0 0 0 0 0 0 0 0 0 0 0 0 0 0 0 0 0 8 168 255 214 152 158 204 73 8 1 0 0 0 0 0 0 0 0 1 3 5 6 5 3 1 0 0 0 0 0 0 0 0 0 0 0 1 8 76 208 157 151 211 255 221 9 0 0 2 38 255 255 174 151 186 192 19 2 0 0 0 0 0 0 0 0 0 0 0 0 1 2 2 2 1 0 0 0 0 0 0 0 0 0 0 0 0 1 9 81 122 67 69 135 65 7 1 0 0 0 0 0 0 0 0 0 0 0 0 1 2 2 2 1 0 0 0 0 0 0 0 0 0 0 0 0 0 0 0 0 0 0 0 0 0 0 0 0 0 1 6 54 210 162 149 202 255 255 12 0 0 0 0 0 0 0 0 0 0 4 84 255 232 156 148 189 130 13 2 0 0 0 0 0 0 0 0 0 0 0 0 0 0 0 0 0 0 0 0 0 0 0 0 0 1 2 2 2 1 1 0 0 0 0 0 0 0 0 0 0 0 0 0 0 0 0 0 0 0 0 1 1 2 1 1 0 0 0 0 0 0 0 0 0 0 0 0 2 20 190 166 93 84 139 233 35 4 0 0 0 0 0 0 0 0 0 0 0 1 10 103 202 158 151 176 159 150 183 199 25 3 0 0 0 0 0 0 0 0 0 0 0 0 0 1 1 1 0 0 0 0 0 0 0 0 0 0 0 0 0 1 2 2 2 1 1 1 31 255 255 189 198 191 199 181 236 255 60 3 0 1 1 2 1 1 0 0 0 0 0 0 0 0 0 0 0 0 3 17 66 42
1 27 255 255 171 140 188 255 255 73 5 0 0 0 0 0 0 0 0 0 0 0 4 60 255 255 196 140 167 255 255 33 2 23 255 255 174 140 184 255 255 88 5 0 0 0 0 0 0 0 0 0 0 0 2 34 255 255 209 121 98 112 190 255 255 66 4 0 0 0 0 0 0 0 0 0 0 0 0 0 1 1 1 0 0 0 0 0 0 0 0 0 5 81 255 255 184 141 180 255 255 45 255 255 177 142 188 255 255 75 5 0 0 0 0 0 0 0 2 30 255 255 221 132 104 108 162 255 255 140 8 1 0 0 0 0 0 6 101 255 255 188 141 177 255 255 22 38 255 254 164 141 199 255 255 61 4 0 0 0 0 0 0 0 0 0 0 0 0 0 0 0 0 0 0 0 0 0 0 0 0 0 0 0 0 0 0 1 14 237 255 236 157 150 217 255 91 4 0 0 0 0 0 0 0 0 0 0 0 0 0 0 0 0 0 0 0 0 0 0 0 0 7 166 255 198 143 168 251 255 145 9 1 0 0 0 0 0 0 0 0 0 0 0 0 0 0 0 0 0 0 0 0 0 0 0 0 0 0 0 0 0 0 0 0 0 5 82 255 255 182 143 185 255 255 16 1 0 0 0 0 0 0 0 0 0 0 0 0 0 0 0 0 0 0 0 0 0 4 80 255 222 151 149 230 255 255 26 2 0 0 0 0 0 0 0 0 0 1 2 2 2 1 0 0 0 0 0 0 0 0 0 0 0 0 2 27 255 255 222 147 149 219 255 108 5 1 18 255 255 181 143 189 255 255 81 5 0 0 0 0 0 0 0 0 0 0 0 0 0 1 1 1 0 0 0 0 0 0 0 0 0 0 0 0 0 2 27 255 255 140 145 255 255 20 1 0 0 0 0 0 0 0 0 0 0 0 0 0 1 1 1 0 0 0 0 0 0 0 0 0 0 0 0 0 0 0 0 0 0 0 0 0 0 0 0 0 0 1 17 255 255 239 153 146 212 255 127 6 0 0 0 0 0 0 0 0 2 44 255 245 160 142 204 255 255 52 3 0 0 0 0 0 0 0 0 0 0 0 0 0 0 0 0 0 0 0 0 0 0 0 0 0 0 0 1 1 0 0 0 0 0 0 0 0 0 0 0 0 0 0 0 0 0 0 0 0 0 0 0 0 0 0 0 0 0 0 0 0 0 0 0 0 0 0 0 5 76 255 255 143 116 240 255 151 9 1 0 0 0 0 0 0 0 0 0 0 2 42 255 255 208 126 102 109 169 255 255 100 6 0 0 0 0 0 0 0 0 0 0 0 0 0 0 0 0 0 0 0 0 0 0 0 0 0 0 0 0 0 0 0 1 1 0 1 14 255 255 186 156 171 170 169 158 168 255 255 30 1 0 0 0 0 0 0 0 0 0 0 0 0 0 0 0 0 0 2 20 140 57
13 255 255 162 112 127 190 210 219 255 32 2 0 0 0 0 0 0 0 0 0 1 26 255 228 217 199 130 111 159 255 255 29 232 255 164 112 123 189 210 214 255 38 2 0 0 0 0 0 0 0 0 0 1 12 240 255 215 190 112 67 99 186 213 228 255 30 1 0 0 0 0 0 0 0 0 0 0 0 0 0 0 0 0 0 0 0 0 0 0 0 2 37 255 225 215 191 126 116 174 255 255 255 169 114 124 191 215 228 255 36 2 0 0 0 0 0 1 11 231 255 222 200 126 69 81 161 203 215 255 59 3 0 0 0 0 2 44 255 217 210 192 125 115 173 255 255 255 255 152 109 133 200 217 227 255 25 1 0 0 0 0 0 0 0 0 0 0 0 0 0 0 0 0 0 0 0 0 0 0 0 0 0 0 0 0 0 5 97 255 220 204 159 111 131 214 255 44 2 0 0 0 0 0 0 0 0 0 0 0 0 0 0 0 0 0 0 0 0 0 0 4 82 255 200 124 116 177 208 217 255 64 3 0 0 0 0 0 0 0 0 0 0 0 0 0 0 0 0 0 0 0 0 0 0 0 0 0 0 0 0 0 0 0 0 2 38 255 225 214 188 122 117 176 255 157 7 0 0 0 0 0 0 0 0 0 0 0 0 0 0 0 0 0 0 0 0 2 41 255 222 133 109 151 209 225 255 188 9 0 0 0 0 0 0 0 0 0 0 0 1 0 0 0 0 0 0 0 0 0 0 0 0 0 0 9 188 255 220 204 150 107 131 216 255 57 10 159 255 170 115 124 190 212 219 255 36 2 0 0 0 0 0 0 0 0 0 0 0 0 0 0 0 0 0 0 0 0 0 0 0 0 0 0 0 0 9 181 255 255 255 255 255 255 120 6 0 0 0 0 0 0 0 0 0 0 0 0 0 0 0 0 0 0 0 0 0 0 0 0 0 0 0 0 0 0 0 0 0 0 0 0 0 0 0 0 0 0 6 112 255 222 208 159 110 128 206 255 61 3 0 0 0 0 0 0 1 22 255 254 147 109 139 205 221 239 255 23 1 0 0 0 0 0 0 0 0 0 0 0 0 0 0 0 0 0 0 0 0 0 0 0 0 0 0 0 0 0 0 0 0 0 0 0 0 0 0 0 0 0 0 0 0 0 0 0 0 0 0 0 0 0 0 0 0 0 0 0 0 0 0 0 0 0 0 2 32 255 215 220 246 239 224 209 255 62 3 0 0 0 0 0 0 0 0 0 1 18 255 255 218 193 117 67 87 170 207 218 255 46 2 0 0 0 0 0 0 0 0 0 0 0 0 0 0 0 0 0 0 0 0 0 0 0 0 0 0 0 0 0 0 0 0 0 6 133 255 178 120 121 131 134 130 126 114 155 255 255 13 1 0 0 0 0 0 0 0 0 0 0 0 0 0 0 0 0 4 55 255 219
142 255 160 88 71 104 132 123 141 248 243 12 1 0 0 0 0 0 0 0 0 10 214 255 148 128 134 107 72 86 155 255 255 255 167 89 69 100 132 123 137 234 255 16 1 0 0 0 0 0 0 0 0 5 90 255 160 126 122 96 54 87 126 124 146 255 225 11 1 0 0 0 0 0 0 0 0 0 0 0 0 0 0 0 0 0 0 0 0 0 1 17 255 243 144 126 134 102 72 96 185 255 184 95 71 99 132 127 146 249 255 15 1 0 0 0 0 5 90 255 167 131 127 106 52 64 118 121 136 208 255 27 1 0 0 1 17 255 224 138 123 132 102 72 94 180 255 255 156 83 71 110 134 126 145 255 197 9 0 0 0 0 0 0 0 0 0 0 0 0 0 0 0 0 0 0 0 0 0 0 0 0 0 0 0 0 2 45 255 188 137 128 124 80 74 118 230 255 20 1 0 0 0 0 0 0 0 0 0 0 0 0 0 0 0 0 0 0 0 0 2 44 255 207 109 73 90 133 128 139 211 255 32 1 0 0 0 0 0 0 0 0 0 0 0 0 0 0 0 0 0 0 0 0 0 0 0 0 0 0 0 0 0 0 1 15 255 241 146 127 132 97 71 94 175 255 72 3 0 0 0 0 0 0 0 0 0 0 0 0 0 0 0 0 0 0 1 19 255 240 123 74 76 122 132 133 170 255 75 4 0 0 0 0 0 0 0 0 0 0 0 0 0 0 0 0 0 0 0 0 0 0 0 0 4 73 255 166 131 131 123 76 73 117 224 255 145 255 168 91 70 98 131 124 140 240 255 15 1 0 0 0 0 0 0 0 0 0 0 0 0 0 0 0 0 0 0 0 0 0 0 0 0 0 0 4 74 255 179 177 233 229 175 184 255 52 3 0 0 0 0 0 0 0 0 0 0 0 0 0 0 0 0 0 0 0 0 0 0 0 0 0 0 0 0 0 0 0 0 0 0 0 0 0 0 0 0 2 50 255 181 135 130 127 81 72 112 215 255 31 1 0 0 0 0 0 9 209 255 142 80 73 117 137 130 153 255 199 9 0 0 0 0 0 0 0 0 0 0 0 0 0 0 0 0 0 0 0 0 0 0 0 0 0 0 0 0 0 0 0 0 0 0 0 0 0 0 0 0 0 0 0 0 0 0 0 0 0 0 0 0 0 0 0 0 0 0 0 0 0 0 0 0 0 1 12 235 244 143 142 206 226 152 139 204 255 29 1 0 0 0 0 0 0 0 0 7 141 255 158 127 125 99 50 72 123 122 140 228 255 21 1 0 0 0 0 0 0 0 0 0 0 0 0 0 0 0 0 0 0 0 0 0 0 0 0 0 0 0 0 0 0 0 3 58 255 178 96 71 82 87 90 88 87 72 85 153 255 114 5 0 0 0 0 0 0 0 0 0 0 0 0 0 0 0 1 20 255 222 255
255 184 83 45 43 72 74 65 79 140 255 92 5 0 0 0 0 0 0 0 4 90 255 151 83 67 74 73 44 44 82 185 255 208 91 46 41 69 74 64 77 135 255 120 6 0 0 0 0 0 0 0 2 39 255 172 90 66 67 71 47 70 70 64 80 142 255 84 4 0 0 0 0 0 0 0 0 0 0 0 0 0 0 0 0 0 0 0 0 0 7 151 255 139 80 66 75 70 43 49 83 119 84 48 42 67 73 66 81 141 255 138 6 0 0 0 2 40 255 178 94 69 68 73 41 49 69 64 74 121 255 230 11 0 0 6 127 255 128 76 64 74 69 43 49 93 179 161 82 44 45 75 74 65 81 150 255 82 4 0 0 0 0 0 0 0 0 0 0 0 0 0 0 0 0 0 0 0 0 0 0 0 0 0 0 1 21 255 222 108 74 69 76 52 40 60 128 255 151 7 0 0 0 0 0 0 0 0 0 0 0 0 0 0 0 0 0 0 0 1 21 255 235 111 55 41 61 78 69 77 122 253 255 13 1 0 0 0 0 0 0 0 0 0 0 0 0 0 0 0 0 0 0 0 0 0 0 0 0 0 0 0 0 0 6 114 255 137 81 67 74 65 41 47 92 198 255 37 2 0 0 0 0 0 0 0 0 0 0 0 0 0 0 0 0 0 7 157 255 132 62 39 50 78 71 70 96 185 255 33 2 0 0 0 0 0 0 0 0 0 0 0 0 0 0 0 0 0 0 0 0 0 0 2 33 255 183 94 69 72 80 51 39 59 125 255 255 216 91 46 41 66 72 64 78 137 255 114 6 0 0 0 0 0 0 0 0 0 0 0 0 0 0 0 0 0 0 0 0 0 0 0 0 0 2 34 255 189 106 96 115 115 97 111 208 255 23 1 0 0 0 0 0 0 0 0 0 0 0 0 0 0 0 0 0 0 0 0 0 0 0 0 0 0 0 0 0 0 0 0 0 0 0 0 0 0 1 23 255 212 105 72 70 79 54 39 56 118 255 255 14 1 0 0 0 4 85 255 156 73 42 46 79 75 68 86 157 255 81 4 0 0 0 0 0 0 0 0 0 0 0 0 0 0 0 0 0 0 0 0 0 0 0 0 0 0 0 0 0 0 0 0 0 0 0 0 0 0 0 0 0 0 0 0 0 0 0 0 0 0 0 0 0 0 0 0 0 0 0 0 0 0 0 0 5 94 255 139 83 82 118 128 90 81 121 255 219 11 0 0 0 0 0 0 0 3 58 255 161 86 66 68 71 40 57 71 64 78 132 255 161 8 0 0 0 0 0 0 0 0 0 0 0 0 0 0 0 0 0 0 0 0 0 0 0 0 0 0 0 0 0 0 1 25 255 200 94 48 39 48 51 53 52 51 41 44 80 175 255 56 3 0 0 0 0 0 0 0 0 0 0 0 0 0 0 7 126 255 168 194
229 104 42 22 24 43 37 32 41 78 174 255 41 2 0 0 0 0 0 2 44 255 186 84 44 33 37 43 25 22 41 88 137 96 46 23 23 41 37 31 40 74 163 255 51 3 0 0 0 0 0 1 15 255 226 99 48 32 34 47 41 51 36 31 42 78 176 255 38 2 0 0 0 0 0 0 0 0 0 0 0 0 0 0 0 0 0 0 0 3 70 255 169 76 41 32 37 41 24 23 33 42 33 22 23 39 36 32 42 77 172 255 65 3 0 1 16 255 227 101 49 34 34 43 32 34 35 31 38 66 149 255 101 5 3 56 255 160 70 39 31 37 40 24 24 42 69 64 38 22 26 44 36 32 43 84 188 255 39 2 0 0 0 0 0 0 0 0 0 0 0 0 0 0 0 0 0 0 0 0 0 0 0 0 0 8 180 255 129 58 37 34 40 30 20 29 67 156 255 62 3 0 0 0 0 0 0 0 0 0 0 0 0 0 0 0 0 0 0 9 194 255 133 56 27 22 36 40 34 40 65 142 255 106 5 0 0 0 0 0 0 0 0 0 0 0 0 0 0 0 0 0 0 0 0 0 0 0 0 0 0 0 0 2 49 255 165 75 42 33 37 38 22 23 47 112 248 255 16 1 0 0 0 0 0 0 0 0 0 0 0 0 0 0 0 3 66 255 161 69 30 20 30 42 35 34 51 106 241 242 12 1 0 0 0 0 0 0 0 0 0 0 0 0 0 0 0 0 0 0 0 0 1 13 255 245 106 50 34 36 44 31 20 29 67 153 214 117 48 23 22 37 35 31 41 75 168 255 51 2 0 0 0 0 0 0 0 0 0 0 0 0 0 0 0 0 0 0 0 0 0 0 0 1 14 255 245 110 58 47 50 50 48 61 122 255 200 9 0 0 0 0 0 0 0 0 0 0 0 0 0 0 0 0 0 0 0 0 0 0 0 0 0 0 0 0 0 0 0 0 0 0 0 0 0 0 9 181 255 124 56 36 35 42 33 20 27 61 145 255 121 6 0 0 2 38 255 185 83 36 21 27 45 38 33 45 87 187 255 37 2 0 0 0 0 0 0 0 0 0 0 0 0 0 0 0 0 0 0 0 0 0 0 0 0 0 0 0 0 0 0 0 0 0 0 0 0 0 0 0 0 0 0 0 0 0 0 0 0 0 0 0 0 0 0 0 0 0 0 0 0 0 0 2 45 255 178 79 45 44 57 61 48 45 66 143 255 87 4 0 0 0 0 0 1 26 255 199 89 45 32 34 45 32 41 37 32 40 71 155 255 66 3 0 0 0 0 0 0 0 0 0 0 0 0 0 0 0 0 0 0 0 0 0 0 0 0 0 0 0 0 0 9 195 255 114 48 23 19 24 26 27 28 27 21 22 41 97 218 255 28 1 0 0 0 0 0 0 0 0 0 0 0 0 3 54 255 162 106 93
100 54 22 11 13 22 17 15 21 44 106 236 255 17 1 0 0 0 1 20 255 241 112 47 23 15 17 21 13 11 19 37 52 40 21 11 12 21 17 14 20 41 98 219 255 23 1 0 0 0 0 6 127 255 138 57 25 15 17 29 36 35 19 15 21 44 108 245 255 16 1 0 0 0 0 0 0 0 0 0 0 0 0 0 0 0 0 0 2 36 255 215 99 42 21 15 17 20 12 9 12 14 12 9 12 19 16 15 21 42 101 219 255 33 2 7 135 255 139 57 26 16 16 23 22 21 17 14 19 36 87 196 255 53 30 255 218 97 39 19 14 17 20 12 11 17 24 23 16 10 13 22 17 15 22 47 114 247 255 16 1 0 0 0 0 0 0 0 0 0 0 0 0 0 0 0 0 0 0 0 0 0 0 0 4 78 255 168 74 32 18 16 18 15 10 14 36 92 206 255 28 1 0 0 0 0 0 0 0 0 0 0 0 0 0 0 0 0 4 81 255 169 74 29 13 11 18 19 16 19 35 82 181 255 47 2 0 0 0 0 0 0 0 0 0 0 0 0 0 0 0 0 0 0 0 0 0 0 0 0 0 0 1 21 255 221 100 41 21 15 17 18 11 11 24 62 147 255 136 7 0 0 0 0 0 0 0 0 0 0 0 0 0 0 1 30 255 206 94 37 15 10 15 19 16 16 27 60 144 255 102 5 0 0 0 0 0 0 0 0 0 0 0 0 0 0 0 0 0 0 0 0 6 120 255 150 62 27 16 16 21 16 10 14 34 68 87 56 24 11 11 18 16 14 20 42 101 224 255 23 1 0 0 0 0 0 0 0 0 0 0 0 0 0 0 0 0 0 0 0 0 0 0 6 132 255 149 63 31 22 20 21 23 34 71 164 255 90 4 0 0 0 0 0 0 0 0 0 0 0 0 0 0 0 0 0 0 0 0 0 0 0 0 0 0 0 0 0 0 0 0 0 0 0 0 4 75 255 161 71 31 17 16 20 17 10 13 32 82 184 255 57 3 1 15 255 243 110 44 18 10 14 22 17 15 23 48 112 247 255 16 1 0 0 0 0 0 0 0 0 0 0 0 0 0 0 0 0 0 0 0 0 0 0 0 0 0 0 0 0 0 0 0 0 0 0 0 0 0 0 0 0 0 0 0 0 0 0 0 0 0 0 0 0 0 0 0 0 0 0 0 0 1 21 255 238 109 45 24 21 25 26 23 24 37 85 191 255 42 2 0 0 0 0 10 221 255 123 50 23 15 16 25 24 27 18 15 20 39 91 205 255 32 1 0 0 0 0 0 0 0 0 0 0 0 0 0 0 0 0 0 0 0 0 0 0 0 0 0 0 0 4 86 255 156 64 24 11 8 10 12 12 13 12 9 10 21 54 131 255 255 12 1 0 0 0 0 0 0 0 0 0 0 1 25 255 218 104 63 44
41 26 10 5 5 9 7 6 10 26 67 150 255 136 7 0 0 0 8 179 255 152 69 28 11 7 7 8 6 5 8 14 18 15 9 5 5 8 7 6 10 24 62 143 255 203 9 0 0 0 3 64 255 194 90 35 13 7 8 16 28 22 9 6 10 26 69 157 255 155 7 0 0 0 0 0 0 0 0 0 0 0 0 0 0 0 0 1 16 255 255 135 61 24 10 6 7 8 5 4 4 4 4 4 5 7 6 6 10 24 62 138 255 255 19 65 255 188 89 35 13 7 7 10 12 10 7 6 9 21 54 124 249 255 255 255 141 62 23 9 6 7 8 5 4 6 8 8 6 4 6 9 7 6 11 28 71 155 255 149 7 0 0 0 0 0 0 0 0 0 0 0 0 0 0 0 0 0 0 0 0 0 0 2 39 255 216 106 45 17 8 6 7 6 4 7 20 57 134 255 252 12 1 0 0 0 0 0 0 0 0 0 0 0 0 0 0 2 39 255 211 104 44 15 6 5 7 7 7 9 19 50 116 238 255 20 1 0 0 0 0 0 0 0 0 0 0 0 0 0 0 0 0 0 0 0 0 0 0 0 0 0 9 184 255 143 63 24 10 6 7 7 5 5 12 36 90 190 255 62 3 0 0 0 0 0 0 0 0 0 0 0 0 1 12 255 255 132 57 20 7 4 6 8 6 7 14 37 94 201 255 53 2 0 0 0 0 0 0 0 0 0 0 0 0 0 0 0 0 0 0 3 58 255 198 96 38 14 7 7 9 7 4 6 15 28 34 25 11 5 5 7 6 6 10 24 64 144 255 204 9 0 0 0 0 0 0 0 0 0 0 0 0 0 0 0 0 0 0 0 0 0 3 64 255 196 94 39 17 9 8 8 10 19 45 105 215 255 47 2 0 0 0 0 0 0 0 0 0 0 0 0 0 0 0 0 0 0 0 0 0 0 0 0 0 0 0 0 0 0 0 0 0 0 2 37 255 213 102 43 17 8 7 8 7 4 6 17 49 116 237 255 30 8 133 255 153 68 25 9 5 6 9 7 7 11 28 70 157 255 142 7 0 0 0 0 0 0 0 0 0 0 0 0 0 0 0 0 0 0 0 0 0 0 0 0 0 0 0 0 0 0 0 0 0 0 0 0 0 0 0 0 0 0 0 0 0 0 0 0 0 0 0 0 0 0 0 0 0 0 0 0 9 187 255 151 69 27 13 10 10 10 10 12 21 53 124 254 255 19 1 0 0 5 92 255 172 78 30 11 6 7 12 14 15 8 6 10 22 57 133 255 255 14 1 0 0 0 0 0 0 0 0 0 0 0 0 0 0 0 0 0 0 0 0 0 0 0 0 0 2 45 255 214 101 39 13 5 3 4 4 5 5 4 3 4 10 31 80 171 255 118 5 0 0 0 0 0 0 0 0 0 0 10 219 255 144 70 39 22
16 11 5 2 2 3 2 2 5 16 47 101 195 255 63 3 0 4 80 255 192 100 47 17 5 3 2 3 2 2 3 5 6 5 3 2 2 3 2 2 5 14 44 97 186 255 87 4 0 1 35 255 243 129 64 23 7 3 3 8 17 12 4 3 5 16 49 106 201 255 73 3 0 0 0 0 0 0 0 0 0 0 0 0 0 0 0 7 136 255 171 89 41 14 5 2 2 3 2 1 1 1 1 1 2 2 2 2 5 14 42 91 176 255 255 255 238 125 62 23 7 3 3 4 5 4 3 2 4 12 37 83 164 255 255 195 97 44 14 4 2 2 2 2 2 2 2 2 2 2 2 3 2 3 5 17 49 103 199 255 74 3 0 0 0 0 0 0 0 0 0 0 0 0 0 0 0 0 0 0 0 0 1 17 255 255 142 72 30 9 4 2 2 2 2 3 11 39 91 179 255 106 5 0 0 0 0 0 0 0 0 0 0 0 0 0 1 17 255 255 138 69 28 8 3 2 2 2 2 4 11 33 79 156 255 187 8 0 0 0 0 0 0 0 0 0 0 0 0 0 0 0 0 0 0 0 0 0 0 0 0 4 82 255 189 97 44 14 5 2 2 2 2 2 6 23 61 125 234 255 30 1 0 0 0 0 0 0 0 0 0 0 0 6 118 255 175 89 39 12 3 2 2 2 2 3 7 24 66 135 255 255 29 1 0 0 0 0 0 0 0 0 0 0 0 0 0 0 0 0 1 29 255 243 129 66 26 8 3 2 3 2 2 3 6 11 12 10 5 2 2 2 2 2 5 14 44 97 186 255 94 4 0 0 0 0 0 0 0 0 0 0 0 0 0 0 0 0 0 0 0 1 33 255 239 128 65 26 9 4 3 3 4 10 30 72 140 255 255 22 1 0 0 0 0 0 0 0 0 0 0 0 0 0 0 0 0 0 0 0 0 0 0 0 0 0 0 0 0 0 0 0 0 1 16 255 255 142 70 28 9 3 2 3 2 2 3 9 32 77 154 255 255 104 255 201 103 46 15 4 2 2 3 3 3 5 17 49 105 201 255 70 3 0 0 0 0 0 0 0 0 0 0 0 0 0 0 0 0 0 0 0 0 0 0 0 0 0 0 0 0 0 0 0 0 0 0 0 0 0 0 0 0 0 0 0 0 0 0 0 0 0 0 0 0 0 0 0 0 0 0 4 82 255 191 100 48 17 6 4 4 4 4 5 12 37 85 164 255 173 8 0 2 45 255 214 115 55 19 6 3 3 5 6 6 3 3 4 13 40 90 175 255 119 6 0 0 0 0 0 0 0 0 0 0 0 0 0 0 0 0 0 0 0 0 0 0 0 0 1 22 255 255 141 70 26 7 2 1 1 1 1 1 1 1 2 5 19 54 111 213 255 60 3 0 0 0 0 0 0 0 0 5 98 255 184 99 53 26 11
5 4 2 1 1 1 1 1 2 10 36 75 130 235 255 31 3 40 255 225 125 72 36 10 3 1 1 1 1 1 1 2 2 2 1 1 1 1 1 1 2 8 34 72 122 218 255 43 3 18 255 255 156 90 51 16 4 1 1 3 7 5 2 1 2 10 38 77 130 231 255 36 2 0 0 0 0 0 0 0 0 0 0 0 0 0 3 63 255 199 111 65 30 8 2 1 1 1 1 0 0 0 0 0 0 1 1 1 2 8 31 66 116 220 255 255 159 88 48 15 4 1 1 1 1 1 1 1 2 7 27 63 110 182 197 125 74 34 8 2 1 1 1 1 0 1 1 1 1 0 1 1 1 1 3 10 37 75 130 237 255 40 2 0 0 0 0 0 0 0 0 0 0 0 0 0 0 0 0 0 0 0 7 145 255 168 95 54 20 5 2 1 1 1 1 2 7 29 68 118 210 255 51 2 0 0 0 0 0 0 0 0 0 0 0 0 7 149 255 169 93 51 18 4 1 1 1 1 1 2 6 24 60 106 194 255 89 4 0 0 0 0 0 0 0 0 0 0 0 0 0 0 0 0 0 0 0 0 0 0 2 41 255 223 125 73 34 9 2 1 1 1 1 1 3 14 46 85 152 255 255 13 1 0 0 0 0 0 0 0 0 0 3 58 255 211 116 66 28 7 2 1 1 1 1 1 4 17 53 93 163 255 255 14 1 0 0 0 0 0 0 0 0 0 0 0 0 0 0 1 12 255 255 156 89 51 17 4 1 1 1 1 1 1 2 4 4 3 2 1 1 1 1 1 2 9 34 71 122 222 255 49 2 0 0 0 0 0 0 0 0 0 0 0 0 0 0 0 0 0 1 15 255 255 153 88 50 18 5 2 1 1 2 6 21 55 94 164 255 207 9 0 0 0 0 0 0 0 0 0 0 0 0 0 0 0 0 0 0 0 0 0 0 0 0 0 0 0 0 0 0 0 0 7 148 255 171 96 55 19 5 1 1 1 1 1 1 5 22 58 103 188 255 255 255 134 75 35 9 2 1 1 1 1 1 3 10 38 76 131 238 255 37 2 0 0 0 0 0 0 0 0 0 0 0 0 0 0 0 0 0 0 0 0 0 0 0 0 0 0 0 0 0 0 0 0 0 0 0 0 0 0 0 0 0 0 0 0 0 0 0 0 0 0 0 0 0 0 0 0 2 41 255 222 124 73 37 10 3 1 1 1 1 2 7 27 64 109 196 255 77 5 22 255 255 139 81 43 12 3 1 1 1 2 2 1 1 2 7 30 67 115 204 255 55 3 0 0 0 0 0 0 0 0 0 0 0 0 0 0 0 0 0 0 0 0 0 0 0 9 199 255 166 95 55 18 4 1 0 0 0 0 0 0 0 1 3 12 40 78 137 246 255 31 1 0 0 0 0 0 0 2 50 255 218 121 75 46 17 6
2 1 1 0 0 0 0 0 1 6 29 62 89 151 255 255 35 255 255 143 85 59 28 6 1 0 0 0 0 0 0 0 1 0 0 0 0 0 0 0 1 5 27 59 85 140 255 255 31 180 255 177 101 69 45 11 2 1 1 1 2 1 1 0 1 7 31 62 88 146 255 255 15 1 0 0 0 0 0 0 0 0 0 0 0 1 32 255 235 128 78 53 22 5 1 0 0 0 0 0 0 0 0 0 0 0 0 0 1 5 23 55 82 134 209 175 107 69 41 10 2 1 0 0 0 0 0 0 1 4 19 53 74 90 94 79 62 27 5 1 0 0 0 0 0 0 0 0 0 0 0 0 0 0 1 6 30 61 89 150 255 255 19 1 0 0 0 0 0 0 0 0 0 0 0 0 0 0 0 0 0 3 64 255 194 109 70 46 14 3 1 0 0 0 0 1 4 22 57 83 135 248 255 26 1 0 0 0 0 0 0 0 0 0 0 3 65 255 195 110 69 42 12 2 1 0 0 0 0 1 3 17 51 78 126 226 255 47 2 0 0 0 0 0 0 0 0 0 0 0 0 0 0 0 0 0 0 0 0 1 20 255 255 143 86 61 27 5 1 0 0 0 0 0 2 9 38 65 100 178 255 127 6 0 0 0 0 0 0 0 0 1 28 255 242 135 82 56 21 4 1 0 0 0 0 1 2 12 46 71 105 184 255 137 6 0 0 0 0 0 0 0 0 0 0 0 0 0 0 5 114 255 178 102 68 42 11 2 1 0 0 0 0 0 1 1 1 1 1 0 0 0 0 0 1 5 26 59 85 142 255 255 23 1 0 0 0 0 0 0 0 0 0 0 0 0 0 0 0 0 6 134 255 176 100 67 42 12 2 1 0 0 1 3 14 47 69 105 189 255 94 4 0 0 0 0 0 0 0 0 0 0 0 0 0 0 0 0 0 0 0 0 0 0 0 0 0 0 0 0 0 0 3 69 255 199 111 72 48 13 3 1 0 0 0 0 1 3 15 49 75 123 218 255 161 94 62 29 6 1 0 0 0 0 0 1 7 31 61 89 151 255 255 16 1 0 0 0 0 0 0 0 0 0 0 0 0 0 0 0 0 0 0 0 0 0 0 0 0 0 0 0 0 0 0 0 0 0 0 0 0 0 0 0 0 0 0 0 0 0 0 0 0 0 0 0 0 0 0 1 19 255 255 142 85 59 29 6 1 1 0 0 0 1 4 21 54 78 125 224 255 54 204 255 164 93 64 35 8 2 0 0 0 1 1 0 0 1 5 23 56 81 131 239 255 26 1 0 0 0 0 0 0 0 0 0 0 0 0 0 0 0 0 0 0 0 0 0 4 84 255 188 106 70 46 12 2 0 0 0 0 0 0 0 0 0 1 7 32 61 90 154 255 255 13 1 0 0 0 0 1 24 255 253 140 85 66 45 12 3
0 0 0 0 0 0 0 0 1 4 24 60 70 100 179 255 255 255 167 94 66 56 23 4 1 0 0 0 0 0 0 0 0 0 0 0 0 0 0 0 1 4 22 56 67 93 166 255 255 255 200 112 73 62 43 8 1 0 0 0 1 0 0 0 1 5 25 58 67 96 170 255 132 6 0 0 0 0 0 0 0 0 0 0 1 15 255 255 152 87 62 50 16 3 1 0 0 0 0 0 0 0 0 0 0 0 0 0 1 3 17 54 65 80 98 90 75 65 38 7 1 0 0 0 0 0 0 0 0 3 14 52 54 46 46 52 60 21 4 1 0 0 0 0 0 0 0 0 0 0 0 0 0 0 1 4 25 59 68 97 169 255 163 8 0 0 0 0 0 0 0 0 0 0 0 0 0 0 0 0 1 31 255 230 126 77 60 45 10 2 0 0 0 0 0 1 3 17 55 66 91 160 255 253 11 0 0 0 0 0 0 0 0 0 1 31 255 228 126 78 60 39 8 1 0 0 0 0 0 0 2 12 51 66 86 143 255 255 23 1 0 0 0 0 0 0 0 0 0 0 0 0 0 0 0 0 0 0 0 9 220 255 169 95 68 59 21 4 1 0 0 0 0 0 1 7 35 58 73 115 208 255 63 3 0 0 0 0 0 0 1 13 255 255 154 90 66 55 15 3 0 0 0 0 0 0 1 9 46 62 75 116 205 255 65 3 0 0 0 0 0 0 0 0 0 0 0 0 3 56 255 210 115 73 61 38 8 1 0 0 0 0 0 0 0 0 0 0 0 0 0 0 0 0 1 4 21 57 67 93 160 255 221 10 0 0 0 0 0 0 0 0 0 0 0 0 0 0 0 3 62 255 201 112 72 59 38 8 1 0 0 0 0 2 10 45 60 75 121 221 255 49 2 0 0 0 0 0 0 0 0 0 0 0 0 0 0 0 0 0 0 0 0 0 0 0 0 0 0 0 0 2 36 255 233 128 79 62 50 10 2 0 0 0 0 0 0 2 11 48 63 82 112 126 96 72 60 24 4 1 0 0 0 0 0 1 5 26 57 68 97 170 255 155 7 0 0 0 0 0 0 0 0 0 0 0 0 0 0 0 0 0 0 0 0 0 0 0 0 0 0 0 0 0 0 0 0 0 0 0 0 0 0 0 0 0 0 0 0 0 0 0 0 0 0 0 0 0 0 8 180 255 168 94 66 57 22 4 1 0 0 0 0 1 3 15 53 65 85 145 255 255 255 191 107 71 58 30 6 1 0 0 0 0 0 0 0 1 3 17 53 65 89 155 255 230 11 0 0 0 0 0 0 0 0 0 0 0 0 0 0 0 0 0 0 0 0 2 41 255 218 120 75 60 43 9 1 0 0 0 0 0 0 0 0 0 1 5 27 56 67 99 178 255 120 6 0 0 0 0 10 222 255 160 93 70 73 55 9 2
0 0 0 0 0 0 0 0 0 3 21 75 67 75 121 228 255 218 114 71 63 68 19 3 0 0 0 0 0 0 0 0 0 0 0 0 0 0 0 0 0 3 18 66 65 72 113 212 255 255 132 78 63 70 47 7 1 0 0 0 0 0 0 0 1 3 21 67 63 71 111 202 255 64 3 0 0 0 0 0 0 0 0 0 7 136 255 179 101 68 62 59 12 2 0 0 0 0 0 0 0 0 0 0 0 0 0 0 0 2 14 68 62 50 46 47 58 76 39 6 1 0 0 0 0 0 0 0 0 2 11 60 44 25 24 39 68 17 3 0 0 0 0 0 0 0 0 0 0 0 0 0 0 0 1 3 22 73 64 71 109 194 255 72 4 0 0 0 0 0 0 0 0 0 0 0 0 0 0 1 13 255 255 150 87 64 65 55 8 1 0 0 0 0 0 0 2 14 65 65 70 105 185 255 106 5 0 0 0 0 0 0 0 1 13 255 255 149 86 64 65 42 7 1 0 0 0 0 0 0 2 11 66 70 68 95 164 255 234 10 0 0 0 0 0 0 0 0 0 0 0 0 0 0 0 0 0 0 5 98 255 197 110 72 66 72 18 3 0 0 0 0 0 0 1 5 34 64 64 81 134 242 255 33 1 0 0 0 0 0 6 135 255 184 101 68 65 68 13 2 0 0 0 0 0 0 1 8 53 70 63 79 130 238 255 34 1 0 0 0 0 0 0 0 0 0 0 1 27 255 244 136 81 63 70 38 6 1 0 0 0 0 0 0 0 0 0 0 0 0 0 0 0 0 0 3 17 69 66 69 105 190 255 101 5 0 0 0 0 0 0 0 0 0 0 0 0 0 1 31 255 236 129 78 62 68 39 6 1 0 0 0 0 1 8 51 66 63 84 142 255 255 23 1 0 0 0 0 0 0 0 0 0 0 0 0 0 0 0 0 0 0 0 0 0 0 0 0 0 0 1 17 255 255 150 88 66 69 68 9 1 0 0 0 0 0 0 1 9 60 66 59 58 59 59 65 72 21 3 0 0 0 0 0 0 1 4 23 65 63 71 110 201 255 76 4 0 0 0 0 0 0 0 0 0 0 0 0 0 0 0 0 0 0 0 0 0 0 0 0 0 0 0 0 0 0 0 0 0 0 0 0 0 0 0 0 0 0 0 0 0 0 0 0 0 0 0 0 4 82 255 197 110 71 64 72 18 3 0 0 0 0 0 0 2 12 64 68 67 99 182 255 246 129 77 66 66 26 4 1 0 0 0 0 0 0 0 0 2 14 60 64 69 103 182 255 101 5 0 0 0 0 0 0 0 0 0 0 0 0 0 0 0 0 0 0 1 19 255 255 141 83 63 64 46 7 1 0 0 0 0 0 0 0 0 0 1 4 23 64 59 72 115 206 255 57 3 0 0 5 99 255 186 104 71 79 128 114 12 1
0 0 0 0 0 0 0 0 0 3 25 149 99 71 87 127 164 125 84 68 90 136 21 3 0 0 0 0 0 0 0 0 0 0 0 0 0 0 0 0 0 2 19 117 97 70 83 124 173 139 91 66 79 125 74 8 1 0 0 0 0 0 0 0 0 3 21 116 88 66 80 132 240 255 34 1 0 0 0 0 0 0 0 3 64 255 203 115 75 68 96 115 14 2 0 0 0 0 0 0 0 0 0 0 0 0 0 0 0 2 18 150 88 36 23 27 60 138 55 6 1 0 0 0 0 0 0 0 0 1 13 106 45 15 13 36 107 18 2 0 0 0 0 0 0 0 0 0 0 0 0 0 0 0 0 3 27 151 91 64 77 126 227 255 36 2 0 0 0 0 0 0 0 0 0 0 0 0 0 6 119 255 176 101 70 74 117 118 11 1 0 0 0 0 0 0 2 16 120 96 69 77 119 211 255 51 2 0 0 0 0 0 0 6 131 255 177 100 69 70 108 62 7 1 0 0 0 0 0 0 2 16 152 120 71 72 107 193 255 105 5 0 0 0 0 0 0 0 0 0 0 0 0 0 0 0 0 2 48 255 220 125 79 69 98 139 21 2 0 0 0 0 0 0 1 5 43 109 77 67 91 155 255 255 14 1 0 0 0 3 68 255 214 120 76 67 98 145 17 2 0 0 0 0 0 0 1 10 96 122 76 64 88 153 255 255 16 1 0 0 0 0 0 0 0 0 0 11 249 255 156 92 68 78 131 48 6 1 0 0 0 0 0 0 0 0 0 0 0 0 0 0 0 0 0 2 19 135 98 66 77 123 221 255 53 2 0 0 0 0 0 0 0 0 0 0 0 1 14 255 255 153 89 65 77 127 53 6 1 0 0 0 0 1 10 93 122 75 68 94 162 255 226 10 0 0 0 0 0 0 0 0 0 0 0 0 0 0 0 0 0 0 0 0 0 0 0 0 0 0 8 168 255 176 100 70 77 131 179 16 1 0 0 0 0 0 0 1 13 136 109 53 32 29 41 82 132 24 3 0 0 0 0 0 0 0 3 24 113 85 64 79 131 235 255 41 2 0 0 0 0 0 0 0 0 0 0 0 0 0 0 0 0 0 0 0 0 0 0 0 0 0 0 0 0 0 0 0 0 0 0 0 0 0 0 0 0 0 0 0 0 0 0 0 0 0 0 2 42 255 226 127 79 68 99 156 22 3 0 0 0 0 0 0 2 15 126 112 71 77 111 153 131 90 69 88 112 26 4 0 0 0 0 0 0 0 0 0 2 15 103 97 69 76 119 216 255 53 2 0 0 0 0 0 0 0 0 0 0 0 0 0 0 0 0 0 9 194 255 168 95 67 72 103 64 8 1 0 0 0 0 0 0 0 0 0 0 3 24 119 76 63 81 134 243 255 29 1 2 52 255 218 121 77 75 172 255 255 41 3
0 0 0 0 0 0 0 0 0 5 66 255 252 112 70 70 76 70 71 110 252 255 58 4 0 0 0 0 0 0 0 0 0 0 0 0 0 0 0 0 0 3 44 255 251 118 72 72 80 73 67 83 202 255 255 21 1 0 0 0 0 0 0 0 0 4 43 255 235 102 70 90 152 255 255 14 1 0 0 0 0 0 1 34 255 234 128 80 69 122 255 255 41 3 0 0 0 0 0 0 0 0 0 0 0 0 0 0 0 4 57 255 250 45 14 22 123 255 183 14 1 0 0 0 0 0 0 0 0 2 32 255 99 13 10 59 220 33 3 0 0 0 0 0 0 0 0 0 0 0 0 0 0 0 0 5 77 255 246 98 66 85 145 255 255 17 1 0 0 0 0 0 0 0 0 0 0 0 3 60 255 207 114 75 77 171 255 255 41 3 0 0 0 0 0 0 3 40 255 250 118 69 82 134 246 255 26 1 0 0 0 0 3 66 255 208 115 75 74 144 255 233 17 1 0 0 0 0 0 0 4 57 255 255 138 70 77 122 215 255 51 2 0 0 0 0 0 0 0 0 0 0 0 0 0 0 1 23 255 250 137 84 69 114 253 255 53 4 0 0 0 0 0 0 1 9 126 255 178 79 70 100 173 255 123 6 0 0 1 34 255 236 134 83 70 115 255 255 52 4 0 0 0 0 0 0 2 30 255 255 184 76 68 99 173 255 141 7 0 0 0 0 0 0 0 0 5 105 255 181 101 70 82 195 255 148 11 1 0 0 0 0 0 0 0 0 0 0 0 0 0 0 0 0 0 4 51 255 255 108 69 84 139 252 255 28 1 0 0 0 0 0 0 0 0 0 0 7 148 255 177 100 70 80 197 255 179 13 1 0 0 0 0 2 30 255 255 186 77 71 104 188 255 105 5 0 0 0 0 0 0 0 0 0 0 0 0 0 0 0 0 0 0 0 0 0 0 0 0 4 80 255 197 112 74 77 184 255 255 66 4 0 0 0 0 0 0 3 49 255 255 87 21 16 42 189 255 59 5 0 0 0 0 0 0 0 4 53 255 220 93 68 88 147 255 255 20 1 0 0 0 0 0 0 0 0 0 0 0 0 0 0 0 0 0 0 0 0 0 0 0 0 0 0 0 0 0 0 0 0 0 0 0 0 0 0 0 0 0 0 0 0 0 0 0 0 1 20 255 255 143 86 69 114 255 255 63 5 0 0 0 0 0 0 3 44 255 255 141 74 67 71 68 68 93 221 255 52 5 0 0 0 0 0 0 0 0 0 3 34 255 253 121 70 84 138 251 255 27 1 0 0 0 0 0 0 0 0 0 0 0 0 0 0 0 4 90 255 195 109 73 75 164 255 192 16 1 0 0 0 0 0 0 0 0 0 0 4 57 255 204 87 67 90 154 255 255 14 28 255 252 139 84 74 165 255 255 255 255 17
0 0 0 0 0 0 0 0 1 25 255 220 255 242 79 38 34 39 84 255 255 231 255 23 1 0 0 0 0 0 0 0 0 0 0 0 0 0 0 0 1 14 253 236 255 255 89 42 35 37 62 196 255 255 255 106 6 0 0 0 0 0 0 0 1 13 209 235 255 251 87 63 88 157 255 119 6 0 0 0 0 1 16 255 255 137 77 59 101 255 255 243 255 15 1 0 0 0 0 0 0 0 0 0 0 0 0 0 1 23 255 221 255 147 17 45 255 235 255 70 4 0 0 0 0 0 0 0 1 9 148 229 255 38 21 224 205 113 8 1 0 0 0 0 0 0 0 0 0 0 0 0 0 0 2 31 255 227 255 248 85 60 86 156 255 147 7 0 0 0 0 0 0 0 0 0 0 1 30 255 225 121 72 65 152 255 255 240 255 15 1 0 0 0 0 1 12 222 231 255 255 95 60 80 144 255 255 12 0 0 0 1 33 255 221 120 72 65 139 255 255 255 100 5 0 0 0 0 0 1 24 255 222 249 255 118 61 73 123 228 255 23 1 0 0 0 0 0 0 0 0 0 0 0 0 0 9 194 255 145 81 59 90 255 255 221 255 19 1 0 0 0 0 0 3 51 255 255 255 168 66 64 100 182 255 56 3 1 15 255 255 135 78 61 102 255 255 221 255 20 1 0 0 0 0 1 9 174 253 255 255 176 66 64 99 182 255 64 3 0 0 0 0 0 0 2 48 255 192 105 66 67 183 255 248 255 54 3 0 0 0 0 0 0 0 0 0 0 0 0 0 0 0 0 1 18 255 225 255 255 95 60 82 145 255 240 11 1 0 0 0 0 0 0 0 0 3 71 255 190 102 65 69 186 255 255 255 68 4 0 0 0 1 9 175 255 255 255 162 64 67 108 201 255 53 2 0 0 0 0 0 0 0 0 0 0 0 0 0 0 0 0 0 0 0 0 0 0 2 41 255 211 113 69 65 155 255 246 214 255 28 1 0 0 0 0 1 19 255 229 254 255 33 15 97 255 223 255 22 1 0 0 0 0 0 1 19 255 242 255 234 83 61 86 154 255 178 8 0 0 0 0 0 0 0 0 0 0 0 0 0 0 0 0 0 0 0 0 0 0 0 0 0 0 0 0 0 0 0 0 0 0 0 0 0 0 0 0 0 0 0 0 0 0 0 0 8 174 255 151 84 61 92 255 255 219 255 24 1 0 0 0 0 1 15 255 231 255 255 115 43 32 35 66 205 255 240 255 17 1 0 0 0 0 0 0 0 1 10 191 246 255 255 101 62 82 145 255 255 12 1 0 0 0 0 0 0 0 0 0 0 0 0 0 2 45 255 206 112 69 65 155 255 255 255 69 4 0 0 0 0 0 0 0 0 0 1 22 255 242 255 225 75 61 90 162 255 166 255 255 146 82 63 121 255 212 173 180 255 177
0 0 0 0 0 0 0 0 8 156 249 150 153 197 116 26 15 28 132 206 161 156 255 158 8 0 0 0 0 0 0 0 0 0 0 0 0 0 0 0 5 91 255 161 159 199 138 30 15 21 86 227 177 151 167 255 43 2 0 0 0 0 0 0 4 76 255 160 167 216 145 48 46 79 163 255 52 3 0 0 0 7 138 255 139 69 43 53 176 202 158 159 255 112 6 0 0 0 0 0 0 0 0 0 0 0 0 0 9 176 255 149 157 255 69 160 190 154 183 255 31 1 0 0 0 0 0 0 3 56 255 167 216 206 118 255 161 255 40 2 0 0 0 0 0 0 0 0 0 0 0 0 0 1 11 206 235 152 161 219 153 48 46 79 160 255 61 3 0 0 0 0 0 0 0 0 1 12 241 248 119 61 43 77 219 183 146 151 255 107 5 0 0 0 0 4 79 255 157 160 202 163 51 44 73 148 255 109 5 0 1 14 255 241 115 60 43 74 221 196 164 182 255 46 2 0 0 0 0 9 190 255 146 143 190 204 62 41 61 121 255 198 9 0 0 0 0 0 0 0 0 0 0 0 0 4 75 255 148 73 43 47 151 203 156 152 255 125 6 0 0 0 0 1 21 255 207 168 184 225 88 40 51 95 200 255 27 7 123 255 136 67 42 53 181 207 156 150 255 136 7 0 0 0 0 4 67 255 159 149 183 238 95 41 51 94 195 255 31 1 0 0 0 0 1 21 255 208 100 54 42 91 224 176 154 191 255 21 1 0 0 0 0 0 0 0 0 0 0 0 0 0 0 0 6 116 255 153 157 211 169 50 44 72 143 255 90 5 0 0 0 0 0 0 0 2 35 255 197 97 53 43 100 231 178 155 186 255 30 1 0 0 4 68 255 158 147 179 225 82 41 55 104 212 255 25 1 0 0 0 0 0 0 0 0 0 0 0 0 0 0 0 0 0 0 0 0 1 19 255 229 110 57 41 77 216 175 135 137 246 197 10 0 0 0 0 7 138 255 148 151 223 106 40 255 165 158 255 157 8 0 0 0 0 0 7 133 255 167 172 226 144 46 45 77 153 255 71 4 0 0 0 0 0 0 0 0 0 0 0 0 0 0 0 0 0 0 0 0 0 0 0 0 0 0 0 0 0 0 0 0 0 0 0 0 0 0 0 0 0 0 0 0 0 0 4 74 255 155 76 45 49 154 203 152 146 253 146 8 0 0 0 0 5 100 255 153 148 189 184 38 15 21 90 211 166 163 255 101 5 0 0 0 0 0 0 0 4 74 255 164 162 202 172 54 45 72 146 255 101 5 0 0 0 0 0 0 0 0 0 0 0 0 1 21 255 220 106 57 42 81 229 192 167 180 255 28 1 0 0 0 0 0 0 0 0 8 148 255 165 180 233 126 44 47 84 183 255 255 152 73 45 59 185 168 114 90 102 174 255
0 0 0 0 0 0 0 3 59 255 132 80 75 100 127 24 9 27 139 104 78 83 139 255 61 3 0 0 0 0 0 0 0 0 0 0 0 0 0 2 37 255 152 89 78 101 138 29 8 18 114 124 87 73 95 193 255 16 1 0 0 0 0 2 32 255 157 90 83 113 154 45 23 36 81 188 255 21 1 0 3 58 255 151 65 31 23 57 156 103 76 85 154 255 49 2 0 0 0 0 0 0 0 0 0 0 0 4 70 255 140 81 88 173 255 255 110 81 106 229 210 11 1 0 0 0 0 1 22 255 175 105 126 255 255 161 117 186 235 13 1 0 0 0 0 0 0 0 0 0 0 0 0 4 75 255 126 80 80 116 168 48 23 36 78 177 255 25 1 0 0 0 0 0 0 0 5 89 255 126 54 28 28 91 137 90 68 80 152 255 45 2 0 0 2 33 255 156 88 78 105 155 52 23 33 71 162 255 50 3 6 110 255 124 53 27 27 90 147 101 81 101 205 255 21 1 0 0 4 72 255 138 77 69 98 154 72 24 28 56 136 255 76 4 0 0 0 0 0 0 0 0 0 0 2 33 255 165 71 33 22 46 152 105 77 84 145 255 51 3 0 0 0 7 147 255 117 84 94 134 116 29 24 44 105 249 238 82 255 152 64 30 22 55 159 107 76 82 142 255 54 3 0 0 1 29 255 170 88 71 91 138 134 32 24 43 101 234 225 11 1 0 0 0 8 169 255 108 46 25 31 115 128 88 77 110 254 135 7 0 0 0 0 0 0 0 0 0 0 0 0 0 0 2 47 255 144 84 78 110 163 52 23 32 68 156 255 39 2 0 0 0 0 0 1 15 255 227 99 44 25 33 131 131 89 76 106 231 229 11 1 1 31 255 170 86 69 88 135 106 29 25 47 108 253 211 10 0 0 0 0 0 0 0 0 0 0 0 0 0 0 0 0 0 0 0 0 7 150 255 118 51 26 27 92 133 86 63 71 129 255 76 4 0 0 3 57 255 142 79 75 120 255 234 196 97 88 142 255 62 3 0 0 0 3 55 255 148 91 87 122 165 44 23 34 74 169 255 31 1 0 0 0 0 0 0 0 0 0 0 0 0 0 0 0 0 0 0 0 0 0 0 0 0 0 0 0 0 0 0 0 0 0 0 0 0 0 0 0 0 0 0 0 0 2 35 255 175 75 34 23 48 152 104 73 78 133 255 54 3 0 0 2 41 255 148 83 71 95 142 42 10 19 113 113 84 89 150 255 44 2 0 0 0 0 0 2 32 255 168 93 79 105 154 55 24 33 69 158 255 45 2 0 0 0 0 0 0 0 0 0 0 0 8 158 255 114 49 26 29 104 141 97 82 106 229 187 10 0 0 0 0 0 0 0 3 58 255 142 89 89 125 159 41 23 39 92 193 168 75 34 24 59 137 83 51 40 49 90 194
0 0 0 0 0 0 1 23 255 168 70 37 32 46 86 22 7 25 86 48 33 39 71 169 255 24 1 0 0 0 0 0 0 0 0 0 0 0 1 14 255 203 82 42 34 46 81 26 7 20 107 57 37 31 46 104 255 106 5 0 0 0 1 11 222 219 88 44 36 52 92 39 12 16 37 99 255 136 7 1 24 255 180 74 29 13 14 55 82 47 33 40 80 192 255 21 1 0 0 0 0 0 0 0 0 0 1 30 255 169 72 40 45 103 254 187 68 39 53 119 255 76 4 0 0 0 0 7 143 251 98 57 73 175 209 96 70 108 255 82 4 0 0 0 0 0 0 0 0 0 0 0 2 33 255 156 64 37 35 54 99 46 13 15 35 92 239 171 9 0 0 0 0 0 0 2 39 255 153 60 24 12 20 83 63 39 29 37 79 192 255 17 1 1 11 219 214 85 43 34 48 86 49 14 14 31 81 197 255 26 49 255 149 59 23 12 20 86 70 44 35 49 110 255 154 8 0 1 30 255 163 69 36 30 44 75 72 16 12 25 66 163 255 32 2 0 0 0 0 0 0 0 0 1 12 240 219 86 32 14 12 42 88 49 34 40 77 183 255 20 1 0 3 60 255 133 58 37 41 64 107 25 11 19 49 131 255 255 208 78 29 13 13 50 82 48 33 39 74 178 255 22 1 1 11 225 231 91 42 31 39 66 120 29 12 19 46 119 255 79 4 0 0 3 69 255 135 51 20 12 26 100 60 38 35 55 130 255 53 3 0 0 0 0 0 0 0 0 0 0 0 0 1 19 255 187 77 40 34 51 88 47 13 14 30 81 205 255 16 1 0 0 0 0 6 115 255 119 45 19 12 29 110 62 38 34 52 123 255 92 5 12 241 230 92 41 29 38 63 101 23 12 20 50 131 255 82 4 0 0 0 0 0 0 0 0 0 0 0 0 0 0 0 0 0 0 3 61 255 139 55 22 12 20 85 62 37 26 32 65 163 255 35 2 1 25 255 179 73 37 35 73 223 255 122 52 44 74 172 255 26 1 0 1 23 255 181 78 43 39 58 102 41 12 14 33 89 226 232 12 1 0 0 0 0 0 0 0 0 0 0 0 0 0 0 0 0 0 0 0 0 0 0 0 0 0 0 0 0 0 0 0 0 0 0 0 0 0 0 0 0 0 0 1 14 255 223 90 34 15 13 42 86 48 32 37 70 170 255 21 1 1 17 255 197 79 39 31 42 68 37 8 19 98 53 37 43 82 199 255 18 1 0 0 0 1 12 226 221 91 45 35 48 81 50 14 14 30 80 199 255 19 1 0 0 0 0 0 0 0 0 0 3 61 255 134 53 21 12 23 98 66 42 36 53 121 255 71 4 0 0 0 0 0 1 23 255 173 74 42 39 59 109 39 12 17 38 68 61 31 15 14 48 66 36 21 16 21 38 71
0 0 0 0 0 0 8 149 251 94 34 16 13 20 41 16 6 17 38 20 13 16 34 93 247 174 9 0 0 0 0 0 0 0 0 0 0 0 5 97 255 112 40 18 14 19 35 17 6 18 68 27 14 12 21 53 145 255 46 2 0 0 4 82 255 118 44 20 15 22 40 26 7 7 16 48 132 255 53 11 164 252 97 34 12 6 9 41 35 19 13 17 38 105 255 165 8 0 0 0 0 0 0 0 0 1 11 220 232 91 34 18 22 52 105 84 36 19 25 61 160 255 34 2 0 0 3 57 255 131 51 28 36 71 80 48 38 60 150 255 34 2 0 0 0 0 0 0 0 0 0 1 13 255 227 87 31 16 14 23 43 35 8 7 15 45 126 255 67 3 0 0 0 0 1 14 255 210 82 28 10 6 15 55 27 15 11 16 38 104 255 107 6 5 84 255 116 42 19 14 20 37 36 9 6 13 38 107 255 255 255 199 78 27 10 6 15 61 31 18 14 22 53 138 255 60 4 10 189 228 88 32 15 12 18 32 56 12 6 11 30 87 223 224 11 1 0 0 0 0 0 0 0 5 89 255 119 41 14 6 8 30 38 21 14 18 37 100 255 145 7 2 28 255 182 70 27 15 17 30 67 20 6 8 23 69 185 242 111 38 13 6 9 35 34 20 13 17 36 98 255 164 8 5 91 255 125 45 19 12 16 31 70 24 6 8 21 59 155 255 32 2 2 32 255 177 69 23 9 6 19 60 27 15 14 26 70 182 255 22 1 0 0 0 0 0 0 0 0 0 0 0 7 126 255 104 37 17 14 21 37 33 8 6 13 39 113 255 134 6 0 0 0 2 50 255 151 58 20 8 6 22 61 28 15 14 24 63 164 255 54 99 255 124 45 18 12 15 29 67 19 6 8 22 66 167 255 36 2 0 0 0 0 0 0 0 0 0 0 0 0 0 0 0 0 1 26 255 180 71 25 9 6 15 58 27 14 10 14 31 89 226 255 15 10 197 255 99 35 17 16 41 110 150 70 27 20 36 94 244 193 9 1 8 164 255 99 37 19 16 25 45 30 7 6 14 43 121 255 93 5 0 0 0 0 0 0 0 0 0 0 0 0 0 0 0 0 0 0 0 0 0 0 0 0 0 0 0 0 0 0 0 0 0 0 0 0 0 0 0 0 0 0 5 108 255 118 43 15 6 8 29 37 20 13 16 34 95 255 133 7 6 118 255 110 39 17 12 16 26 23 7 16 58 25 15 19 41 109 255 130 7 0 0 0 4 85 255 119 44 20 14 20 34 34 9 6 13 38 109 255 155 7 0 0 0 0 0 0 0 0 1 26 255 175 68 24 9 6 18 65 30 17 15 25 64 166 255 31 1 0 0 0 0 8 144 252 95 35 18 16 26 52 30 7 7 13 21 19 11 6 8 29 26 14 8 6 8 14 23
0 0 0 0 0 3 58 255 135 49 16 7 5 8 15 8 4 8 13 8 5 7 16 49 137 255 73 4 0 0 0 0 0 0 0 0 0 2 42 255 157 60 20 8 5 7 12 8 4 12 32 12 6 5 9 27 83 208 255 18 1 2 37 255 167 64 22 9 6 8 15 13 4 3 7 23 73 189 255 131 255 138 49 16 5 3 6 23 13 7 5 7 18 55 148 255 70 3 0 0 0 0 0 0 0 4 84 255 129 46 16 8 10 22 37 32 16 8 11 31 92 235 255 14 1 1 24 255 187 74 26 13 15 25 27 20 19 32 88 226 249 13 1 0 0 0 0 0 0 0 0 5 106 255 128 45 15 6 5 9 16 19 5 3 7 22 70 180 255 30 1 0 0 0 5 111 255 118 41 13 4 3 9 27 12 6 4 7 18 55 148 255 49 43 255 169 64 21 8 5 8 14 20 5 3 6 18 56 157 255 255 118 39 12 4 3 9 32 13 7 6 10 26 74 184 255 31 78 255 125 45 15 6 4 7 14 34 8 3 5 14 44 125 255 83 4 0 0 0 0 0 0 2 39 255 164 63 20 6 3 4 15 14 8 5 7 18 52 146 255 64 14 224 255 104 36 12 6 7 13 32 13 3 4 10 33 76 93 50 18 6 3 5 17 13 7 5 7 17 51 143 255 76 50 255 173 68 22 8 5 6 13 31 15 4 3 9 29 89 229 231 12 13 255 243 99 34 11 4 3 11 27 12 6 6 12 36 105 255 163 8 0 0 0 0 0 0 0 0 0 0 3 51 255 145 54 18 7 5 8 14 17 5 3 6 19 60 159 255 60 3 0 1 22 255 203 82 28 9 3 3 12 26 12 6 5 11 31 92 234 255 255 171 66 22 8 5 6 13 33 12 3 4 10 32 92 226 255 14 1 0 0 0 0 0 0 0 0 0 0 0 0 0 0 0 10 201 255 102 35 11 4 3 9 29 12 5 4 6 15 45 126 255 132 103 255 139 51 17 7 8 20 45 56 33 13 9 17 49 136 255 76 8 70 255 140 51 18 8 6 9 17 16 4 3 6 21 65 171 255 44 2 0 0 0 0 0 0 0 0 0 0 0 0 0 0 0 0 0 0 0 0 0 0 0 0 0 0 0 0 0 0 0 0 0 0 0 0 0 0 0 0 2 50 255 164 62 20 6 3 4 14 13 7 5 7 16 50 140 255 61 55 255 152 58 19 7 5 6 9 10 5 10 26 11 6 8 20 57 148 255 53 3 0 2 39 255 167 64 21 8 5 7 13 17 5 3 6 18 56 151 255 68 3 0 0 0 0 0 0 0 10 196 255 100 33 11 4 3 11 32 13 7 6 11 32 96 240 223 11 1 0 0 3 56 255 136 49 17 7 6 10 20 16 4 3 4 6 6 4 2 4 13 9 5 3 2 3 5 7
0 0 0 0 1 26 255 193 79 26 8 3 2 3 4 3 2 3 4 3 2 3 8 26 79 192 255 36 2 0 0 0 0 0 0 0 1 17 255 220 92 32 10 3 2 2 4 3 2 6 12 5 2 2 4 14 45 121 255 133 7 16 255 235 99 34 10 4 2 3 5 4 2 1 3 11 39 116 255 255 215 81 26 7 2 1 3 9 5 3 2 3 9 28 84 195 255 32 1 0 0 0 0 0 2 38 255 178 73 24 7 3 4 8 12 11 6 4 5 16 51 137 255 117 6 9 187 255 112 40 13 6 6 8 9 7 8 17 49 131 255 99 5 0 0 0 0 0 0 0 2 50 255 174 72 24 7 3 2 3 6 7 2 1 3 11 37 107 253 253 12 1 0 2 52 255 169 66 21 6 2 1 4 10 5 2 2 3 8 29 88 218 255 255 239 100 34 10 3 2 3 5 7 2 1 2 8 29 86 174 157 67 20 6 2 1 5 12 5 3 2 4 12 39 109 255 255 255 187 73 23 7 2 2 2 6 15 4 1 2 6 22 71 174 255 37 2 0 0 0 0 1 16 255 229 96 33 10 3 1 2 5 5 3 2 3 8 28 85 201 255 196 255 145 57 18 6 2 2 5 12 6 2 2 4 13 27 32 20 8 2 1 2 6 4 2 2 3 8 27 83 201 255 255 237 100 36 11 3 2 2 5 11 6 2 1 4 14 48 133 255 106 123 255 139 53 17 5 2 2 5 9 4 2 2 6 18 58 150 255 70 3 0 0 0 0 0 0 0 0 1 21 255 202 84 28 9 3 2 3 5 6 2 1 3 9 31 90 206 255 28 2 9 190 255 119 43 13 4 1 2 5 9 4 2 2 5 16 50 138 255 255 104 35 11 3 2 2 5 12 6 2 2 4 15 49 130 255 114 6 0 0 0 0 0 0 0 0 0 0 0 0 0 0 4 83 255 145 55 17 5 2 1 4 11 5 2 1 2 7 23 70 176 255 255 199 79 27 8 3 3 8 16 19 13 6 4 8 25 78 185 255 101 255 196 80 27 8 3 2 3 5 6 2 1 3 10 34 99 227 255 20 1 0 0 0 0 0 0 0 0 0 0 0 0 0 0 0 0 0 0 0 0 0 0 0 0 0 0 0 0 0 0 0 0 0 0 0 0 0 0 1 22 255 217 94 32 10 3 1 2 5 4 3 2 3 8 27 83 207 255 255 215 87 30 9 3 2 2 3 3 2 5 9 4 2 3 9 30 85 202 255 23 2 16 255 233 98 34 10 4 2 3 4 6 2 1 2 8 29 85 200 255 33 1 0 0 0 0 0 4 79 255 144 55 17 5 2 2 5 12 5 2 2 5 16 52 136 255 85 4 0 1 24 255 193 79 26 8 3 2 4 7 6 2 1 1 2 2 1 1 2 4 3 2 1 1 1 1 2
0 0 0 0 10 226 255 117 45 14 4 1 1 1 1 1 1 1 1 1 1 1 4 14 45 114 250 255 15 1 0 0 0 0 0 0 7 141 255 131 52 17 5 1 1 1 1 1 1 2 3 2 1 1 2 7 24 69 162 255 72 147 255 139 56 18 5 2 1 1 1 1 1 1 1 6 22 71 169 226 122 47 14 4 1 1 1 3 2 1 1 1 4 15 46 114 253 255 13 1 0 0 0 1 15 255 236 106 40 12 3 1 1 3 3 3 2 1 2 8 28 78 178 255 65 85 255 154 64 22 6 2 2 2 3 3 3 9 28 77 179 255 47 2 0 0 0 0 0 1 24 255 224 101 39 12 3 1 1 1 2 2 1 1 1 5 20 60 147 255 102 5 1 24 255 221 100 37 11 3 1 1 1 3 2 1 1 1 4 15 51 136 255 255 145 57 19 5 1 1 1 2 2 1 1 1 4 15 41 69 64 34 10 3 1 1 2 4 2 1 1 2 6 21 64 165 255 255 118 42 12 3 1 1 1 2 5 2 1 1 3 12 39 105 238 255 16 1 0 0 0 6 130 255 136 54 17 5 1 0 1 2 1 1 1 1 4 15 48 122 255 255 207 84 31 9 3 1 1 2 3 2 1 1 2 5 9 10 7 3 1 0 1 2 1 1 1 1 4 14 47 123 255 255 143 56 19 5 1 1 1 2 3 2 1 1 2 7 27 78 189 255 255 188 80 28 8 2 1 1 2 3 2 1 1 3 9 32 88 202 255 36 2 0 0 0 0 0 0 0 8 154 255 122 47 15 4 1 1 1 1 2 1 0 1 4 16 49 120 255 225 15 84 255 162 67 23 6 2 1 1 2 2 1 1 1 2 8 27 73 133 120 58 19 5 1 1 1 2 4 2 1 1 2 7 26 75 178 255 56 3 0 0 0 0 0 0 0 0 0 0 0 0 2 41 255 192 84 30 9 2 1 1 2 3 2 1 1 1 3 12 39 107 241 255 119 45 14 4 1 1 3 5 6 4 2 2 4 13 43 112 255 255 255 119 45 14 4 1 1 1 2 2 1 1 1 5 18 54 132 255 176 8 0 0 0 0 0 0 0 0 0 0 0 0 0 0 0 0 0 0 0 0 0 0 0 0 0 0 0 0 0 0 0 0 0 0 0 0 0 0 9 187 255 126 52 17 5 1 0 1 1 1 1 1 1 4 14 48 130 255 255 134 50 16 4 1 1 1 1 1 1 2 3 1 1 1 4 15 47 121 255 192 17 143 255 137 55 18 5 1 1 1 1 2 1 0 1 4 15 46 117 255 255 13 1 0 0 0 2 37 255 191 84 30 8 2 1 1 2 3 2 1 1 2 8 28 78 181 255 39 2 9 193 255 117 45 14 4 1 1 1 2 2 1 0 0 0 0 0 0 1 1 1 1 0 0 0 0 1
0 0 0 5 97 255 161 69 25 7 2 0 0 0 0 0 0 0 0 0 0 0 2 7 25 65 147 255 130 6 0 0 0 0 0 3 67 255 176 77 29 9 2 1 0 0 0 0 0 1 1 1 0 0 1 3 13 39 98 226 255 255 182 81 32 10 2 1 0 0 0 0 0 0 1 3 12 40 77 94 61 26 7 2 0 0 0 1 0 0 0 1 2 7 25 65 150 255 105 5 0 0 0 6 126 255 140 60 22 6 2 1 0 1 1 1 1 1 1 4 15 44 106 235 255 255 204 92 37 11 3 1 1 1 1 1 1 4 15 45 108 232 255 21 1 0 0 0 0 10 210 255 135 57 21 6 2 0 0 0 0 1 0 0 1 3 10 34 86 187 255 50 12 193 255 132 57 20 5 1 0 0 0 1 0 0 0 1 2 8 30 81 160 162 84 33 10 2 1 0 0 0 1 0 0 0 2 7 17 25 24 14 5 1 0 0 1 1 1 0 0 1 3 11 38 94 169 140 70 25 6 2 0 0 0 1 1 1 0 0 1 6 22 61 144 255 133 6 0 0 3 59 255 174 79 30 9 2 1 0 0 0 0 0 0 1 2 8 27 73 159 208 117 49 17 4 1 0 0 1 1 1 0 0 1 2 3 3 2 1 0 0 0 0 0 0 0 1 2 7 27 70 135 147 80 32 10 2 1 0 0 1 1 1 0 0 1 4 15 47 118 255 249 115 46 15 4 1 0 0 0 1 0 0 0 1 5 18 51 122 255 255 17 1 0 0 0 0 0 3 65 255 161 72 27 8 2 1 0 0 0 0 0 0 1 2 8 26 68 155 255 254 255 202 95 38 12 3 1 0 0 0 1 0 0 0 1 4 14 34 52 49 29 10 2 1 0 0 1 1 1 0 0 1 4 14 43 107 227 255 27 1 0 0 0 0 0 0 0 0 0 0 1 17 255 244 115 48 16 4 1 0 0 0 1 0 0 0 0 1 6 22 59 107 111 64 25 7 2 1 0 1 1 2 1 1 1 2 7 24 68 158 247 159 71 26 7 2 1 0 0 0 0 0 0 1 2 9 30 76 172 255 80 4 0 0 0 0 0 0 0 0 0 0 0 0 0 0 0 0 0 0 0 0 0 0 0 0 0 0 0 0 0 0 0 0 0 0 0 0 4 81 255 167 72 28 9 2 1 0 0 0 0 0 0 0 2 8 29 76 144 147 78 29 8 2 1 0 0 0 0 0 0 1 0 0 1 2 8 26 71 164 255 255 255 178 80 31 9 2 1 0 0 0 0 0 0 0 2 7 25 66 148 255 102 5 0 0 1 16 255 248 115 48 16 4 1 0 0 1 1 1 0 0 1 4 15 45 110 241 255 21 86 255 162 69 25 7 2 1 0 0 1 1 0 0 0 0 0 0 0 0 0 0 0 0 0 0 0 0
0 0 2 48 255 205 100 43 14 4 1 0 0 0 0 0 0 0 0 0 0 0 1 3 13 39 90 191 255 62 3 0 0 0 1 35 255 227 110 48 17 4 1 0 0 0 0 0 0 0 0 0 0 0 0 2 7 23 62 147 255 253 118 50 18 5 1 0 0 0 0 0 0 0 0 1 6 20 33 37 28 13 4 1 0 0 0 0 0 0 0 0 1 4 13 39 92 193 255 49 2 0 3 61 255 189 87 36 12 3 1 0 0 0 0 0 0 0 0 2 8 26 65 151 255 255 134 57 21 6 1 0 0 0 0 0 1 2 8 27 66 145 255 177 8 0 0 0 4 94 255 174 82 34 11 3 1 0 0 0 0 0 0 0 0 1 5 19 52 117 244 255 170 255 171 79 34 11 3 1 0 0 0 0 0 0 0 0 1 4 17 45 70 71 45 19 5 1 0 0 0 0 0 0 0 0 1 3 6 8 8 5 2 1 0 0 0 0 0 0 0 0 1 6 21 49 72 63 39 14 3 1 0 0 0 0 0 0 0 0 1 3 12 37 89 189 255 62 3 1 30 255 228 109 48 17 5 1 0 0 0 0 0 0 0 0 1 4 15 42 75 90 61 29 9 2 1 0 0 0 0 0 0 0 0 0 1 1 1 0 0 0 0 0 0 0 0 0 1 4 14 37 59 62 41 17 5 1 0 0 0 0 0 0 0 0 0 2 8 29 70 120 117 67 27 8 2 0 0 0 0 0 0 0 0 1 2 9 30 74 160 255 179 8 0 0 0 0 1 33 255 217 102 44 15 4 1 0 0 0 0 0 0 0 0 1 4 14 41 99 226 255 255 130 57 22 6 1 0 0 0 0 0 0 0 0 0 2 6 14 19 18 12 4 1 0 0 0 0 0 0 0 0 0 2 7 25 65 141 255 229 11 0 0 0 0 0 0 0 0 0 0 7 157 255 151 69 28 8 2 0 0 0 0 0 0 0 0 0 1 3 11 30 45 46 32 13 3 1 0 0 0 0 0 0 0 0 1 3 14 41 80 108 80 42 14 4 1 0 0 0 0 0 0 0 0 1 5 17 46 106 217 255 41 2 0 0 0 0 0 0 0 0 0 0 0 0 0 0 0 0 0 0 0 0 0 0 0 0 0 0 0 0 0 0 0 0 0 0 2 40 255 212 104 44 15 4 1 0 0 0 0 0 0 0 0 1 4 16 41 62 63 42 16 4 1 0 0 0 0 0 0 0 0 0 0 0 1 4 15 44 106 240 255 255 115 49 18 5 1 0 0 0 0 0 0 0 0 1 4 14 39 90 191 255 49 2 0 7 135 255 154 70 28 9 2 0 0 0 0 0 0 0 0 0 2 8 27 68 150 255 255 255 213 102 43 14 4 1 0 0 0 0 0 0 0 0 0 0 0 0 0 0 0 0 0 0 0 0 0
0 1 24 255 255 138 69 29 8 2 0 0 0 0 0 0 0 0 0 0 0 0 0 2 7 25 62 129 244 255 31 1 0 1 16 255 255 152 76 32 10 2 1 0 0 0 0 0 0 0 0 0 0 0 0 1 3 14 45 96 146 132 80 35 10 2 1 0 0 0 0 0 0 0 0 1 3 8 13 14 11 6 2 0 0 0 0 0 0 0 0 0 0 2 7 25 64 132 255 255 25 2 32 255 247 130 62 24 6 2 0 0 0 0 0 0 0 0 0 1 4 16 46 99 157 152 92 41 13 3 1 0 0 0 0 0 0 1 4 16 46 99 193 255 79 4 0 2 49 255 225 117 56 21 6 1 0 0 0 0 0 0 0 0 0 1 3 11 35 81 168 255 255 248 119 55 21 6 1 0 0 0 0 0 0 0 0 0 0 2 9 23 31 31 23 10 2 1 0 0 0 0 0 0 0 0 0 1 2 3 2 2 1 0 0 0 0 0 0 0 0 0 1 3 11 24 30 28 20 7 2 0 0 0 0 0 0 0 0 0 0 1 6 24 63 128 242 255 32 16 255 255 155 76 32 10 2 1 0 0 0 0 0 0 0 0 0 2 8 23 35 39 31 16 4 1 0 0 0 0 0 0 0 0 0 0 0 0 0 0 0 0 0 0 0 0 0 0 0 2 7 18 25 26 20 9 2 1 0 0 0 0 0 0 0 0 0 1 4 17 42 56 55 39 16 4 1 0 0 0 0 0 0 0 0 0 1 5 19 51 107 206 255 89 4 0 0 1 15 255 255 150 73 29 8 2 0 0 0 0 0 0 0 0 0 0 2 8 27 71 142 220 170 91 39 13 3 1 0 0 0 0 0 0 0 0 0 1 2 5 7 6 4 2 0 0 0 0 0 0 0 0 0 0 1 4 15 44 94 182 255 98 5 0 0 0 0 0 0 0 0 4 76 255 202 102 48 17 4 1 0 0 0 0 0 0 0 0 0 0 1 5 13 18 18 14 6 2 0 0 0 0 0 0 0 0 0 0 2 7 24 40 47 40 24 8 2 0 0 0 0 0 0 0 0 0 1 2 9 30 72 145 255 255 21 1 0 0 0 0 0 0 0 0 0 0 0 0 0 0 0 0 0 0 0 0 0 0 0 0 0 0 0 0 0 0 0 0 1 19 255 255 142 71 29 8 2 0 0 0 0 0 0 0 0 0 0 2 8 20 27 27 21 8 2 0 0 0 0 0 0 0 0 0 0 0 0 0 2 8 30 76 143 206 150 81 34 10 2 1 0 0 0 0 0 0 0 0 0 2 7 25 62 132 255 255 25 4 66 255 203 105 49 17 4 1 0 0 0 0 0 0 0 0 0 1 4 16 48 107 224 255 255 148 72 29 8 2 0 0 0 0 0 0 0 0 0 0 0 0 0 0 0 0 0 0 0 0 0 0
0 11 245 255 187 111 63 21 5 1 0 0 0 0 0 0 0 0 0 0 0 0 0 1 4 17 56 106 176 255 255 16 1 7 161 255 200 119 70 25 6 1 0 0 0 0 0 0 0 0 0 0 0 0 0 0 2 9 38 72 80 77 65 27 6 1 0 0 0 0 0 0 0 0 0 0 1 3 4 5 4 2 1 0 0 0 0 0 0 0 0 0 0 1 4 18 57 109 186 255 255 29 255 255 178 108 58 17 4 1 0 0 0 0 0 0 0 0 0 0 2 10 40 75 87 86 75 34 8 2 0 0 0 0 0 0 0 0 2 10 40 87 146 248 255 42 3 24 255 255 165 98 50 14 3 1 0 0 0 0 0 0 0 0 0 0 1 6 28 76 135 218 255 175 105 51 14 3 1 0 0 0 0 0 0 0 0 0 0 1 4 10 13 13 10 4 1 0 0 0 0 0 0 0 0 0 0 0 1 1 1 0 0 0 0 0 0 0 0 0 0 0 0 1 5 11 12 12 9 3 1 0 0 0 0 0 0 0 0 0 0 1 4 17 57 106 176 255 255 222 255 207 123 70 24 6 1 0 0 0 0 0 0 0 0 0 0 1 4 11 16 17 15 7 2 0 0 0 0 0 0 0 0 0 0 0 0 0 0 0 0 0 0 0 0 0 0 0 0 1 3 8 10 10 8 4 1 0 0 0 0 0 0 0 0 0 0 0 2 9 25 28 27 23 9 2 0 0 0 0 0 0 0 0 0 0 1 3 12 44 91 151 254 255 50 2 0 7 156 255 202 121 69 22 5 1 0 0 0 0 0 0 0 0 0 0 1 4 21 65 99 117 105 79 33 8 2 0 0 0 0 0 0 0 0 0 0 0 1 2 2 2 1 1 0 0 0 0 0 0 0 0 0 0 0 2 9 36 82 138 237 255 51 2 0 0 0 0 0 0 2 42 255 255 151 90 41 11 2 1 0 0 0 0 0 0 0 0 0 0 1 2 5 7 7 5 2 1 0 0 0 0 0 0 0 0 0 0 1 4 12 20 21 20 12 4 1 0 0 0 0 0 0 0 0 0 0 1 5 23 64 115 195 255 252 11 0 0 0 0 0 0 0 0 0 0 0 0 0 0 0 0 0 0 0 0 0 0 0 0 0 0 0 0 0 0 0 0 9 221 255 194 114 63 22 5 1 0 0 0 0 0 0 0 0 0 0 1 3 9 11 11 9 4 1 0 0 0 0 0 0 0 0 0 0 0 0 0 1 5 23 69 95 109 96 71 27 6 1 0 0 0 0 0 0 0 0 0 0 1 4 17 57 110 187 255 255 57 255 255 153 91 43 11 2 1 0 0 0 0 0 0 0 0 0 0 2 11 43 98 158 226 188 122 68 22 5 1 0 0 0 0 0 0 0 0 0 0 0 0 0 0 0 0 0 0 0 0 0 0
6 123 255 232 162 140 99 19 3 1 0 0 0 0 0 0 0 0 0 0 0 0 0 0 2 15 91 136 158 225 255 189 12 84 255 242 166 140 112 24 4 1 0 0 0 0 0 0 0 0 0 0 0 0 0 0 1 7 41 75 58 61 78 24 4 1 0 0 0 0 0 0 0 0 0 0 0 1 1 1 1 1 0 0 0 0 0 0 0 0 0 0 0 0 3 16 88 141 163 233 255 255 255 223 158 139 93 15 2 0 0 0 0 0 0 0 0 0 0 0 1 7 46 82 65 67 90 36 6 1 0 0 0 0 0 0 0 0 1 8 50 133 148 194 255 255 39 255 255 208 152 135 72 12 2 0 0 0 0 0 0 0 0 0 0 0 1 5 30 129 145 146 154 145 145 83 12 2 0 0 0 0 0 0 0 0 0 0 0 0 2 4 5 5 4 2 0 0 0 0 0 0 0 0 0 0 0 0 0 0 0 0 0 0 0 0 0 0 0 0 0 0 0 1 2 4 4 4 3 1 0 0 0 0 0 0 0 0 0 0 0 0 2 15 88 139 159 231 255 255 255 171 143 119 24 4 1 0 0 0 0 0 0 0 0 0 0 0 1 4 6 7 6 3 1 0 0 0 0 0 0 0 0 0 0 0 0 0 0 0 0 0 0 0 0 0 0 0 0 0 1 3 3 4 3 1 0 0 0 0 0 0 0 0 0 0 0 0 1 4 12 14 13 11 4 1 0 0 0 0 0 0 0 0 0 0 0 2 10 59 131 146 193 255 255 29 5 76 255 244 169 144 118 22 3 1 0 0 0 0 0 0 0 0 0 0 1 3 20 97 96 80 87 111 36 6 1 0 0 0 0 0 0 0 0 0 0 0 0 0 1 1 0 0 0 0 0 0 0 0 0 0 0 0 0 1 7 42 126 145 188 255 255 27 1 0 0 0 0 1 21 255 255 197 149 134 54 8 1 0 0 0 0 0 0 0 0 0 0 0 0 1 2 2 2 2 1 0 0 0 0 0 0 0 0 0 0 0 0 2 5 9 9 9 5 2 0 0 0 0 0 0 0 0 0 0 0 1 3 21 100 139 164 239 255 120 5 0 0 0 0 0 0 0 0 0 0 0 0 0 0 0 0 0 0 0 0 0 0 0 0 0 0 0 0 0 0 5 109 255 242 166 141 97 20 3 1 0 0 0 0 0 0 0 0 0 0 0 1 3 4 4 3 1 0 0 0 0 0 0 0 0 0 0 0 0 0 0 1 3 22 98 88 75 85 100 27 4 1 0 0 0 0 0 0 0 0 0 0 0 2 15 93 141 163 233 255 255 255 203 151 133 58 9 1 0 0 0 0 0 0 0 0 0 0 0 1 9 61 146 136 136 132 143 115 22 3 1 0 0 0 0 0 0 0 0 0 0 0 0 0 0 0 0 0 0 0 0 0 0
76 255 255 184 187 255 255 39 3 0 0 0 0 0 0 0 0 0 0 0 0 0 0 0 3 35 255 255 193 182 248 255 255 255 255 188 181 250 255 52 4 0 0 0 0 0 0 0 0 0 0 0 0 0 0 0 1 7 66 144 75 90 188 32 4 0 0 0 0 0 0 0 0 0 0 0 0 0 0 0 0 0 0 0 0 0 0 0 0 0 0 0 0 0 3 33 255 255 189 189 255 255 255 186 192 255 255 34 3 0 0 0 0 0 0 0 0 0 0 0 1 10 107 177 92 98 205 65 6 1 0 0 0 0 0 0 0 0 1 13 174 255 217 178 220 255 255 255 236 177 198 255 255 24 2 0 0 0 0 0 0 0 0 0 0 0 1 6 79 255 224 134 118 169 255 255 30 2 0 0 0 0 0 0 0 0 0 0 0 0 1 1 1 1 1 1 0 0 0 0 0 0 0 0 0 0 0 0 0 0 0 0 0 0 0 0 0 0 0 0 0 0 0 0 1 1 1 1 1 0 0 0 0 0 0 0 0 0 0 0 0 0 3 32 255 255 196 189 251 255 195 182 245 255 57 5 1 0 0 0 0 0 0 0 0 0 0 0 1 1 2 2 2 1 0 0 0 0 0 0 0 0 0 0 0 0 0 0 0 0 0 0 0 0 0 0 0 0 0 0 0 1 1 1 1 0 0 0 0 0 0 0 0 0 0 0 0 0 0 2 5 6 5 4 2 0 0 0 0 0 0 0 0 0 0 0 0 1 17 218 255 209 173 214 255 255 65 255 255 188 182 249 255 51 4 0 0 0 0 0 0 0 0 0 0 0 0 3 39 255 181 98 144 255 82 7 1 0 0 0 0 0 0 0 0 0 0 0 0 0 0 0 0 0 0 0 0 0 0 0 0 0 0 0 0 1 9 118 255 225 177 211 255 255 13 1 0 0 0 10 211 255 217 175 210 255 200 15 1 0 0 0 0 0 0 0 0 0 0 0 0 0 0 1 1 0 0 0 0 0 0 0 0 0 0 0 0 0 0 1 2 3 3 3 2 1 0 0 0 0 0 0 0 0 0 0 0 0 4 45 255 254 183 184 255 255 61 3 0 0 0 0 0 0 0 0 0 0 0 0 0 0 0 0 0 0 0 0 0 0 0 0 0 0 0 0 3 59 255 255 187 184 255 255 42 4 0 0 0 0 0 0 0 0 0 0 0 0 0 1 1 1 1 0 0 0 0 0 0 0 0 0 0 0 0 0 0 0 0 4 39 255 168 93 155 255 50 5 1 0 0 0 0 0 0 0 0 0 0 0 3 36 255 255 189 190 255 255 233 181 211 255 226 17 1 0 0 0 0 0 0 0 0 0 0 0 1 17 234 255 175 114 137 242 255 50 4 0 0 0 0 0 0 0 0 0 0 0 0 0 0 0 0 0 0 0 0 0 0 0
255 255 171 156 215 255 255 246 13 1 0 0 0 0 0 0 0 0 0 0 0 0 0 1 13 255 255 255 223 158 168 255 255 255 182 154 205 255 255 255 20 1 0 0 0 0 0 0 0 0 0 0 0 0 0 0 1 21 255 255 255 255 255 127 8 1 0 0 0 0 0 0 0 0 0 0 0 0 0 0 0 0 0 0 0 0 0 0 0 0 0 0 0 1 12 236 255 255 214 159 163 192 162 162 222 255 255 234 12 1 0 0 0 0 0 0 0 0 0 0 2 44 255 255 255 255 255 255 23 1 0 0 0 0 0 0 0 0 4 73 255 255 245 176 160 226 255 249 166 165 233 255 255 155 8 0 0 0 0 0 0 0 0 0 0 0 2 35 255 255 246 169 132 213 255 255 203 10 1 0 0 0 0 0 0 0 0 0 0 0 0 0 0 0 0 0 0 0 0 0 0 0 0 0 0 0 0 0 0 0 0 0 0 0 0 0 0 0 0 0 0 0 0 0 0 0 0 0 0 0 0 0 0 0 0 0 0 0 0 0 0 1 10 196 255 255 224 157 141 143 148 200 255 255 255 23 1 0 0 0 0 0 0 0 0 0 0 0 0 0 1 1 1 0 0 0 0 0 0 0 0 0 0 0 0 0 0 0 0 0 0 0 0 0 0 0 0 0 0 0 0 0 0 0 0 0 0 0 0 0 0 0 0 0 0 0 0 0 0 1 1 2 2 1 1 0 0 0 0 0 0 0 0 0 0 0 0 5 97 255 255 245 172 152 208 255 255 255 178 152 203 255 255 255 19 1 0 0 0 0 0 0 0 0 0 0 1 13 255 255 255 255 255 255 255 34 2 0 0 0 0 0 0 0 0 0 0 0 0 0 0 0 0 0 0 0 0 0 0 0 0 0 0 0 0 3 50 255 255 252 180 154 207 255 155 7 0 0 4 93 255 210 153 171 241 255 255 85 5 0 0 0 0 0 0 0 0 0 0 0 0 0 0 0 0 0 0 0 0 0 0 0 0 0 0 0 0 0 0 0 1 1 1 1 1 0 0 0 0 0 0 0 0 0 0 0 0 1 18 255 255 255 208 152 167 254 255 31 1 0 0 0 0 0 0 0 0 0 0 0 0 0 0 0 0 0 0 0 0 0 0 0 0 0 0 1 32 255 255 170 152 207 255 255 255 16 1 0 0 0 0 0 0 0 0 0 0 0 0 0 0 0 0 0 0 0 0 0 0 0 0 0 0 0 0 0 0 0 1 12 207 255 255 255 255 255 255 18 1 0 0 0 0 0 0 0 0 0 0 1 14 255 255 255 214 159 158 172 151 171 240 255 255 98 5 0 0 0 0 0 0 0 0 0 0 0 6 104 255 255 227 150 194 255 255 255 18 1 0 0 0 0 0 0 0 0 0 0 0 0 0 0 0 0 0 0 0 0 0 0
255 155 106 122 165 171 189 255 96 5 0 0 0 0 0 0 0 0 0 0 0 0 0 5 102 255 192 174 168 126 106 142 202 158 112 119 164 172 186 255 150 7 0 0 0 0 0 0 0 0 0 0 0 0 0 0 7 131 255 255 255 255 232 255 53 3 0 0 0 0 0 0 0 0 0 0 0 0 0 0 0 0 0 0 0 0 0 0 0 0 0 0 0 5 101 255 195 172 164 120 89 87 91 126 168 172 190 255 94 5 0 0 0 0 0 0 0 0 0 1 18 255 250 245 255 255 232 255 156 8 0 0 0 0 0 0 0 2 34 255 216 180 171 145 108 119 150 125 107 137 172 177 202 255 71 3 0 0 0 0 0 0 0 0 0 1 14 255 255 181 171 179 168 178 170 188 255 83 4 0 0 0 0 0 0 0 0 0 0 0 0 0 0 0 0 0 0 0 0 0 0 0 0 0 0 0 0 0 0 0 0 0 0 0 0 0 0 0 0 0 0 0 0 0 0 0 0 0 0 0 0 0 0 0 0 0 0 0 0 0 0 4 78 255 192 172 166 117 77 74 105 158 169 183 255 180 9 0 0 0 0 0 0 0 0 0 0 0 0 0 0 0 0 0 0 0 0 0 0 0 0 0 0 0 0 0 0 0 0 0 0 0 0 0 0 0 0 0 0 0 0 0 0 0 0 0 0 0 0 0 0 0 0 0 0 0 0 0 0 0 0 0 0 0 0 0 0 0 0 0 0 0 0 0 0 0 2 45 255 209 180 175 145 105 123 209 255 171 111 117 160 168 182 255 141 7 0 0 0 0 0 0 0 0 0 0 5 114 255 205 223 255 243 206 255 255 13 1 0 0 0 0 0 0 0 0 0 0 0 0 0 0 0 0 0 0 0 0 0 0 0 0 0 0 1 22 255 234 183 172 147 108 120 199 255 73 4 2 45 255 205 122 104 142 171 179 212 255 40 2 0 0 0 0 0 0 0 0 0 0 0 0 0 0 0 0 0 0 0 0 0 0 0 0 0 0 0 0 0 0 0 0 0 0 0 0 0 0 0 0 0 0 0 0 0 0 0 7 152 255 193 174 164 118 103 147 255 255 13 1 0 0 0 0 0 0 0 0 0 0 0 0 0 0 0 0 0 0 0 0 0 0 0 0 1 13 255 255 150 104 118 162 172 195 255 129 6 0 0 0 0 0 0 0 0 0 0 0 0 0 0 0 0 0 0 0 0 0 0 0 0 0 0 0 0 0 0 0 4 84 255 205 232 255 240 210 255 128 6 0 0 0 0 0 0 0 0 0 0 6 120 255 191 171 164 119 84 81 92 136 170 178 207 255 45 2 0 0 0 0 0 0 0 0 0 2 48 255 204 175 185 198 198 173 183 255 128 7 0 0 0 0 0 0 0 0 0 0 0 0 0 0 0 0 0 0 0 0 0 0
125 80 63 83 98 93 110 180 255 43 2 0 0 0 0 0 0 0 0 0 0 0 2 45 255 182 111 94 98 86 62 66 80 70 62 82 100 94 108 170 255 64 3 0 0 0 0 0 0 0 0 0 0 0 0 3 57 255 182 160 180 166 153 214 255 23 1 0 0 0 0 0 0 0 0 0 0 0 0 0 0 0 0 0 0 0 0 0 0 0 0 0 2 49 255 189 114 94 96 78 46 38 48 81 98 93 111 185 255 44 2 0 0 0 0 0 0 0 0 7 135 255 156 140 162 159 140 171 255 64 3 0 0 0 0 0 1 13 255 247 130 97 96 94 66 56 59 56 63 92 99 96 119 206 255 34 2 0 0 0 0 0 0 0 0 6 111 255 151 103 102 139 158 117 94 110 190 255 39 2 0 0 0 0 0 0 0 0 0 0 0 0 0 0 0 0 0 0 0 0 0 0 0 0 0 0 0 0 0 0 0 0 0 0 0 0 0 0 0 0 0 0 0 0 0 0 0 0 0 0 0 0 0 0 0 0 0 0 0 0 2 35 255 189 113 93 94 74 41 38 66 95 93 106 165 255 74 4 0 0 0 0 0 0 0 0 0 0 0 0 0 0 0 0 0 0 0 0 0 0 0 0 0 0 0 0 0 0 0 0 0 0 0 0 0 0 0 0 0 0 0 0 0 0 0 0 0 0 0 0 0 0 0 0 0 0 0 0 0 0 0 0 0 0 0 0 0 0 0 0 0 0 0 0 0 1 19 255 227 125 97 99 97 68 66 94 116 83 64 80 98 92 106 169 255 61 3 0 0 0 0 0 0 0 0 3 54 255 189 126 128 156 138 122 156 255 114 6 0 0 0 0 0 0 0 0 0 0 0 0 0 0 0 0 0 0 0 0 0 0 0 0 0 0 9 187 255 140 101 96 95 69 65 106 205 255 36 21 255 227 113 66 66 95 97 97 126 235 255 17 1 0 0 0 0 0 0 0 0 0 0 0 0 0 0 0 0 0 0 0 0 0 0 0 0 0 0 0 0 0 0 0 0 0 0 0 0 0 0 0 0 0 0 0 0 0 3 67 255 175 111 95 99 81 60 78 148 255 108 5 0 0 0 0 0 0 0 0 0 0 0 0 0 0 0 0 0 0 0 0 0 0 0 0 5 110 255 149 79 60 80 98 95 112 178 255 59 3 0 0 0 0 0 0 0 0 0 0 0 0 0 0 0 0 0 0 0 0 0 0 0 0 0 0 0 0 0 2 41 255 191 128 132 156 135 128 176 255 56 3 0 0 0 0 0 0 0 0 3 57 255 184 110 93 96 76 43 37 52 87 95 96 123 225 255 19 1 0 0 0 0 0 0 0 1 22 255 223 123 99 120 164 140 102 108 168 255 54 3 0 0 0 0 0 0 0 0 0 0 0 0 0 0 0 0 0 0 0 0 0
48 37 35 50 52 48 60 107 227 255 18 1 0 0 0 0 0 0 0 0 0 1 20 255 223 105 60 47 51 51 34 28 29 28 32 49 54 49 59 99 203 255 29 1 0 0 0 0 0 0 0 0 0 0 1 25 255 211 113 86 85 82 88 132 255 188 9 0 0 0 0 0 0 0 0 0 0 0 0 0 0 0 0 0 0 0 0 0 0 0 0 1 23 255 227 109 62 48 50 44 23 16 24 46 50 47 61 108 231 255 20 1 0 0 0 0 0 0 3 59 255 167 90 72 76 76 77 103 201 255 30 1 0 0 0 0 5 102 255 143 72 50 49 53 37 24 22 23 34 54 52 49 65 120 252 255 13 1 0 0 0 0 0 0 2 49 255 173 85 56 59 93 112 72 51 61 112 238 255 16 1 0 0 0 0 0 0 0 0 0 0 0 0 0 0 0 0 0 0 0 0 0 0 0 0 0 0 0 0 0 0 0 0 0 0 0 0 0 0 0 0 0 0 0 0 0 0 0 0 0 0 0 0 0 0 0 0 0 0 1 15 255 245 112 62 47 48 41 21 19 38 50 47 57 95 195 255 35 2 0 0 0 0 0 0 0 0 0 0 0 0 0 0 0 0 0 0 0 0 0 0 0 0 0 0 0 0 0 0 0 0 0 0 0 0 0 0 0 0 0 0 0 0 0 0 0 0 0 0 0 0 0 0 0 0 0 0 0 0 0 0 0 0 0 0 0 0 0 0 0 0 0 0 0 0 7 150 255 133 69 50 51 57 41 32 38 43 36 35 49 53 48 58 99 206 255 28 1 0 0 0 0 0 0 1 25 255 221 110 71 66 74 69 67 90 181 255 56 3 0 0 0 0 0 0 0 0 0 0 0 0 0 0 0 0 0 0 0 0 0 0 0 0 4 82 255 163 79 52 49 53 41 35 54 115 252 255 252 255 130 59 35 40 55 50 49 70 138 255 147 7 0 0 0 0 0 0 0 0 0 0 0 0 0 0 0 0 0 0 0 0 0 0 0 0 0 0 0 0 0 0 0 0 0 0 0 0 0 0 0 0 0 0 0 0 1 32 255 205 100 59 49 53 50 34 40 81 178 255 51 2 0 0 0 0 0 0 0 0 0 0 0 0 0 0 0 0 0 0 0 0 0 0 2 51 255 176 80 40 34 49 52 49 60 103 214 255 29 1 0 0 0 0 0 0 0 0 0 0 0 0 0 0 0 0 0 0 0 0 0 0 0 0 0 0 0 1 19 255 241 116 74 67 73 68 71 104 212 255 26 1 0 0 0 0 0 0 1 27 255 217 105 60 47 50 43 21 17 27 48 48 48 68 132 255 161 8 0 0 0 0 0 0 0 8 172 255 131 68 54 72 102 85 58 60 99 209 255 24 1 0 0 0 0 0 0 0 0 0 0 0 0 0 0 0 0 0 0 0 0
17 16 18 27 26 24 33 63 140 255 142 7 0 0 0 0 0 0 0 0 0 8 176 255 139 61 32 23 25 27 17 11 10 11 15 27 27 24 32 57 125 255 254 12 1 0 0 0 0 0 0 0 0 0 10 202 255 132 68 45 39 39 50 81 169 255 79 4 0 0 0 0 0 0 0 0 0 0 0 0 0 0 0 0 0 0 0 0 0 0 0 10 218 255 139 63 33 24 24 22 11 7 11 23 24 23 33 63 144 255 191 9 0 0 0 0 0 1 30 255 220 103 52 36 34 35 41 62 126 255 254 12 1 0 0 2 46 255 184 86 40 25 24 27 18 10 8 10 17 28 25 24 35 69 150 255 113 5 0 0 0 0 0 1 22 255 228 106 49 31 35 60 73 45 28 34 65 145 255 136 7 0 0 0 0 0 0 0 0 0 0 0 0 0 0 0 0 0 0 0 0 0 0 0 0 0 0 0 0 0 0 0 0 0 0 0 0 0 0 0 0 0 0 0 0 0 0 0 0 0 0 0 0 0 0 0 0 0 0 6 130 255 152 66 34 23 22 20 10 9 19 24 23 30 55 121 255 255 14 1 0 0 0 0 0 0 0 0 0 0 0 0 0 0 0 0 0 0 0 0 0 0 0 0 0 0 0 0 0 0 0 0 0 0 0 0 0 0 0 0 0 0 0 0 0 0 0 0 0 0 0 0 0 0 0 0 0 0 0 0 0 0 0 0 0 0 0 0 0 0 0 0 0 0 3 64 255 172 78 38 25 25 30 23 15 14 15 15 17 28 27 24 32 58 128 255 243 11 1 0 0 0 0 0 10 201 255 134 64 39 33 33 32 36 53 111 232 255 28 1 0 0 0 0 0 0 0 0 0 0 0 0 0 0 0 0 0 0 0 0 0 0 2 42 255 208 98 45 27 24 27 23 18 28 65 159 255 255 187 77 32 18 22 29 25 25 39 82 180 255 70 3 0 0 0 0 0 0 0 0 0 0 0 0 0 0 0 0 0 0 0 0 0 0 0 0 0 0 0 0 0 0 0 0 0 0 0 0 0 0 0 0 0 0 1 13 255 255 126 57 32 24 27 28 19 21 45 108 233 255 25 1 0 0 0 0 0 0 0 0 0 0 0 0 0 0 0 0 0 0 0 0 1 23 255 230 107 44 21 18 27 26 24 32 59 132 255 255 13 1 0 0 0 0 0 0 0 0 0 0 0 0 0 0 0 0 0 0 0 0 0 0 0 0 0 0 8 159 255 148 70 42 33 32 32 39 62 132 255 247 11 0 0 0 0 0 0 11 243 255 132 60 32 23 23 21 10 7 13 23 23 24 38 79 176 255 74 4 0 0 0 0 0 4 72 255 169 77 39 30 42 58 49 33 34 59 131 255 224 10 0 0 0 0 0 0 0 0 0 0 0 0 0 0 0 0 0 0 0 0
6 6 8 13 12 11 18 40 91 187 255 64 3 0 0 0 0 0 0 0 4 83 255 187 89 38 17 11 11 12 7 4 4 4 7 12 12 12 17 35 80 171 255 105 5 0 0 0 0 0 0 0 0 4 84 255 175 85 43 24 18 19 29 54 110 215 255 38 2 0 0 0 0 0 0 0 0 0 0 0 0 0 0 0 0 0 0 0 0 0 5 104 255 183 88 39 18 11 10 9 4 3 5 9 10 11 18 40 92 187 255 91 4 0 0 0 1 12 255 255 144 67 32 18 15 15 22 39 82 169 255 115 5 0 1 21 255 244 120 55 23 12 11 11 8 4 3 4 7 13 11 12 19 42 96 199 255 56 3 0 0 0 0 9 201 255 148 68 30 17 21 40 48 29 16 19 41 93 193 255 66 3 0 0 0 0 0 0 0 0 0 0 0 0 0 0 0 0 0 0 0 0 0 0 0 0 0 0 0 0 0 0 0 0 0 0 0 0 0 0 0 0 0 0 0 0 0 0 0 0 0 0 0 0 0 0 0 0 3 60 255 195 98 43 19 11 9 8 4 4 8 10 11 16 34 77 162 255 122 6 0 0 0 0 0 0 0 0 0 0 0 0 0 0 0 0 0 0 0 0 0 0 0 0 0 0 0 0 0 0 0 0 0 0 0 0 0 0 0 0 0 0 0 0 0 0 0 0 0 0 0 0 0 0 0 0 0 0 0 0 0 0 0 0 0 0 0 0 0 0 0 0 0 1 31 255 222 111 50 22 12 12 14 11 6 5 5 5 8 13 12 11 17 36 82 171 255 104 5 0 0 0 0 4 89 255 174 84 40 22 15 14 15 19 33 71 148 255 255 13 1 0 0 0 0 0 0 0 0 0 0 0 0 0 0 0 0 0 0 0 0 1 21 255 255 133 63 27 14 11 12 10 9 15 41 104 199 216 120 50 18 9 11 13 11 12 23 52 116 231 255 38 2 0 0 0 0 0 0 0 0 0 0 0 0 0 0 0 0 0 0 0 0 0 0 0 0 0 0 0 0 0 0 0 0 0 0 0 0 0 0 0 0 0 5 114 255 165 79 35 17 12 12 14 9 11 26 69 150 255 242 11 0 0 0 0 0 0 0 0 0 0 0 0 0 0 0 0 0 0 0 0 9 203 255 148 67 26 11 9 13 12 12 17 37 84 172 255 117 6 0 0 0 0 0 0 0 0 0 0 0 0 0 0 0 0 0 0 0 0 0 0 0 0 0 3 70 255 186 94 45 24 15 14 15 21 39 86 178 255 105 5 0 0 0 0 5 109 255 175 83 37 17 11 10 9 4 3 5 9 10 11 21 51 114 225 255 38 2 0 0 0 2 35 255 217 109 49 23 16 23 32 28 19 20 38 86 179 255 107 5 0 0 0 0 0 0 0 0 0 0 0 0 0 0 0 0 0 0 0
2 2 3 5 4 5 10 27 65 126 234 255 32 1 0 0 0 0 0 2 45 255 231 125 64 26 9 5 4 4 3 2 1 1 2 4 5 5 9 23 58 115 211 255 50 2 0 0 0 0 0 0 2 40 255 218 118 63 30 13 8 9 17 39 77 142 255 255 16 1 0 0 0 0 0 0 0 0 0 0 0 0 0 0 0 0 0 0 0 3 57 255 225 121 62 26 9 5 4 3 2 1 2 3 4 5 10 27 65 123 229 255 50 2 0 0 5 111 255 179 98 49 20 9 6 6 11 27 60 114 214 255 61 3 9 197 255 161 84 39 14 6 4 4 3 1 1 1 3 4 4 5 10 29 68 134 250 255 29 1 0 0 4 89 255 191 102 50 19 9 12 27 31 17 8 11 28 67 129 241 255 35 2 0 0 0 0 0 0 0 0 0 0 0 0 0 0 0 0 0 0 0 0 0 0 0 0 0 0 0 0 0 0 0 0 0 0 0 0 0 0 0 0 0 0 0 0 0 0 0 0 0 0 0 0 0 0 1 30 255 239 129 69 30 10 5 3 3 2 2 3 4 4 8 22 55 109 206 255 58 3 0 0 0 0 0 0 0 0 0 0 0 0 0 0 0 0 0 0 0 0 0 0 0 0 0 0 0 0 0 0 0 0 0 0 0 0 0 0 0 0 0 0 0 0 0 0 0 0 0 0 0 0 0 0 0 0 0 0 0 0 0 0 0 0 0 0 0 0 0 0 0 1 14 255 255 148 78 35 12 6 5 5 4 2 2 2 2 3 5 5 5 9 24 59 115 214 255 52 2 0 0 2 47 255 222 117 60 26 11 7 5 6 9 21 51 99 186 255 136 6 0 0 0 0 0 0 0 0 0 0 0 0 0 0 0 0 0 0 0 0 9 216 255 170 90 44 16 7 4 4 4 4 8 28 68 99 104 76 35 10 4 4 5 4 6 13 37 80 151 255 255 18 1 0 0 0 0 0 0 0 0 0 0 0 0 0 0 0 0 0 0 0 0 0 0 0 0 0 0 0 0 0 0 0 0 0 0 0 0 0 0 0 3 59 255 212 111 56 23 8 5 5 5 4 5 16 49 100 188 255 106 5 0 0 0 0 0 0 0 0 0 0 0 0 0 0 0 0 0 0 4 92 255 188 100 48 16 5 4 5 5 5 9 24 59 114 211 255 57 3 0 0 0 0 0 0 0 0 0 0 0 0 0 0 0 0 0 0 0 0 0 0 0 2 35 255 229 123 66 31 13 7 5 6 11 27 62 118 214 255 51 2 0 0 3 57 255 217 116 59 24 9 4 4 3 2 1 2 3 4 5 12 36 79 147 255 255 19 1 0 1 15 255 255 144 76 34 13 8 11 16 14 10 11 26 63 120 223 255 57 3 0 0 0 0 0 0 0 0 0 0 0 0 0 0 0 0 0 0
1 1 1 1 1 2 5 19 55 91 155 255 255 13 1 0 0 0 1 22 255 255 151 90 53 18 5 2 1 1 1 0 0 0 1 1 2 2 4 15 49 85 140 252 255 24 1 0 0 0 0 1 18 255 255 146 88 55 21 7 3 4 10 31 64 100 173 255 153 7 0 0 0 0 0 0 0 0 0 0 0 0 0 0 0 0 0 0 1 30 255 255 146 87 51 18 5 2 1 1 1 0 1 1 1 2 5 19 53 88 149 255 255 27 1 3 55 255 214 120 75 41 13 4 2 3 6 19 51 86 142 254 255 41 96 255 196 112 68 30 8 3 1 1 1 0 0 0 1 1 1 2 6 21 57 95 163 255 255 13 1 2 45 255 225 128 78 41 12 5 6 15 18 9 4 6 20 55 93 158 255 255 16 1 0 0 0 0 0 0 0 0 0 0 0 0 0 0 0 0 0 0 0 0 0 0 0 0 0 0 0 0 0 0 0 0 0 0 0 0 0 0 0 0 0 0 0 0 0 0 0 0 0 0 0 0 1 14 255 255 158 92 56 21 5 2 1 1 1 1 1 1 2 4 14 46 82 138 244 255 28 1 0 0 0 0 0 0 0 0 0 0 0 0 0 0 0 0 0 0 0 0 0 0 0 0 0 0 0 0 0 0 0 0 0 0 0 0 0 0 0 0 0 0 0 0 0 0 0 0 0 0 0 0 0 0 0 0 0 0 0 0 0 0 0 0 0 0 0 0 0 0 7 142 255 185 104 63 26 7 2 2 2 1 1 1 0 1 1 1 2 2 4 16 49 85 142 254 255 25 1 1 24 255 255 148 86 50 18 6 3 2 2 4 14 41 75 123 216 255 68 3 0 0 0 0 0 0 0 0 0 0 0 0 0 0 0 0 0 0 5 97 255 200 114 70 34 10 3 2 1 1 2 5 19 45 50 51 48 25 6 2 1 2 2 2 8 28 64 103 177 255 180 8 0 0 0 0 0 0 0 0 0 0 0 0 0 0 0 0 0 0 0 0 0 0 0 0 0 0 0 0 0 0 0 0 0 0 0 0 0 0 1 31 255 252 141 83 46 15 4 2 2 2 1 3 10 38 75 124 219 255 53 2 0 0 0 0 0 0 0 0 0 0 0 0 0 0 0 0 2 48 255 225 126 76 37 10 3 1 1 2 2 4 16 48 83 139 248 255 29 1 0 0 0 0 0 0 0 0 0 0 0 0 0 0 0 0 0 0 0 0 0 1 16 255 255 152 89 54 22 7 3 2 2 6 19 52 85 141 253 255 25 1 1 30 255 254 143 85 48 16 4 2 1 1 1 0 1 1 1 2 7 27 63 102 178 255 190 9 1 7 156 255 178 101 61 26 7 4 5 6 6 4 6 18 53 88 145 255 255 30 1 0 0 0 0 0 0 0 0 0 0 0 0 0 0 0 0 0
0 0 0 0 0 1 3 14 54 76 106 178 255 117 6 0 0 0 10 211 255 169 102 74 51 13 3 1 0 0 0 0 0 0 0 0 0 1 2 11 49 72 98 163 255 232 11 0 0 0 0 8 176 255 170 101 76 58 16 4 1 2 6 26 63 80 116 204 255 75 4 0 0 0 0 0 0 0 0 0 0 0 0 0 0 0 0 1 14 255 255 163 98 72 49 13 3 1 0 0 0 0 0 0 0 1 3 13 49 73 100 167 255 255 14 29 255 249 140 88 67 39 9 2 1 1 3 13 52 75 99 162 255 255 255 229 129 85 65 24 5 1 0 0 0 0 0 0 0 0 0 1 3 15 56 77 108 183 255 123 7 21 255 255 145 92 70 39 8 2 3 6 8 4 2 3 14 54 76 106 176 255 138 7 0 0 0 0 0 0 0 0 0 0 0 0 0 0 0 0 0 0 0 0 0 0 0 0 0 0 0 0 0 0 0 0 0 0 0 0 0 0 0 0 0 0 0 0 0 0 0 0 0 0 0 0 6 138 255 185 107 75 52 15 3 1 0 0 0 0 0 0 1 2 10 44 72 97 157 255 255 13 1 0 0 0 0 0 0 0 0 0 0 0 0 0 0 0 0 0 0 0 0 0 0 0 0 0 0 0 0 0 0 0 0 0 0 0 0 0 0 0 0 0 0 0 0 0 0 0 0 0 0 0 0 0 0 0 0 0 0 0 0 0 0 0 0 0 0 0 0 3 68 255 209 122 82 60 21 4 1 1 0 0 0 0 0 0 0 0 0 1 2 11 48 73 98 163 255 242 12 12 249 255 168 102 74 49 13 3 1 1 1 2 9 37 67 88 137 241 255 35 2 0 0 0 0 0 0 0 0 0 0 0 0 0 0 0 0 2 48 255 221 128 84 64 28 6 1 1 0 0 1 3 12 28 26 26 29 15 4 1 0 0 1 1 5 22 59 79 116 202 255 85 4 0 0 0 0 0 0 0 0 0 0 0 0 0 0 0 0 0 0 0 0 0 0 0 0 0 0 0 0 0 0 0 0 0 0 0 0 1 15 255 255 161 98 72 43 10 2 1 1 0 1 1 7 33 66 89 141 250 255 25 1 0 0 0 0 0 0 0 0 0 0 0 0 0 0 1 25 255 255 146 91 67 32 6 1 1 0 0 1 2 11 44 70 96 159 255 255 13 1 0 0 0 0 0 0 0 0 0 0 0 0 0 0 0 0 0 0 0 0 7 146 255 178 104 74 53 16 4 1 1 1 3 13 50 72 97 163 255 242 12 14 255 255 162 98 71 46 11 2 1 0 0 0 0 0 0 0 1 4 21 58 79 117 200 255 85 8 77 255 208 119 80 59 20 4 2 2 2 2 2 3 13 52 74 99 162 255 255 15 1 0 0 0 0 0 0 0 0 0 0 0 0 0 0 0 0
0 0 0 0 0 0 2 11 67 78 79 115 204 255 56 3 0 4 92 255 190 108 76 74 59 11 2 0 0 0 0 0 0 0 0 0 0 0 1 9 61 75 77 106 185 255 98 5 0 0 4 86 255 197 111 79 83 87 14 2 1 1 4 24 81 79 84 130 233 255 40 2 0 0 0 0 0 0 0 0 0 0 0 0 0 0 0 6 121 255 179 103 74 72 57 10 2 0 0 0 0 0 0 0 0 0 2 10 56 74 75 106 185 255 173 255 255 157 94 75 75 42 7 1 0 0 2 11 67 82 77 105 186 255 255 149 90 76 80 22 3 1 0 0 0 0 0 0 0 0 0 0 2 13 71 74 79 116 208 255 85 193 255 162 96 75 77 42 7 1 1 2 2 1 1 2 12 68 76 78 112 197 255 62 3 0 0 0 0 0 0 0 0 0 0 0 0 0 0 0 0 0 0 0 0 0 0 0 0 0 0 0 0 0 0 0 0 0 0 0 0 0 0 0 0 0 0 0 0 0 0 0 0 0 0 3 67 255 205 118 80 76 58 12 2 0 0 0 0 0 0 0 0 1 8 50 78 76 103 182 255 138 6 0 0 0 0 0 0 0 0 0 0 0 0 0 0 0 0 0 0 0 0 0 0 0 0 0 0 0 0 0 0 0 0 0 0 0 0 0 0 0 0 0 0 0 0 0 0 0 0 0 0 0 0 0 0 0 0 0 0 0 0 0 0 0 0 0 0 0 2 35 255 234 131 85 77 74 17 3 1 0 0 0 0 0 0 0 0 0 0 0 1 9 58 76 77 105 184 255 132 126 255 188 107 77 78 63 11 2 0 0 0 1 6 37 76 72 91 150 255 255 15 1 0 0 0 0 0 0 0 0 0 0 0 0 0 0 1 24 255 252 139 86 72 75 25 4 1 0 0 0 0 1 6 14 12 12 14 7 2 0 0 0 0 1 3 18 69 72 82 127 226 255 44 2 0 0 0 0 0 0 0 0 0 0 0 0 0 0 0 0 0 0 0 0 0 0 0 0 0 0 0 0 0 0 0 0 0 0 0 7 139 255 179 103 76 77 50 8 1 0 0 0 0 1 5 30 70 72 93 157 255 228 11 0 0 0 0 0 0 0 0 0 0 0 0 0 0 11 254 255 162 96 75 72 29 5 1 0 0 0 0 1 9 47 73 75 103 180 255 124 6 0 0 0 0 0 0 0 0 0 0 0 0 0 0 0 0 0 0 0 3 67 255 197 114 79 78 67 13 2 1 0 0 2 11 60 75 76 106 184 255 123 139 255 178 103 75 73 54 9 1 0 0 0 0 0 0 0 0 1 3 17 66 74 82 125 220 255 121 255 232 131 85 76 72 17 3 1 0 1 1 1 2 11 64 77 75 103 181 255 143 7 0 0 0 0 0 0 0 0 0 0 0 0 0 0 0 0
0 0 0 0 0 0 2 15 131 110 71 78 127 236 255 27 3 44 255 212 116 73 68 100 99 12 1 0 0 0 0 0 0 0 0 0 0 0 1 13 125 111 74 74 114 207 255 47 2 2 47 255 224 122 77 77 139 214 25 2 0 1 4 30 158 111 71 85 143 255 255 18 1 0 0 0 0 0 0 0 0 0 0 0 0 0 3 56 255 197 109 70 67 99 99 12 1 0 0 0 0 0 0 0 0 0 1 11 90 102 67 71 113 216 255 255 182 98 69 83 119 62 7 1 0 0 2 16 147 130 75 73 109 166 146 95 71 90 139 25 3 0 0 0 0 0 0 0 0 0 0 0 2 18 144 99 68 77 130 253 255 255 188 101 69 77 114 61 7 1 0 1 1 0 0 2 16 135 104 68 75 123 226 255 29 1 0 0 0 0 0 0 0 0 0 0 0 0 0 0 0 0 0 0 0 0 0 0 0 0 0 0 0 0 0 0 0 0 0 0 0 0 0 0 0 0 0 0 0 0 0 0 0 0 2 35 255 231 125 78 70 105 91 12 2 0 0 0 0 0 0 0 0 1 9 88 116 74 73 113 205 255 67 3 0 0 0 0 0 0 0 0 0 0 0 0 0 0 0 0 0 0 0 0 0 0 0 0 0 0 0 0 0 0 0 0 0 0 0 0 0 0 0 0 0 0 0 0 0 0 0 0 0 0 0 0 0 0 0 0 0 0 0 0 0 0 0 0 0 1 15 255 255 144 84 68 96 133 20 2 0 0 0 0 0 0 0 0 0 0 0 0 1 12 111 113 73 73 114 217 255 255 215 115 73 71 117 142 15 2 0 0 0 1 6 50 124 76 66 93 166 255 131 6 0 0 0 0 0 0 0 0 0 0 0 0 0 0 10 230 255 156 87 65 81 128 28 4 1 0 0 0 0 1 2 5 5 5 5 3 1 0 0 0 0 0 2 19 115 88 66 82 138 255 255 21 1 0 0 0 0 0 0 0 0 0 0 0 0 0 0 0 0 0 0 0 0 0 0 0 0 0 0 0 0 0 0 0 0 0 3 64 255 195 109 71 72 113 85 10 1 0 0 0 0 1 4 31 99 73 67 98 178 255 105 5 0 0 0 0 0 0 0 0 0 0 0 0 5 110 255 183 101 69 75 104 30 4 1 0 0 0 0 1 9 70 106 70 72 111 203 255 59 3 0 0 0 0 0 0 0 0 0 0 0 0 0 0 0 0 0 1 35 255 226 122 76 72 119 141 16 2 0 0 0 2 13 112 111 73 73 114 214 255 255 207 110 71 69 104 99 11 1 0 0 0 0 0 0 0 0 0 2 17 106 92 65 80 139 255 255 255 144 84 70 98 133 20 2 0 0 0 0 0 2 14 121 111 70 71 110 198 255 66 3 0 0 0 0 0 0 0 0 0 0 0 0 0 0 0
0 0 0 0 0 0 3 40 255 221 94 59 79 143 255 250 34 255 243 127 72 55 89 201 242 28 2 0 0 0 0 0 0 0 0 0 0 0 3 39 255 235 110 59 71 125 240 255 23 26 255 253 134 76 62 123 255 255 89 6 0 1 6 84 249 221 86 60 85 156 255 142 7 0 0 0 0 0 0 0 0 0 0 0 0 1 28 255 229 119 67 53 90 211 255 30 2 0 0 0 0 0 0 0 0 0 2 25 237 209 89 54 71 129 230 207 112 65 63 144 227 199 16 1 0 0 3 49 255 248 116 58 61 72 68 59 72 166 229 56 5 0 0 0 0 0 0 0 0 0 0 0 4 50 255 207 83 57 81 152 255 235 119 67 60 119 210 191 15 1 0 0 0 0 0 3 42 255 216 87 56 76 138 255 235 11 1 0 0 0 0 0 0 0 0 0 0 0 0 0 0 0 0 0 0 0 0 0 0 0 0 0 0 0 0 0 0 0 0 0 0 0 0 0 0 0 0 0 0 0 0 0 0 1 17 255 255 140 76 56 88 207 228 25 2 0 0 0 0 0 0 0 0 2 26 255 225 109 60 71 121 225 255 33 1 0 0 0 0 0 0 0 0 0 0 0 0 0 0 0 0 0 0 0 0 0 0 0 0 0 0 0 0 0 0 0 0 0 0 0 0 0 0 0 0 0 0 0 0 0 0 0 0 0 0 0 0 0 0 0 0 0 0 0 0 0 0 0 0 6 134 255 160 86 58 72 184 242 47 4 0 0 0 0 0 0 0 0 0 0 0 0 2 34 255 231 106 58 73 133 253 255 132 72 57 100 242 255 50 3 0 0 0 1 11 140 229 131 59 60 99 189 255 62 3 0 0 0 0 0 0 0 0 0 0 0 0 5 96 255 175 93 59 62 151 234 58 5 0 0 0 0 0 0 1 2 2 2 2 1 0 0 0 0 0 0 3 38 235 176 71 56 83 154 255 178 8 0 0 0 0 0 0 0 0 0 0 0 0 0 0 0 0 0 0 0 0 0 0 0 0 0 0 0 0 0 0 0 0 1 33 255 223 116 67 56 101 220 255 25 2 0 0 0 0 1 5 50 188 111 57 64 107 206 255 53 2 0 0 0 0 0 0 0 0 0 0 2 51 255 201 108 64 58 112 191 48 5 1 0 0 0 0 1 18 204 211 100 57 70 121 228 255 28 1 0 0 0 0 0 0 0 0 0 0 0 0 0 0 0 1 14 255 255 138 75 57 100 246 255 46 3 0 0 0 3 34 255 232 108 58 72 132 255 249 129 70 55 96 219 255 31 2 0 0 0 0 0 0 0 0 0 3 33 225 178 70 56 87 162 243 164 89 59 77 194 249 47 4 0 0 0 0 0 3 36 255 227 100 55 68 118 222 255 32 1 0 0 0 0 0 0 0 0 0 0 0 0 0 0
0 0 0 0 0 1 11 197 214 238 190 59 50 82 163 255 255 255 142 72 45 57 191 250 241 127 7 0 0 0 0 0 0 0 0 0 0 1 12 208 224 247 225 67 46 72 141 255 255 255 255 146 76 49 72 225 216 192 255 36 2 2 33 255 212 231 161 53 51 88 173 255 62 3 0 0 0 0 0 0 0 0 0 0 1 12 255 255 135 68 43 57 205 255 246 161 9 1 0 0 0 0 0 0 0 0 6 105 254 252 196 57 45 68 98 92 63 47 91 244 248 255 77 4 0 1 17 255 211 228 225 68 33 30 30 40 114 234 202 255 18 1 0 0 0 0 0 0 0 0 0 1 18 255 211 245 174 55 51 80 119 107 68 47 78 227 244 255 69 4 0 0 0 0 1 13 217 213 243 185 56 48 79 156 255 95 5 0 0 0 0 0 0 0 0 0 0 0 0 0 0 0 0 0 0 0 0 0 0 0 0 0 0 0 0 0 0 0 0 0 0 0 0 0 0 0 0 0 0 0 0 0 0 7 142 255 155 79 47 53 173 244 249 98 6 0 0 0 0 0 0 0 0 7 125 255 244 217 70 46 68 130 255 255 14 1 0 0 0 0 0 0 0 0 0 0 0 0 0 0 0 0 0 0 0 0 0 0 0 0 0 0 0 0 0 0 0 0 0 0 0 0 0 0 0 0 0 0 0 0 0 0 0 0 0 0 0 0 0 0 0 0 0 0 0 0 0 0 3 61 255 182 91 52 47 126 237 209 238 14 1 0 0 0 0 0 0 0 0 0 0 1 9 165 233 245 218 67 48 73 112 113 73 47 63 207 238 220 255 20 1 0 0 3 50 255 237 245 85 42 58 110 218 255 30 1 0 0 0 0 0 0 0 0 0 0 2 46 255 194 99 55 44 103 249 214 255 18 1 0 0 0 0 0 0 0 0 0 0 0 0 0 0 0 0 1 10 164 222 255 136 46 50 87 170 255 76 4 0 0 0 0 0 0 0 0 0 0 0 0 0 0 0 0 0 0 0 0 0 0 0 0 0 0 0 0 0 0 1 15 255 255 132 67 43 63 205 245 255 134 7 0 0 0 0 1 13 192 225 224 74 44 63 119 230 255 25 1 0 0 0 0 0 0 0 0 1 22 255 224 115 62 44 72 214 216 177 12 1 0 0 0 0 5 80 255 252 212 64 45 69 132 255 238 11 1 0 0 0 0 0 0 0 0 0 0 0 0 0 0 6 116 255 152 79 48 60 202 236 215 254 15 1 0 1 10 180 233 248 227 67 48 73 113 111 72 46 61 210 255 247 172 9 1 0 0 0 0 0 0 0 1 8 126 228 248 131 48 52 79 101 79 53 50 140 240 212 248 14 1 0 0 0 1 10 172 222 242 218 63 43 67 129 255 255 13 1 0 0 0 0 0 0 0 0 0 0 0 0 0
0 0 0 0 0 4 71 255 155 159 212 93 34 45 92 203 255 179 79 39 32 98 227 175 170 255 53 3 0 0 0 0 0 0 0 0 0 4 76 255 156 160 206 118 35 39 76 166 255 255 163 76 41 37 119 187 136 137 228 242 13 13 241 238 155 154 206 70 32 47 95 199 255 29 1 0 0 0 0 0 0 0 0 0 5 99 255 151 72 37 32 109 231 175 172 255 65 3 0 0 0 0 0 0 0 2 43 255 172 175 228 104 32 31 37 36 31 44 173 189 171 190 255 35 2 6 113 255 150 147 196 120 23 12 14 40 192 171 163 255 103 6 0 0 0 0 0 0 0 0 0 6 127 255 160 166 226 85 33 37 45 43 35 41 155 203 176 188 255 29 1 0 0 0 4 84 255 156 162 223 93 33 43 84 178 255 44 2 0 0 0 0 0 0 0 0 0 0 0 0 0 0 0 0 0 0 0 0 0 0 0 0 0 0 0 0 0 0 0 0 0 0 0 0 0 0 0 0 0 0 0 0 3 58 255 166 81 42 31 79 215 169 169 255 39 2 0 0 0 0 0 0 3 51 255 167 165 206 127 35 37 68 143 255 115 6 0 0 0 0 0 0 0 0 0 0 0 0 0 0 0 0 0 0 0 0 0 0 0 0 0 0 0 0 0 0 0 0 0 0 0 0 0 0 0 0 0 0 0 0 0 0 0 0 0 0 0 0 0 0 0 0 0 0 0 0 0 1 27 255 203 99 49 31 58 208 166 162 255 88 5 0 0 0 0 0 0 0 0 0 0 3 61 255 158 161 209 120 36 35 43 44 35 34 111 209 154 155 255 142 7 0 1 20 255 204 173 198 184 41 33 58 121 255 255 13 1 0 0 0 0 0 0 0 0 1 21 255 223 106 52 32 49 210 186 170 255 105 6 0 0 0 0 0 0 0 0 0 0 0 0 0 0 0 0 3 61 255 169 180 231 62 30 46 91 191 255 36 2 0 0 0 0 0 0 0 0 0 0 0 0 0 0 0 0 0 0 0 0 0 0 0 0 0 0 0 0 0 6 127 255 145 69 37 33 115 211 167 174 255 57 3 0 0 0 4 66 255 190 210 151 38 35 62 126 255 191 9 0 0 0 0 0 0 0 0 8 162 255 124 60 34 36 136 202 182 255 63 4 0 0 0 2 35 255 187 178 218 116 34 37 70 148 255 96 5 0 0 0 0 0 0 0 0 0 0 0 0 0 2 50 255 168 81 42 34 97 206 151 152 255 93 5 0 4 70 255 164 163 210 120 36 35 44 43 35 34 115 222 171 170 255 71 4 0 0 0 0 0 0 0 3 48 255 169 177 224 64 30 33 38 33 30 63 211 165 162 255 90 5 0 0 0 3 62 255 157 162 217 121 33 36 68 142 255 107 5 0 0 0 0 0 0 0 0 0 0 0 0 0
0 0 0 0 1 30 255 169 99 92 130 156 32 23 45 90 127 82 39 21 34 186 141 102 112 198 255 23 1 0 0 0 0 0 0 0 2 34 255 169 96 88 120 179 39 21 38 87 181 177 84 37 21 38 163 107 75 80 129 255 106 112 255 138 92 90 134 108 25 23 47 108 249 235 11 1 0 0 0 0 0 0 0 2 43 255 167 76 35 20 38 208 140 100 108 186 255 28 1 0 0 0 0 0 1 16 255 206 113 101 141 199 35 14 13 13 17 59 183 113 95 118 232 255 17 49 255 157 91 82 115 182 29 6 9 55 161 105 106 156 255 43 2 0 0 0 0 0 0 0 3 55 255 158 99 97 143 158 29 15 15 15 17 53 200 125 101 119 241 222 11 1 0 2 39 255 170 100 94 139 174 33 22 42 95 214 255 19 1 0 0 0 0 0 0 0 0 0 0 0 0 0 0 0 0 0 0 0 0 0 0 0 0 0 0 0 0 0 0 0 0 0 0 0 0 0 0 0 0 0 0 1 24 255 188 85 39 21 28 139 137 99 113 209 255 14 1 0 0 0 0 1 21 255 196 104 93 125 189 41 20 33 72 160 255 49 2 0 0 0 0 0 0 0 0 0 0 0 0 0 0 0 0 0 0 0 0 0 0 0 0 0 0 0 0 0 0 0 0 0 0 0 0 0 0 0 0 0 0 0 0 0 0 0 0 0 0 0 0 0 0 0 0 0 0 0 0 10 205 249 109 48 24 23 98 159 102 105 164 255 39 2 0 0 0 0 0 0 0 0 1 25 255 178 99 90 125 187 40 16 15 15 16 37 187 126 87 92 153 255 58 3 8 154 255 126 100 121 203 64 20 28 60 136 255 109 5 0 0 0 0 0 0 0 0 9 185 255 121 52 25 21 83 187 115 108 155 255 45 2 0 0 0 0 0 0 0 0 0 0 0 0 0 0 1 26 255 181 112 108 163 111 23 22 45 102 229 255 13 1 0 0 0 0 0 0 0 0 0 0 0 0 0 0 0 0 0 0 0 0 0 0 0 0 0 0 0 3 55 255 161 72 34 20 39 195 131 96 107 195 255 25 1 0 1 26 255 171 127 134 209 53 20 30 62 140 255 75 4 0 0 0 0 0 0 3 66 255 142 62 29 19 46 197 130 125 175 255 26 1 0 1 13 251 229 119 102 133 194 39 20 34 75 170 255 44 2 0 0 0 0 0 0 0 0 0 0 0 1 20 255 198 89 39 22 34 161 123 85 93 159 255 40 3 32 255 179 102 91 123 184 39 16 15 15 16 40 201 134 96 105 185 255 33 2 0 0 0 0 0 1 19 255 194 115 108 165 118 22 13 13 13 21 101 150 99 103 162 255 38 2 0 1 25 255 175 101 92 130 205 40 19 33 72 163 255 47 2 0 0 0 0 0 0 0 0 0 0 0 0
0 0 0 1 12 245 235 98 55 48 74 158 41 13 19 34 43 31 17 13 51 172 82 53 62 113 255 176 9 0 0 0 0 0 0 1 13 255 228 97 52 44 67 140 53 13 17 38 67 66 36 17 13 45 127 60 37 42 70 167 255 255 173 76 48 47 73 143 27 12 22 53 133 255 87 5 0 0 0 0 0 0 1 18 255 208 88 35 16 13 64 168 81 52 58 104 243 208 10 0 0 0 0 0 6 111 255 117 63 53 82 170 54 9 4 5 13 88 109 62 48 63 127 255 214 255 201 87 48 42 65 140 42 6 10 75 87 58 59 91 205 255 18 1 0 0 0 0 0 1 25 255 195 87 54 51 81 174 38 8 5 5 13 81 128 71 52 65 133 255 85 4 1 15 255 221 98 55 50 80 173 47 13 19 46 116 255 157 7 0 0 0 0 0 0 0 0 0 0 0 0 0 0 0 0 0 0 0 0 0 0 0 0 0 0 0 0 0 0 0 0 0 0 0 0 0 0 0 0 0 0 9 176 252 102 40 17 11 37 168 78 53 63 119 255 97 5 0 0 0 0 8 151 255 112 57 47 71 139 56 13 15 34 84 197 255 19 1 0 0 0 0 0 0 0 0 0 0 0 0 0 0 0 0 0 0 0 0 0 0 0 0 0 0 0 0 0 0 0 0 0 0 0 0 0 0 0 0 0 0 0 0 0 0 0 0 0 0 0 0 0 0 0 0 0 0 4 78 255 133 53 22 12 26 165 91 56 59 95 218 255 16 1 0 0 0 0 0 0 0 8 163 248 103 54 46 71 144 54 10 5 5 9 52 155 73 44 48 83 186 255 30 68 255 148 70 52 68 118 117 18 13 28 68 165 255 50 2 0 0 0 0 0 0 4 77 255 146 60 24 12 22 154 105 64 60 90 204 255 19 1 0 0 0 0 0 0 0 0 0 0 0 0 0 10 201 250 106 63 58 90 176 29 11 20 49 122 255 102 5 0 0 0 0 0 0 0 0 0 0 0 0 0 0 0 0 0 0 0 0 0 0 0 0 0 0 1 23 255 193 83 34 15 13 59 156 76 50 58 109 255 209 10 1 9 164 241 104 71 79 135 88 15 13 29 72 173 255 34 2 0 0 0 0 1 31 255 181 74 29 13 13 73 139 79 72 107 248 179 9 1 5 99 255 125 65 53 76 153 58 13 15 36 90 213 255 20 1 0 0 0 0 0 0 0 0 0 0 7 145 255 108 43 18 12 44 154 70 44 50 90 212 255 32 255 237 102 55 46 69 141 53 10 5 5 10 61 158 77 49 56 103 234 236 12 1 0 0 0 0 7 135 255 114 66 60 94 187 29 6 4 6 23 151 83 53 57 93 213 255 14 1 9 185 248 101 55 48 75 153 63 13 15 34 86 203 255 19 1 0 0 0 0 0 0 0 0 0 0 0
0 0 0 5 97 255 132 52 28 23 42 96 52 9 7 11 13 10 7 12 83 96 45 27 32 59 141 255 72 4 0 0 0 0 0 5 110 255 127 50 26 21 36 75 73 12 8 14 22 22 14 7 9 50 68 31 18 20 36 97 238 235 98 39 23 23 44 121 34 7 10 25 68 166 255 37 2 0 0 0 0 0 7 150 255 116 43 16 7 15 123 90 43 25 29 53 133 255 78 4 0 0 0 2 47 255 150 62 32 26 45 91 90 10 2 3 17 130 58 31 22 31 68 178 255 255 116 45 23 20 35 73 58 8 14 108 45 29 30 48 116 255 130 7 0 0 0 0 0 10 199 255 109 44 26 25 47 106 51 7 2 3 15 127 67 36 25 33 71 169 255 39 8 113 255 121 51 28 25 45 100 68 11 9 21 59 151 255 68 3 0 0 0 0 0 0 0 0 0 0 0 0 0 0 0 0 0 0 0 0 0 0 0 0 0 0 0 0 0 0 0 0 0 0 0 0 0 0 0 0 4 74 255 136 51 18 8 9 54 115 47 27 33 65 158 255 44 2 0 0 3 62 255 142 58 28 23 37 73 77 12 7 15 41 109 255 137 7 0 0 0 0 0 0 0 0 0 0 0 0 0 0 0 0 0 0 0 0 0 0 0 0 0 0 0 0 0 0 0 0 0 0 0 0 0 0 0 0 0 0 0 0 0 0 0 0 0 0 0 0 0 0 0 0 0 2 34 255 170 70 25 10 8 39 159 57 29 30 50 123 255 142 7 0 0 0 0 0 0 3 64 255 133 54 27 22 37 76 74 9 2 2 9 76 83 39 21 23 41 105 255 255 255 190 81 36 25 34 67 185 28 7 12 33 88 207 255 22 1 0 0 0 0 2 36 255 181 76 28 11 7 35 179 63 33 30 48 117 255 158 8 0 0 0 0 0 0 0 0 0 0 0 0 4 79 255 137 57 32 29 55 147 45 8 9 23 63 161 255 47 2 0 0 0 0 0 0 0 0 0 0 0 0 0 0 0 0 0 0 0 0 0 0 0 0 0 9 182 255 106 40 15 7 13 103 84 41 24 28 56 140 255 86 8 66 255 131 57 37 42 73 157 20 7 13 35 96 232 246 12 1 0 0 1 12 239 244 101 36 13 6 16 132 76 43 39 59 135 255 73 6 46 255 163 66 33 26 41 81 92 13 7 16 44 118 255 148 7 0 0 0 0 0 0 0 0 0 3 60 255 143 55 20 8 10 60 92 39 21 24 47 121 255 255 255 132 53 27 22 36 74 72 9 2 2 11 103 84 41 24 28 52 126 255 86 5 0 0 0 3 56 255 146 62 34 31 58 146 44 5 2 4 32 139 50 27 28 48 119 255 97 9 76 255 137 54 28 23 40 80 107 14 7 15 42 112 255 151 7 0 0 0 0 0 0 0 0 0 0 0
0 0 2 44 255 172 72 27 13 11 22 48 65 9 3 3 4 3 3 18 156 53 23 12 15 30 77 185 255 34 2 0 0 0 2 51 255 169 69 26 12 9 17 40 113 14 4 5 7 7 5 3 8 49 32 15 8 9 18 49 98 97 48 19 10 11 26 73 40 6 4 11 34 92 223 255 15 1 0 0 0 3 67 255 157 62 21 7 5 29 206 56 22 11 13 27 72 174 255 34 2 0 1 20 255 207 85 32 15 12 22 51 171 18 2 3 25 146 39 15 10 15 36 95 190 156 65 23 11 9 17 36 93 12 23 140 31 14 14 25 62 154 255 55 3 0 0 0 4 82 255 144 57 22 12 12 24 52 67 8 1 3 25 158 43 17 11 16 36 95 228 255 87 255 158 64 25 13 12 23 51 111 13 4 10 29 82 193 255 32 1 0 0 0 0 0 0 0 0 0 0 0 0 0 0 0 0 0 0 0 0 0 0 0 0 0 0 0 0 0 0 0 0 0 0 0 0 0 0 2 36 255 186 75 26 8 4 10 92 62 26 13 16 34 91 217 255 18 1 1 30 255 191 78 29 13 10 17 39 112 15 4 7 19 57 148 255 58 3 0 0 0 0 0 0 0 0 0 0 0 0 0 0 0 0 0 0 0 0 0 0 0 0 0 0 0 0 0 0 0 0 0 0 0 0 0 0 0 0 0 0 0 0 0 0 0 0 0 0 0 0 0 0 0 1 13 255 233 96 35 12 4 8 61 96 37 15 14 26 66 162 255 66 3 0 0 0 0 1 29 255 184 74 27 13 10 18 40 110 13 2 2 14 127 45 19 10 10 20 56 154 255 255 111 42 17 11 17 47 149 48 6 6 15 44 116 255 173 8 0 0 0 1 14 255 235 101 37 13 5 7 56 115 42 17 14 25 63 154 255 65 3 0 0 0 0 0 0 0 0 0 0 2 36 255 178 75 29 15 15 33 83 76 9 4 10 32 91 215 255 20 1 0 0 0 0 0 0 0 0 0 0 0 0 0 0 0 0 0 0 0 0 0 0 0 4 78 255 146 55 19 7 4 23 184 51 21 11 13 28 76 181 255 108 255 186 74 30 18 21 50 174 35 5 6 16 49 128 255 98 5 0 0 5 94 255 133 52 18 6 5 30 189 51 23 19 31 75 184 255 71 255 216 92 34 15 12 20 47 157 19 4 7 21 61 151 255 60 3 0 0 0 0 0 0 0 1 27 255 192 79 27 9 4 11 91 48 20 10 11 24 68 181 255 194 74 27 12 10 17 39 107 12 2 2 21 180 50 20 11 12 26 67 166 255 38 2 0 1 25 255 196 82 32 17 16 34 78 66 7 1 5 42 85 31 13 13 24 65 160 255 117 255 184 76 28 13 11 19 48 179 24 4 7 20 59 152 255 67 3 0 0 0 0 0 0 0 0 0 0
0 1 19 255 223 98 38 13 6 5 10 26 86 11 2 1 1 1 4 37 192 44 12 5 6 14 40 108 247 255 13 1 0 1 24 255 217 96 36 12 5 4 8 32 165 25 3 2 2 2 1 2 7 42 16 6 3 4 8 21 35 35 20 9 4 5 14 37 43 6 2 5 16 49 130 255 111 6 0 0 1 32 255 202 88 32 10 3 6 63 159 47 12 5 6 13 38 101 239 255 14 1 8 168 255 123 46 16 7 5 12 44 189 41 4 4 37 109 30 8 4 7 17 44 74 64 32 11 5 4 8 29 184 27 41 129 29 7 6 12 33 88 203 255 24 1 0 2 39 255 187 80 29 10 5 5 11 29 100 11 2 4 38 122 34 9 5 7 18 51 136 255 255 238 92 33 12 6 5 11 37 176 24 3 4 14 42 110 251 255 13 1 0 0 0 0 0 0 0 0 0 0 0 0 0 0 0 0 0 0 0 0 0 0 0 0 0 0 0 0 0 0 0 0 0 0 0 0 1 16 255 246 108 40 13 4 3 21 200 43 14 6 7 17 49 126 255 142 8 13 255 255 113 42 14 6 4 8 30 148 24 3 3 9 30 85 202 255 27 1 0 0 0 0 0 0 0 0 0 0 0 0 0 0 0 0 0 0 0 0 0 0 0 0 0 0 0 0 0 0 0 0 0 0 0 0 0 0 0 0 0 0 0 0 0 0 0 0 0 0 0 0 0 0 5 110 255 134 52 17 5 3 12 124 54 22 8 6 12 34 91 207 255 34 1 0 0 1 12 255 255 110 40 14 5 4 9 31 158 22 2 3 28 183 37 10 4 4 10 30 84 163 137 61 21 8 5 9 32 85 101 10 3 7 22 62 153 255 75 4 0 0 6 117 255 133 53 18 6 3 11 109 62 25 8 6 12 33 86 195 255 29 1 0 0 0 0 0 0 0 0 1 15 255 239 103 39 14 7 7 18 50 180 17 3 5 16 48 123 255 156 8 0 0 0 0 0 0 0 0 0 0 0 0 0 0 0 0 0 0 0 0 0 0 2 39 255 193 82 29 9 3 5 50 174 45 11 5 6 14 39 105 255 255 255 114 41 15 8 12 39 114 64 7 3 8 25 71 175 255 47 2 2 44 255 176 73 26 8 3 6 62 142 44 13 9 16 41 110 255 255 255 126 49 17 7 5 10 40 174 38 4 3 10 31 84 196 255 26 1 0 0 0 0 0 0 10 215 255 112 42 13 4 3 19 161 33 10 4 5 12 36 87 136 92 39 13 5 4 8 30 156 21 2 4 42 170 43 11 5 5 12 35 97 231 255 16 1 9 191 255 115 44 16 8 8 18 43 128 12 2 6 57 45 18 6 6 12 34 96 255 255 255 109 41 14 6 5 10 42 164 49 5 3 10 31 87 201 255 34 1 0 0 0 0 0 0 0 0 0
0 8 160 255 131 53 19 6 2 2 5 22 130 17 2 0 0 1 7 96 130 44 8 2 3 7 21 59 142 255 116 6 1 9 189 255 127 52 18 6 2 2 6 36 150 48 4 1 1 1 0 1 6 29 8 3 1 1 3 8 11 11 7 3 2 2 7 19 44 6 1 2 8 26 74 172 255 49 2 1 13 255 255 117 48 16 5 2 16 210 96 39 8 2 2 6 20 56 141 255 122 10 72 255 162 69 25 8 3 2 8 43 121 116 9 6 54 66 23 5 2 3 7 17 26 23 13 5 2 2 6 42 201 93 112 95 27 5 3 6 17 48 120 255 187 9 1 16 255 239 109 43 15 5 2 2 6 26 163 21 2 6 60 74 27 6 2 3 9 28 81 186 255 137 54 18 6 2 2 7 40 160 49 5 2 7 22 60 145 255 103 5 0 0 0 0 0 0 0 0 0 0 0 0 0 0 0 0 0 0 0 0 0 0 0 0 0 0 0 0 0 0 0 0 0 0 0 0 6 128 255 142 60 21 6 2 5 57 205 53 9 3 3 8 26 70 163 255 76 124 255 151 63 22 7 2 2 5 32 136 44 4 2 4 15 47 121 255 215 11 0 0 0 0 0 0 0 0 0 0 0 0 0 0 0 0 0 0 0 0 0 0 0 0 0 0 0 0 0 0 0 0 0 0 0 0 0 0 0 0 0 0 0 0 0 0 0 0 0 0 0 0 0 3 54 255 180 77 28 8 3 3 32 236 49 12 4 3 6 18 49 120 255 255 15 1 0 5 102 255 149 62 22 7 2 2 6 34 148 41 4 5 63 147 41 7 2 2 5 15 39 63 56 30 10 4 2 5 21 63 255 27 3 3 11 33 88 199 255 38 2 3 56 255 175 75 28 9 3 3 27 230 49 15 4 3 6 17 46 114 255 226 11 0 0 0 0 0 0 0 0 6 129 255 140 57 20 7 3 3 11 54 231 49 4 2 8 25 68 160 255 69 3 0 0 0 0 0 0 0 0 0 0 0 0 0 0 0 0 0 0 0 0 1 16 255 244 112 45 15 4 2 12 169 110 43 8 2 2 6 21 60 145 238 157 68 23 7 4 7 28 69 171 14 2 4 12 39 103 228 255 22 22 255 231 104 40 13 4 2 15 201 89 37 8 4 8 22 64 154 255 180 74 26 8 3 2 7 39 119 90 8 2 5 15 45 116 255 191 9 0 0 0 0 0 4 86 255 150 63 22 6 2 4 40 187 39 6 2 2 6 17 37 50 38 18 6 2 2 5 34 152 41 4 8 101 105 39 7 2 2 6 18 55 138 255 131 11 83 255 152 64 23 8 3 3 10 41 223 31 3 10 100 26 9 3 2 6 19 57 141 231 149 63 22 7 2 2 7 38 104 158 11 2 4 16 47 118 255 255 15 1 0 0 0 0 0 0 0 0
4 72 255 169 75 29 10 3 1 1 4 30 168 31 3 0 0 2 30 255 96 44 7 1 1 3 11 32 81 184 255 58 7 82 255 160 71 28 9 3 1 1 5 42 104 144 10 1 0 0 0 1 3 14 4 1 0 1 1 2 3 3 2 1 1 1 3 11 40 6 1 1 4 14 42 102 221 255 21 6 104 255 148 65 25 8 2 5 62 255 88 33 6 1 1 3 10 32 82 182 255 144 255 203 94 39 13 4 1 1 7 42 95 255 40 13 110 42 15 3 1 1 3 6 8 8 5 2 1 1 7 74 157 255 255 100 26 4 1 2 8 26 69 157 255 82 11 144 255 140 61 23 7 2 1 1 5 38 175 48 5 12 137 47 18 4 1 1 4 15 44 85 106 69 30 9 3 1 1 6 46 106 149 11 2 3 11 33 83 180 255 46 2 0 0 0 0 0 0 0 0 0 0 0 0 0 0 0 0 0 0 0 0 0 0 0 0 0 0 0 0 0 0 0 0 0 0 3 55 255 174 80 33 11 3 2 16 244 131 74 9 2 1 4 14 39 97 222 255 255 189 86 35 11 3 1 1 5 34 99 124 9 1 2 8 26 68 153 255 91 4 0 0 0 0 0 0 0 0 0 0 0 0 0 0 0 0 0 0 0 0 0 0 0 0 0 0 0 0 0 0 0 0 0 0 0 0 0 0 0 0 0 0 0 0 0 0 0 0 0 0 0 1 26 255 227 107 44 15 4 2 7 110 179 69 10 2 1 3 9 26 66 150 255 143 7 3 47 255 185 86 35 11 3 1 1 5 39 103 103 9 18 251 101 47 6 1 1 2 7 16 22 20 12 5 2 1 3 15 75 208 93 7 2 5 17 49 119 254 255 20 29 255 224 104 42 14 4 2 6 91 193 63 11 2 1 2 8 25 65 151 255 91 5 0 0 0 0 0 0 3 59 255 179 81 32 10 3 1 2 10 73 147 217 14 2 4 13 38 94 208 255 35 2 0 0 0 0 0 0 0 0 0 0 0 0 0 0 0 0 0 0 0 7 137 255 142 62 24 7 2 4 53 255 98 41 6 1 1 3 11 32 69 97 73 37 12 4 2 4 19 70 255 49 4 2 6 21 58 135 255 216 230 255 138 59 21 6 2 4 65 255 88 31 6 2 4 12 35 75 112 85 41 14 4 1 1 6 37 90 255 28 2 2 8 25 66 153 255 77 4 0 0 0 2 40 255 191 87 35 11 3 1 8 111 130 55 7 1 1 2 7 14 17 14 7 3 1 1 5 39 108 103 10 31 255 80 34 6 1 1 3 9 31 80 175 255 179 255 199 89 36 12 4 1 2 8 59 170 92 9 26 229 32 5 1 1 3 10 32 68 95 70 34 11 3 1 1 6 35 95 255 51 4 2 8 26 66 150 255 134 6 0 0 0 0 0 0 0 0
40 255 209 99 43 15 5 1 0 1 5 48 139 73 6 0 1 8 150 223 105 53 7 1 1 1 5 17 47 109 227 255 103 255 202 93 40 15 4 1 0 1 6 52 103 255 46 3 0 0 0 0 2 4 2 0 0 0 0 1 1 1 1 0 0 0 1 7 31 5 1 1 2 7 23 59 132 255 169 66 255 184 85 36 13 4 2 21 255 160 92 32 5 1 0 1 5 17 47 110 250 255 255 124 54 21 6 2 1 1 6 50 104 208 247 56 255 49 9 2 0 0 1 2 2 2 1 1 0 1 18 210 152 255 255 163 35 4 1 1 4 14 39 93 202 255 197 255 179 81 34 12 3 1 0 1 7 66 128 193 16 40 255 57 12 2 1 1 2 7 21 35 40 31 15 4 1 0 1 7 61 99 255 47 3 2 5 17 47 107 226 255 20 1 0 0 0 0 0 0 0 0 0 0 0 0 0 0 0 0 0 0 0 0 0 0 0 0 0 0 0 0 0 0 0 0 1 24 255 213 102 45 17 5 2 5 87 255 119 136 15 2 1 2 7 22 57 136 255 253 115 49 19 6 1 0 1 5 39 102 255 43 3 1 4 14 39 90 195 255 46 2 0 0 0 0 0 0 0 0 0 0 0 0 0 0 0 0 0 0 0 0 0 0 0 0 0 0 0 0 0 0 0 0 0 0 0 0 0 0 0 0 0 0 0 0 0 0 0 0 0 0 11 234 255 134 61 24 7 2 3 40 255 130 123 14 2 1 1 4 13 37 85 182 255 70 24 255 228 109 49 19 6 1 0 1 6 46 93 255 44 94 255 111 67 8 1 0 1 2 5 7 7 4 2 1 1 2 16 100 134 255 34 2 2 9 27 68 149 255 250 255 255 133 59 23 7 2 2 34 255 133 97 12 2 1 1 4 13 37 89 190 255 43 2 0 0 0 0 1 28 255 218 105 46 17 5 1 1 2 14 120 122 255 75 5 2 6 21 54 125 255 255 16 1 0 0 0 0 0 0 0 0 0 0 0 0 0 0 0 0 0 3 64 255 177 81 35 12 3 2 18 255 180 106 49 6 1 0 1 5 15 29 36 30 18 6 2 1 3 18 93 165 255 16 2 3 11 33 78 174 255 255 178 80 33 11 3 2 26 255 169 104 31 5 1 2 6 17 33 42 36 20 7 2 1 1 5 41 106 230 142 8 1 4 13 38 91 195 255 36 2 0 1 18 255 241 114 50 19 6 2 3 37 255 107 95 10 1 0 1 2 4 5 4 3 1 0 1 6 48 96 255 49 154 215 94 33 5 1 0 1 5 17 45 106 248 255 255 123 52 20 6 2 1 1 11 105 121 255 43 98 208 70 6 1 0 1 5 15 28 35 29 16 5 1 0 1 5 40 108 185 255 18 2 4 13 37 86 183 255 62 3 0 0 0 0 0 0 0
255 255 121 55 23 8 2 1 0 1 9 102 109 255 22 1 3 55 255 140 113 92 10 1 0 1 2 9 26 61 133 255 255 255 120 53 21 7 2 1 0 1 9 91 128 187 255 15 1 0 0 0 1 1 1 0 0 0 0 0 0 0 0 0 0 0 1 4 17 4 1 0 1 3 12 33 75 165 255 255 240 108 48 19 6 2 7 128 255 115 97 36 5 1 0 1 2 9 26 63 134 221 154 73 30 11 3 1 0 1 9 85 114 140 255 255 224 106 11 1 0 0 0 1 1 1 0 0 0 4 67 255 150 133 137 184 81 7 1 1 2 7 22 53 121 255 255 239 105 46 18 6 2 0 0 1 15 178 128 255 117 211 177 107 13 2 0 0 1 3 8 13 14 11 6 2 1 0 1 12 123 120 183 255 15 1 2 9 25 60 132 255 152 7 0 0 0 0 0 0 0 0 0 0 0 0 0 0 0 0 0 0 0 0 0 0 0 0 0 0 0 0 0 0 0 0 10 210 255 125 56 24 8 2 2 38 255 169 128 218 35 3 0 1 3 11 33 73 122 113 63 27 9 3 1 0 1 6 61 138 204 255 16 1 2 7 21 50 114 234 255 20 1 0 0 0 0 0 0 0 0 0 0 0 0 0 0 0 0 0 0 0 0 0 0 0 0 0 0 0 0 0 0 0 0 0 0 0 0 0 0 0 0 0 0 0 0 0 0 0 0 5 97 255 159 74 33 13 4 2 14 250 212 128 218 31 2 0 1 2 6 19 47 103 214 255 255 255 133 60 26 9 3 1 0 1 8 75 125 226 255 255 167 134 159 14 1 0 0 1 2 2 2 1 1 0 0 2 24 145 113 224 209 11 2 4 14 37 84 183 255 255 162 74 33 12 3 1 12 224 229 123 181 23 2 0 0 2 6 20 50 111 234 255 20 1 0 0 0 11 216 255 126 58 25 9 2 1 0 3 30 198 118 175 255 32 2 3 11 30 69 148 255 140 7 0 0 0 0 0 0 0 0 0 0 0 0 0 0 0 0 1 33 255 213 101 45 18 6 2 6 113 255 124 113 84 9 1 0 1 2 6 10 12 11 7 2 1 1 3 23 133 126 255 101 6 2 5 17 44 102 206 205 103 45 18 5 2 9 174 255 125 121 38 5 1 1 2 7 12 15 13 8 3 1 0 1 7 59 123 147 255 55 3 2 6 21 51 115 245 255 15 1 7 144 255 141 64 27 10 3 1 12 224 207 131 220 23 2 0 0 1 1 2 1 1 0 0 1 8 78 126 231 255 255 143 115 40 5 1 0 1 2 8 25 61 132 210 146 71 30 10 3 1 0 2 26 224 126 237 255 255 151 224 18 1 0 1 2 6 10 12 10 6 2 1 0 1 7 62 119 128 255 110 6 2 6 20 47 103 212 255 29 1 0 0 0 0 0 0
255 149 65 29 11 4 1 0 0 2 28 255 138 248 108 7 21 255 188 99 130 223 24 2 0 0 1 4 13 32 73 158 237 144 66 28 11 3 1 0 0 2 24 227 152 129 255 97 5 0 0 0 0 0 0 0 0 0 0 0 0 0 0 0 0 0 0 2 6 2 0 0 0 2 6 17 41 97 223 255 137 59 25 9 3 3 54 255 151 82 100 51 6 1 0 0 1 4 13 32 61 87 68 37 16 5 1 0 0 2 22 221 131 101 198 255 175 251 29 2 0 0 0 0 0 0 0 0 1 25 255 159 120 67 72 143 255 25 2 0 1 3 11 29 67 139 200 122 58 24 9 3 1 0 0 4 55 255 160 201 255 255 141 205 28 2 0 0 0 1 3 4 4 4 2 1 0 0 2 35 252 152 127 255 89 5 1 4 13 32 72 159 255 63 3 0 0 0 0 0 0 0 0 0 0 0 0 0 0 0 0 0 0 0 0 0 0 0 0 0 0 0 0 0 0 4 85 255 154 68 30 12 4 2 16 255 230 115 134 167 109 8 1 0 1 5 16 33 46 44 29 13 4 1 0 0 1 14 176 157 139 255 111 6 1 3 10 27 60 131 255 154 8 0 0 0 0 0 0 0 0 0 0 0 0 0 0 0 0 0 0 0 0 0 0 0 0 0 0 0 0 0 0 0 0 0 0 0 0 0 0 0 0 0 0 0 0 0 0 0 2 45 255 183 86 39 17 6 2 5 94 255 134 123 178 91 6 1 0 1 3 9 24 54 123 255 255 174 74 32 13 4 1 0 0 1 18 206 163 161 255 255 123 165 255 46 3 0 0 0 0 1 1 0 0 0 0 4 46 159 97 137 255 79 5 2 7 19 45 100 194 185 90 40 17 6 2 5 82 255 140 117 193 60 4 0 0 1 3 10 26 59 133 255 192 9 0 0 4 84 255 146 67 30 12 4 1 0 1 6 88 171 118 115 241 214 11 2 5 15 36 79 170 255 64 3 0 0 0 0 0 0 0 0 0 0 0 0 0 0 1 15 255 255 121 54 24 9 3 3 50 255 159 87 126 219 21 2 0 0 1 2 3 4 3 2 1 0 0 4 39 155 102 168 255 46 3 3 8 23 51 85 84 51 24 9 3 4 65 255 147 90 125 65 6 1 0 1 2 4 5 4 3 1 0 0 1 12 141 131 105 194 255 22 2 3 10 27 62 138 255 122 9 63 255 162 76 34 14 4 1 5 82 255 141 163 214 74 5 0 0 0 0 0 0 0 0 0 1 19 204 160 159 255 227 110 132 70 7 1 0 0 1 4 13 32 60 82 63 36 15 5 1 0 0 6 84 201 140 159 255 255 154 255 70 4 0 0 1 2 3 4 3 2 1 0 0 1 14 171 124 90 159 255 46 3 3 9 24 54 119 255 237 12 1 0 0 0 0 0
155 78 33 14 5 2 0 0 0 7 119 211 170 153 255 59 143 255 113 73 152 217 87 6 0 0 0 2 6 16 36 68 92 64 33 14 5 1 0 0 0 6 88 220 161 94 162 255 42 2 0 0 0 0 0 0 0 0 0 0 0 0 0 0 0 0 0 1 2 1 0 0 0 1 2 8 21 50 97 114 67 30 12 4 2 23 255 201 92 61 100 110 10 1 0 0 0 2 6 14 24 30 26 16 7 2 1 0 0 5 81 230 157 74 94 125 124 202 104 7 0 0 0 0 0 0 0 0 8 156 252 113 79 35 41 114 234 119 7 0 0 1 5 14 32 58 76 53 28 12 4 1 0 0 1 20 255 170 157 133 233 202 127 187 82 6 0 0 0 0 1 1 1 1 1 0 0 1 9 153 191 165 94 160 255 37 2 2 6 15 37 87 194 255 28 1 0 0 0 0 0 0 0 0 0 0 0 0 0 0 0 0 0 0 0 0 0 0 0 0 0 0 0 0 2 38 255 183 83 35 14 5 2 6 113 255 134 77 114 122 255 38 2 0 1 2 7 12 16 15 11 5 2 1 0 0 3 54 255 159 97 164 255 48 3 1 4 13 30 68 154 255 64 3 0 0 0 0 0 0 0 0 0 0 0 0 0 0 0 0 0 0 0 0 0 0 0 0 0 0 0 0 0 0 0 0 0 0 0 0 0 0 0 0 0 0 0 0 0 1 18 255 220 100 43 19 7 3 3 42 255 168 86 103 122 255 31 2 0 0 1 4 11 27 65 136 168 91 39 16 6 2 0 0 0 4 68 250 179 108 147 127 91 157 172 223 13 1 0 0 0 0 0 0 0 0 1 11 157 122 84 86 176 255 35 3 3 9 22 46 76 74 43 19 8 2 2 36 255 173 89 103 134 255 19 1 0 0 1 4 12 30 70 160 255 81 4 2 38 255 178 78 34 14 5 2 0 0 2 32 255 126 104 74 136 255 81 5 2 7 17 40 92 203 255 32 1 0 0 0 0 0 0 0 0 0 0 0 0 0 6 125 255 142 62 27 11 4 2 22 255 209 96 68 151 229 72 5 0 0 0 1 1 1 1 1 0 0 1 7 94 125 82 104 216 255 19 2 4 10 21 30 30 21 11 4 2 27 255 182 86 65 113 182 15 1 0 0 1 1 1 1 1 0 0 0 3 42 255 141 75 116 255 150 8 2 5 13 32 73 166 255 127 255 200 88 38 16 6 2 2 35 255 173 101 147 142 255 26 1 0 0 0 0 0 0 0 0 4 71 243 174 103 134 108 82 134 214 18 1 0 0 0 2 6 14 23 28 24 15 7 2 1 0 2 30 255 136 126 98 147 133 127 153 255 25 1 0 0 1 1 1 1 1 0 0 0 3 55 255 143 67 95 208 255 18 2 4 11 27 61 141 255 95 5 0 0 0 0 0
59 35 16 6 2 1 0 0 2 45 255 145 147 113 229 255 255 152 67 61 137 151 255 35 2 0 0 1 2 7 15 26 32 25 14 6 2 1 0 0 2 35 255 150 129 71 100 220 255 17 1 0 0 0 0 0 0 0 0 0 0 0 0 0 0 0 0 0 0 0 0 0 0 0 1 3 9 22 37 41 28 14 5 2 9 160 255 118 54 49 122 255 33 2 0 0 0 1 2 5 8 10 9 6 3 1 0 0 2 33 255 155 142 59 42 52 76 129 255 38 2 0 0 0 0 0 0 3 62 255 144 73 47 19 26 80 138 255 46 2 0 1 2 6 13 21 26 20 11 5 2 0 0 0 7 122 255 127 116 80 98 94 97 131 255 29 2 0 0 0 0 0 0 0 0 0 0 3 57 255 141 128 72 100 225 255 14 1 2 7 18 45 111 255 240 11 1 0 0 0 0 0 0 0 0 0 0 0 0 0 0 0 0 0 0 0 0 0 0 0 0 0 0 1 15 255 229 102 42 17 6 2 3 47 255 163 76 52 86 105 206 255 14 1 0 1 2 4 5 5 4 2 1 0 0 1 19 255 171 132 70 97 211 255 21 1 2 5 14 34 85 194 255 30 1 0 0 0 0 0 0 0 0 0 0 0 0 0 0 0 0 0 0 0 0 0 0 0 0 0 0 0 0 0 0 0 0 0 0 0 0 0 0 0 0 0 0 0 0 7 138 255 124 51 21 8 3 2 16 255 221 100 55 78 104 219 172 9 1 0 0 2 5 13 30 54 63 41 18 7 2 1 0 0 1 26 255 162 140 70 60 55 63 111 128 255 78 4 0 0 0 0 0 0 0 0 3 54 255 116 71 54 104 236 255 14 2 4 9 18 27 26 17 8 3 2 15 255 233 102 56 83 117 255 108 6 0 0 1 2 5 14 35 86 189 255 38 17 255 230 102 40 16 6 2 1 0 1 11 219 227 113 85 50 78 176 255 36 3 3 8 19 47 115 255 255 13 1 0 0 0 0 0 0 0 0 0 0 0 3 55 255 167 74 31 12 5 2 9 162 255 122 57 60 141 149 255 26 1 0 0 0 0 0 0 0 0 0 2 30 255 105 65 61 124 255 126 7 2 4 8 10 10 7 4 2 10 173 252 106 49 51 123 255 56 4 0 0 0 0 0 0 0 0 0 1 12 220 180 139 60 67 149 255 62 4 2 6 15 37 94 236 255 255 118 46 18 7 3 1 13 243 232 104 70 104 115 244 165 8 0 0 0 0 0 0 0 1 29 255 162 136 65 54 48 61 145 255 74 5 0 0 0 1 2 5 8 9 8 5 2 1 0 1 11 215 231 111 95 57 59 61 86 110 248 158 8 0 0 0 0 0 0 0 0 0 1 21 255 175 143 58 55 121 255 127 7 2 5 12 31 76 177 255 45 2 0 0 0 0
20 14 6 2 1 0 0 1 17 255 204 109 102 81 141 255 232 94 42 53 100 119 230 251 13 1 0 0 1 2 5 9 10 8 5 2 1 0 0 1 12 234 228 115 88 54 59 128 255 128 6 0 0 0 0 0 0 0 0 0 0 0 0 0 0 0 0 0 0 0 0 0 0 0 0 1 4 8 12 13 10 5 2 4 64 255 148 65 32 52 166 208 180 10 1 0 0 0 1 2 2 3 3 2 1 0 0 1 13 255 237 120 101 47 20 22 43 93 210 255 14 1 0 0 0 0 1 28 255 192 86 44 26 11 16 51 91 202 255 18 1 0 1 2 5 7 8 7 4 2 1 0 0 3 51 255 155 88 73 44 39 42 67 110 234 181 9 0 0 0 0 0 0 0 0 0 1 24 255 190 106 84 55 60 131 255 106 6 1 3 8 22 59 145 255 98 5 0 0 0 0 0 0 0 0 0 0 0 0 0 0 0 0 0 0 0 0 0 0 0 0 0 0 6 109 255 130 53 21 8 3 2 18 255 207 92 42 35 62 82 133 255 102 5 0 0 1 1 1 1 1 1 0 0 0 6 118 255 121 90 51 56 124 255 150 8 1 2 6 16 44 112 255 255 12 1 0 0 0 0 0 0 0 0 0 0 0 0 0 0 0 0 0 0 0 0 0 0 0 0 0 0 0 0 0 0 0 0 0 0 0 0 0 0 0 0 0 0 3 58 255 158 67 26 9 3 1 6 114 255 126 56 36 58 80 134 255 66 3 0 0 1 2 5 12 19 21 15 8 3 1 0 0 0 9 173 254 120 88 43 24 23 40 69 92 168 255 34 2 0 0 0 0 0 0 1 22 255 184 118 66 35 58 135 255 113 6 2 3 6 8 8 6 3 1 6 120 255 135 57 37 66 95 158 255 48 2 0 0 1 2 6 17 44 106 238 255 203 255 130 54 20 7 2 1 0 0 4 87 255 141 91 68 34 44 103 234 251 14 2 3 9 23 60 143 255 120 6 0 0 0 0 0 0 0 0 0 0 1 26 255 208 92 37 14 5 2 4 65 255 154 67 35 56 104 117 247 160 8 0 0 0 0 0 0 0 0 0 9 173 218 113 54 37 68 156 255 53 3 1 2 3 3 2 1 4 69 255 140 59 29 47 129 163 255 20 1 0 0 0 0 0 0 0 0 4 85 255 132 109 51 41 86 195 255 28 2 2 7 19 52 126 221 150 66 24 8 3 1 5 89 255 133 60 47 67 84 147 255 70 4 0 0 0 0 0 0 10 212 250 122 87 39 22 22 51 131 162 255 30 1 0 0 0 1 2 2 3 2 2 1 0 0 4 85 255 142 83 64 31 23 27 52 72 143 255 64 3 0 0 0 0 0 0 0 0 8 150 255 130 113 55 34 68 158 255 54 3 2 5 15 40 101 224 255 19 1 0 0 0
6 5 2 1 0 0 0 6 123 255 124 73 63 54 75 122 104 52 27 45 66 83 137 255 94 5 0 0 0 1 2 3 3 2 2 1 0 0 0 5 91 255 134 77 55 38 35 71 161 255 57 3 0 0 0 0 0 0 0 0 0 0 0 0 0 0 0 0 0 0 0 0 0 0 0 0 1 3 4 4 3 2 2 29 255 190 83 35 22 72 155 150 255 72 4 0 0 0 0 0 1 1 1 1 0 0 0 5 103 255 142 82 64 35 10 10 24 61 129 255 108 6 0 0 0 0 10 211 255 112 48 25 12 6 9 30 55 121 255 129 7 0 0 1 1 2 2 2 1 1 0 0 1 22 255 204 93 55 41 22 15 19 44 81 140 255 69 4 0 0 0 0 0 0 0 0 9 178 255 117 70 52 38 36 74 168 255 49 3 1 3 11 31 79 179 255 45 2 0 0 0 0 0 0 0 0 0 0 0 0 0 0 0 0 0 0 0 0 0 0 0 0 2 49 255 165 71 27 10 3 1 7 126 255 119 49 23 22 42 60 83 168 255 44 2 0 0 0 0 0 0 0 0 0 3 51 255 155 80 56 35 32 68 154 255 60 3 1 2 8 22 60 144 255 109 5 0 0 0 0 0 0 0 0 0 0 0 0 0 0 0 0 0 0 0 0 0 0 0 0 0 0 0 0 0 0 0 0 0 0 0 0 0 0 0 0 0 1 25 255 198 88 34 12 4 1 3 49 255 162 69 30 22 41 59 86 184 255 29 1 0 0 1 2 4 6 7 5 3 1 0 0 0 4 70 255 146 78 50 24 10 10 22 40 60 105 237 255 14 1 0 0 0 0 0 8 178 255 124 104 67 25 32 74 171 255 52 3 1 2 2 2 2 1 3 55 255 170 74 32 24 50 72 100 215 255 22 1 0 0 1 3 8 21 56 140 255 255 182 72 27 9 3 1 0 0 2 41 255 180 88 69 53 23 25 56 131 255 98 5 1 4 11 31 76 175 255 56 3 0 0 0 0 0 0 0 0 0 10 206 255 119 48 18 6 2 2 28 255 190 85 36 23 53 70 83 145 255 66 3 0 0 0 0 0 0 0 4 69 255 141 108 50 23 37 89 202 255 23 1 1 1 1 1 2 33 255 187 80 32 19 50 111 122 255 126 7 0 0 0 0 0 0 0 2 40 255 176 94 76 44 25 47 113 255 230 11 1 3 9 26 57 86 65 32 11 4 1 2 38 255 169 74 34 29 40 57 91 194 255 34 2 0 0 0 0 4 83 255 145 80 51 22 9 11 43 96 118 244 219 11 1 0 0 0 0 1 1 1 0 0 0 2 38 255 180 87 58 39 16 9 12 28 45 86 191 255 29 1 0 0 0 0 0 0 3 61 255 156 88 78 53 22 37 90 202 255 23 2 2 7 20 53 126 255 158 8 0 0 0
2 1 1 0 0 0 3 52 255 158 72 45 36 32 35 45 40 25 17 34 41 53 80 170 255 41 2 0 0 0 0 1 1 1 0 0 0 0 2 42 255 173 78 47 33 24 19 38 90 206 255 28 1 0 0 0 0 0 0 0 0 0 0 0 0 0 0 0 0 0 0 0 0 0 0 0 0 1 1 1 1 1 12 235 255 110 44 19 22 128 113 108 188 255 34 2 0 0 0 0 0 0 0 0 0 0 2 46 255 173 82 52 37 23 6 5 13 37 76 166 255 47 2 0 0 4 83 255 142 60 26 12 5 3 5 15 31 68 157 255 55 3 0 0 0 1 1 1 0 0 0 0 9 191 255 120 52 31 20 10 6 9 27 55 86 182 255 30 1 0 0 0 0 0 0 4 71 255 148 67 43 29 23 20 40 95 216 255 22 1 1 5 15 41 99 219 255 18 1 0 0 0 0 0 0 0 0 0 0 0 0 0 0 0 0 0 0 0 0 0 0 1 23 255 214 93 37 13 4 1 3 55 255 156 65 25 11 12 26 40 48 96 215 255 18 1 0 0 0 0 0 0 0 1 22 255 207 93 49 32 22 18 35 85 192 255 26 1 1 3 11 31 78 175 255 50 2 0 0 0 0 0 0 0 0 0 0 0 0 0 0 0 0 0 0 0 0 0 0 0 0 0 0 0 0 0 0 0 0 0 0 0 0 0 0 0 0 9 174 255 113 46 17 6 2 1 20 255 208 92 37 16 13 26 40 52 109 252 226 11 1 0 0 1 1 2 2 1 1 0 0 0 1 32 255 188 85 47 26 11 4 4 10 21 36 61 137 255 125 6 0 0 0 0 4 76 255 156 80 85 73 19 17 39 96 211 255 22 1 1 1 1 1 1 25 255 209 95 39 17 15 36 50 60 126 255 183 9 0 0 0 1 3 10 29 78 171 199 100 39 13 4 1 0 0 1 17 255 228 104 52 48 38 15 13 29 72 170 255 45 3 2 5 15 39 96 210 255 26 1 0 0 0 0 0 0 0 4 84 255 146 63 24 8 3 1 11 217 252 108 44 19 15 48 45 55 88 191 255 31 1 0 0 0 0 0 1 32 255 188 95 92 51 15 19 47 117 255 159 8 1 0 0 1 12 239 247 109 43 17 14 58 84 86 155 255 53 3 0 0 0 0 0 1 17 255 231 106 62 49 35 16 25 60 145 255 88 5 1 4 11 22 29 24 13 5 2 1 15 255 224 97 40 18 16 22 35 52 111 246 255 13 1 0 0 2 38 255 180 83 47 27 11 4 7 34 63 77 141 255 89 4 0 0 0 0 0 0 0 0 0 1 15 255 229 103 50 36 21 8 4 5 13 25 48 111 255 232 11 1 0 0 0 0 1 27 255 194 91 56 50 50 15 20 48 115 255 169 9 1 3 9 26 67 157 255 66 3 0 0
1 0 0 0 0 1 22 255 204 90 40 25 18 16 14 15 14 10 9 22 24 31 44 98 223 255 18 1 0 0 0 0 0 0 0 0 0 1 17 255 225 101 44 26 17 12 10 19 48 118 255 255 12 1 0 0 0 0 0 0 0 0 0 0 0 0 0 0 0 0 0 0 0 0 0 0 0 0 0 0 0 5 92 255 143 59 23 11 34 196 88 73 113 245 255 14 1 0 0 0 0 0 0 0 0 1 20 255 217 97 45 29 19 11 3 2 6 20 41 94 213 255 20 1 2 39 255 181 78 31 12 5 2 1 2 7 16 37 89 202 255 24 1 0 0 0 0 0 0 0 0 4 81 255 155 66 28 16 8 4 2 4 14 33 49 107 247 227 11 1 0 0 0 0 1 32 255 187 83 37 23 15 12 10 20 51 124 255 179 9 1 2 7 20 51 124 255 142 7 0 0 0 0 0 0 0 0 0 0 0 0 0 0 0 0 0 0 0 0 0 0 10 219 255 124 49 18 6 2 2 26 255 205 89 34 12 5 6 14 22 27 52 124 255 132 7 0 0 0 0 0 0 0 8 171 255 120 52 27 17 11 9 18 44 111 255 184 9 1 1 5 15 40 97 215 255 23 1 0 0 0 0 0 0 0 0 0 0 0 0 0 0 0 0 0 0 0 0 0 0 0 0 0 0 0 0 0 0 0 0 0 0 0 0 0 0 4 72 255 144 60 23 8 2 1 7 139 255 119 49 19 8 7 14 24 30 60 142 255 89 5 0 0 0 0 0 1 0 0 0 0 1 12 240 246 109 47 25 12 5 2 2 4 9 19 34 76 174 255 59 3 0 0 2 36 255 192 89 51 67 85 18 9 20 50 119 255 162 8 1 0 0 1 9 180 255 119 49 20 8 9 22 31 35 68 153 255 74 4 0 0 0 1 4 14 38 70 77 47 19 6 2 1 0 0 7 134 255 129 56 30 29 24 9 6 14 38 98 220 255 18 1 2 6 19 49 118 255 219 10 0 0 0 0 0 0 2 41 255 183 79 32 11 4 1 5 87 255 142 58 22 9 11 39 29 34 50 112 254 255 13 1 0 0 0 1 12 249 248 111 62 71 54 12 10 24 63 148 255 63 3 0 0 5 89 255 136 58 22 9 13 75 62 57 93 203 255 23 1 0 0 0 0 7 146 255 131 60 37 29 23 9 13 31 79 177 255 38 2 2 4 7 9 8 5 2 1 6 111 255 129 52 20 9 7 11 18 28 59 136 255 100 5 0 1 16 255 232 103 45 25 13 5 2 5 23 37 47 81 181 255 44 2 0 0 0 0 0 0 0 0 6 119 255 131 55 27 19 10 3 2 2 5 12 25 60 143 255 90 5 0 0 0 0 9 190 255 112 50 33 32 44 11 10 24 62 151 255 71 4 1 4 12 34 87 194 255 30 1 0
0 0 0 0 0 8 157 255 118 49 21 12 8 6 5 5 4 4 4 10 12 16 24 53 130 255 152 7 0 0 0 0 0 0 0 0 0 6 126 255 128 54 23 13 7 5 4 9 24 63 149 255 112 5 0 0 0 0 0 0 0 0 0 0 0 0 0 0 0 0 0 0 0 0 0 0 0 0 0 0 2 41 255 178 79 31 11 10 69 155 79 49 64 140 255 123 6 0 0 0 0 0 0 0 0 8 158 255 125 52 23 14 8 5 1 1 3 9 21 50 124 255 175 9 16 255 233 104 41 15 6 2 1 0 1 3 7 19 48 117 255 196 9 0 0 0 0 0 0 0 2 39 255 191 85 35 14 7 3 1 1 2 7 17 27 59 140 255 91 5 0 0 0 1 14 255 247 108 44 19 11 6 5 5 10 26 67 154 255 73 4 1 3 9 26 67 159 255 61 3 0 0 0 0 0 0 0 0 0 0 0 0 0 0 0 0 0 0 0 0 5 98 255 156 67 25 9 3 1 10 208 255 119 48 17 6 2 3 6 10 13 27 68 158 255 57 3 0 0 0 0 0 4 71 255 152 66 28 14 7 5 4 8 23 60 145 255 74 4 1 2 7 19 50 123 255 207 9 0 0 0 0 0 0 0 0 0 0 0 0 0 0 0 0 0 0 0 0 0 0 0 0 0 0 0 0 0 0 0 0 0 0 0 0 0 2 35 255 191 81 31 11 3 1 3 59 255 154 64 25 9 3 3 6 11 16 32 79 180 255 42 2 0 0 0 0 0 0 0 0 0 5 91 255 137 58 25 12 5 2 1 1 2 4 8 17 40 97 210 255 27 1 1 15 255 242 109 49 33 58 105 19 5 9 25 64 151 255 67 3 0 0 4 71 255 148 63 25 9 4 4 10 16 19 36 84 188 255 34 2 0 0 1 2 6 15 25 27 19 8 3 1 0 0 3 60 255 164 70 29 16 15 12 4 3 7 19 52 125 255 129 7 1 3 9 24 62 150 255 95 5 0 0 0 0 1 19 255 235 105 41 15 5 2 2 41 255 182 80 30 11 5 7 26 17 19 28 61 144 255 113 6 0 0 0 5 95 255 140 62 40 54 60 11 5 12 33 83 192 255 29 1 2 40 255 173 75 30 11 5 17 118 51 38 53 118 255 176 8 0 0 0 3 65 255 166 72 32 20 15 12 5 6 15 41 100 226 255 14 1 1 2 3 2 1 1 3 49 255 166 71 27 10 4 3 4 8 14 31 74 170 255 45 2 6 129 255 133 55 23 12 5 2 1 3 12 19 26 45 104 231 255 20 1 0 0 0 0 0 0 3 54 255 167 72 29 13 8 4 1 1 1 2 5 12 31 79 178 255 40 2 0 0 4 73 255 143 60 27 18 19 34 8 5 12 33 85 193 255 34 2 2 6 17 45 111 252 247 12 1
0 0 0 0 3 68 255 153 65 25 10 5 3 2 2 1 1 1 2 4 5 7 12 28 72 166 255 68 3 0 0 0 0 0 0 0 3 57 255 163 70 28 11 5 3 2 2 4 12 33 81 183 255 54 3 0 0 0 0 0 0 0 0 0 0 0 0 0 0 0 0 0 0 0 0 0 0 0 0 1 15 255 225 102 41 15 6 19 199 99 70 35 36 78 176 255 58 3 0 0 0 0 0 0 3 65 255 158 68 27 11 6 3 2 1 0 1 4 10 26 68 161 255 97 148 255 133 55 21 7 2 1 0 0 0 1 3 9 25 64 152 255 80 4 0 0 0 0 0 1 17 255 238 108 45 17 6 3 1 1 0 1 3 7 13 32 79 181 255 43 2 0 0 6 116 255 142 59 23 9 4 2 2 2 4 13 34 85 191 255 33 2 1 4 12 35 90 201 255 27 1 0 0 0 0 0 0 0 0 0 0 0 0 0 0 0 0 0 0 2 50 255 191 85 35 12 4 1 4 80 255 151 65 25 8 3 1 1 2 4 6 14 36 90 204 255 26 1 0 0 0 2 34 255 193 85 35 14 6 3 2 2 4 11 32 82 188 255 35 2 1 3 9 26 67 158 255 89 4 0 0 0 0 0 0 0 0 0 0 0 0 0 0 0 0 0 0 0 0 0 0 0 0 0 0 0 0 0 0 0 0 0 0 0 1 14 255 247 112 44 16 5 2 2 28 255 202 89 34 12 4 1 1 2 4 7 16 42 103 231 255 20 1 0 0 0 0 0 0 0 2 41 255 175 76 31 12 5 2 1 0 0 1 1 3 8 20 51 119 255 215 11 7 131 255 138 58 26 23 60 124 25 4 4 12 33 86 195 255 31 1 2 33 255 188 83 33 12 4 2 2 4 7 9 18 44 108 245 255 15 1 0 0 1 2 5 8 8 6 3 1 0 0 1 29 255 207 93 37 14 7 6 4 2 1 3 9 27 68 158 255 55 3 1 4 11 32 83 188 255 48 2 0 0 0 7 152 255 135 56 21 7 2 1 16 255 230 104 42 15 5 2 4 12 8 9 14 33 79 176 255 53 3 0 2 42 255 175 78 34 25 42 73 11 3 5 16 45 113 255 223 12 17 255 228 101 40 15 5 4 30 175 60 25 30 66 154 255 73 4 0 1 30 255 202 93 38 16 9 6 5 2 3 7 20 53 130 255 96 5 1 1 1 1 0 1 21 255 213 95 38 13 4 2 1 2 3 6 15 39 98 222 255 24 61 255 168 73 29 11 5 2 1 0 1 5 8 13 24 56 133 255 183 8 0 0 0 0 0 1 24 255 211 95 38 14 6 3 1 1 0 0 1 2 6 16 41 102 227 255 16 1 2 32 255 184 81 32 13 8 10 20 5 2 5 17 45 111 248 255 14 1 2 8 23 59 143 255 105 5
0 0 0 2 34 255 199 87 35 13 4 2 1 1 1 0 0 0 1 1 2 3 5 14 38 92 202 255 32 1 0 0 0 0 0 1 27 255 210 93 37 14 5 2 1 1 1 2 5 16 42 102 218 255 24 1 0 0 0 0 0 0 0 0 0 0 0 0 0 0 0 0 0 0 0 0 0 0 0 6 107 255 128 54 21 7 6 61 248 88 63 26 21 42 99 212 255 27 1 0 0 0 0 1 29 255 195 88 36 13 5 2 1 1 0 0 0 2 4 13 36 91 208 255 255 176 74 29 10 3 1 0 0 0 0 0 1 4 12 34 85 188 255 37 2 0 0 0 0 7 150 255 136 57 23 8 3 1 0 0 0 0 1 3 6 16 43 104 229 255 19 1 3 52 255 175 78 31 11 4 2 1 1 1 2 6 17 45 110 245 238 12 1 2 6 18 48 116 255 201 10 0 0 0 0 0 0 0 0 0 0 0 0 0 0 0 0 0 1 24 255 228 106 45 17 6 2 2 34 255 183 83 34 12 4 1 0 0 1 1 2 6 18 49 120 255 217 10 0 0 1 13 255 248 112 46 17 6 2 1 1 1 2 5 16 44 110 243 255 13 1 1 4 12 35 87 191 255 43 2 0 0 0 0 0 0 0 0 0 0 0 0 0 0 0 0 0 0 0 0 0 0 0 0 0 0 0 0 0 0 0 0 0 0 6 112 255 139 60 23 7 2 1 11 224 255 118 48 17 6 2 1 0 1 1 3 8 22 56 134 255 185 8 0 0 0 0 0 0 1 16 255 226 101 41 15 5 2 1 0 0 0 0 0 1 3 9 26 63 148 255 95 72 255 173 75 31 14 18 81 123 37 4 2 5 17 46 113 254 255 14 14 255 248 110 44 16 5 2 1 1 1 2 4 8 23 59 142 255 132 6 0 0 0 1 2 2 2 2 1 0 0 1 11 232 255 119 49 19 7 3 2 1 1 1 1 4 13 36 91 206 255 25 2 2 5 16 44 106 228 255 22 1 0 3 62 255 162 72 29 10 3 1 6 117 255 131 56 22 7 2 1 2 4 3 4 6 16 41 99 218 255 26 2 17 255 223 100 42 18 16 38 100 14 2 2 8 23 62 144 255 104 146 255 132 55 20 7 3 7 77 158 104 22 17 36 87 192 255 34 2 12 255 255 115 49 19 8 4 2 1 1 1 3 10 28 72 165 255 41 2 0 0 0 0 8 150 255 124 51 19 6 2 1 0 1 1 2 7 20 53 129 255 255 255 212 95 39 14 5 2 1 0 0 1 2 3 6 12 29 71 162 255 76 4 0 0 0 0 9 192 255 122 51 19 7 2 1 0 0 0 0 0 1 2 7 21 54 131 255 119 7 14 255 246 107 43 16 6 4 4 8 3 1 2 8 23 60 141 255 109 6 1 3 11 31 80 182 255 56
0 0 1 14 255 252 116 47 18 6 2 1 0 0 0 0 0 0 0 0 0 1 2 7 19 49 115 253 255 13 1 0 0 0 1 11 247 255 122 50 19 6 2 1 0 0 0 1 2 7 21 53 123 255 181 9 0 0 0 0 0 0 0 0 0 0 0 0 0 0 0 0 0 0 0 0 0 0 2 46 255 163 71 28 10 4 21 255 148 86 60 20 11 22 52 120 255 217 10 0 0 0 1 12 244 255 113 47 18 6 2 1 0 0 0 0 0 1 2 6 18 49 120 254 231 104 40 14 5 1 0 0 0 0 0 0 0 2 6 17 45 108 237 255 15 1 0 0 3 67 255 166 73 30 11 3 1 0 0 0 0 0 0 1 3 8 22 56 131 255 155 9 23 255 213 98 41 16 5 2 1 0 0 0 1 2 8 23 59 137 255 87 5 1 3 8 25 62 146 255 81 4 0 0 0 0 0 0 0 0 0 0 0 0 0 0 0 0 9 185 255 128 56 22 8 2 1 12 231 235 105 44 17 6 2 0 0 0 0 0 1 3 9 25 65 150 255 86 4 0 5 110 255 139 60 24 8 3 1 0 0 0 1 2 8 23 59 136 255 104 5 1 2 6 17 45 107 231 255 18 1 0 0 0 0 0 0 0 0 0 0 0 0 0 0 0 0 0 0 0 0 0 0 0 0 0 0 0 0 0 0 0 0 2 51 255 171 75 31 11 3 1 5 89 255 147 64 25 8 2 1 0 0 0 0 1 3 10 29 73 165 255 84 4 0 0 0 0 0 6 123 255 129 54 21 7 2 1 0 0 0 0 0 0 0 1 4 12 33 82 189 255 255 219 98 40 15 8 22 140 109 66 6 1 2 8 24 61 144 255 136 127 255 141 60 23 8 2 1 0 0 0 1 1 4 11 31 77 173 255 59 3 0 0 0 0 1 1 1 0 0 0 5 95 255 146 64 25 9 3 1 1 0 0 0 1 2 6 18 49 120 255 204 10 1 2 8 22 56 129 255 191 9 2 28 255 196 89 37 14 5 1 3 52 255 165 72 29 10 3 1 0 1 1 1 1 3 8 21 52 125 255 233 19 140 255 128 54 21 9 11 45 143 22 2 1 3 12 33 81 189 255 255 172 73 29 10 3 2 26 255 134 210 33 10 18 46 110 246 255 22 108 255 147 62 25 9 3 1 1 0 0 0 1 4 14 39 97 220 255 15 1 0 0 3 62 255 155 68 27 9 3 1 0 0 0 0 1 3 10 28 72 174 255 255 126 51 20 7 2 1 0 0 0 0 1 1 2 5 14 37 89 192 255 34 2 0 0 4 78 255 152 66 26 9 3 1 0 0 0 0 0 0 0 1 3 10 28 72 164 255 64 125 255 142 59 23 8 3 1 2 2 1 1 1 4 11 31 77 174 255 49 3 2 5 16 42 103 229 255
0 0 6 119 255 141 62 25 8 3 1 0 0 0 0 0 0 0 0 0 0 0 1 3 9 25 61 143 255 111 5 0 0 0 5 103 255 151 65 26 9 3 1 0 0 0 0 0 1 3 10 27 65 149 255 72 4 0 0 0 0 0 0 0 0 0 0 0 0 0 0 0 0 0 0 0 0 1 18 255 214 95 38 14 5 8 111 255 109 84 65 16 6 10 26 64 149 255 85 4 0 0 5 100 255 146 61 24 8 3 1 0 0 0 0 0 0 0 1 3 9 25 60 106 98 53 21 7 2 1 0 0 0 0 0 0 0 1 2 8 23 57 135 255 114 6 0 1 32 255 202 92 38 14 5 1 0 0 0 0 0 0 0 0 1 3 11 29 71 161 255 95 210 255 122 51 21 7 2 1 0 0 0 0 0 1 3 11 30 76 172 255 38 2 1 4 12 33 81 185 255 38 2 0 0 0 0 0 0 0 0 0 0 0 0 0 0 4 74 255 152 67 28 10 3 1 5 90 255 133 56 22 8 2 1 0 0 0 0 0 0 1 4 12 34 82 183 255 40 4 54 255 175 76 31 11 4 1 0 0 0 0 0 1 3 11 31 75 174 255 49 3 1 2 8 23 56 131 255 142 7 0 0 0 0 0 0 0 0 0 0 0 0 0 0 0 0 0 0 0 0 0 0 0 0 0 0 0 0 0 0 0 1 24 255 216 97 40 15 5 2 2 42 255 182 81 34 12 4 1 0 0 0 0 0 0 1 5 14 38 90 198 255 43 2 0 0 0 3 57 255 166 71 28 10 3 1 0 0 0 0 0 0 0 0 1 2 5 16 44 112 255 255 127 52 20 7 6 43 199 119 198 16 1 1 4 12 32 80 185 255 255 181 78 31 11 3 1 0 0 0 0 0 1 2 5 15 40 96 206 255 26 1 0 0 0 0 0 0 0 0 2 46 255 181 80 33 12 4 1 0 0 0 0 0 0 1 3 9 26 66 151 255 82 4 1 3 10 28 69 158 255 87 16 231 255 113 47 18 6 2 2 24 255 212 94 38 14 5 1 0 0 0 0 0 0 1 3 10 27 67 152 255 255 255 167 71 28 10 5 10 80 150 42 4 1 2 5 16 44 111 247 229 101 40 14 5 2 8 140 248 158 201 86 10 9 24 59 142 255 255 255 178 80 32 12 4 1 0 0 0 0 0 1 2 6 20 53 128 255 112 6 0 1 28 255 197 87 36 13 4 1 0 0 0 0 0 0 1 4 14 39 93 174 145 69 27 9 3 1 0 0 0 0 0 0 0 1 2 6 18 46 108 240 255 13 1 2 36 255 188 84 34 13 4 1 0 0 0 0 0 0 0 0 0 1 4 14 38 94 222 255 255 180 79 31 11 3 1 0 0 1 0 0 0 1 5 15 41 98 216 255 21 2 2 7 22 55 135 255
0 3 54 255 173 77 32 12 4 1 0 0 0 0 0 0 0 0 0 0 0 0 0 1 4 12 32 78 175 255 51 2 0 2 48 255 183 82 34 13 4 1 0 0 0 0 0 0 0 1 4 13 34 84 189 255 33 2 0 0 0 0 0 0 0 0 0 0 0 0 0 0 0 0 0 0 0 7 131 255 125 52 19 7 4 45 255 153 82 91 86 15 4 5 13 33 83 183 255 38 2 2 47 255 182 81 32 12 4 1 0 0 0 0 0 0 0 0 0 1 4 12 26 39 37 23 10 3 1 0 0 0 0 0 0 0 0 0 1 3 11 30 74 169 255 52 3 13 255 255 116 49 19 7 2 1 0 0 0 0 0 0 0 0 0 1 5 14 37 91 217 255 255 160 67 26 10 3 1 0 0 0 0 0 0 0 1 5 15 40 101 230 255 15 1 2 5 16 44 108 238 255 15 1 0 0 0 0 0 0 0 0 0 0 0 0 2 34 255 189 84 34 13 5 1 2 42 255 178 76 29 11 3 1 0 0 0 0 0 0 0 0 2 6 17 43 105 234 255 52 255 222 100 41 15 5 2 0 0 0 0 0 0 0 1 5 15 40 101 221 255 21 1 1 3 11 29 71 161 255 61 3 0 0 0 0 0 0 0 0 0 0 0 0 0 0 0 0 0 0 0 0 0 0 0 0 0 0 0 0 0 0 9 189 255 126 52 20 7 2 1 17 255 230 105 43 17 6 2 0 0 0 0 0 0 0 1 2 7 19 47 111 239 255 20 1 0 1 28 255 213 96 38 14 5 1 0 0 0 0 0 0 0 0 0 0 1 2 8 23 60 115 121 66 27 10 4 11 151 165 178 255 65 4 1 2 5 16 43 108 234 238 107 42 16 5 1 0 0 0 0 0 0 0 1 2 7 20 50 118 255 199 10 0 0 0 0 0 0 0 1 21 255 229 104 42 16 5 2 0 0 0 0 0 0 0 0 1 4 13 35 84 187 255 38 2 1 5 13 36 88 197 255 255 255 149 62 24 8 3 1 10 208 255 124 51 19 7 2 1 0 0 0 0 0 0 0 1 4 13 35 87 211 255 243 100 38 14 5 3 22 224 130 119 9 1 1 2 8 23 58 105 99 53 21 7 2 3 54 255 155 148 145 255 29 6 12 31 81 193 255 255 105 42 16 5 2 1 0 0 0 0 0 0 1 3 10 28 72 166 255 49 3 11 208 255 116 47 18 6 2 0 0 0 0 0 0 0 1 2 7 19 43 67 59 33 13 4 1 0 0 0 0 0 0 0 0 0 1 3 8 23 58 137 255 107 6 16 255 243 108 45 17 6 2 0 0 0 0 0 0 0 0 0 0 1 2 6 19 52 133 255 246 106 42 16 5 1 0 0 0 0 0 0 0 1 2 7 21 52 124 255 148 8 1 3 10 29 72 138
1 26 255 218 100 41 16 5 2 0 0 0 0 0 0 0 0 0 0 0 0 0 0 0 2 5 16 42 101 223 255 25 2 21 255 226 105 44 17 6 2 0 0 0 0 0 0 0 0 1 2 6 17 46 113 251 254 13 1 0 0 0 0 0 0 0 0 0 0 0 0 0 0 0 0 0 3 55 255 163 71 28 10 4 17 255 214 100 67 118 152 22 3 2 6 17 44 107 239 255 18 21 255 227 105 44 16 5 2 0 0 0 0 0 0 0 0 0 0 0 2 5 9 13 13 9 4 1 0 0 0 0 0 0 0 0 0 0 0 1 5 15 40 99 221 255 33 115 255 145 63 25 9 3 1 0 0 0 0 0 0 0 0 0 0 1 2 6 19 51 128 255 216 97 37 13 4 1 0 0 0 0 0 0 0 0 1 2 7 21 57 136 255 107 6 1 2 8 23 59 138 255 126 6 0 0 0 0 0 0 0 0 0 0 0 1 13 255 249 113 46 17 6 2 1 17 255 233 107 42 15 5 1 0 0 0 0 0 0 0 0 0 1 2 8 22 58 140 255 255 255 131 55 21 7 2 1 0 0 0 0 0 0 0 1 2 7 21 56 129 255 154 8 1 1 5 14 38 93 207 255 29 1 0 0 0 0 0 0 0 0 0 0 0 0 0 0 0 0 0 0 0 0 0 0 0 0 0 0 0 0 4 81 255 157 69 28 10 3 1 7 127 255 135 57 22 8 2 1 0 0 0 0 0 0 0 0 1 3 9 24 60 138 255 188 9 1 11 227 255 126 53 20 7 2 1 0 0 0 0 0 0 0 0 0 0 0 1 3 11 28 45 46 30 13 4 5 55 255 156 197 181 255 26 1 1 2 8 23 56 101 102 56 22 7 2 1 0 0 0 0 0 0 0 0 1 3 9 26 65 153 255 81 4 0 0 0 0 0 0 8 171 255 134 57 22 8 2 1 0 0 0 0 0 0 0 0 0 2 6 18 46 110 242 255 17 1 2 6 18 48 118 255 255 212 88 34 12 4 1 5 84 255 159 70 27 9 3 1 0 0 0 0 0 0 0 0 1 2 6 18 48 108 170 120 56 21 7 2 6 81 246 165 255 42 2 0 1 3 11 26 39 38 24 10 3 2 21 255 202 109 119 126 237 135 10 6 16 44 101 168 128 59 22 8 2 1 0 0 0 0 0 0 0 0 1 4 14 40 98 218 255 26 87 255 148 64 25 9 3 1 0 0 0 0 0 0 0 0 1 3 8 17 24 22 14 6 2 1 0 0 0 0 0 0 0 0 0 0 1 4 11 31 78 181 255 66 155 255 143 60 23 8 2 1 0 0 0 0 0 0 0 0 0 0 0 1 3 10 29 71 126 111 57 22 7 2 1 0 0 0 0 0 0 0 0 1 3 10 28 70 160 255 63 4 2 5 14 33 54
11 239 255 133 57 22 7 2 1 0 0 0 0 0 0 0 0 0 0 0 0 0 0 0 1 2 8 22 58 137 255 248 22 198 255 136 60 24 8 2 1 0 0 0 0 0 0 0 0 0 1 2 8 25 66 149 255 106 5 0 0 0 0 0 0 0 0 0 0 0 0 0 0 0 0 1 24 255 215 100 41 15 5 7 111 255 133 67 75 190 227 55 4 1 2 8 24 62 146 255 199 200 255 137 60 24 8 2 1 0 0 0 0 0 0 0 0 0 0 0 1 2 3 4 4 3 1 0 0 0 0 0 0 0 0 0 0 0 0 1 2 7 22 58 136 255 255 255 192 85 35 13 4 1 0 0 0 0 0 0 0 0 0 0 0 0 1 3 10 29 68 111 99 54 20 6 2 1 0 0 0 0 0 0 0 0 0 1 3 11 32 81 179 255 49 3 1 4 12 33 81 181 255 60 3 0 0 0 0 0 0 0 0 0 0 5 102 255 148 65 25 8 3 1 7 124 255 140 62 24 7 2 1 0 0 0 0 0 0 0 0 0 0 1 3 11 33 87 197 255 176 78 31 11 3 1 0 0 0 0 0 0 0 0 0 1 3 11 31 75 166 255 65 3 1 2 7 20 54 127 255 255 12 1 0 0 0 0 0 0 0 0 0 0 0 0 0 0 0 0 0 0 0 0 0 0 0 0 0 0 2 42 255 203 93 39 14 4 1 3 55 255 173 79 32 11 3 1 0 0 0 0 0 0 0 0 0 0 1 4 12 33 79 174 255 85 9 91 255 159 72 29 10 3 1 0 0 0 0 0 0 0 0 0 0 0 0 0 1 5 11 16 16 12 5 3 23 255 207 158 159 148 255 196 10 1 1 3 11 26 40 40 26 11 3 1 0 0 0 0 0 0 0 0 0 0 1 4 13 37 92 198 255 39 2 0 0 0 0 4 71 255 170 77 32 11 3 1 0 0 0 0 0 0 0 0 0 0 1 3 8 25 64 147 255 143 7 1 3 9 27 69 144 193 117 52 19 6 2 2 39 255 197 94 40 14 4 1 0 0 0 0 0 0 0 0 0 0 1 3 9 25 50 68 54 29 10 3 3 34 255 177 205 228 255 17 1 0 1 4 10 14 13 9 4 2 8 145 255 130 79 95 109 153 255 53 5 8 23 47 67 56 31 11 3 1 0 0 0 0 0 0 0 0 0 1 2 7 22 57 134 255 255 255 198 88 36 13 4 1 0 0 0 0 0 0 0 0 0 0 1 3 6 8 7 5 2 1 0 0 0 0 0 0 0 0 0 0 0 0 2 5 16 45 111 246 255 255 186 84 34 12 4 1 0 0 0 0 0 0 0 0 0 0 0 0 0 1 4 14 34 50 46 28 11 3 1 0 0 0 0 0 0 0 0 0 0 1 4 14 40 97 211 255 30 2 2 6 14 20
128 255 172 81 34 12 3 1 0 0 0 0 0 0 0 0 0 0 0 0 0 0 0 0 0 1 3 12 35 83 175 255 255 255 180 83 35 12 4 1 0 0 0 0 0 0 0 0 0 0 0 1 4 14 40 93 196 255 52 2 0 0 0 0 0 0 0 0 0 0 0 0 0 0 0 9 192 255 136 62 24 8 5 52 255 182 89 58 138 221 208 255 20 1 1 4 13 38 91 197 255 255 185 84 36 13 4 1 0 0 0 0 0 0 0 0 0 0 0 0 0 0 1 1 1 1 0 0 0 0 0 0 0 0 0 0 0 0 0 0 1 3 12 35 86 187 255 255 125 53 20 6 2 0 0 0 0 0 0 0 0 0 0 0 0 0 0 1 5 15 33 45 42 27 10 3 1 0 0 0 0 0 0 0 0 0 0 0 1 5 18 51 114 236 255 24 1 2 6 18 50 114 230 255 29 1 0 0 0 0 0 0 0 0 2 47 255 189 91 39 14 4 1 3 55 255 180 86 38 13 4 1 0 0 0 0 0 0 0 0 0 0 0 0 2 6 19 53 101 134 93 47 17 5 1 0 0 0 0 0 0 0 0 0 0 0 1 5 17 45 104 216 255 32 2 1 3 11 32 78 167 255 113 5 0 0 0 0 0 0 0 0 0 0 0 0 0 0 0 0 0 0 0 0 0 0 0 0 0 1 21 255 255 128 57 22 7 2 2 25 255 224 109 48 18 5 2 0 0 0 0 0 0 0 0 0 0 0 0 2 6 18 47 106 214 255 134 255 199 97 43 16 5 1 0 0 0 0 0 0 0 0 0 0 0 0 0 0 1 2 4 5 5 4 2 9 181 255 152 144 124 120 174 255 85 4 1 1 5 10 14 15 11 5 1 0 0 0 0 0 0 0 0 0 0 0 1 2 6 21 56 125 255 255 18 1 0 0 1 33 255 211 105 46 17 5 1 0 0 0 0 0 0 0 0 0 0 0 0 1 4 14 39 91 187 255 67 4 1 4 14 39 68 82 60 30 10 3 1 17 255 253 123 56 23 7 2 1 0 0 0 0 0 0 0 0 0 0 0 1 4 11 21 25 22 13 5 2 14 255 255 158 180 173 255 141 7 0 1 2 3 4 4 3 2 4 64 255 171 87 65 85 101 117 217 255 23 5 10 20 25 23 14 5 1 0 0 0 0 0 0 0 0 0 0 0 1 3 12 35 86 193 255 255 131 56 21 6 2 0 0 0 0 0 0 0 0 0 0 0 0 1 2 2 2 1 1 0 0 0 0 0 0 0 0 0 0 0 0 0 1 2 8 27 70 154 255 250 119 52 19 6 2 0 0 0 0 0 0 0 0 0 0 0 0 0 0 1 2 6 14 18 17 12 5 1 0 0 0 0 0 0 0 0 0 0 0 1 2 7 23 60 134 255 252 12 1 2 5 6
255 218 109 53 20 6 2 0 0 0 0 0 0 0 0 0 0 0 0 0 0 0 0 0 0 0 2 6 21 54 113 234 255 246 118 55 21 6 2 0 0 0 0 0 0 0 0 0 0 0 0 0 2 7 25 61 126 243 255 25 1 0 0 0 0 0 0 0 0 0 0 0 0 0 4 83 255 176 88 41 14 5 26 255 240 123 68 91 255 192 198 255 163 8 1 2 7 24 61 126 233 231 122 56 22 6 2 0 0 0 0 0 0 0 0 0 0 0 0 0 0 0 0 0 0 0 0 0 0 0 0 0 0 0 0 0 0 0 0 0 0 2 6 22 57 109 170 140 81 35 11 3 1 0 0 0 0 0 0 0 0 0 0 0 0 0 0 1 2 7 14 17 17 12 5 1 0 0 0 0 0 0 0 0 0 0 0 0 1 3 10 33 75 152 255 212 10 1 3 10 32 73 145 255 248 12 1 0 0 0 0 0 0 1 21 255 243 123 60 24 7 2 2 25 255 230 117 57 23 7 2 0 0 0 0 0 0 0 0 0 0 0 0 0 1 3 11 31 49 57 46 27 9 2 1 0 0 0 0 0 0 0 0 0 0 0 1 2 9 29 68 140 255 255 14 1 1 5 19 51 105 205 255 55 3 0 0 0 0 0 0 0 0 0 0 0 0 0 0 0 0 0 0 0 0 0 0 0 0 10 227 255 162 82 37 12 3 1 10 198 255 145 71 31 10 3 1 0 0 0 0 0 0 0 0 0 0 0 0 1 3 9 29 67 137 255 255 255 131 62 27 8 2 1 0 0 0 0 0 0 0 0 0 0 0 0 0 0 0 1 1 2 2 1 5 80 255 185 118 129 106 103 120 215 255 44 2 1 2 4 5 5 4 2 1 0 0 0 0 0 0 0 0 0 0 0 0 1 3 12 36 80 162 255 189 8 0 1 14 255 255 135 67 29 9 2 1 0 0 0 0 0 0 0 0 0 0 0 0 0 2 7 24 59 118 230 255 35 2 2 7 20 30 33 28 15 5 2 7 148 255 161 79 36 13 3 1 0 0 0 0 0 0 0 0 0 0 0 0 0 2 4 8 9 8 5 2 6 116 255 174 137 139 132 195 255 63 3 0 1 1 1 1 1 2 33 255 225 115 66 68 98 113 98 148 255 161 10 4 7 9 8 5 2 1 0 0 0 0 0 0 0 0 0 0 0 0 2 6 22 59 117 188 153 86 38 12 3 1 0 0 0 0 0 0 0 0 0 0 0 0 0 1 1 1 0 0 0 0 0 0 0 0 0 0 0 0 0 0 0 0 1 4 16 46 91 140 124 75 34 11 3 1 0 0 0 0 0 0 0 0 0 0 0 0 0 0 0 1 2 5 6 6 4 2 1 0 0 0 0 0 0 0 0 0 0 0 0 1 4 13 40 86 170 255 107 6 1 1 2
255 144 75 37 12 3 1 0 0 0 0 0 0 0 0 0 0 0 0 0 0 0 0 0 0 0 1 3 13 39 78 133 184 137 82 40 13 3 1 0 0 0 0 0 0 0 0 0 0 0 0 0 1 4 15 44 85 157 255 212 10 0 0 0 0 0 0 0 0 0 0 0 0 2 41 255 220 117 63 29 9 13 241 255 159 90 86 255 230 171 171 207 255 78 4 1 4 15 44 80 113 113 79 41 13 3 1 0 0 0 0 0 0 0 0 0 0 0 0 0 0 0 0 0 0 0 0 0 0 0 0 0 0 0 0 0 0 0 0 0 0 1 3 13 39 63 78 71 53 24 6 1 0 0 0 0 0 0 0 0 0 0 0 0 0 0 0 0 1 2 5 6 6 4 2 1 0 0 0 0 0 0 0 0 0 0 0 0 0 1 6 22 55 101 187 255 90 5 1 5 21 52 95 177 255 108 5 0 0 0 0 0 0 10 217 255 160 84 43 15 4 1 11 247 255 152 81 41 14 3 1 0 0 0 0 0 0 0 0 0 0 0 0 0 0 1 5 16 23 24 22 14 4 1 0 0 0 0 0 0 0 0 0 0 0 0 0 1 5 19 49 94 178 255 139 7 1 3 11 36 72 133 246 255 27 1 0 0 0 0 0 0 0 0 0 0 0 0 0 0 0 0 0 0 0 0 0 0 5 100 255 194 104 57 25 7 2 5 82 255 181 97 52 20 5 1 0 0 0 0 0 0 0 0 0 0 0 0 0 0 1 5 18 47 93 172 250 171 92 45 17 4 1 0 0 0 0 0 0 0 0 0 0 0 0 0 0 0 0 0 0 0 1 2 40 255 225 129 107 126 115 107 94 144 255 255 22 1 1 1 1 1 1 1 0 0 0 0 0 0 0 0 0 0 0 0 0 0 2 7 24 57 107 200 255 87 4 6 121 255 173 90 47 18 5 1 0 0 0 0 0 0 0 0 0 0 0 0 0 0 1 4 15 42 80 150 255 255 16 2 3 8 12 13 12 7 2 4 69 255 196 106 56 24 7 2 0 0 0 0 0 0 0 0 0 0 0 0 0 0 1 1 2 3 3 2 3 57 255 210 127 126 115 109 133 233 255 31 1 0 0 0 0 1 14 255 255 151 84 66 120 174 169 109 110 186 255 71 5 3 3 3 2 1 0 0 0 0 0 0 0 0 0 0 0 0 0 1 3 14 43 70 87 78 58 27 7 2 0 0 0 0 0 0 0 0 0 0 0 0 0 0 0 0 0 0 0 0 0 0 0 0 0 0 0 0 0 0 0 0 0 0 2 9 31 54 65 61 47 22 6 1 0 0 0 0 0 0 0 0 0 0 0 0 0 0 0 0 0 1 1 2 2 1 1 0 0 0 0 0 0 0 0 0 0 0 0 0 0 2 8 28 61 112 211 255 53 3 1 1
137 98 62 29 7 2 0 0 0 0 0 0 0 0 0 0 0 0 0 0 0 0 0 0 0 0 0 2 8 30 60 77 88 78 62 32 8 2 0 0 0 0 0 0 0 0 0 0 0 0 0 0 0 2 9 36 67 109 192 255 92 4 0 0 0 0 0 0 0 0 0 0 1 18 255 255 151 88 54 21 11 111 255 195 115 98 240 255 189 160 152 154 242 255 42 2 2 9 34 54 57 58 55 33 8 2 0 0 0 0 0 0 0 0 0 0 0 0 0 0 0 0 0 0 0 0 0 0 0 0 0 0 0 0 0 0 0 0 0 0 0 0 2 8 27 37 37 37 35 15 3 1 0 0 0 0 0 0 0 0 0 0 0 0 0 0 0 0 0 1 2 2 2 1 1 0 0 0 0 0 0 0 0 0 0 0 0 0 0 1 3 15 47 78 128 225 255 45 3 3 14 41 73 122 220 255 57 3 0 0 0 0 5 101 255 202 113 68 35 9 2 6 121 255 196 109 67 34 8 2 0 0 0 0 0 0 0 0 0 0 0 0 0 0 0 1 2 6 9 9 9 6 2 0 0 0 0 0 0 0 0 0 0 0 0 0 0 1 3 12 41 75 122 214 255 68 4 2 7 27 58 95 164 255 231 11 0 0 0 0 0 0 0 0 0 0 0 0 0 0 0 0 0 0 0 0 0 2 49 255 226 129 78 46 17 4 3 41 255 224 126 76 43 13 3 1 0 0 0 0 0 0 0 0 0 0 0 0 0 0 1 3 12 38 71 100 121 101 73 38 10 2 1 0 0 0 0 0 0 0 0 0 0 0 0 0 0 0 0 0 0 0 1 18 255 255 154 106 131 159 176 157 101 107 177 255 218 10 1 0 0 0 0 0 0 0 0 0 0 0 0 0 0 0 0 0 0 0 1 4 16 48 81 134 234 255 50 64 255 212 120 71 38 11 3 1 0 0 0 0 0 0 0 0 0 0 0 0 0 0 0 2 9 33 65 104 182 255 154 7 1 3 4 4 4 2 2 38 255 242 134 80 48 17 4 1 0 0 0 0 0 0 0 0 0 0 0 0 0 0 0 0 1 1 1 2 28 255 253 146 111 136 121 112 105 160 255 255 13 1 0 0 0 6 131 255 184 109 83 142 255 255 255 190 109 135 235 255 36 2 1 1 0 0 0 0 0 0 0 0 0 0 0 0 0 0 0 0 2 9 32 43 42 42 40 19 4 1 0 0 0 0 0 0 0 0 0 0 0 0 0 0 0 0 0 0 0 0 0 0 0 0 0 0 0 0 0 0 0 0 0 0 1 5 19 32 31 31 30 13 3 1 0 0 0 0 0 0 0 0 0 0 0 0 0 0 0 0 0 0 0 1 0 0 0 0 0 0 0 0 0 0 0 0 0 0 0 0 0 1 4 20 51 85 144 255 255 26 1 0
74 75 65 24 4 1 0 0 0 0 0 0 0 0 0 0 0 0 0 0 0 0 0 0 0 0 0 1 5 23 55 50 46 50 55 27 5 1 0 0 0 0 0 0 0 0 0 0 0 0 0 0 0 1 6 33 68 91 135 229 255 46 2 0 0 0 0 0 0 0 0 0 8 176 255 180 113 84 59 20 65 255 227 138 112 209 255 212 164 163 151 130 167 255 255 21 2 6 25 39 32 32 40 25 5 1 0 0 0 0 0 0 0 0 0 0 0 0 0 0 0 0 0 0 0 0 0 0 0 0 0 0 0 0 0 0 0 0 0 0 0 0 1 4 15 22 18 20 21 8 2 0 0 0 0 0 0 0 0 0 0 0 0 0 0 0 0 0 0 0 0 1 1 0 0 0 0 0 0 0 0 0 0 0 0 0 0 0 0 0 2 10 49 78 100 155 255 255 23 3 9 38 73 98 153 255 255 32 1 0 0 2 53 255 234 140 96 72 31 6 4 67 255 231 138 95 72 33 6 1 0 0 0 0 0 0 0 0 0 0 0 0 0 0 0 0 1 2 3 3 3 2 1 0 0 0 0 0 0 0 0 0 0 0 0 0 0 0 2 8 41 76 98 146 249 255 37 2 4 21 60 83 118 194 255 107 5 0 0 0 0 0 0 0 0 0 0 0 0 0 0 0 0 0 0 0 1 23 255 255 153 98 74 44 12 3 21 255 255 157 101 77 44 9 2 0 0 0 0 0 0 0 0 0 0 0 0 0 0 0 0 1 8 36 66 63 63 65 70 38 7 1 0 0 0 0 0 0 0 0 0 0 0 0 0 0 0 0 0 0 0 0 8 186 255 184 119 126 217 235 255 253 182 108 127 205 255 100 5 0 0 0 0 0 0 0 0 0 0 0 0 0 0 0 0 0 0 0 0 2 11 50 77 102 158 255 255 255 255 148 97 73 36 7 1 0 0 0 0 0 0 0 0 0 0 0 0 0 0 0 0 1 6 29 69 89 128 216 255 80 4 1 1 1 1 1 19 255 255 166 105 78 52 12 2 0 0 0 0 0 0 0 0 0 0 0 0 0 0 0 0 0 0 0 1 12 255 255 172 117 134 180 178 163 113 121 193 255 127 6 0 0 3 66 255 218 131 103 172 255 255 255 254 255 176 120 165 255 255 16 1 0 0 0 0 0 0 0 0 0 0 0 0 0 0 0 0 0 1 5 22 27 22 23 27 11 2 0 0 0 0 0 0 0 0 0 0 0 0 0 0 0 0 0 0 0 0 0 0 0 0 0 0 0 0 0 0 0 0 0 0 0 1 3 10 17 15 15 16 6 2 0 0 0 0 0 0 0 0 0 0 0 0 0 0 0 0 0 0 0 0 0 0 0 0 0 0 0 0 0 0 0 0 0 0 0 0 0 0 0 3 14 55 82 109 172 255 248 11 1
46 73 97 23 3 1 0 0 0 0 0 0 0 0 0 0 0 0 0 0 0 0 0 0 0 0 0 1 3 18 62 37 27 36 57 23 4 1 0 0 0 0 0 0 0 0 0 0 0 0 0 0 0 1 5 36 102 102 106 153 255 255 23 1 0 0 0 0 0 0 0 4 83 255 206 125 101 113 104 68 255 255 151 114 174 255 209 154 150 170 164 132 123 181 255 233 11 4 15 27 18 18 28 17 3 1 0 0 0 0 0 0 0 0 0 0 0 0 0 0 0 0 0 0 0 0 0 0 0 0 0 0 0 0 0 0 0 0 0 0 0 0 0 2 7 10 8 9 9 4 1 0 0 0 0 0 0 0 0 0 0 0 0 0 0 0 0 0 0 0 0 0 0 0 0 0 0 0 0 0 0 0 0 0 0 0 0 0 0 0 1 10 76 114 101 113 176 255 207 11 7 44 108 101 113 171 255 255 16 1 1 28 255 255 153 107 105 114 35 7 40 255 255 152 108 110 121 41 5 1 0 0 0 0 0 0 0 0 0 0 0 0 0 0 0 0 0 1 1 1 1 1 0 0 0 0 0 0 0 0 0 0 0 0 0 0 0 0 1 7 54 114 100 109 164 255 255 20 4 19 95 102 99 133 225 255 58 3 0 0 0 0 0 0 0 0 0 0 0 0 0 0 0 0 0 0 10 223 255 171 110 94 103 55 10 11 203 255 181 116 104 116 64 8 1 0 0 0 0 0 0 0 0 0 0 0 0 0 0 0 0 1 6 39 81 48 37 50 88 47 6 1 0 0 0 0 0 0 0 0 0 0 0 0 0 0 0 0 0 0 0 4 87 255 208 129 121 211 251 245 240 248 255 174 110 137 227 255 53 2 0 0 0 0 0 0 0 0 0 0 0 0 0 0 0 0 0 0 0 1 10 74 107 96 114 187 255 255 177 112 101 111 43 6 1 0 0 0 0 0 0 0 0 0 0 0 0 0 0 0 0 1 4 30 116 102 103 145 244 255 45 2 0 0 1 9 182 255 186 119 102 111 90 12 2 0 0 0 0 0 0 0 0 0 0 0 0 0 0 0 0 0 0 0 5 106 255 191 123 124 204 225 247 243 184 114 133 215 255 62 3 2 35 255 248 147 111 164 255 255 203 187 195 223 252 151 125 184 255 155 7 0 0 0 0 0 0 0 0 0 0 0 0 0 0 0 0 0 1 3 11 14 11 12 14 5 1 0 0 0 0 0 0 0 0 0 0 0 0 0 0 0 0 0 0 0 0 0 0 0 0 0 0 0 0 0 0 0 0 0 0 0 0 1 4 7 6 6 6 3 1 0 0 0 0 0 0 0 0 0 0 0 0 0 0 0 0 0 0 0 0 0 0 0 0 0 0 0 0 0 0 0 0 0 0 0 0 0 0 0 2 13 88 117 101 121 195 255 116 6
37 113 217 37 4 0 0 0 0 0 0 0 0 0 0 0 0 0 0 0 0 0 0 0 0 0 0 0 2 18 97 35 18 31 73 20 3 0 0 0 0 0 0 0 0 0 0 0 0 0 0 0 0 1 6 68 222 166 100 104 165 255 224 10 0 0 0 0 0 0 2 43 255 227 131 96 122 223 255 255 255 162 106 126 229 195 137 117 140 165 171 151 103 117 196 255 107 7 8 15 9 9 16 8 2 0 0 0 0 0 0 0 0 0 0 0 0 0 0 0 0 0 0 0 0 0 0 0 0 0 0 0 0 0 0 0 0 0 0 0 0 0 0 1 2 3 3 3 3 1 0 0 0 0 0 0 0 0 0 0 0 0 0 0 0 0 0 0 0 0 0 0 0 0 0 0 0 0 0 0 0 0 0 0 0 0 0 0 0 0 2 21 240 233 145 96 115 189 255 94 14 94 227 148 96 111 181 255 172 8 13 255 255 163 103 98 163 233 77 30 255 255 158 102 103 180 250 117 9 1 0 0 0 0 0 0 0 0 0 0 0 0 0 0 0 0 0 0 0 0 0 0 0 0 0 0 0 0 0 0 0 0 0 0 0 0 0 0 1 12 148 226 149 96 108 177 255 201 13 33 241 190 109 97 143 250 255 31 1 0 0 0 0 0 0 0 0 0 0 0 0 0 0 0 0 5 98 255 188 112 92 130 211 133 19 98 255 193 118 99 149 231 202 17 1 0 0 0 0 0 0 0 0 0 0 0 0 0 0 0 0 1 7 64 149 50 26 54 162 103 9 1 0 0 0 0 0 0 0 0 0 0 0 0 0 0 0 0 0 0 2 43 255 225 132 104 163 231 198 184 173 183 216 239 132 100 143 253 255 28 1 0 0 0 0 0 0 0 0 0 0 0 0 0 0 0 0 0 0 2 20 226 216 130 96 119 171 165 116 101 150 228 104 9 1 0 0 0 0 0 0 0 0 0 0 0 0 0 0 0 0 1 6 63 255 182 104 100 152 255 255 22 1 0 4 78 255 195 118 96 139 232 255 29 2 0 0 0 0 0 0 0 0 0 0 0 0 0 0 0 0 0 0 2 51 255 207 123 103 167 222 210 217 226 241 146 101 136 240 255 34 18 255 255 156 104 129 242 222 163 131 125 136 157 202 197 113 121 203 255 76 4 0 0 0 0 0 0 0 0 0 0 0 0 0 0 0 0 0 1 4 5 4 5 5 2 1 0 0 0 0 0 0 0 0 0 0 0 0 0 0 0 0 0 0 0 0 0 0 0 0 0 0 0 0 0 0 0 0 0 0 0 0 0 1 2 2 2 2 1 0 0 0 0 0 0 0 0 0 0 0 0 0 0 0 0 0 0 0 0 0 0 0 0 0 0 0 0 0 0 0 0 0 0 0 0 0 0 0 0 2 27 255 229 129 96 125 215 255 66
58 249 242 157 10 1 0 0 0 0 0 0 0 0 0 0 0 0 0 0 0 0 0 0 0 0 0 0 3 30 210 54 15 35 124 23 3 0 0 0 0 0 0 0 0 0 0 0 0 0 0 0 0 1 23 255 254 239 129 78 100 180 255 98 5 0 0 0 0 1 19 255 250 135 84 90 189 255 255 255 173 99 85 154 175 122 90 93 126 143 155 160 102 80 115 207 255 55 6 6 4 4 6 3 1 0 0 0 0 0 0 0 0 0 0 0 0 0 0 0 0 0 0 0 0 0 0 0 0 0 0 0 0 0 0 0 0 0 0 0 0 0 0 0 1 1 1 1 1 0 0 0 0 0 0 0 0 0 0 0 0 0 0 0 0 0 0 0 0 0 0 0 0 0 0 0 0 0 0 0 0 0 0 0 0 0 0 0 0 0 6 97 255 255 224 107 78 113 207 255 133 255 253 223 107 76 107 193 255 103 133 255 172 97 76 121 227 246 255 255 255 164 94 77 131 232 254 255 46 3 0 0 0 0 0 0 0 0 0 0 0 0 0 0 0 0 0 0 0 0 0 0 0 0 0 0 0 0 0 0 0 0 0 0 0 0 0 0 3 56 255 255 224 113 77 105 187 255 129 162 255 255 166 83 89 149 255 255 15 1 0 0 0 0 0 0 0 0 0 0 0 0 0 0 2 49 255 205 113 77 101 219 255 255 192 255 211 115 80 109 219 255 255 79 5 0 0 0 0 0 0 0 0 0 0 0 0 0 0 0 0 1 19 254 245 104 30 115 251 255 37 2 0 0 0 0 0 0 0 0 0 0 0 0 0 0 0 0 0 1 20 255 248 134 85 101 186 167 135 121 113 119 141 184 170 87 89 151 255 255 13 1 0 0 0 0 0 0 0 0 0 0 0 0 0 0 0 0 0 5 85 255 255 215 102 73 78 77 75 116 223 253 255 40 2 0 0 0 0 0 0 0 0 0 0 0 0 0 0 0 0 1 23 255 246 248 147 79 91 157 255 209 10 2 37 255 210 115 78 98 215 255 255 178 9 1 0 0 0 0 0 0 0 0 0 0 0 0 0 0 0 0 1 26 255 237 126 82 105 186 170 155 151 161 186 181 93 87 145 255 255 210 255 164 95 86 167 189 134 96 82 81 90 104 134 174 119 85 122 223 255 39 2 0 0 0 0 0 0 0 0 0 0 0 0 0 0 0 0 0 1 2 1 2 1 1 0 0 0 0 0 0 0 0 0 0 0 0 0 0 0 0 0 0 0 0 0 0 0 0 0 0 0 0 0 0 0 0 0 0 0 0 0 0 0 1 1 1 1 0 0 0 0 0 0 0 0 0 0 0 0 0 0 0 0 0 0 0 0 0 0 0 0 0 0 0 0 0 0 0 0 0 0 0 0 0 0 0 0 0 7 128 255 254 199 94 82 129 242 255
217 223 194 255 61 3 0 0 0 0 0 0 0 0 0 0 0 0 0 0 0 0 0 0 0 0 0 0 7 100 212 206 26 71 200 45 4 0 0 0 0 0 0 0 0 0 0 0 0 0 0 0 0 7 131 255 194 187 167 70 60 100 194 255 47 2 0 0 0 7 142 255 141 75 57 105 191 176 164 141 89 60 77 144 108 72 58 75 103 111 122 134 107 58 65 115 226 255 28 3 1 1 2 1 0 0 0 0 0 0 0 0 0 0 0 0 0 0 0 0 0 0 0 0 0 0 0 0 0 0 0 0 0 0 0 0 0 0 0 0 0 0 0 0 0 0 0 0 0 0 0 0 0 0 0 0 0 0 0 0 0 0 0 0 0 0 0 0 0 0 0 0 0 0 0 0 0 0 0 0 0 0 0 0 0 0 0 0 0 2 40 255 186 176 190 139 60 65 120 255 255 255 192 188 137 59 61 107 218 255 255 190 95 57 66 157 181 192 255 255 182 90 56 69 161 175 179 226 255 18 1 0 0 0 0 0 0 0 0 0 0 0 0 0 0 0 0 0 0 0 0 0 0 0 0 0 0 0 0 0 0 0 0 0 0 0 0 1 25 255 213 183 190 152 63 60 103 210 255 255 191 184 194 89 57 82 158 255 143 7 0 0 0 0 0 0 0 0 0 0 0 0 0 1 24 255 231 116 65 60 140 204 198 255 255 255 122 66 60 134 185 178 197 255 36 2 0 0 0 0 0 0 0 0 0 0 0 0 0 0 0 6 110 255 224 255 118 255 216 238 255 13 1 0 0 0 0 0 0 0 0 0 0 0 0 0 0 0 0 8 162 255 141 75 58 105 142 105 83 72 67 71 84 114 153 87 57 84 162 255 131 6 0 0 0 0 0 0 0 0 0 0 0 0 0 0 0 0 2 35 255 187 183 200 132 49 34 34 54 145 188 187 235 255 15 1 0 0 0 0 0 0 0 0 0 0 0 0 0 0 0 8 161 255 182 182 183 76 55 86 168 255 96 22 255 244 120 65 57 122 190 175 184 255 75 4 0 0 0 0 0 0 0 0 0 0 0 0 0 0 0 0 12 254 255 138 73 60 113 141 111 98 92 98 118 150 95 58 81 159 255 255 187 92 59 82 154 114 75 53 48 49 56 64 82 115 116 64 70 126 247 255 17 1 0 0 0 0 0 0 0 0 0 0 0 0 0 0 0 0 0 0 0 0 0 0 0 0 0 0 0 0 0 0 0 0 0 0 0 0 0 0 0 0 0 0 0 0 0 0 0 0 0 0 0 0 0 0 0 0 0 0 0 0 0 0 0 0 0 0 0 0 0 0 0 0 0 0 0 0 0 0 0 0 0 0 0 0 0 0 0 0 0 0 0 0 0 0 0 0 0 0 0 0 0 0 0 0 0 3 53 255 181 171 189 115 58 73 141 255
255 159 137 197 255 27 1 0 0 0 0 0 0 0 0 0 0 0 0 0 0 0 0 0 0 0 0 2 38 255 178 255 186 255 179 176 11 1 0 0 0 0 0 0 0 0 0 0 0 0 0 0 3 53 255 160 118 117 146 72 37 52 106 222 255 21 1 0 3 61 255 159 74 41 44 121 127 97 77 59 41 36 71 100 62 40 37 59 76 78 85 97 104 45 36 59 126 255 209 11 1 0 0 0 0 0 0 0 0 0 0 0 0 0 0 0 0 0 0 0 0 0 0 0 0 0 0 0 0 0 0 0 0 0 0 0 0 0 0 0 0 0 0 0 0 0 0 0 0 0 0 0 0 0 0 0 0 0 0 0 0 0 0 0 0 0 0 0 0 0 0 0 0 0 0 0 0 0 0 0 0 0 0 0 0 0 0 0 1 15 255 221 121 101 118 143 55 38 65 137 221 163 120 120 141 55 35 56 121 250 236 108 50 35 69 146 117 121 156 166 93 47 35 72 138 108 104 137 255 122 6 0 0 0 0 0 0 0 0 0 0 0 0 0 0 0 0 0 0 0 0 0 0 0 0 0 0 0 0 0 0 0 0 0 0 0 0 9 185 255 138 109 121 151 62 35 54 115 232 223 131 112 140 104 40 43 83 175 255 66 3 0 0 0 0 0 0 0 0 0 0 0 0 10 227 255 130 61 37 57 158 133 121 151 202 132 65 38 53 134 116 103 127 240 255 14 1 0 0 0 0 0 0 0 0 0 0 0 0 0 2 51 255 181 164 253 255 240 149 156 255 97 5 0 0 0 0 0 0 0 0 0 0 0 0 0 0 0 3 68 255 159 75 41 43 98 87 60 46 39 36 38 45 65 101 89 39 44 85 179 255 61 3 0 0 0 0 0 0 0 0 0 0 0 0 0 0 1 13 255 232 124 106 128 144 40 15 16 46 138 119 112 148 255 118 6 0 0 0 0 0 0 0 0 0 0 0 0 0 0 3 70 255 163 112 111 143 84 36 45 90 192 255 255 255 138 63 37 48 133 119 99 115 195 255 36 2 0 0 0 0 0 0 0 0 0 0 0 0 0 0 5 107 255 155 73 41 47 107 89 66 55 50 54 67 95 92 41 44 87 175 198 102 49 38 78 102 63 38 27 25 27 31 36 46 67 93 50 39 65 136 255 144 7 0 0 0 0 0 0 0 0 0 0 0 0 0 0 0 0 0 0 0 0 0 0 0 0 0 0 0 0 0 0 0 0 0 0 0 0 0 0 0 0 0 0 0 0 0 0 0 0 0 0 0 0 0 0 0 0 0 0 0 0 0 0 0 0 0 0 0 0 0 0 0 0 0 0 0 0 0 0 0 0 0 0 0 0 0 0 0 0 0 0 0 0 0 0 0 0 0 0 0 0 0 0 0 0 1 24 255 206 117 100 123 130 47 41 72 128
185 109 89 124 255 234 11 0 0 0 0 0 0 0 0 0 0 0 0 0 0 0 0 0 0 0 1 14 255 226 156 207 255 255 190 255 65 4 0 0 0 0 0 0 0 0 0 0 0 0 0 1 22 255 203 99 67 69 98 80 26 27 55 127 255 172 8 2 29 255 203 89 38 22 39 118 76 48 33 23 18 23 63 60 34 21 23 44 53 53 57 68 92 38 20 30 66 149 255 84 4 0 0 0 0 0 0 0 0 0 0 0 0 0 0 0 0 0 0 0 0 0 0 0 0 0 0 0 0 0 0 0 0 0 0 0 0 0 0 0 0 0 0 0 0 0 0 0 0 0 0 0 0 0 0 0 0 0 0 0 0 0 0 0 0 0 0 0 0 0 0 0 0 0 0 0 0 0 0 0 0 0 0 0 0 0 0 0 6 112 255 131 71 55 70 110 56 24 33 62 89 79 68 73 109 58 22 29 59 104 100 54 26 25 82 103 71 66 69 66 42 24 25 82 93 63 57 79 161 255 52 3 0 0 0 0 0 0 0 0 0 0 0 0 0 0 0 0 0 0 0 0 0 0 0 0 0 0 0 0 0 0 0 0 0 0 4 76 255 153 81 61 73 111 69 23 28 56 97 100 77 66 86 114 33 23 42 96 207 255 31 1 0 0 0 0 0 0 0 0 0 0 5 93 255 156 69 31 23 64 125 81 67 74 81 58 32 23 51 104 69 57 74 141 255 125 6 0 0 0 0 0 0 0 0 0 0 0 0 1 25 255 223 118 108 158 230 152 96 98 176 255 43 2 0 0 0 0 0 0 0 0 0 0 0 0 0 1 31 255 196 88 38 22 33 80 51 32 23 18 17 18 22 35 61 86 29 23 43 98 210 255 28 1 0 0 0 0 0 0 0 0 0 0 0 0 0 6 115 255 140 75 59 76 116 38 9 10 41 98 70 63 87 171 255 53 3 0 0 0 0 0 0 0 0 0 0 0 0 2 35 255 201 98 65 64 90 95 28 23 47 112 255 255 188 77 33 22 48 112 70 54 66 115 245 255 14 1 0 0 0 0 0 0 0 0 0 0 0 0 2 52 255 183 83 38 23 39 86 54 36 28 25 27 36 55 81 32 24 42 72 79 48 26 27 70 59 33 18 12 11 13 15 18 24 38 64 38 22 33 73 168 255 65 3 0 0 0 0 0 0 0 0 0 0 0 0 0 0 0 0 0 0 0 0 0 0 0 0 0 0 0 0 0 0 0 0 0 0 0 0 0 0 0 0 0 0 0 0 0 0 0 0 0 0 0 0 0 0 0 0 0 0 0 0 0 0 0 0 0 0 0 0 0 0 0 0 0 0 0 0 0 0 0 0 0 0 0 0 0 0 0 0 0 0 0 0 0 0 0 0 0 0 0 0 0 0 0 10 205 255 126 70 56 75 119 45 23 33 49
91 71 59 78 163 255 99 5 0 0 0 0 0 0 0 0 0 0 0 0 0 0 0 0 0 0 6 114 255 155 125 139 217 191 179 208 255 31 1 0 0 0 0 0 0 0 0 0 0 0 0 9 194 255 129 61 39 42 66 100 23 14 29 73 170 255 75 17 255 255 126 50 20 14 41 101 48 24 13 9 8 15 56 36 18 10 14 32 36 36 39 53 81 36 12 15 35 87 195 255 42 2 0 0 0 0 0 0 0 0 0 0 0 0 0 0 0 0 0 0 0 0 0 0 0 0 0 0 0 0 0 0 0 0 0 0 0 0 0 0 0 0 0 0 0 0 0 0 0 0 0 0 0 0 0 0 0 0 0 0 0 0 0 0 0 0 0 0 0 0 0 0 0 0 0 0 0 0 0 0 0 0 0 0 0 0 0 2 52 255 179 81 42 31 43 77 65 17 16 25 34 35 36 46 78 72 17 14 26 40 39 25 14 23 119 74 44 34 28 24 17 12 23 110 64 37 31 47 100 221 255 25 1 0 0 0 0 0 0 0 0 0 0 0 0 0 0 0 0 0 0 0 0 0 0 0 0 0 0 0 0 0 0 0 0 2 38 255 202 93 48 35 45 77 92 19 14 25 38 41 41 39 59 117 34 13 22 52 124 255 255 13 1 0 0 0 0 0 0 0 0 2 45 255 196 90 37 16 19 86 89 52 36 33 31 23 15 15 53 73 42 31 44 85 186 255 61 3 0 0 0 0 0 0 0 0 0 0 0 11 255 255 140 76 71 89 107 86 62 63 110 235 255 18 1 0 0 0 0 0 0 0 0 0 0 0 1 14 255 255 120 49 20 12 26 62 31 16 10 8 7 7 10 18 39 85 25 13 22 53 126 255 255 12 1 0 0 0 0 0 0 0 0 0 0 0 3 57 255 189 87 46 33 47 81 37 7 7 37 63 42 36 52 105 225 255 25 1 0 0 0 0 0 0 0 0 0 0 1 15 255 255 124 59 38 37 60 114 27 13 25 64 135 176 103 44 18 15 55 85 44 29 37 67 147 255 126 6 0 0 0 0 0 0 0 0 0 0 0 1 26 255 235 108 45 19 14 34 66 34 19 13 11 12 18 34 70 26 13 18 27 29 21 13 20 62 35 16 8 5 4 5 6 8 11 21 40 28 13 17 40 101 215 255 31 1 0 0 0 0 0 0 0 0 0 0 0 0 0 0 0 0 0 0 0 0 0 0 0 0 0 0 0 0 0 0 0 0 0 0 0 0 0 0 0 0 0 0 0 0 0 0 0 0 0 0 0 0 0 0 0 0 0 0 0 0 0 0 0 0 0 0 0 0 0 0 0 0 0 0 0 0 0 0 0 0 0 0 0 0 0 0 0 0 0 0 0 0 0 0 0 0 0 0 0 0 0 4 92 255 166 76 42 33 49 96 49 14 14 17
46 48 44 56 108 212 255 48 2 0 0 0 0 0 0 0 0 0 0 0 0 0 0 0 0 3 56 255 202 117 108 95 108 114 148 161 255 255 14 1 0 0 0 0 0 0 0 0 0 0 4 92 255 185 88 41 24 28 59 155 29 9 16 46 111 223 255 255 255 175 82 31 11 11 50 92 36 12 5 3 3 12 54 24 9 5 7 20 24 25 30 52 88 39 8 8 20 55 131 255 255 20 1 0 0 0 0 0 0 0 0 0 0 0 0 0 0 0 0 0 0 0 0 0 0 0 0 0 0 0 0 0 0 0 0 0 0 0 0 0 0 0 0 0 0 0 0 0 0 0 0 0 0 0 0 0 0 0 0 0 0 0 0 0 0 0 0 0 0 0 0 0 0 0 0 0 0 0 0 0 0 0 0 0 0 0 1 25 255 244 122 55 26 18 29 63 102 17 7 10 12 15 19 32 68 136 19 7 11 14 14 10 8 37 205 77 30 17 11 9 6 7 34 186 64 24 18 30 67 149 255 252 11 0 0 0 0 0 0 0 0 0 0 0 0 0 0 0 0 0 0 0 0 0 0 0 0 0 0 0 0 0 0 0 1 17 255 255 136 62 30 21 31 71 172 26 7 10 14 17 21 24 51 123 44 10 11 31 78 168 255 119 6 0 0 0 0 0 0 0 1 22 255 255 127 56 21 10 24 167 79 37 20 14 11 9 7 13 65 56 28 18 27 56 122 241 255 31 1 0 0 0 0 0 0 0 0 0 5 115 255 184 93 56 50 50 50 48 42 45 75 155 255 144 7 0 0 0 0 0 0 0 0 0 0 0 6 143 255 172 78 30 11 7 20 49 20 8 4 3 2 3 4 10 32 102 26 8 12 32 81 175 255 121 6 0 0 0 0 0 0 0 0 0 0 1 28 255 244 125 59 30 20 31 59 38 6 6 31 42 26 21 33 69 150 255 240 11 0 0 0 0 0 0 0 0 0 0 6 135 255 167 81 38 23 24 56 153 37 9 14 36 65 77 55 25 10 14 89 72 31 17 22 43 96 200 255 64 3 0 0 0 0 0 0 0 0 0 0 12 253 255 153 69 26 10 9 30 55 23 10 5 4 5 9 23 64 22 7 7 9 10 8 6 16 60 23 8 3 2 1 2 2 3 5 11 23 17 7 9 23 64 140 255 255 14 1 0 0 0 0 0 0 0 0 0 0 0 0 0 0 0 0 0 0 0 0 0 0 0 0 0 0 0 0 0 0 0 0 0 0 0 0 0 0 0 0 0 0 0 0 0 0 0 0 0 0 0 0 0 0 0 0 0 0 0 0 0 0 0 0 0 0 0 0 0 0 0 0 0 0 0 0 0 0 0 0 0 0 0 0 0 0 0 0 0 0 0 0 0 0 0 0 0 0 0 2 49 255 219 109 51 26 20 37 85 68 11 5 6
25 34 38 49 83 145 255 255 23 1 0 0 0 0 0 0 0 0 0 0 0 0 0 0 1 30 255 255 145 107 114 77 62 79 126 134 193 255 137 6 0 0 0 0 0 0 0 0 0 2 51 255 234 131 71 32 15 24 101 217 64 8 10 33 82 157 255 255 237 124 62 21 7 12 97 110 35 7 2 1 2 10 62 18 5 2 4 10 13 16 27 84 148 66 8 4 12 41 96 176 255 184 8 0 0 0 0 0 0 0 0 0 0 0 0 0 0 0 0 0 0 0 0 0 0 0 0 0 0 0 0 0 0 0 0 0 0 0 0 0 0 0 0 0 0 0 0 0 0 0 0 0 0 0 0 0 0 0 0 0 0 0 0 0 0 0 0 0 0 0 0 0 0 0 0 0 0 0 0 0 0 0 0 0 0 0 12 255 255 166 92 44 17 11 24 89 236 31 5 3 4 6 10 28 118 255 48 6 4 5 5 4 10 121 225 158 30 8 4 3 3 9 106 227 128 22 10 21 54 108 197 255 118 5 0 0 0 0 0 0 0 0 0 0 0 0 0 0 0 0 0 0 0 0 0 0 0 0 0 0 0 0 0 0 7 153 255 178 99 49 20 13 29 136 248 68 7 4 5 6 10 18 69 148 91 11 7 20 58 118 219 255 64 3 0 0 0 0 0 0 10 235 255 172 91 41 13 8 61 255 138 36 11 6 4 3 3 16 129 60 20 11 18 44 89 162 255 255 13 1 0 0 0 0 0 0 0 3 58 255 223 126 74 49 40 30 25 28 31 38 62 113 202 255 66 3 0 0 0 0 0 0 0 0 0 3 72 255 218 120 60 20 6 4 15 41 13 4 2 1 1 1 2 6 40 167 37 6 6 21 60 122 221 255 61 3 0 0 0 0 0 0 0 0 1 12 255 255 163 92 47 20 12 23 50 39 6 5 23 27 15 12 23 55 107 194 255 107 5 0 0 0 0 0 0 0 0 3 67 255 210 116 62 28 14 20 95 192 97 10 7 19 31 34 28 13 6 29 255 104 28 10 13 32 74 139 252 255 35 1 0 0 0 0 0 0 0 0 5 120 255 193 106 51 17 5 6 26 51 16 5 2 2 2 5 18 72 20 4 3 3 3 3 3 14 70 18 4 1 1 0 0 1 1 2 5 10 8 3 4 15 47 100 187 255 141 6 0 0 0 0 0 0 0 0 0 0 0 0 0 0 0 0 0 0 0 0 0 0 0 0 0 0 0 0 0 0 0 0 0 0 0 0 0 0 0 0 0 0 0 0 0 0 0 0 0 0 0 0 0 0 0 0 0 0 0 0 0 0 0 0 0 0 0 0 0 0 0 0 0 0 0 0 0 0 0 0 0 0 0 0 0 0 0 0 0 0 0 0 0 0 0 0 0 0 1 26 255 255 149 82 39 17 13 37 110 176 17 3 2
13 25 37 57 79 106 170 255 204 9 0 0 0 0 0 0 0 0 0 0 0 0 0 1 14 255 255 170 116 130 157 89 45 69 120 126 137 216 255 65 3 0 0 0 0 0 0 0 1 28 255 255 155 101 71 28 12 45 255 213 255 24 7 27 73 116 182 220 149 98 57 15 5 33 255 200 53 6 1 1 2 12 104 17 3 1 1 4 6 10 49 255 255 255 21 3 8 36 81 122 202 255 81 4 0 0 0 0 0 0 0 0 0 0 0 0 0 0 0 0 0 0 0 0 0 0 0 0 0 0 0 0 0 0 0 0 0 0 0 0 0 0 0 0 0 0 0 0 0 0 0 0 0 0 0 0 0 0 0 0 0 0 0 0 0 0 0 0 0 0 0 0 0 0 0 0 0 0 0 0 0 0 0 0 0 6 125 255 197 118 82 41 12 7 39 255 253 130 8 1 1 2 7 56 255 238 255 18 2 1 2 4 50 255 217 255 69 7 2 1 3 46 255 224 255 51 8 15 52 90 134 224 255 59 3 0 0 0 0 0 0 0 0 0 0 0 0 0 0 0 0 0 0 0 0 0 0 0 0 0 0 0 0 3 69 255 205 123 84 48 14 11 67 255 221 255 27 2 2 2 5 23 191 207 255 33 5 14 52 93 148 255 255 35 1 0 0 0 0 5 106 255 202 120 77 34 9 24 255 218 255 81 9 2 1 1 4 44 255 140 20 6 12 40 78 113 186 255 126 6 0 0 0 0 0 0 1 30 255 253 147 97 77 59 37 18 13 15 22 38 68 94 139 240 255 34 1 0 0 0 0 0 0 0 2 37 255 244 144 94 55 14 3 3 9 31 8 2 1 0 0 0 1 9 108 224 117 9 4 15 55 94 147 250 255 32 1 0 0 0 0 0 0 0 6 122 255 190 115 80 44 14 7 17 53 46 6 3 13 15 8 7 17 54 88 132 222 255 54 2 0 0 0 0 0 0 2 36 255 246 142 92 59 21 10 39 255 222 255 42 5 9 14 14 13 6 10 146 255 255 50 8 8 26 69 104 165 255 255 16 1 0 0 0 0 0 0 3 63 255 223 130 84 46 11 3 4 22 56 12 3 1 1 1 3 19 112 22 3 1 1 1 1 2 17 117 19 3 1 0 0 0 0 0 1 2 3 3 1 2 9 40 83 128 215 255 70 3 0 0 0 0 0 0 0 0 0 0 0 0 0 0 0 0 0 0 0 0 0 0 0 0 0 0 0 0 0 0 0 0 0 0 0 0 0 0 0 0 0 0 0 0 0 0 0 0 0 0 0 0 0 0 0 0 0 0 0 0 0 0 0 0 0 0 0 0 0 0 0 0 0 0 0 0 0 0 0 0 0 0 0 0 0 0 0 0 0 0 0 0 0 0 0 0 0 12 255 255 175 108 75 35 11 11 65 248 255 64 4 1
7 18 46 101 98 86 109 183 255 86 4 0 0 0 0 0 0 0 0 0 0 0 0 6 132 255 179 111 110 181 202 162 53 81 124 126 102 134 230 255 32 1 0 0 0 0 0 1 13 255 255 162 101 87 89 28 21 241 253 213 255 153 13 24 76 86 94 102 89 83 63 13 13 203 255 255 202 14 1 0 2 28 227 34 3 1 1 1 3 21 255 255 255 255 135 8 6 35 77 88 125 217 255 40 2 0 0 0 0 0 0 0 0 0 0 0 0 0 0 0 0 0 0 0 0 0 0 0 0 0 0 0 0 0 0 0 0 0 0 0 0 0 0 0 0 0 0 0 0 0 0 0 0 0 0 0 0 0 0 0 0 0 0 0 0 0 0 0 0 0 0 0 0 0 0 0 0 0 0 0 0 0 0 0 3 61 255 208 122 89 85 46 9 14 194 255 211 255 53 3 1 2 20 255 240 204 255 139 7 1 1 22 255 238 196 216 255 24 2 1 21 255 250 206 231 255 20 14 62 85 92 136 237 255 28 1 0 0 0 0 0 0 0 0 0 0 0 0 0 0 0 0 0 0 0 0 0 0 0 0 0 0 1 34 255 223 128 89 82 60 13 29 255 233 201 255 209 10 1 1 6 83 255 250 255 228 14 12 57 80 98 155 255 255 16 1 0 0 2 52 255 212 124 87 75 33 15 158 255 194 234 255 32 2 1 1 15 255 233 255 59 6 9 42 79 85 117 202 255 60 3 0 0 0 0 1 13 255 255 155 97 86 115 114 42 11 6 7 16 50 108 91 97 150 255 255 15 1 0 0 0 0 0 1 16 255 255 148 95 80 61 11 2 1 5 17 5 1 0 0 0 0 2 41 255 224 255 48 5 12 60 78 96 153 255 255 14 1 0 0 0 0 0 3 63 255 209 119 86 83 49 10 5 15 77 68 8 2 5 6 3 4 14 68 83 92 137 242 255 27 1 0 0 0 0 1 16 255 255 152 96 82 69 19 17 208 255 228 255 255 19 4 5 5 5 6 65 255 213 255 255 18 6 24 78 84 105 171 255 146 7 0 0 0 0 0 1 33 255 240 137 90 75 47 9 2 3 19 73 12 2 0 0 0 3 34 201 39 4 1 0 0 0 3 35 218 38 3 0 0 0 0 0 0 0 1 1 1 1 1 7 38 79 90 132 232 255 38 2 0 0 0 0 0 0 0 0 0 0 0 0 0 0 0 0 0 0 0 0 0 0 0 0 0 0 0 0 0 0 0 0 0 0 0 0 0 0 0 0 0 0 0 0 0 0 0 0 0 0 0 0 0 0 0 0 0 0 0 0 0 0 0 0 0 0 0 0 0 0 0 0 0 0 0 0 0 0 0 0 0 0 0 0 0 0 0 0 0 0 0 0 0 0 0 5 109 255 181 109 84 82 34 9 25 255 255 222 255 27 2
4 16 111 246 163 80 68 104 195 255 41 2 0 0 0 0 0 0 0 0 0 0 3 58 255 182 100 74 114 180 184 225 128 133 125 116 77 78 131 255 255 13 1 0 0 0 0 5 113 255 162 89 65 82 129 47 127 255 174 155 178 255 81 29 84 62 46 44 49 71 80 18 93 255 178 197 255 69 4 1 6 94 197 137 9 1 0 1 8 137 255 189 171 190 255 64 9 36 75 63 73 124 241 255 18 1 0 0 0 0 0 0 0 0 0 0 0 0 0 0 0 0 0 0 0 0 0 0 0 0 0 0 0 0 0 0 0 0 0 0 0 0 0 0 0 0 0 0 0 0 0 0 0 0 0 0 0 0 0 0 0 0 0 0 0 0 0 0 0 0 0 0 0 0 0 0 0 0 0 0 0 0 0 1 30 255 219 116 72 69 96 64 14 81 255 180 156 214 255 22 1 6 119 255 164 141 184 255 62 4 9 168 255 152 136 152 255 128 8 9 173 255 157 141 159 255 116 22 94 85 64 77 134 255 214 11 0 0 0 0 0 0 0 0 0 0 0 0 0 0 0 0 0 0 0 0 0 0 0 0 0 1 14 255 253 128 75 65 90 109 26 179 255 160 142 172 255 86 5 2 34 255 198 181 177 255 107 18 74 72 63 85 153 255 134 6 0 1 24 255 226 118 72 63 79 42 91 255 177 141 162 251 223 11 1 6 107 255 182 210 255 24 9 54 88 65 70 114 215 255 27 1 0 0 0 5 111 255 158 87 65 96 215 255 99 11 3 4 15 125 205 109 69 86 153 255 131 6 0 0 0 0 0 7 142 255 149 82 61 71 80 12 2 1 2 6 2 1 0 0 0 1 15 255 228 191 225 255 22 13 80 69 62 85 157 255 131 6 0 0 0 0 1 32 255 222 118 71 67 95 65 10 4 22 183 173 16 2 2 2 1 2 16 115 87 64 78 138 255 255 12 1 0 0 0 6 133 255 151 85 64 81 105 26 106 255 177 158 166 255 150 9 2 2 3 30 255 212 149 175 255 107 10 26 102 71 65 95 178 255 66 3 0 0 0 1 14 255 255 135 77 61 70 57 8 1 3 21 121 16 2 0 0 1 7 100 181 148 10 1 0 0 1 9 135 182 159 10 1 0 0 0 0 0 0 0 0 0 0 1 6 39 77 62 76 132 254 255 17 1 0 0 0 0 0 0 0 0 0 0 0 0 0 0 0 0 0 0 0 0 0 0 0 0 0 0 0 0 0 0 0 0 0 0 0 0 0 0 0 0 0 0 0 0 0 0 0 0 0 0 0 0 0 0 0 0 0 0 0 0 0 0 0 0 0 0 0 0 0 0 0 0 0 0 0 0 0 0 0 0 0 0 0 0 0 0 0 0 0 0 0 0 0 2 51 255 189 100 66 69 101 41 15 149 255 182 161 255 218 11
4 44 255 239 207 93 43 54 106 224 255 17 1 0 0 0 0 0 0 0 0 1 27 255 200 96 52 50 105 124 130 175 255 223 124 94 56 43 67 141 255 107 5 0 0 0 2 52 255 172 83 46 42 86 164 255 255 177 105 92 105 200 255 107 93 44 21 18 26 62 115 88 255 186 112 121 172 255 27 3 34 255 156 255 52 3 0 3 55 255 167 103 90 111 205 255 42 41 68 44 40 63 132 255 149 7 0 0 0 0 0 0 0 0 0 0 0 0 0 0 0 0 0 0 0 0 0 0 0 0 0 0 0 0 0 0 0 0 0 0 0 0 0 0 0 0 0 0 0 0 0 0 0 0 0 0 0 0 0 0 0 0 0 0 0 0 0 0 0 0 0 0 0 0 0 0 0 0 0 0 0 0 1 11 231 252 119 59 40 54 108 132 65 255 182 108 94 125 255 143 10 50 255 160 96 83 104 200 255 35 69 255 153 85 79 91 145 255 56 75 255 157 87 81 95 163 255 139 170 93 44 41 68 142 255 85 4 0 0 0 0 0 0 0 0 0 0 0 0 0 0 0 0 0 0 0 0 0 0 0 0 6 115 255 138 66 41 50 119 230 213 255 152 93 84 98 182 255 40 14 240 230 126 103 107 184 255 105 127 69 39 44 78 165 255 60 3 10 206 255 123 60 39 45 89 159 255 200 102 85 94 147 255 83 7 46 255 169 116 134 255 147 20 96 102 52 39 58 117 255 220 10 0 0 2 48 255 169 81 45 47 131 212 231 255 36 3 4 45 255 214 143 54 46 79 165 255 57 3 0 0 0 3 64 255 164 77 43 38 66 118 16 2 0 1 2 1 0 0 0 0 6 112 255 141 119 138 255 186 30 124 64 38 44 81 170 255 61 3 0 0 1 14 255 252 119 60 40 55 112 118 14 7 73 255 255 57 4 1 1 1 3 31 194 107 46 42 71 148 255 109 5 0 0 3 57 255 163 77 44 43 92 173 150 255 185 106 89 94 163 255 63 4 1 11 196 247 121 88 102 166 255 57 41 128 65 38 49 94 198 255 32 1 0 0 6 113 255 140 68 41 40 66 84 10 1 4 38 174 31 3 0 0 2 35 255 157 255 52 3 0 0 3 50 255 163 255 57 3 0 0 0 0 0 0 0 0 0 0 1 6 41 72 42 40 66 137 255 142 7 0 0 0 0 0 0 0 0 0 0 0 0 0 0 0 0 0 0 0 0 0 0 0 0 0 0 0 0 0 0 0 0 0 0 0 0 0 0 0 0 0 0 0 0 0 0 0 0 0 0 0 0 0 0 0 0 0 0 0 0 0 0 0 0 0 0 0 0 0 0 0 0 0 0 0 0 0 0 0 0 0 0 0 0 0 0 0 0 0 0 0 0 1 22 255 210 101 51 38 60 121 71 91 255 162 105 97 151 255 103
16 255 207 153 146 110 31 26 51 120 255 120 6 0 0 0 0 0 0 0 0 10 218 251 107 46 25 33 75 70 77 114 200 188 115 69 38 23 32 70 158 255 46 2 0 1 23 255 201 89 39 22 29 96 183 255 221 97 55 47 55 108 246 255 145 35 10 7 15 63 193 255 233 102 60 63 102 234 169 22 209 210 135 188 255 22 2 22 255 186 88 50 42 56 111 249 255 83 57 28 20 30 65 153 255 63 3 0 0 0 0 0 0 0 0 0 0 0 0 0 0 0 0 0 0 0 0 0 0 0 0 0 0 0 0 0 0 0 0 0 0 0 0 0 0 0 0 0 0 0 0 0 0 0 0 0 0 0 0 0 0 0 0 0 0 0 0 0 0 0 0 0 0 0 0 0 0 0 0 0 0 0 4 83 255 131 57 27 21 46 127 255 255 241 102 56 49 65 139 255 108 255 194 89 50 42 52 108 253 255 255 179 80 43 40 47 83 194 255 255 181 81 44 40 50 92 224 255 232 117 34 20 32 72 169 255 40 2 0 0 0 0 0 0 0 0 0 0 0 0 0 0 0 0 0 0 0 0 0 0 2 50 255 157 69 31 22 46 158 239 255 197 84 48 42 49 97 218 255 141 255 127 67 51 56 99 227 255 241 83 25 21 37 85 192 255 33 87 255 141 60 28 20 38 157 255 241 106 53 44 48 79 165 255 68 255 201 93 64 74 142 255 156 216 120 44 21 27 57 135 255 83 4 1 20 255 199 88 38 23 41 139 131 144 212 201 12 15 231 193 149 138 48 24 38 85 192 255 25 1 0 1 30 255 191 85 37 20 24 70 141 27 3 0 0 0 0 0 0 0 2 48 255 156 78 63 75 152 255 255 169 71 24 21 38 87 196 255 30 1 0 6 118 255 133 57 28 22 48 128 197 33 32 255 173 173 255 22 1 0 1 6 88 160 132 39 21 33 74 168 255 50 2 1 25 255 190 84 37 22 33 120 217 255 232 102 55 44 47 85 185 255 28 5 71 255 130 61 45 52 92 210 255 174 124 63 23 23 45 105 240 255 13 1 2 49 255 156 69 31 19 26 69 145 18 2 8 98 132 78 6 0 1 12 229 206 140 180 255 19 1 1 20 255 189 138 179 255 22 1 0 0 0 0 0 0 0 0 0 1 6 43 60 27 20 31 66 152 255 59 3 0 0 0 0 0 0 0 0 0 0 0 0 0 0 0 0 0 0 0 0 0 0 0 0 0 0 0 0 0 0 0 0 0 0 0 0 0 0 0 0 0 0 0 0 0 0 0 0 0 0 0 0 0 0 0 0 0 0 0 0 0 0 0 0 0 0 0 0 0 0 0 0 0 0 0 0 0 0 0 0 0 0 0 0 0 0 0 0 0 0 0 8 163 255 112 48 24 22 56 128 255 255 196 90 54 51 80 179 255
116 255 122 80 80 99 25 13 23 58 144 255 49 2 0 0 0 0 0 0 4 88 255 131 51 21 12 19 41 35 40 60 93 102 84 46 22 11 14 32 81 197 255 19 1 8 156 255 106 41 17 11 24 101 133 151 100 47 25 21 26 52 119 211 190 42 7 4 13 89 200 229 117 50 29 30 52 124 255 255 255 123 88 112 255 144 16 152 253 100 41 22 18 26 54 130 255 255 70 18 9 13 30 77 181 255 27 1 0 0 0 0 0 0 0 0 0 0 0 0 0 0 0 0 0 0 0 0 0 0 0 0 0 0 0 0 0 0 0 0 0 0 0 0 0 0 0 0 0 0 0 0 0 0 0 0 0 0 0 0 0 0 0 0 0 0 0 0 0 0 0 0 0 0 0 0 0 0 0 0 0 2 34 255 156 64 25 12 12 44 137 216 255 127 52 26 22 31 74 202 255 255 107 43 23 19 24 53 139 255 255 100 38 20 17 22 43 112 255 255 100 38 20 17 23 46 111 199 172 131 32 11 14 34 89 215 255 17 1 0 0 0 0 0 0 0 0 0 0 0 0 0 0 0 0 0 0 0 0 1 22 255 194 80 31 14 13 50 138 149 172 95 41 22 18 23 46 119 255 255 171 67 32 22 26 48 113 220 206 129 22 10 16 39 102 253 255 255 171 70 27 12 11 48 197 186 112 50 25 19 22 38 89 242 255 255 110 46 31 37 77 203 255 245 139 44 12 12 26 67 162 255 36 9 147 255 105 41 17 12 36 95 69 74 121 255 82 89 255 116 83 89 40 13 17 40 102 249 182 9 1 12 245 239 100 39 16 9 18 76 108 45 4 0 0 0 0 0 0 1 18 255 193 82 38 29 37 79 197 255 195 95 19 10 17 40 103 242 223 11 3 52 255 157 65 26 12 13 47 122 157 136 246 234 116 116 255 148 7 0 2 28 255 111 114 36 12 15 34 86 200 255 22 10 177 249 101 39 16 11 31 137 164 192 111 50 26 19 21 40 99 240 215 46 255 161 66 29 20 24 46 115 255 255 137 62 15 10 20 50 126 255 99 6 21 255 194 80 31 13 9 19 88 165 39 5 30 255 108 255 24 2 5 86 255 125 92 109 255 127 7 8 141 255 113 87 106 252 128 7 0 0 0 0 0 0 0 0 0 1 6 41 41 16 9 13 30 77 182 255 26 1 0 0 0 0 0 0 0 0 0 0 0 0 0 0 0 0 0 0 0 0 0 0 0 0 0 0 0 0 0 0 0 0 0 0 0 0 0 0 0 0 0 0 0 0 0 0 0 0 0 0 0 0 0 0 0 0 0 0 0 0 0 0 0 0 0 0 0 0 0 0 0 0 0 0 0 0 0 0 0 0 0 0 0 0 0 0 0 0 0 3 64 255 135 53 21 11 14 58 145 255 239 104 44 25 24 39 97 234
255 158 66 38 40 64 19 7 10 27 75 188 255 19 1 0 0 0 0 2 41 255 166 66 23 9 5 9 17 15 17 26 37 45 46 26 11 5 6 14 38 107 255 132 10 61 255 132 51 18 7 6 20 82 72 58 38 20 10 8 11 22 50 90 126 60 7 3 17 127 119 94 50 22 12 13 25 69 202 255 189 73 50 60 134 255 255 255 133 49 19 9 7 11 24 62 147 233 147 19 5 5 13 35 96 241 183 9 0 0 0 0 0 0 0 0 0 0 0 0 0 0 0 0 0 0 0 0 0 0 0 0 0 0 0 0 0 0 0 0 0 0 0 0 0 0 0 0 0 0 0 0 0 0 0 0 0 0 0 0 0 0 0 0 0 0 0 0 0 0 0 0 0 0 0 0 0 0 0 0 1 12 229 213 83 30 11 5 8 45 105 113 106 57 24 11 9 14 37 106 215 152 57 20 10 7 10 25 67 138 120 50 18 8 7 9 21 55 118 110 48 18 8 7 10 21 46 77 90 102 32 7 6 15 43 115 255 126 6 0 0 0 0 0 0 0 0 0 0 0 0 0 0 0 0 0 0 0 0 9 184 255 105 38 14 6 10 52 82 72 64 39 18 9 7 9 22 62 160 200 90 33 14 9 11 21 48 88 113 148 27 6 7 18 50 140 255 255 94 33 12 5 10 67 122 80 45 21 10 7 9 17 46 128 249 160 59 22 13 17 39 101 190 157 123 50 9 5 11 31 85 215 255 101 255 140 52 18 7 7 26 47 33 35 67 165 255 255 152 65 41 44 27 8 7 18 49 129 255 71 9 91 255 126 47 17 7 5 15 73 68 92 8 1 0 0 0 0 0 6 123 255 103 39 17 12 17 37 90 153 141 128 20 5 7 18 48 125 255 87 28 255 193 80 29 11 5 9 47 90 124 255 255 134 68 68 139 255 60 4 8 141 206 90 74 31 7 6 15 40 106 255 194 95 255 130 48 17 7 7 32 105 89 75 45 21 11 7 9 18 48 128 255 255 248 89 31 12 8 10 21 57 130 180 129 67 12 5 8 22 61 153 255 59 177 255 106 38 13 5 5 20 114 115 123 18 133 196 129 223 117 9 38 255 159 71 52 60 139 255 60 62 255 138 60 47 57 130 255 49 3 0 0 0 0 0 0 0 0 1 5 31 24 8 4 5 13 35 98 247 188 9 0 0 0 0 0 0 0 0 0 0 0 0 0 0 0 0 0 0 0 0 0 0 0 0 0 0 0 0 0 0 0 0 0 0 0 0 0 0 0 0 0 0 0 0 0 0 0 0 0 0 0 0 0 0 0 0 0 0 0 0 0 0 0 0 0 0 0 0 0 0 0 0 0 0 0 0 0 0 0 0 0 0 0 0 0 0 0 0 1 27 255 173 69 24 9 5 11 66 119 135 102 48 20 10 10 18 44 91
231 93 34 17 18 31 12 4 4 12 37 105 255 126 6 0 0 0 1 17 255 221 90 32 10 4 2 3 6 5 7 10 13 17 20 12 5 2 2 6 18 54 143 255 123 255 182 70 24 8 3 3 16 51 34 21 13 7 4 3 4 9 19 35 64 90 10 4 25 137 64 36 19 9 5 5 12 36 97 153 92 39 26 31 77 222 255 219 76 24 8 3 3 4 10 27 64 114 202 36 4 2 5 16 47 130 255 71 4 0 0 0 0 0 0 0 0 0 0 0 0 0 0 0 0 0 0 0 0 0 0 0 0 0 0 0 0 0 0 0 0 0 0 0 0 0 0 0 0 0 0 0 0 0 0 0 0 0 0 0 0 0 0 0 0 0 0 0 0 0 0 0 0 0 0 0 0 0 0 0 4 82 255 118 41 13 5 2 7 44 62 50 39 22 10 5 4 6 17 46 80 62 26 9 4 3 4 11 27 48 44 21 8 3 2 4 9 23 41 39 20 7 3 2 4 8 17 28 41 59 29 5 3 6 20 58 150 255 55 3 0 0 0 0 0 0 0 0 0 0 0 0 0 0 0 0 0 0 4 75 255 144 53 18 6 3 8 49 41 30 22 14 7 3 3 4 10 28 63 75 40 15 6 3 4 8 18 33 57 108 34 5 3 8 24 69 142 113 47 15 5 3 12 95 60 32 17 8 4 3 3 8 22 57 95 67 28 10 6 7 18 43 74 80 85 63 8 3 5 14 42 124 255 255 209 77 25 8 3 4 14 19 14 16 35 99 255 255 95 35 19 18 14 4 3 8 23 68 176 255 107 255 163 65 22 7 3 3 13 61 58 237 24 2 0 0 0 0 3 53 255 144 53 18 7 5 7 16 35 60 83 131 27 4 3 8 22 65 168 255 255 255 107 38 13 5 3 7 44 62 103 209 179 76 37 38 78 186 255 29 55 255 122 63 43 23 5 3 6 18 53 148 255 255 192 70 23 8 3 5 28 60 42 27 16 8 4 3 3 8 23 72 198 255 142 48 15 5 3 4 9 24 51 74 90 77 12 3 3 10 29 84 228 255 255 147 54 18 6 2 4 25 124 104 255 181 255 126 119 138 255 79 255 221 89 37 26 32 79 202 255 255 193 76 31 23 29 73 188 255 19 1 0 0 0 0 0 0 0 1 4 17 11 4 2 2 5 16 49 134 255 75 4 0 0 0 0 0 0 0 0 0 0 0 0 0 0 0 0 0 0 0 0 0 0 0 0 0 0 0 0 0 0 0 0 0 0 0 0 0 0 0 0 0 0 0 0 0 0 0 0 0 0 0 0 0 0 0 0 0 0 0 0 0 0 0 0 0 0 0 0 0 0 0 0 0 0 0 0 0 0 0 0 0 0 0 0 0 0 0 10 221 249 97 33 11 4 3 11 79 75 56 39 19 8 4 4 7 17 30
99 49 18 8 8 12 5 2 2 5 18 59 156 255 54 3 0 0 6 134 255 129 48 15 5 1 1 1 2 2 2 3 4 6 7 5 2 1 1 2 8 28 86 235 255 255 114 38 11 3 1 2 10 26 14 7 4 2 1 1 1 3 7 14 39 164 19 5 37 109 38 15 7 3 2 2 5 17 40 56 39 19 12 16 44 117 183 114 43 12 4 1 1 2 4 11 27 61 146 91 7 1 2 7 24 76 189 255 33 2 0 0 0 0 0 0 0 0 0 0 0 0 0 0 0 0 0 0 0 0 0 0 0 0 0 0 0 0 0 0 0 0 0 0 0 0 0 0 0 0 0 0 0 0 0 0 0 0 0 0 0 0 0 0 0 0 0 0 0 0 0 0 0 0 0 0 0 0 0 2 36 255 173 68 21 6 2 1 6 39 33 20 13 8 4 2 1 3 7 18 27 22 11 4 1 1 2 4 10 15 14 8 3 1 1 1 3 8 13 12 7 3 1 1 1 3 6 10 17 29 21 4 1 3 9 30 87 212 255 27 1 0 0 0 0 0 0 0 0 0 0 0 0 0 0 0 0 2 34 255 192 82 27 8 3 2 7 41 20 12 7 5 2 1 1 1 4 11 22 25 15 6 2 1 1 3 6 13 28 62 37 5 2 3 11 30 52 44 21 7 2 2 19 148 36 13 6 3 1 1 1 3 9 22 32 25 12 4 2 3 7 16 27 37 57 100 11 2 2 6 22 75 190 246 121 43 12 4 1 2 5 6 5 7 18 55 116 115 54 19 8 7 5 2 1 3 11 36 108 255 255 255 98 33 10 3 1 2 11 53 86 217 90 6 0 0 0 1 24 255 211 86 28 8 3 2 3 6 13 23 49 103 38 4 1 3 10 34 105 255 255 172 61 19 6 2 1 6 42 46 74 91 77 39 20 20 42 111 255 255 255 198 83 44 24 13 3 1 3 8 28 89 216 255 116 39 11 3 1 4 19 29 18 10 6 3 1 1 1 3 11 38 92 125 72 25 7 2 1 2 4 9 19 30 59 96 14 2 2 4 14 47 140 255 226 89 28 8 2 1 4 35 122 131 248 255 238 101 102 104 237 255 255 133 49 19 13 17 44 126 255 255 121 42 15 10 15 40 116 255 151 7 0 0 0 0 0 0 0 0 2 6 4 2 1 1 2 7 25 77 190 255 36 2 0 0 0 0 0 0 0 0 0 0 0 0 0 0 0 0 0 0 0 0 0 0 0 0 0 0 0 0 0 0 0 0 0 0 0 0 0 0 0 0 0 0 0 0 0 0 0 0 0 0 0 0 0 0 0 0 0 0 0 0 0 0 0 0 0 0 0 0 0 0 0 0 0 0 0 0 0 0 0 0 0 0 0 0 0 5 92 255 146 53 16 5 2 2 15 105 48 23 14 7 3 2 1 3 6 9
40 24 9 3 3 4 2 1 1 3 10 36 105 230 255 25 1 3 62 255 188 82 28 8 2 1 0 0 0 1 1 1 1 2 2 1 1 0 0 1 4 16 56 146 248 178 77 22 6 2 1 1 4 10 6 3 1 1 0 0 1 1 3 8 46 222 47 10 64 83 26 7 3 1 1 1 2 7 15 20 15 8 6 8 24 57 77 56 23 6 2 1 0 1 2 4 12 36 113 255 31 2 1 3 13 47 126 255 255 14 1 0 0 0 0 0 0 0 0 0 0 0 0 0 0 0 0 0 0 0 0 0 0 0 0 0 0 0 0 0 0 0 0 0 0 0 0 0 0 0 0 0 0 0 0 0 0 0 0 0 0 0 0 0 0 0 0 0 0 0 0 0 0 0 0 0 0 0 1 16 255 255 117 42 11 3 1 1 5 31 17 8 5 3 1 1 0 1 3 6 8 7 4 1 1 0 1 1 3 5 4 3 1 0 0 1 1 3 4 4 2 1 0 0 0 1 2 3 7 12 10 2 1 1 4 16 54 140 255 243 11 0 0 0 0 0 0 0 0 0 0 0 0 0 0 0 1 14 255 255 124 49 15 4 1 1 5 29 10 4 2 1 1 0 0 1 2 4 7 8 5 2 1 0 1 1 2 5 14 35 38 5 1 1 5 12 18 16 8 3 1 4 40 194 39 7 2 1 0 0 0 1 3 8 10 8 4 2 1 1 3 6 10 19 58 227 25 2 1 3 12 45 93 111 67 24 6 2 1 1 2 2 2 3 9 28 49 49 28 10 4 2 2 1 1 1 5 21 73 173 255 162 65 19 5 1 1 1 10 70 180 165 255 38 2 0 0 11 240 255 140 54 16 4 1 1 1 2 5 10 32 80 63 6 1 1 5 20 69 148 182 105 38 10 3 1 1 6 43 40 51 40 32 19 10 10 25 73 183 255 255 143 62 31 13 6 1 1 1 4 16 53 104 117 67 22 6 2 1 2 9 12 7 3 2 1 0 0 1 1 5 19 40 50 34 13 3 1 0 1 1 3 7 14 49 150 21 2 1 2 7 28 82 136 113 54 16 4 1 1 6 68 140 182 168 223 149 93 101 90 159 255 213 92 30 10 6 9 27 79 153 154 78 25 8 5 8 24 77 182 255 72 3 0 0 0 0 0 0 0 1 2 1 1 0 0 1 4 14 47 125 255 255 15 1 0 0 0 0 0 0 0 0 0 0 0 0 0 0 0 0 0 0 0 0 0 0 0 0 0 0 0 0 0 0 0 0 0 0 0 0 0 0 0 0 0 0 0 0 0 0 0 0 0 0 0 0 0 0 0 0 0 0 0 0 0 0 0 0 0 0 0 0 0 0 0 0 0 0 0 0 0 0 0 0 0 0 0 2 47 255 208 95 32 9 2 1 2 25 173 44 11 5 2 1 1 1 1 2 3
16 11 4 1 1 1 1 0 0 1 6 27 88 175 255 251 13 32 255 255 145 67 18 4 1 0 0 0 0 0 0 0 0 1 1 0 0 0 0 0 2 10 46 100 131 110 63 16 3 1 0 0 2 3 2 1 0 0 0 0 0 0 1 9 96 203 238 38 255 104 22 4 1 0 0 0 1 3 5 7 5 3 2 4 13 29 35 28 12 3 1 0 0 0 1 2 7 33 166 255 220 11 1 2 8 37 103 195 255 140 6 0 0 0 0 0 0 0 0 0 0 0 0 0 0 0 0 0 0 0 0 0 0 0 0 0 0 0 0 0 0 0 0 0 0 0 0 0 0 0 0 0 0 0 0 0 0 0 0 0 0 0 0 0 0 0 0 0 0 0 0 0 0 0 0 0 0 0 7 167 255 193 99 33 7 1 0 1 4 19 8 3 2 1 0 0 0 0 1 2 2 2 1 1 0 0 0 0 1 1 1 1 0 0 0 0 0 1 1 1 1 0 0 0 0 0 1 1 2 4 4 1 0 1 2 10 43 111 205 255 107 5 0 0 0 0 0 0 0 0 0 0 0 0 0 0 6 136 255 194 99 37 9 2 1 1 4 16 5 2 1 0 0 0 0 0 1 1 2 2 2 1 0 0 0 0 1 2 7 21 37 5 1 1 2 4 6 5 3 1 1 10 166 199 72 7 1 0 0 0 0 0 1 2 3 3 1 1 0 0 1 2 4 17 159 255 102 6 1 2 7 28 49 54 40 14 3 1 0 0 0 1 1 1 4 13 21 21 14 5 1 1 0 0 0 1 3 14 60 109 135 106 53 12 3 1 0 2 21 255 255 216 255 255 18 1 5 118 255 212 113 44 10 2 1 0 0 1 2 6 27 101 251 17 1 1 3 13 51 86 95 71 27 6 1 0 1 7 56 45 41 20 13 8 4 5 17 64 141 226 209 129 66 26 7 2 1 0 1 2 9 33 55 59 43 14 3 1 0 1 3 4 2 1 1 0 0 0 0 1 2 8 17 20 15 6 2 0 0 0 0 1 3 11 88 246 55 4 1 1 4 18 52 69 62 36 9 2 1 1 24 255 246 245 143 125 110 134 167 126 123 153 130 78 22 5 3 5 18 57 83 83 57 17 4 2 4 17 67 145 255 255 39 2 0 0 0 0 0 0 0 0 0 0 0 0 0 2 8 36 101 192 255 139 6 0 0 0 0 0 0 0 0 0 0 0 0 0 0 0 0 0 0 0 0 0 0 0 0 0 0 0 0 0 0 0 0 0 0 0 0 0 0 0 0 0 0 0 0 0 0 0 0 0 0 0 0 0 0 0 0 0 0 0 0 0 0 0 0 0 0 0 0 0 0 0 0 0 0 0 0 0 0 0 0 0 0 1 26 255 255 158 79 23 5 1 1 5 74 246 89 10 2 1 0 0 0 0 1 1
6 4 2 1 0 0 0 0 0 1 4 28 131 174 241 255 181 255 255 211 158 100 17 3 0 0 0 0 0 0 0 0 0 0 0 0 0 0 0 0 1 8 54 96 92 95 80 14 2 0 0 0 0 1 1 0 0 0 0 0 0 0 2 34 255 255 255 255 255 255 44 4 1 0 0 0 0 1 2 2 2 1 1 2 6 14 17 14 6 1 0 0 0 0 0 1 7 72 255 247 255 102 5 1 6 42 140 181 255 255 78 3 0 0 0 0 0 0 0 0 0 0 0 0 0 0 0 0 0 0 0 0 0 0 0 0 0 0 0 0 0 0 0 0 0 0 0 0 0 0 0 0 0 0 0 0 0 0 0 0 0 0 0 0 0 0 0 0 0 0 0 0 0 0 0 0 0 4 86 255 255 182 143 37 5 1 0 0 2 8 3 1 1 0 0 0 0 0 0 1 1 1 0 0 0 0 0 0 0 0 0 0 0 0 0 0 0 0 0 0 0 0 0 0 0 0 0 0 1 1 1 0 0 0 1 8 54 142 183 255 255 58 3 0 0 0 0 0 0 0 0 0 0 0 0 3 69 255 255 180 137 42 6 1 0 0 2 6 2 1 0 0 0 0 0 0 0 0 1 1 0 0 0 0 0 0 0 1 3 13 34 5 1 0 1 1 2 2 1 1 4 79 255 255 255 25 2 0 0 0 0 0 0 1 1 1 0 0 0 0 0 1 5 67 255 255 255 49 3 1 4 17 31 32 27 8 2 0 0 0 0 0 0 1 2 5 8 8 5 2 1 0 0 0 0 0 2 13 77 97 94 97 67 10 2 0 0 7 151 255 255 255 248 255 202 12 68 255 255 187 148 56 8 1 0 0 0 0 1 5 53 255 255 118 6 1 2 10 52 67 67 67 22 4 1 0 1 13 177 101 43 12 5 3 2 3 16 105 147 149 150 175 157 30 5 1 0 0 0 1 5 22 35 36 30 8 2 0 0 0 1 1 1 0 0 0 0 0 0 0 1 3 7 8 6 2 1 0 0 0 0 0 2 33 255 255 255 23 1 1 2 12 40 45 44 28 6 1 1 9 206 255 255 255 195 111 152 255 255 255 166 112 108 108 22 4 1 3 13 58 61 61 57 13 2 1 3 16 106 162 210 255 255 21 1 0 0 0 0 0 0 0 0 0 0 0 0 1 6 42 137 179 255 255 73 3 0 0 0 0 0 0 0 0 0 0 0 0 0 0 0 0 0 0 0 0 0 0 0 0 0 0 0 0 0 0 0 0 0 0 0 0 0 0 0 0 0 0 0 0 0 0 0 0 0 0 0 0 0 0 0 0 0 0 0 0 0 0 0 0 0 0 0 0 0 0 0 0 0 0 0 0 0 0 0 0 1 14 255 255 224 164 116 22 3 1 2 35 255 255 255 34 2 0 0 0 0 0 0 0
2 1 1 0 0 0 0 0 0 1 5 61 255 206 191 255 255 255 227 184 219 255 36 3 0 0 0 0 0 0 0 0 0 0 0 0 0 0 0 0 1 12 131 151 107 140 197 22 2 0 0 0 0 0 0 0 0 0 0 0 0 1 12 252 255 255 255 255 255 255 255 16 1 0 0 0 0 0 0 1 0 0 0 1 2 5 7 5 2 1 0 0 0 0 0 2 27 255 253 221 255 255 52 3 9 107 245 196 196 255 255 46 2 0 0 0 0 0 0 0 0 0 0 0 0 0 0 0 0 0 0 0 0 0 0 0 0 0 0 0 0 0 0 0 0 0 0 0 0 0 0 0 0 0 0 0 0 0 0 0 0 0 0 0 0 0 0 0 0 0 0 0 0 0 0 0 2 46 255 255 193 198 254 89 7 1 0 0 1 2 1 0 0 0 0 0 0 0 0 0 0 0 0 0 0 0 0 0 0 0 0 0 0 0 0 0 0 0 0 0 0 0 0 0 0 0 0 0 0 0 0 0 0 0 1 14 176 235 190 196 255 255 34 1 0 0 0 0 0 0 0 0 0 0 2 38 255 255 193 195 253 115 9 1 0 0 1 2 1 0 0 0 0 0 0 0 0 0 0 0 0 0 0 0 0 0 0 0 2 8 26 4 1 0 0 0 0 0 0 2 44 255 255 255 255 199 9 0 0 0 0 0 0 0 0 0 0 0 0 0 0 2 31 255 255 254 255 255 24 1 2 9 18 19 16 4 1 0 0 0 0 0 0 0 1 2 3 3 2 1 0 0 0 0 0 0 2 21 202 147 108 147 184 17 2 0 4 81 255 255 229 240 211 244 255 245 255 255 197 190 239 172 14 1 0 0 0 0 1 23 255 255 255 255 61 3 1 10 78 84 76 98 22 3 0 0 4 73 255 255 130 12 2 1 1 3 39 255 205 133 151 255 255 113 7 1 0 0 0 1 3 13 24 25 20 5 1 0 0 0 0 0 0 0 0 0 0 0 0 0 0 1 2 3 2 1 0 0 0 0 0 1 12 253 255 255 255 235 10 1 1 8 33 37 36 20 4 1 5 102 255 251 249 236 252 201 255 255 255 255 255 146 154 245 43 4 1 2 13 95 70 68 90 13 2 1 3 36 255 225 185 220 255 228 10 0 0 0 0 0 0 0 0 0 0 0 0 1 9 106 248 196 194 255 255 41 2 0 0 0 0 0 0 0 0 0 0 0 0 0 0 0 0 0 0 0 0 0 0 0 0 0 0 0 0 0 0 0 0 0 0 0 0 0 0 0 0 0 0 0 0 0 0 0 0 0 0 0 0 0 0 0 0 0 0 0 0 0 0 0 0 0 0 0 0 0 0 0 0 0 0 0 0 0 0 0 7 159 255 232 185 214 255 45 4 1 18 255 255 255 255 255 13 1 0 0 0 0 0 0
1 0 0 0 0 0 0 0 0 1 21 255 233 196 146 162 241 216 150 156 221 255 209 11 1 0 0 0 0 0 0 0 0 0 0 0 0 0 0 0 3 46 255 255 211 255 255 79 5 0 0 0 0 0 0 0 0 0 0 0 0 5 109 255 198 187 167 185 174 203 255 120 6 0 0 0 0 0 0 0 0 0 0 0 1 2 2 2 1 0 0 0 0 0 0 9 187 255 193 163 163 250 255 29 43 255 235 184 140 166 255 255 25 1 0 0 0 0 0 0 0 0 0 0 0 0 0 0 0 0 0 0 0 0 0 0 0 0 0 0 0 0 0 0 0 0 0 0 0 0 0 0 0 0 0 0 0 0 0 0 0 0 0 0 0 0 0 0 0 0 0 0 0 0 0 1 23 255 255 162 140 184 230 255 33 2 0 0 0 1 0 0 0 0 0 0 0 0 0 0 0 0 0 0 0 0 0 0 0 0 0 0 0 0 0 0 0 0 0 0 0 0 0 0 0 0 0 0 0 0 0 0 0 0 4 70 255 243 179 139 173 255 255 15 1 0 0 0 0 0 0 0 0 1 18 255 255 166 140 184 245 255 45 3 0 0 0 0 0 0 0 0 0 0 0 0 0 0 0 0 0 0 0 0 0 0 0 0 1 4 13 3 0 0 0 0 0 0 1 21 255 255 181 192 210 255 88 4 0 0 0 0 0 0 0 0 0 0 0 0 1 13 255 255 181 172 183 255 227 11 1 4 8 9 7 2 0 0 0 0 0 0 0 0 0 1 1 1 1 0 0 0 0 0 0 0 5 78 255 255 211 255 255 70 4 2 44 255 241 167 149 155 151 156 248 255 255 174 138 175 236 255 64 4 0 0 0 0 10 206 255 206 182 248 255 31 3 21 217 192 170 209 36 3 0 2 35 255 249 255 255 58 4 1 1 13 246 254 222 152 170 222 249 255 52 3 0 0 0 0 2 6 13 14 10 3 1 0 0 0 0 0 0 0 0 0 0 0 0 0 0 0 1 1 1 0 0 0 0 0 0 5 112 255 201 189 210 255 103 5 1 5 25 32 30 12 3 3 55 255 229 162 152 166 206 255 240 192 183 191 222 228 245 247 246 14 1 2 29 250 167 150 228 26 2 1 11 186 249 219 157 142 200 255 99 5 0 0 0 0 0 0 0 0 0 0 0 2 41 255 240 186 141 166 255 255 21 1 0 0 0 0 0 0 0 0 0 0 0 0 0 0 0 0 0 0 0 0 0 0 0 0 0 0 0 0 0 0 0 0 0 0 0 0 0 0 0 0 0 0 0 0 0 0 0 0 0 0 0 0 0 0 0 0 0 0 0 0 0 0 0 0 0 0 0 0 0 0 0 0 0 0 0 0 0 4 73 255 212 145 148 210 243 247 15 9 168 255 199 186 196 255 105 5 0 0 0 0 0 0
0 0 0 0 0 0 0 0 0 7 135 255 167 136 100 88 104 98 89 115 148 176 255 83 4 0 0 0 0 0 0 0 0 0 0 0 0 0 0 1 16 255 219 226 252 224 194 255 32 2 0 0 0 0 0 0 0 0 0 0 2 52 255 191 118 102 86 83 91 116 179 255 52 3 0 0 0 0 0 0 0 0 0 0 0 0 1 0 0 0 0 0 0 0 4 78 255 165 119 101 95 142 255 255 255 231 165 132 93 93 150 255 242 11 0 0 0 0 0 0 0 0 0 0 0 0 0 0 0 0 0 0 0 0 0 0 0 0 0 0 0 0 0 0 0 0 0 0 0 0 0 0 0 0 0 0 0 0 0 0 0 0 0 0 0 0 0 0 0 0 0 0 0 0 0 9 191 255 146 91 94 130 163 239 210 11 1 0 0 0 0 0 0 0 0 0 0 0 0 0 0 0 0 0 0 0 0 0 0 0 0 0 0 0 0 0 0 0 0 0 0 0 0 0 0 0 0 0 0 0 0 0 0 2 32 255 204 165 133 93 96 157 255 125 6 0 0 0 0 0 0 0 0 7 154 255 154 94 94 134 167 224 255 18 1 0 0 0 0 0 0 0 0 0 0 0 0 0 0 0 0 0 0 0 0 0 0 0 0 2 4 1 0 0 0 0 0 0 8 177 255 151 104 107 123 201 255 42 2 0 0 0 0 0 0 0 0 0 0 0 5 99 255 160 106 99 104 169 255 91 5 1 3 3 2 1 0 0 0 0 0 0 0 0 0 0 0 0 0 0 0 0 0 0 0 2 32 255 195 221 251 223 203 255 31 22 255 245 135 94 85 87 90 90 130 200 155 98 91 128 160 200 255 28 1 0 0 4 91 255 176 117 107 142 255 255 20 89 255 255 255 237 148 9 1 15 255 253 157 160 221 255 25 1 5 94 255 172 157 157 151 137 152 227 255 23 1 0 0 0 1 2 5 5 4 1 0 0 0 0 0 0 0 0 0 0 0 0 0 0 0 0 0 0 0 0 0 0 0 0 3 53 255 193 120 108 120 196 255 48 3 3 14 24 20 7 3 28 255 232 128 91 84 100 132 171 141 106 97 104 136 199 204 190 255 95 6 7 117 246 255 255 249 105 7 4 74 255 167 143 113 86 109 195 255 47 2 0 0 0 0 0 0 0 0 0 1 15 255 228 167 134 95 94 153 255 182 9 0 0 0 0 0 0 0 0 0 0 0 0 0 0 0 0 0 0 0 0 0 0 0 0 0 0 0 0 0 0 0 0 0 0 0 0 0 0 0 0 0 0 0 0 0 0 0 0 0 0 0 0 0 0 0 0 0 0 0 0 0 0 0 0 0 0 0 0 0 0 0 0 0 0 0 0 2 34 255 208 116 85 106 143 171 255 106 89 255 180 112 105 116 187 255 48 2 0 0 0 0 0
0 0 0 0 0 0 0 0 3 56 255 158 100 79 60 43 40 40 47 70 84 107 184 255 37 2 0 0 0 0 0 0 0 0 0 0 0 0 0 6 113 255 144 139 160 138 137 239 240 12 1 0 0 0 0 0 0 0 0 1 23 255 216 106 63 49 39 35 42 59 100 207 255 23 1 0 0 0 0 0 0 0 0 0 0 0 0 0 0 0 0 0 0 2 38 255 189 94 65 55 51 75 162 255 255 149 96 79 56 49 77 156 255 102 5 0 0 0 0 0 0 0 0 0 0 0 0 0 0 0 0 0 0 0 0 0 0 0 0 0 0 0 0 0 0 0 0 0 0 0 0 0 0 0 0 0 0 0 0 0 0 0 0 0 0 0 0 0 0 0 0 0 0 0 4 80 255 154 75 49 57 77 95 142 255 80 4 0 0 0 0 0 0 0 0 0 0 0 0 0 0 0 0 0 0 0 0 0 0 0 0 0 0 0 0 0 0 0 0 0 0 0 0 0 0 0 0 0 0 0 0 0 1 12 238 247 126 93 81 56 50 81 168 255 55 3 0 0 0 0 0 0 3 66 255 163 80 50 58 80 94 136 255 131 7 0 0 0 0 0 0 0 0 0 0 0 0 0 0 0 0 0 0 0 0 0 0 0 0 1 1 0 0 0 0 0 0 4 75 255 158 78 54 53 65 111 229 255 18 1 0 0 0 0 0 0 0 0 0 2 43 255 173 86 56 50 55 90 181 255 41 2 1 1 1 0 0 0 0 0 0 0 0 0 0 0 0 0 0 0 0 0 0 0 1 12 238 240 135 135 159 136 138 254 255 224 255 134 68 48 43 43 46 47 59 77 65 50 55 78 90 126 255 214 10 1 2 45 255 190 95 61 56 74 147 255 255 255 187 197 204 188 255 59 9 125 255 143 86 81 128 255 178 11 43 255 175 105 96 122 106 77 81 130 255 192 9 0 0 0 0 1 1 2 1 0 0 0 0 0 0 0 0 0 0 0 0 0 0 0 0 0 0 0 0 0 0 0 0 1 23 255 214 106 64 55 62 106 218 255 22 3 6 13 10 4 12 237 255 127 65 46 42 53 71 84 70 52 46 51 75 117 122 122 178 255 46 50 255 176 211 219 184 255 47 39 255 187 104 80 69 49 56 106 221 255 21 1 0 0 0 0 0 0 0 0 6 115 255 139 96 80 57 50 78 158 255 73 4 0 0 0 0 0 0 0 0 0 0 0 0 0 0 0 0 0 0 0 0 0 0 0 0 0 0 0 0 0 0 0 0 0 0 0 0 0 0 0 0 0 0 0 0 0 0 0 0 0 0 0 0 0 0 0 0 0 0 0 0 0 0 0 0 0 0 0 0 0 0 0 0 0 0 1 13 255 241 114 59 47 65 82 105 179 255 255 204 96 58 53 62 104 217 255 22 1 0 0 0 0
0 0 0 0 0 0 0 1 24 255 198 93 55 41 31 19 15 15 22 37 43 59 107 231 255 14 1 0 0 0 0 0 0 0 0 0 0 0 2 50 255 165 88 75 81 74 84 141 255 93 5 0 0 0 0 0 0 0 0 9 182 255 122 55 30 21 16 14 18 28 52 119 255 188 9 0 0 0 0 0 0 0 0 0 0 0 0 0 0 0 0 0 1 17 255 239 108 50 32 27 25 39 86 172 164 87 52 41 30 24 37 81 181 255 49 2 0 0 0 0 0 0 0 0 0 0 0 0 0 0 0 0 0 0 0 0 0 0 0 0 0 0 0 0 0 0 0 0 0 0 0 0 0 0 0 0 0 0 0 0 0 0 0 0 0 0 0 0 0 0 0 0 0 2 40 255 188 83 37 24 30 40 51 83 177 255 37 2 0 0 0 0 0 0 0 0 0 0 0 0 0 0 0 0 0 0 0 0 0 0 0 0 0 0 0 0 0 0 0 0 0 0 0 0 0 0 0 0 0 0 0 0 5 87 255 138 70 48 43 31 25 40 92 204 255 24 1 0 0 0 0 1 31 255 196 88 40 25 31 41 49 76 161 255 57 3 0 0 0 0 0 0 0 0 0 0 0 0 0 0 0 0 0 0 0 0 0 0 0 0 0 0 0 0 0 0 2 36 255 191 85 39 25 24 32 57 129 255 140 7 0 0 0 0 0 0 0 0 1 18 255 218 97 44 27 23 26 45 100 225 255 18 1 0 0 0 0 0 0 0 0 0 0 0 0 0 0 0 0 0 0 0 0 0 5 92 255 141 82 72 80 73 83 153 255 255 165 69 33 22 19 19 21 21 23 27 25 23 30 41 47 71 145 255 87 5 21 255 228 105 48 29 27 37 80 194 255 255 133 107 110 129 201 255 131 255 171 77 44 40 68 147 255 136 255 225 102 59 55 76 64 41 41 69 152 255 80 4 0 0 0 0 0 0 0 0 0 0 0 0 0 0 0 0 0 0 0 0 0 0 0 0 0 0 0 0 0 0 0 9 194 255 120 54 31 25 30 54 124 255 184 10 3 5 4 6 95 255 146 65 31 21 19 25 32 36 30 23 20 23 36 57 63 69 105 227 255 255 214 122 111 115 130 224 255 255 247 111 58 41 37 25 28 53 124 255 159 8 0 0 0 0 0 0 0 3 52 255 166 80 51 42 31 25 38 84 186 255 33 2 0 0 0 0 0 0 0 0 0 0 0 0 0 0 0 0 0 0 0 0 0 0 0 0 0 0 0 0 0 0 0 0 0 0 0 0 0 0 0 0 0 0 0 0 0 0 0 0 0 0 0 0 0 0 0 0 0 0 0 0 0 0 0 0 0 0 0 0 0 0 0 0 0 5 96 255 134 58 29 24 35 43 59 110 250 255 117 49 28 24 30 54 124 255 172 8 0 0 0 0
0 0 0 0 0 0 0 9 179 255 118 52 28 19 14 7 5 6 9 16 20 31 58 134 255 115 6 0 0 0 0 0 0 0 0 0 0 1 21 255 215 99 51 37 37 37 48 83 179 255 44 2 0 0 0 0 0 0 4 73 255 153 65 27 14 8 6 5 7 12 26 65 156 255 76 4 0 0 0 0 0 0 0 0 0 0 0 0 0 0 0 0 7 143 255 137 59 26 15 11 11 19 40 68 67 44 27 19 14 11 18 41 102 224 255 22 1 0 0 0 0 0 0 0 0 0 0 0 0 0 0 0 0 0 0 0 0 0 0 0 0 0 0 0 0 0 0 0 0 0 0 0 0 0 0 0 0 0 0 0 0 0 0 0 0 0 0 0 0 0 0 0 1 17 255 241 109 43 18 11 14 19 26 47 107 240 255 15 1 0 0 0 0 0 0 0 0 0 0 0 0 0 0 0 0 0 0 0 0 0 0 0 0 0 0 0 0 0 0 0 0 0 0 0 0 0 0 0 0 0 0 2 39 255 175 78 37 23 20 14 12 20 48 119 255 193 9 0 0 0 1 12 249 255 115 46 19 12 15 19 24 42 94 207 255 25 1 0 0 0 0 0 0 0 0 0 0 0 0 0 0 0 0 0 0 0 0 0 0 0 0 0 0 0 0 1 15 255 247 111 44 19 11 10 14 29 70 161 255 58 3 0 0 0 0 0 0 0 7 130 255 128 52 22 12 10 12 22 53 132 255 137 7 0 0 0 0 0 0 0 0 0 0 0 0 0 0 0 0 0 0 0 0 2 43 255 179 82 47 36 36 36 48 91 185 198 94 36 15 9 7 7 8 8 8 9 9 9 14 19 23 39 83 186 255 58 178 255 131 55 24 13 12 18 42 101 177 140 84 56 56 79 130 255 255 242 100 41 21 19 36 86 215 255 255 137 57 32 30 41 34 20 20 36 86 192 255 39 2 0 0 0 0 0 0 0 0 0 0 0 0 0 0 0 0 0 0 0 0 0 0 0 0 0 0 0 0 0 4 80 255 155 64 27 14 11 13 27 67 159 255 83 5 2 3 45 255 181 80 32 14 9 8 10 13 13 11 9 8 10 16 25 29 37 60 140 255 255 140 77 55 57 81 144 255 255 148 63 31 20 17 12 13 27 67 157 255 67 3 0 0 0 0 0 1 25 255 218 97 44 25 19 14 12 18 43 108 247 242 12 1 0 0 0 0 0 0 0 0 0 0 0 0 0 0 0 0 0 0 0 0 0 0 0 0 0 0 0 0 0 0 0 0 0 0 0 0 0 0 0 0 0 0 0 0 0 0 0 0 0 0 0 0 0 0 0 0 0 0 0 0 0 0 0 0 0 0 0 0 0 0 0 2 43 255 172 74 29 13 11 16 20 32 61 110 112 60 25 13 10 14 28 67 157 255 73 4 0 0 0
0 0 0 0 0 0 4 73 255 160 70 29 14 8 5 3 2 2 3 6 9 15 33 79 182 255 56 3 0 0 0 0 0 0 0 0 0 8 168 255 132 59 29 18 16 18 27 49 110 240 255 21 1 0 0 0 0 2 33 255 199 91 36 13 6 3 2 2 2 5 13 36 92 199 255 35 2 0 0 0 0 0 0 0 0 0 0 0 0 0 0 3 67 255 178 79 32 13 6 4 5 8 17 25 25 19 12 8 6 5 8 21 57 135 255 182 9 0 0 0 0 0 0 0 0 0 0 0 0 0 0 0 0 0 0 0 0 0 0 0 0 0 0 0 0 0 0 0 0 0 0 0 0 0 0 0 0 0 0 0 0 0 0 0 0 0 0 0 0 0 0 0 7 140 255 143 62 23 8 5 6 8 12 26 63 146 255 139 6 0 0 0 0 0 0 0 0 0 0 0 0 0 0 0 0 0 0 0 0 0 0 0 0 0 0 0 0 0 0 0 0 0 0 0 0 0 0 0 0 0 1 16 255 241 108 44 19 10 8 6 5 9 26 69 163 255 83 4 0 0 5 105 255 151 65 24 9 5 6 8 11 23 54 127 255 193 9 0 0 0 0 0 0 0 0 0 0 0 0 0 0 0 0 0 0 0 0 0 0 0 0 0 0 0 0 6 124 255 148 63 23 9 4 4 6 14 38 96 211 255 26 1 0 0 0 0 0 3 56 255 170 75 28 10 5 4 5 10 29 77 173 255 60 3 0 0 0 0 0 0 0 0 0 0 0 0 0 0 0 0 0 0 1 19 255 239 110 49 26 17 15 17 27 49 80 84 48 19 7 3 2 2 3 3 3 3 3 3 5 8 10 20 48 115 255 255 255 172 75 29 11 5 5 8 21 48 72 64 48 29 28 47 84 170 234 136 58 22 10 9 19 52 128 234 183 85 33 17 15 20 16 9 9 19 48 116 250 255 17 1 0 0 0 0 0 0 0 0 0 0 0 0 0 0 0 0 0 0 0 0 0 0 0 0 0 0 0 2 38 255 200 92 36 13 6 4 6 13 37 94 206 255 42 3 22 255 239 109 44 16 6 3 3 4 4 4 4 3 3 4 6 9 12 19 35 83 162 160 87 48 28 28 50 89 165 169 87 36 16 9 6 5 6 13 37 93 207 255 33 1 0 0 0 0 10 225 255 133 57 24 12 8 6 5 8 23 62 147 255 96 5 0 0 0 0 0 0 0 0 0 0 0 0 0 0 0 0 0 0 0 0 0 0 0 0 0 0 0 0 0 0 0 0 0 0 0 0 0 0 0 0 0 0 0 0 0 0 0 0 0 0 0 0 0 0 0 0 0 0 0 0 0 0 0 0 0 0 0 0 0 0 1 20 255 236 106 41 15 6 5 6 9 16 30 44 44 27 12 5 4 6 14 37 93 205 255 36 2 0 0
0 0 0 0 0 2 35 255 213 104 44 16 6 3 2 1 1 1 1 2 3 7 19 51 119 242 255 29 1 0 0 0 0 0 0 0 4 77 255 180 85 37 16 8 6 8 14 31 71 155 255 214 9 0 0 0 1 14 255 255 130 57 20 6 2 1 1 1 1 2 6 21 58 129 255 255 15 1 0 0 0 0 0 0 0 0 0 0 0 0 2 37 255 232 113 49 18 6 2 2 2 3 6 8 9 7 5 3 2 2 4 11 34 84 181 255 81 4 0 0 0 0 0 0 0 0 0 0 0 0 0 0 0 0 0 0 0 0 0 0 0 0 0 0 0 0 0 0 0 0 0 0 0 0 0 0 0 0 0 0 0 0 0 0 0 0 0 0 0 0 0 3 65 255 188 90 37 12 4 2 2 3 5 14 40 94 197 255 68 3 0 0 0 0 0 0 0 0 0 0 0 0 0 0 0 0 0 0 0 0 0 0 0 0 0 0 0 0 0 0 0 0 0 0 0 0 0 0 0 0 7 157 255 157 70 27 10 4 3 2 2 4 14 43 105 215 255 42 2 3 55 255 204 96 40 13 4 2 2 3 5 12 33 80 172 255 82 4 0 0 0 0 0 0 0 0 0 0 0 0 0 0 0 0 0 0 0 0 0 0 0 0 0 0 3 57 255 191 93 38 12 4 2 1 3 7 22 60 138 255 245 11 0 0 0 0 1 25 255 228 111 47 16 5 2 1 2 5 16 48 111 228 255 29 1 0 0 0 0 0 0 0 0 0 0 0 0 0 0 0 0 0 8 157 255 154 71 30 14 7 6 7 14 25 33 34 23 9 3 1 1 1 1 1 1 1 1 1 2 3 4 11 29 75 169 255 249 115 47 16 5 2 2 4 10 21 28 28 25 15 15 29 55 86 104 73 35 12 5 4 10 32 71 105 89 51 20 8 6 8 6 4 4 10 29 73 158 255 149 7 0 0 0 0 0 0 0 0 0 0 0 0 0 0 0 0 0 0 0 0 0 0 0 0 0 0 1 18 255 255 128 57 21 6 2 2 2 7 21 59 132 255 255 31 206 255 154 69 26 8 3 1 1 1 1 1 1 1 1 1 2 3 5 9 21 47 73 73 53 30 14 15 31 54 76 76 49 21 8 3 2 2 2 6 21 59 136 255 255 14 1 0 0 5 103 255 176 84 35 13 5 3 2 2 4 12 38 95 200 255 47 2 0 0 0 0 0 0 0 0 0 0 0 0 0 0 0 0 0 0 0 0 0 0 0 0 0 0 0 0 0 0 0 0 0 0 0 0 0 0 0 0 0 0 0 0 0 0 0 0 0 0 0 0 0 0 0 0 0 0 0 0 0 0 0 0 0 0 0 0 0 8 185 255 154 68 24 7 3 2 2 3 7 13 16 16 11 5 2 2 2 7 21 59 133 255 255 15 1 0
0 0 0 0 1 15 255 255 147 76 32 9 3 1 1 0 0 0 0 1 1 3 11 37 86 163 255 255 13 1 0 0 0 0 0 2 42 255 235 126 63 25 9 3 2 3 7 20 54 108 201 255 105 5 0 0 6 129 255 177 92 41 12 3 1 0 0 0 0 1 3 12 41 91 176 255 135 6 0 0 0 0 0 0 0 0 0 0 0 1 19 255 255 156 81 34 10 3 1 1 1 1 2 3 3 2 2 1 1 1 2 6 22 61 124 231 255 42 2 0 0 0 0 0 0 0 0 0 0 0 0 0 0 0 0 0 0 0 0 0 0 0 0 0 0 0 0 0 0 0 0 0 0 0 0 0 0 0 0 0 0 0 0 0 0 0 0 0 0 0 1 35 255 242 129 65 24 7 2 1 1 1 2 8 27 69 134 245 255 36 2 0 0 0 0 0 0 0 0 0 0 0 0 0 0 0 0 0 0 0 0 0 0 0 0 0 0 0 0 0 0 0 0 0 0 0 0 0 0 4 79 255 209 111 53 17 5 2 1 1 1 2 8 30 76 146 255 255 21 31 255 255 140 70 27 7 2 1 1 1 2 6 22 60 121 225 255 42 2 0 0 0 0 0 0 0 0 0 0 0 0 0 0 0 0 0 0 0 0 0 0 0 0 1 29 255 246 131 66 25 7 2 1 1 1 3 13 44 98 190 255 119 5 0 0 0 11 252 255 156 80 33 9 2 1 0 1 2 9 33 80 156 255 255 13 1 0 0 0 0 0 0 0 0 0 0 0 0 0 0 0 3 71 255 198 107 53 20 7 3 2 3 6 11 13 13 9 4 1 0 0 0 0 0 0 0 0 0 1 1 2 5 19 57 107 154 134 83 33 9 2 1 1 1 4 8 10 11 11 7 8 18 37 45 47 39 20 6 2 2 5 19 40 48 44 31 11 4 2 3 2 1 2 5 18 53 109 205 255 73 3 0 0 0 0 0 0 0 0 0 0 0 0 0 0 0 0 0 0 0 0 0 0 0 0 0 8 184 255 176 91 41 12 3 1 1 1 3 12 42 91 171 255 255 255 200 107 50 16 4 1 0 0 0 0 0 0 0 0 0 1 1 2 4 11 26 33 34 32 19 7 7 19 32 36 35 27 11 4 1 1 1 1 3 12 43 96 180 255 140 6 0 2 54 255 225 120 61 24 7 2 1 1 1 2 7 26 70 140 255 255 23 1 0 0 0 0 0 0 0 0 0 0 0 0 0 0 0 0 0 0 0 0 0 0 0 0 0 0 0 0 0 0 0 0 0 0 0 0 0 0 0 0 0 0 0 0 0 0 0 0 0 0 0 0 0 0 0 0 0 0 0 0 0 0 0 0 0 0 0 4 84 255 200 108 51 15 4 1 1 1 1 2 5 6 5 4 2 1 1 1 3 13 42 93 176 255 143 7 0
0 0 0 0 7 154 255 186 112 69 25 5 1 0 0 0 0 0 0 0 0 2 7 31 75 118 195 255 130 6 0 0 0 0 1 22 255 255 162 100 60 18 5 1 1 1 3 14 50 89 139 237 255 57 3 3 64 255 220 128 80 34 8 2 0 0 0 0 0 0 2 8 34 79 127 215 255 64 3 0 0 0 0 0 0 0 0 0 0 9 207 255 190 114 71 28 6 1 0 0 0 0 1 1 1 1 0 0 0 0 1 3 15 55 97 159 255 255 20 1 0 0 0 0 0 0 0 0 0 0 0 0 0 0 0 0 0 0 0 0 0 0 0 0 0 0 0 0 0 0 0 0 0 0 0 0 0 0 0 0 0 0 0 0 0 0 0 0 0 1 17 255 255 166 101 58 17 4 1 0 0 0 1 4 21 64 103 165 255 255 17 1 0 0 0 0 0 0 0 0 0 0 0 0 0 0 0 0 0 0 0 0 0 0 0 0 0 0 0 0 0 0 0 0 0 0 0 0 2 43 255 247 145 92 48 12 3 1 0 0 0 1 5 23 67 109 180 255 255 255 255 175 107 64 20 4 1 0 0 0 1 3 15 55 97 157 255 255 21 1 0 0 0 0 0 0 0 0 0 0 0 0 0 0 0 0 0 0 0 0 0 0 1 13 255 255 169 102 59 18 4 1 0 0 0 2 8 38 85 135 231 255 65 3 0 5 113 255 200 117 72 26 6 1 0 0 0 1 6 26 71 116 193 255 134 6 0 0 0 0 0 0 0 0 0 0 0 0 0 0 2 36 255 240 140 89 49 13 3 1 1 1 2 4 5 4 3 1 0 0 0 0 0 0 0 0 0 0 0 0 1 3 14 50 73 79 76 66 27 6 1 0 0 1 1 3 4 4 4 3 4 10 23 24 22 20 10 3 1 1 3 10 21 22 22 17 6 2 1 1 1 0 1 3 12 47 89 143 248 255 41 2 0 0 0 0 0 0 0 0 0 0 0 0 0 0 0 0 0 0 0 0 0 0 0 4 86 255 214 126 79 33 8 2 0 0 0 2 8 34 77 127 229 255 255 144 88 44 10 2 1 0 0 0 0 0 0 0 0 0 0 0 1 2 5 12 15 16 17 9 4 4 10 18 17 15 13 5 2 1 0 0 0 2 8 37 81 129 221 255 74 5 28 255 255 155 95 55 17 4 1 0 0 0 1 4 19 64 107 177 255 215 10 0 0 0 0 0 0 0 0 0 0 0 0 0 0 0 0 0 0 0 0 0 0 0 0 0 0 0 0 0 0 0 0 0 0 0 0 0 0 0 0 0 0 0 0 0 0 0 0 0 0 0 0 0 0 0 0 0 0 0 0 0 0 0 0 0 0 2 43 255 237 139 89 46 10 2 0 0 0 0 1 1 2 2 1 1 0 0 0 2 8 36 79 126 215 255 72 3
0 0 0 4 78 255 218 132 102 87 23 4 1 0 0 0 0 0 0 0 0 1 5 30 87 101 134 222 255 65 3 0 0 0 10 227 255 184 119 100 81 16 3 1 0 1 2 11 62 95 108 157 255 255 31 34 255 250 150 107 91 34 6 1 0 0 0 0 0 0 1 6 34 92 105 147 245 255 31 1 0 0 0 0 0 0 0 0 5 96 255 211 130 99 84 26 4 1 0 0 0 0 0 0 0 0 0 0 0 0 0 2 12 66 95 117 182 255 186 9 0 0 0 0 0 0 0 0 0 0 0 0 0 0 0 0 0 0 0 0 0 0 0 0 0 0 0 0 0 0 0 0 0 0 0 0 0 0 0 0 0 0 0 0 0 0 0 0 0 8 173 255 191 121 97 72 14 2 0 0 0 0 1 3 17 81 97 119 188 255 158 7 0 0 0 0 0 0 0 0 0 0 0 0 0 0 0 0 0 0 0 0 0 0 0 0 0 0 0 0 0 0 0 0 0 0 0 1 20 255 255 163 112 97 58 10 2 0 0 0 0 1 3 20 80 99 129 218 255 255 200 124 98 80 17 3 1 0 0 0 0 2 12 70 98 118 183 255 197 9 0 0 0 0 0 0 0 0 0 0 0 0 0 0 0 0 0 0 0 0 0 0 6 125 255 196 123 98 72 15 2 0 0 0 0 1 7 42 94 109 154 255 255 37 4 56 255 225 139 105 89 24 4 1 0 0 0 1 4 23 87 102 135 223 255 68 3 0 0 0 0 0 0 0 0 0 0 0 0 1 15 255 255 163 110 95 60 11 2 1 0 0 1 1 1 1 1 0 0 0 0 0 0 0 0 0 0 0 0 0 0 2 10 53 57 45 48 62 23 4 1 0 0 0 0 1 1 1 1 1 2 4 12 11 10 8 4 1 0 0 1 4 9 10 9 7 2 1 0 0 0 0 0 2 9 54 93 111 165 255 255 21 1 0 0 0 0 0 0 0 0 0 0 0 0 0 0 0 0 0 0 0 0 0 2 43 255 236 144 104 91 32 5 1 0 0 0 1 6 33 86 108 142 183 151 113 93 50 8 1 0 0 0 0 0 0 0 0 0 0 0 0 0 1 2 4 6 6 7 4 2 2 4 7 7 6 5 2 1 0 0 0 0 1 6 38 89 106 150 251 255 63 255 255 172 114 96 67 13 2 0 0 0 0 0 3 16 80 100 126 202 255 93 5 0 0 0 0 0 0 0 0 0 0 0 0 0 0 0 0 0 0 0 0 0 0 0 0 0 0 0 0 0 0 0 0 0 0 0 0 0 0 0 0 0 0 0 0 0 0 0 0 0 0 0 0 0 0 0 0 0 0 0 0 0 0 0 0 1 20 255 255 159 109 93 52 8 1 0 0 0 0 0 0 0 0 0 0 0 0 0 1 6 37 88 104 148 249 255 43
0 0 2 41 255 241 144 107 127 169 30 3 0 0 0 0 0 0 0 0 0 1 5 40 150 115 104 145 246 255 34 1 0 5 100 255 200 124 104 142 193 23 2 0 0 0 2 15 145 148 105 110 167 255 255 255 255 162 110 113 150 48 6 1 0 0 0 0 0 0 1 6 50 158 112 109 161 255 255 13 1 0 0 0 0 0 0 2 49 255 229 137 101 115 156 34 4 1 0 0 0 0 0 0 0 0 0 0 0 0 0 2 16 143 129 102 123 199 255 86 4 0 0 0 0 0 0 0 0 0 0 0 0 0 0 0 0 0 0 0 0 0 0 0 0 0 0 0 0 0 0 0 0 0 0 0 0 0 0 0 0 0 0 0 0 0 0 0 4 81 255 207 127 103 130 162 19 2 0 0 0 0 0 3 24 175 130 102 125 204 255 71 3 0 0 0 0 0 0 0 0 0 0 0 0 0 0 0 0 0 0 0 0 0 0 0 0 0 0 0 0 0 0 0 0 0 0 8 171 255 175 113 105 142 117 13 1 0 0 0 0 0 3 24 148 122 106 145 227 216 135 103 125 168 22 2 0 0 0 0 0 2 18 164 141 106 124 199 255 91 4 0 0 0 0 0 0 0 0 0 0 0 0 0 0 0 0 0 0 0 0 3 61 255 214 131 104 130 151 19 2 0 0 0 0 1 7 70 148 109 110 166 255 255 55 255 251 147 107 122 166 31 4 0 0 0 0 0 3 29 167 119 106 146 245 255 34 1 0 0 0 0 0 0 0 0 0 0 0 7 144 255 180 115 108 148 136 14 2 0 0 0 0 0 0 0 0 0 0 0 0 0 0 0 0 0 0 0 0 0 0 1 10 76 55 31 37 73 20 3 0 0 0 0 0 0 0 0 0 0 1 2 4 4 3 3 1 0 0 0 0 1 3 3 3 2 1 0 0 0 0 0 0 1 11 107 140 105 115 181 255 214 10 0 0 0 0 0 0 0 0 0 0 0 0 0 0 0 0 0 0 0 0 1 20 255 255 153 106 111 158 43 5 1 0 0 0 1 5 44 148 114 91 91 89 104 137 89 10 1 0 0 0 0 0 0 0 0 0 0 0 0 0 0 1 1 2 2 2 1 1 1 1 2 2 2 1 1 0 0 0 0 0 1 6 56 142 111 109 163 255 255 255 196 118 101 137 144 17 2 0 0 0 0 0 2 21 162 127 104 134 223 255 47 2 0 0 0 0 0 0 0 0 0 0 0 0 0 0 0 0 0 0 0 0 0 0 0 0 0 0 0 0 0 0 0 0 0 0 0 0 0 0 0 0 0 0 0 0 0 0 0 0 0 0 0 0 0 0 0 0 0 0 0 0 0 0 0 8 180 255 174 112 105 137 94 10 1 0 0 0 0 0 0 0 0 0 0 0 0 0 1 6 54 144 111 109 162 255 255
0 1 20 255 255 150 99 110 205 253 86 6 1 0 0 0 0 0 0 0 0 1 9 119 239 183 100 98 153 255 255 17 3 50 255 215 125 92 125 238 255 77 5 0 0 0 3 52 255 255 148 90 108 188 255 255 184 107 96 162 233 162 12 1 0 0 0 0 0 0 1 13 184 241 165 97 107 176 255 116 6 0 0 0 0 0 1 22 255 251 143 94 100 190 253 105 7 1 0 0 0 0 0 0 0 0 0 0 0 0 0 3 50 255 229 122 92 126 223 255 45 2 0 0 0 0 0 0 0 0 0 0 0 0 0 0 0 0 0 0 0 0 0 0 0 0 0 0 0 0 0 0 0 0 0 0 0 0 0 0 0 0 0 0 0 0 0 2 42 255 226 130 92 118 229 255 58 4 0 0 0 0 0 5 70 255 227 118 92 129 226 255 35 2 0 0 0 0 0 0 0 0 0 0 0 0 0 0 0 0 0 0 0 0 0 0 0 0 0 0 0 0 0 0 0 0 4 78 255 190 112 90 137 234 255 39 3 0 0 0 0 0 5 61 255 204 111 95 109 107 93 112 213 255 65 5 0 0 0 0 0 4 58 255 240 129 93 126 222 255 48 2 0 0 0 0 0 0 0 0 0 0 0 0 0 0 0 0 0 0 1 33 255 240 135 94 116 225 255 55 4 0 0 0 0 1 21 255 233 149 93 106 175 255 255 255 159 100 102 190 246 84 6 1 0 0 0 1 6 77 250 192 104 99 152 255 255 15 1 0 0 0 0 0 0 0 0 0 3 71 255 201 117 94 149 254 255 47 3 0 0 0 0 0 0 0 0 0 0 0 0 0 0 0 0 0 0 0 0 0 0 2 19 183 85 27 37 119 23 3 0 0 0 0 0 0 0 0 0 0 0 1 1 1 1 1 0 0 0 0 0 0 1 1 1 1 0 0 0 0 0 0 0 2 36 255 244 139 92 114 192 255 99 5 0 0 0 0 0 0 0 0 0 0 0 0 0 0 0 0 0 0 0 8 187 255 165 101 95 165 238 129 10 1 0 0 0 1 10 140 242 162 69 49 60 129 230 255 28 2 0 0 0 0 0 0 0 0 0 0 0 0 0 0 0 0 1 1 1 0 0 0 0 1 1 1 0 0 0 0 0 0 0 1 14 196 232 160 95 108 181 255 226 129 92 126 241 255 51 4 0 0 0 0 0 4 59 255 209 112 96 141 255 255 24 1 0 0 0 0 0 0 0 0 0 0 0 0 0 0 0 0 0 0 0 0 0 0 0 0 0 0 0 0 0 0 0 0 0 0 0 0 0 0 0 0 0 0 0 0 0 0 0 0 0 0 0 0 0 0 0 0 0 0 0 0 0 4 78 255 191 113 92 143 232 255 29 2 0 0 0 0 0 0 0 0 0 0 0 0 0 1 14 201 239 165 96 107 181 255
0 8 177 255 155 88 75 138 210 205 255 33 2 0 0 0 0 0 0 0 0 3 46 255 220 214 126 73 91 163 255 171 37 255 237 126 78 82 171 211 199 255 31 2 0 1 20 255 220 223 204 96 73 111 189 185 110 75 105 200 221 255 62 3 0 0 0 0 0 0 4 67 255 221 203 109 74 104 190 255 54 3 0 0 0 0 9 195 255 146 84 71 132 219 221 255 43 2 0 0 0 0 0 0 0 0 0 0 0 0 1 19 255 218 226 173 82 80 132 245 255 20 1 0 0 0 0 0 0 0 0 0 0 0 0 0 0 0 0 0 0 0 0 0 0 0 0 0 0 0 0 0 0 0 0 0 0 0 0 0 0 0 0 0 0 0 1 20 255 250 133 80 78 163 221 208 255 22 1 0 0 0 1 26 255 203 219 169 79 80 134 255 255 14 1 0 0 0 0 0 0 0 0 0 0 0 0 0 0 0 0 0 0 0 0 0 0 0 0 0 0 0 0 0 0 2 40 255 211 112 73 90 189 222 231 255 14 1 0 0 0 1 21 255 209 218 143 66 51 51 69 153 218 203 255 24 1 0 0 0 1 22 255 208 217 175 83 79 131 242 255 23 1 0 0 0 0 0 0 0 0 0 0 0 0 0 0 0 0 1 16 255 255 142 83 78 157 220 212 255 20 1 0 0 0 6 116 255 226 195 98 71 105 201 255 181 98 74 122 204 202 255 31 2 0 0 0 2 28 255 201 210 130 73 90 159 255 127 6 0 0 0 0 0 0 0 0 2 37 255 221 119 77 96 200 223 223 255 17 1 0 0 0 0 0 0 0 0 0 0 0 0 0 0 0 0 0 0 0 0 0 4 63 255 255 48 69 204 45 4 0 0 0 0 0 0 0 0 0 0 0 0 0 0 0 0 0 0 0 0 0 0 0 0 0 0 0 0 0 0 0 0 1 11 212 241 230 193 90 74 111 205 255 50 2 0 0 0 0 0 0 0 0 0 0 0 0 0 0 0 0 0 4 84 255 179 98 71 109 204 213 255 49 3 0 0 0 3 52 255 222 197 71 31 54 177 228 255 161 9 0 0 0 0 0 0 0 0 0 0 0 0 0 0 0 0 0 0 0 0 0 0 0 0 0 0 0 0 0 0 0 0 0 4 72 255 230 204 105 74 96 131 110 80 88 182 223 218 255 19 1 0 0 0 1 21 255 201 213 148 77 86 151 255 206 10 0 0 0 0 0 0 0 0 0 0 0 0 0 0 0 0 0 0 0 0 0 0 0 0 0 0 0 0 0 0 0 0 0 0 0 0 0 0 0 0 0 0 0 0 0 0 0 0 0 0 0 0 0 0 0 0 0 0 0 0 2 37 255 206 113 75 95 198 230 250 145 8 0 0 0 0 0 0 0 0 0 0 0 0 0 4 75 255 232 209 108 75 105 168
4 77 255 164 82 51 64 145 142 149 234 227 12 1 0 0 0 0 0 0 1 20 255 215 158 155 148 61 52 87 175 255 255 255 133 67 49 83 157 133 140 242 231 11 1 7 136 255 150 138 163 115 53 57 77 76 57 56 120 154 155 198 255 27 1 0 0 0 0 1 27 255 189 151 154 126 56 58 105 213 255 25 1 0 0 4 83 255 158 78 49 64 156 154 157 223 255 17 1 0 0 0 0 0 0 0 0 0 0 0 7 149 255 153 146 166 85 50 70 135 255 164 8 0 0 0 0 0 0 0 0 0 0 0 0 0 0 0 0 0 0 0 0 0 0 0 0 0 0 0 0 0 0 0 0 0 0 0 0 0 0 0 0 0 0 0 8 168 255 138 70 49 78 160 141 147 255 147 7 0 0 0 8 162 252 146 142 166 81 50 72 142 255 114 6 0 0 0 0 0 0 0 0 0 0 0 0 0 0 0 0 0 0 0 0 0 0 0 0 0 0 0 0 0 1 17 255 238 118 62 50 103 163 144 158 255 104 5 0 0 0 7 128 255 156 148 149 53 24 25 61 158 144 148 255 168 8 0 0 0 8 163 255 145 136 157 85 50 70 133 255 175 9 0 0 0 0 0 0 0 0 0 0 0 0 0 0 0 0 7 138 255 150 76 50 75 157 142 151 255 134 7 0 0 2 50 255 173 150 159 114 52 58 92 119 86 56 62 135 143 150 236 209 11 1 0 0 9 186 244 149 146 144 61 51 85 171 255 56 3 0 0 0 0 0 0 1 15 255 246 122 65 53 106 159 138 151 255 122 6 0 0 0 0 0 0 0 0 0 0 0 0 0 0 0 0 0 0 0 0 1 24 255 190 255 255 255 184 197 12 1 0 0 0 0 0 0 0 0 0 0 0 0 0 0 0 0 0 0 0 0 0 0 0 0 0 0 0 0 0 0 0 4 83 255 158 145 164 101 49 60 112 225 255 23 1 0 0 0 0 0 0 0 0 0 0 0 0 0 0 0 2 42 255 195 97 55 56 130 155 153 208 255 21 1 0 1 20 255 203 155 149 88 27 65 160 149 166 255 68 3 0 0 0 0 0 0 0 0 0 0 0 0 0 0 0 0 0 0 0 0 0 0 0 0 0 0 0 0 0 0 0 1 31 255 188 157 160 121 53 45 51 47 49 97 167 142 152 255 127 7 0 0 0 7 143 255 148 142 154 71 52 80 156 255 84 4 0 0 0 0 0 0 0 0 0 0 0 0 0 0 0 0 0 0 0 0 0 0 0 0 0 0 0 0 0 0 0 0 0 0 0 0 0 0 0 0 0 0 0 0 0 0 0 0 0 0 0 0 0 0 0 0 0 0 1 16 255 237 115 61 52 109 166 150 162 255 56 3 0 0 0 0 0 0 0 0 0 0 0 2 32 255 188 156 159 125 56 53 68
41 255 188 85 41 29 56 106 83 89 136 255 83 4 0 0 0 0 0 0 8 158 255 131 93 93 121 56 30 43 95 221 255 161 69 34 32 83 100 75 83 140 255 87 7 56 255 152 87 76 97 117 42 26 28 28 27 45 111 94 90 122 255 212 10 0 0 0 0 9 180 245 115 86 93 113 46 31 52 117 255 181 9 1 2 39 255 183 83 39 29 63 123 92 91 131 255 122 6 0 0 0 0 0 0 0 0 0 0 3 66 255 160 92 82 107 86 34 35 68 151 255 71 3 0 0 0 0 0 0 0 0 0 0 0 0 0 0 0 0 0 0 0 0 0 0 0 0 0 0 0 0 0 0 0 0 0 0 0 0 0 0 0 0 0 3 68 255 154 69 35 31 77 106 80 88 150 255 60 3 0 3 61 255 141 88 81 108 81 32 36 73 162 255 50 2 0 0 0 0 0 0 0 0 0 0 0 0 0 0 0 0 0 0 0 0 0 0 0 0 0 0 0 0 6 121 255 128 59 32 38 107 101 81 95 171 255 48 2 0 3 53 255 150 96 86 105 44 13 14 55 107 83 91 148 255 67 3 0 3 71 255 152 87 76 99 82 33 35 66 147 255 70 4 0 0 0 0 0 0 0 0 0 0 0 0 0 0 3 59 255 162 75 38 32 72 106 81 91 153 255 57 3 1 23 255 206 105 85 98 113 41 28 36 42 35 30 54 110 86 91 138 255 82 4 0 4 71 255 142 92 87 112 54 29 42 91 200 255 26 1 0 0 0 0 0 6 113 255 132 60 33 39 101 94 75 88 158 255 52 3 0 0 0 0 0 0 0 0 0 0 0 0 0 0 0 0 0 0 0 8 147 255 142 171 255 255 179 255 74 4 0 0 0 0 0 0 0 0 0 0 0 0 0 0 0 0 0 0 0 0 0 0 0 0 0 0 0 0 0 0 2 39 255 176 95 80 99 102 36 31 55 121 255 187 9 0 0 0 0 0 0 0 0 0 0 0 0 0 0 1 20 255 229 104 48 30 48 120 95 91 128 255 172 8 1 7 151 255 123 89 89 105 35 86 100 84 101 191 255 33 1 0 0 0 0 0 0 0 0 0 0 0 0 0 0 0 0 0 0 0 0 0 0 0 0 0 0 0 0 0 1 11 225 239 116 89 97 113 41 20 18 19 31 99 105 80 91 156 255 54 3 0 3 62 255 154 93 83 109 67 31 40 80 179 255 40 2 0 0 0 0 0 0 0 0 0 0 0 0 0 0 0 0 0 0 0 0 0 0 0 0 0 0 0 0 0 0 0 0 0 0 0 0 0 0 0 0 0 0 0 0 0 0 0 0 0 0 0 0 0 0 0 0 0 6 124 255 130 58 32 40 110 101 84 100 189 255 24 1 0 0 0 0 0 0 0 0 0 1 12 238 235 115 88 95 114 45 25 25
255 238 103 42 19 17 44 61 45 48 76 166 255 35 2 0 0 0 0 3 67 255 154 72 49 51 74 48 17 21 46 96 127 75 33 17 23 72 55 39 45 77 169 255 84 255 193 85 46 38 53 89 34 12 10 10 13 35 78 53 47 67 140 255 82 4 0 0 4 71 255 134 63 45 51 78 37 17 25 58 140 255 72 4 16 255 226 99 40 19 18 59 74 50 48 71 156 255 52 3 0 0 0 0 0 0 0 0 1 32 255 195 89 50 43 58 76 24 17 33 80 189 255 35 2 0 0 0 0 0 0 0 0 0 0 0 0 0 0 0 0 0 0 0 0 0 0 0 0 0 0 0 0 0 0 0 0 0 0 0 0 0 0 0 1 30 255 183 80 33 17 21 68 58 42 48 85 189 255 26 2 26 255 180 80 48 43 59 72 23 18 35 87 205 255 23 1 0 0 0 0 0 0 0 0 0 0 0 0 0 0 0 0 0 0 0 0 0 0 0 0 0 0 3 51 255 153 64 28 17 31 90 57 42 51 95 211 255 20 2 24 255 196 87 52 46 58 32 8 10 45 58 44 50 84 184 255 30 3 35 255 191 85 47 39 53 68 23 17 32 77 181 255 32 1 0 0 0 0 0 0 0 0 0 0 0 0 1 26 255 194 84 35 18 21 62 58 43 49 86 196 255 27 11 200 255 118 57 44 55 86 34 14 13 14 13 16 44 69 48 50 79 174 255 38 3 31 255 177 82 51 48 68 44 17 20 45 111 255 197 10 0 0 0 0 2 48 255 157 66 28 17 29 76 50 38 47 89 200 255 23 1 0 0 0 0 0 0 0 0 0 0 0 0 0 0 0 0 0 3 58 255 144 91 102 166 166 143 180 255 35 2 0 0 0 0 0 0 0 0 0 0 0 0 0 0 0 0 0 0 0 0 0 0 0 0 0 0 0 0 1 16 255 227 100 51 41 54 82 28 15 26 60 145 255 74 4 0 0 0 0 0 0 0 0 0 0 0 0 0 8 173 255 126 51 23 17 42 83 54 49 72 153 255 74 7 67 255 150 68 47 53 109 65 122 59 43 55 109 245 255 13 1 0 0 0 0 0 0 0 0 0 0 0 0 0 0 0 0 0 0 0 0 0 0 0 0 0 0 0 0 4 89 255 133 64 46 53 79 32 10 6 8 22 83 58 42 49 88 198 255 24 2 28 255 193 88 52 45 62 57 20 19 39 98 225 255 16 1 0 0 0 0 0 0 0 0 0 0 0 0 0 0 0 0 0 0 0 0 0 0 0 0 0 0 0 0 0 0 0 0 0 0 0 0 0 0 0 0 0 0 0 0 0 0 0 0 0 0 0 0 0 0 0 3 54 255 158 67 28 17 32 86 56 43 55 110 255 194 9 0 0 0 0 0 0 0 0 0 5 93 255 131 62 45 52 77 35 12 8
255 139 53 20 9 10 29 30 22 24 40 96 229 255 13 1 0 0 1 31 255 193 85 38 24 26 39 36 11 9 19 36 44 30 14 8 16 53 28 19 22 40 98 255 255 255 114 45 23 18 28 55 26 6 3 3 6 24 45 28 23 35 76 177 255 38 2 2 34 255 183 76 33 22 26 43 26 9 12 29 76 183 255 44 126 255 126 50 19 9 13 51 40 25 23 37 88 202 255 22 1 0 0 0 0 0 0 1 14 255 251 110 46 25 21 31 56 17 8 15 40 107 245 255 15 1 0 0 0 0 0 0 0 0 0 0 0 0 0 0 0 0 0 0 0 0 0 0 0 0 0 0 0 0 0 0 0 0 0 0 0 0 0 1 11 225 247 104 40 15 8 15 52 30 20 24 45 109 255 209 21 180 255 106 43 24 21 31 55 16 9 17 45 118 255 185 9 0 0 0 0 0 0 0 0 0 0 0 0 0 0 0 0 0 0 0 0 0 0 0 0 0 1 21 255 202 85 32 13 9 24 61 31 20 26 50 119 255 176 18 189 255 116 47 27 22 26 19 5 7 30 27 21 25 44 105 248 225 28 255 244 108 45 23 19 27 47 16 8 15 39 104 246 255 14 1 0 0 0 0 0 0 0 0 0 0 0 11 226 255 110 42 16 8 14 45 30 21 25 46 114 255 255 119 255 151 63 29 21 29 53 26 7 4 4 5 9 31 36 24 25 42 100 233 255 31 242 243 102 44 26 24 35 31 10 9 21 57 143 255 83 4 0 0 1 20 255 206 87 33 13 9 20 45 25 18 23 46 115 255 189 9 0 0 0 0 0 0 0 0 0 0 0 0 0 0 0 0 1 25 255 191 85 53 53 70 78 91 116 243 255 15 1 0 0 0 0 0 0 0 0 0 0 0 0 0 0 0 0 0 0 0 0 0 0 0 0 0 0 0 6 127 255 129 53 26 19 28 54 21 8 12 29 78 183 255 33 2 0 0 0 0 0 0 0 0 0 0 0 4 74 255 158 65 25 10 10 33 47 29 25 38 84 192 255 94 255 197 85 36 24 35 107 217 162 43 22 28 57 136 255 112 5 0 0 0 0 0 0 0 0 0 0 0 0 0 0 0 0 0 0 0 0 0 0 0 0 0 0 0 2 42 255 175 74 33 22 27 45 22 5 2 4 16 57 30 20 24 47 114 255 195 22 229 255 111 47 27 22 31 42 12 9 19 50 126 255 121 6 0 0 0 0 0 0 0 0 0 0 0 0 0 0 0 0 0 0 0 0 0 0 0 0 0 0 0 0 0 0 0 0 0 0 0 0 0 0 0 0 0 0 0 0 0 0 0 0 0 0 0 0 0 0 1 24 255 203 87 33 13 9 24 54 30 21 29 60 147 255 85 4 0 0 0 0 0 0 0 2 44 255 172 72 32 22 26 42 24 6 3
157 76 27 9 4 5 14 13 9 11 21 53 133 255 102 5 0 1 13 255 254 112 45 19 11 12 18 21 6 4 7 12 14 10 6 4 10 32 14 8 10 21 56 144 251 164 67 24 10 8 14 27 16 4 1 1 3 13 21 13 11 17 41 103 237 255 17 15 255 251 109 42 17 10 12 20 14 5 5 14 40 109 255 255 255 171 69 25 9 4 9 38 20 12 11 19 47 118 255 174 8 0 0 0 0 0 0 6 120 255 144 59 23 12 9 15 34 11 4 7 20 57 139 255 129 6 0 0 0 0 0 0 0 0 0 0 0 0 0 0 0 0 0 0 0 0 0 0 0 0 0 0 0 0 0 0 0 0 0 0 0 0 0 5 91 255 142 56 20 7 4 10 32 15 9 11 23 60 149 255 255 255 145 59 23 11 9 16 34 10 4 8 23 64 154 255 75 4 0 0 0 0 0 0 0 0 0 0 0 0 0 0 0 0 0 0 0 0 0 0 0 0 8 180 255 119 45 15 6 5 16 34 16 9 12 25 65 161 255 255 255 151 64 25 12 9 10 8 3 4 15 12 9 12 23 57 142 255 255 255 138 58 23 11 8 13 26 9 4 7 19 56 142 255 117 6 0 0 0 0 0 0 0 0 0 0 5 98 255 150 60 21 7 4 8 26 14 9 12 24 63 155 255 255 204 85 33 14 10 14 27 16 4 2 1 2 5 17 16 11 12 22 55 135 255 255 255 141 56 23 12 11 15 16 5 4 10 29 80 190 255 43 2 0 7 151 255 121 46 16 6 4 11 21 11 8 11 24 63 155 255 78 4 0 0 0 0 0 0 0 0 0 0 0 0 0 0 0 10 210 255 115 48 29 25 28 34 52 69 142 255 124 6 0 0 0 0 0 0 0 0 0 0 0 0 0 0 0 0 0 0 0 0 0 0 0 0 0 0 3 55 255 166 71 28 12 9 14 29 13 4 5 14 40 106 245 255 13 1 0 0 0 0 0 0 0 0 0 2 36 255 196 87 33 12 5 6 21 23 14 12 19 45 112 255 255 255 117 46 19 12 30 143 255 188 45 12 14 30 75 178 255 54 3 0 0 0 0 0 0 0 0 0 0 0 0 0 0 0 0 0 0 0 0 0 0 0 0 0 1 18 255 232 102 40 16 10 13 20 12 3 1 2 10 32 15 9 11 24 63 153 255 255 255 147 60 24 13 10 15 24 7 4 9 25 69 166 255 54 3 0 0 0 0 0 0 0 0 0 0 0 0 0 0 0 0 0 0 0 0 0 0 0 0 0 0 0 0 0 0 0 0 0 0 0 0 0 0 0 0 0 0 0 0 0 0 0 0 0 0 0 0 0 9 175 255 119 46 16 6 5 14 28 14 10 14 32 84 194 255 43 2 0 0 0 0 0 1 20 255 229 101 39 16 10 12 19 12 3 1
63 37 13 4 2 2 5 5 4 5 10 29 78 177 255 47 2 5 103 255 148 62 24 9 5 5 7 9 3 2 2 4 4 3 2 2 5 14 6 3 4 10 30 70 103 76 36 12 5 3 6 11 7 2 1 1 2 5 8 5 4 8 21 58 140 255 155 149 255 146 62 23 8 4 5 7 5 2 2 7 22 64 159 255 252 106 39 12 4 2 6 23 10 5 5 9 25 67 161 255 77 4 0 0 0 0 3 55 255 178 81 32 11 5 4 7 15 6 2 3 10 30 78 179 255 61 3 0 0 0 0 0 0 0 0 0 0 0 0 0 0 0 0 0 0 0 0 0 0 0 0 0 0 0 0 0 0 0 0 0 0 0 2 44 255 187 82 30 10 3 2 5 15 7 4 5 12 33 90 220 255 228 90 33 11 5 4 7 16 6 2 4 11 34 88 194 255 34 2 0 0 0 0 0 0 0 0 0 0 0 0 0 0 0 0 0 0 0 0 0 0 4 83 255 163 68 24 7 3 2 8 15 7 4 5 13 36 97 231 255 224 91 35 13 5 3 3 3 1 2 5 4 3 5 11 32 87 214 255 201 82 31 11 5 3 5 10 4 2 3 10 31 81 180 255 54 3 0 0 0 0 0 0 0 0 2 49 255 192 86 32 10 3 2 4 11 6 4 5 12 35 92 203 239 119 48 17 7 4 6 11 7 2 1 0 1 2 7 6 4 5 11 30 81 197 255 212 87 32 11 5 4 6 6 2 2 5 15 44 113 244 255 21 4 68 255 164 69 25 8 3 2 4 8 5 3 5 12 35 89 195 255 36 2 0 0 0 0 0 0 0 0 0 0 0 0 0 4 92 255 155 67 27 14 10 10 14 27 41 82 176 255 57 3 0 0 0 0 0 0 0 0 0 0 0 0 0 0 0 0 0 0 0 0 0 0 0 0 1 24 255 211 97 39 14 5 4 6 12 6 2 2 7 21 59 144 255 105 5 0 0 0 0 0 0 0 0 1 16 255 251 115 47 17 5 2 3 9 9 6 5 9 24 65 153 248 157 68 25 9 8 38 170 174 155 62 10 7 15 41 104 224 255 26 1 0 0 0 0 0 0 0 0 0 0 0 0 0 0 0 0 0 0 0 0 0 0 0 0 8 164 255 137 57 21 8 4 5 7 5 1 1 1 5 13 7 4 5 12 35 92 224 255 214 88 33 12 5 4 6 10 4 2 4 12 38 98 216 255 25 1 0 0 0 0 0 0 0 0 0 0 0 0 0 0 0 0 0 0 0 0 0 0 0 0 0 0 0 0 0 0 0 0 0 0 0 0 0 0 0 0 0 0 0 0 0 0 0 0 0 0 0 4 72 255 155 66 24 8 3 2 6 11 6 4 6 17 47 113 241 255 20 1 0 0 0 0 8 182 255 135 56 21 7 4 5 7 5 1 0
23 15 6 2 1 1 1 1 1 2 5 16 46 109 235 255 25 49 255 188 87 35 12 4 2 2 2 3 1 1 1 1 1 1 1 1 2 5 2 1 2 5 15 30 39 32 17 6 2 1 2 3 2 1 0 0 1 2 2 2 2 4 11 33 84 187 255 255 194 87 36 12 4 2 2 2 2 1 1 3 12 37 87 145 122 63 22 6 2 1 3 10 4 2 2 4 13 39 98 210 255 39 2 0 0 1 26 255 225 106 45 17 5 2 2 3 5 2 1 1 5 16 45 107 223 255 29 1 0 0 0 0 0 0 0 0 0 0 0 0 0 0 0 0 0 0 0 0 0 0 0 0 0 0 0 0 0 0 0 0 0 1 19 255 242 115 48 16 5 1 1 2 5 3 1 2 6 19 54 117 174 121 56 19 6 2 2 3 5 2 1 2 5 18 50 119 255 255 14 1 0 0 0 0 0 0 0 0 0 0 0 0 0 0 0 0 0 0 0 0 2 45 255 211 99 40 13 4 1 1 3 5 3 2 2 6 20 57 121 179 120 55 20 6 2 1 1 1 0 1 2 1 1 2 5 18 52 111 158 106 48 17 5 2 1 2 3 2 1 1 5 16 46 108 228 255 26 1 0 0 0 0 0 0 1 25 255 241 116 50 17 5 1 1 2 3 2 1 2 6 19 51 92 104 63 26 9 3 2 2 3 2 1 0 0 0 1 2 2 2 2 5 17 48 102 151 108 52 18 5 2 2 2 2 1 1 2 7 25 65 147 255 221 51 255 216 100 40 13 4 1 1 1 2 2 1 2 6 19 51 118 254 255 16 1 0 0 0 0 0 0 0 0 0 0 0 2 48 255 203 94 39 15 6 4 4 6 12 23 47 106 225 255 29 1 0 0 0 0 0 0 0 0 0 0 0 0 0 0 0 0 0 0 0 0 0 0 0 9 192 255 130 56 21 7 2 1 2 4 2 1 1 3 11 34 86 185 255 49 2 0 0 0 0 0 0 0 7 159 255 153 66 26 8 2 1 1 3 3 2 2 4 13 36 75 105 76 38 13 5 8 68 145 103 110 122 13 4 7 23 60 135 255 255 12 0 0 0 0 0 0 0 0 0 0 0 0 0 0 0 0 0 0 0 0 0 0 0 4 74 255 178 80 33 11 4 2 2 2 1 1 0 1 2 4 2 1 2 6 19 55 117 170 113 52 18 6 2 2 2 3 1 1 2 6 21 57 133 255 215 10 0 0 0 0 0 0 0 0 0 0 0 0 0 0 0 0 0 0 0 0 0 0 0 0 0 0 0 0 0 0 0 0 0 0 0 0 0 0 0 0 0 0 0 0 0 0 0 0 0 0 2 35 255 204 94 38 13 4 1 1 2 3 2 2 3 8 26 65 144 255 191 9 0 0 0 4 84 255 175 79 32 11 3 2 2 2 1 1 0
8 6 2 1 0 0 0 0 0 1 2 8 29 72 155 255 255 255 250 124 56 21 6 2 1 1 1 1 0 0 0 0 0 0 0 0 1 1 1 0 1 2 6 12 14 12 7 2 1 0 1 1 1 0 0 0 0 0 1 1 1 2 6 20 55 127 252 254 130 57 21 6 2 1 1 1 0 0 0 1 6 21 46 63 57 36 12 3 1 0 1 3 2 1 1 2 7 24 64 138 255 255 17 1 1 11 234 255 149 68 27 9 2 1 1 1 1 1 0 1 2 8 27 68 145 255 255 12 1 0 0 0 0 0 0 0 0 0 0 0 0 0 0 0 0 0 0 0 0 0 0 0 0 0 0 0 0 0 0 0 0 8 162 255 157 74 30 9 2 1 0 1 1 1 1 1 3 10 32 60 76 62 34 11 3 1 1 1 1 1 0 1 3 10 31 77 167 255 125 6 0 0 0 0 0 0 0 0 0 0 0 0 0 0 0 0 0 0 0 1 24 255 255 137 64 25 7 2 1 0 1 1 1 1 1 3 11 34 62 79 62 33 11 3 1 0 0 0 0 0 0 0 0 1 3 10 31 56 69 54 28 9 2 1 0 1 1 1 0 1 2 9 28 69 149 255 255 12 1 0 0 0 0 0 11 255 255 156 74 31 9 2 1 0 1 1 1 1 1 3 10 27 41 44 32 14 4 1 1 1 1 1 0 0 0 0 0 1 1 1 1 2 9 28 51 65 53 31 10 3 1 1 1 0 0 0 1 4 14 41 94 194 255 255 255 144 66 25 7 2 0 0 0 1 0 0 1 3 10 32 77 166 255 151 7 0 0 0 0 0 0 0 0 0 0 1 25 255 255 133 62 24 8 3 1 1 2 5 12 30 69 149 255 255 13 1 0 0 0 0 0 0 0 0 0 0 0 0 0 0 0 0 0 0 0 0 0 4 82 255 180 85 35 11 3 1 1 1 1 1 0 0 1 6 20 55 123 249 255 24 1 0 0 0 0 0 4 75 255 200 98 42 14 4 1 0 0 1 1 1 1 2 6 19 35 43 36 20 7 3 19 236 125 74 109 255 36 4 4 13 37 87 182 255 124 6 0 0 0 0 0 0 0 0 0 0 0 0 0 0 0 0 0 0 0 0 0 2 37 255 228 116 52 19 5 2 1 1 1 0 0 0 0 1 1 1 1 1 3 11 33 59 75 58 31 10 3 1 1 1 1 0 0 1 3 11 36 86 180 255 91 4 0 0 0 0 0 0 0 0 0 0 0 0 0 0 0 0 0 0 0 0 0 0 0 0 0 0 0 0 0 0 0 0 0 0 0 0 0 0 0 0 0 0 0 0 0 0 0 0 1 17 255 255 137 61 23 6 2 0 0 1 1 1 1 1 4 14 41 92 192 255 88 4 0 2 45 255 227 114 51 19 5 1 1 0 1 0 0 0
2 2 1 0 0 0 0 0 0 0 1 5 19 58 116 216 255 255 179 94 43 13 3 1 0 0 0 0 0 0 0 0 0 0 0 0 0 0 0 0 0 1 2 4 5 4 2 1 0 0 0 0 0 0 0 0 0 0 0 0 0 1 3 12 44 93 133 134 93 46 13 3 1 0 0 0 0 0 0 1 3 11 24 28 27 19 6 2 0 0 0 1 0 0 0 1 4 16 50 101 182 255 155 8 5 101 255 196 109 53 18 5 1 0 0 0 0 0 0 0 1 4 18 52 106 193 255 119 6 0 0 0 0 0 0 0 0 0 0 0 0 0 0 0 0 0 0 0 0 0 0 0 0 0 0 0 0 0 0 0 4 74 255 205 114 59 20 5 1 0 0 0 0 0 0 0 1 5 18 31 35 32 20 6 1 0 0 0 0 0 0 0 1 5 22 62 121 216 255 60 3 0 0 0 0 0 0 0 0 0 0 0 0 0 0 0 0 0 0 11 255 255 182 101 50 16 4 1 0 0 0 0 0 0 0 1 6 19 32 36 32 19 6 1 0 0 0 0 0 0 0 0 0 0 1 5 17 28 31 27 15 4 1 0 0 0 0 0 0 0 1 4 18 54 110 200 255 130 6 0 0 0 0 5 116 255 203 112 57 20 5 1 0 0 0 0 0 0 0 1 5 13 17 18 15 6 2 1 0 0 0 0 0 0 0 0 0 0 0 0 0 1 4 15 26 29 26 16 5 1 0 0 0 0 0 0 0 2 8 30 73 141 255 255 202 110 53 16 4 1 0 0 0 0 0 0 0 1 5 22 61 121 216 255 76 4 0 0 0 0 0 0 0 0 0 12 255 255 177 99 49 16 4 1 1 0 1 2 6 20 55 109 196 255 130 6 0 0 0 0 0 0 0 0 0 0 0 0 0 0 0 0 0 0 0 0 2 42 255 233 131 68 25 6 2 0 0 0 0 0 0 0 1 3 12 43 94 175 255 242 11 0 0 0 0 2 40 255 245 139 75 31 8 2 0 0 0 0 0 0 0 1 3 9 15 18 16 9 3 6 97 255 180 94 186 242 178 11 2 7 26 67 129 231 255 65 3 0 0 0 0 0 0 0 0 0 0 0 0 0 0 0 0 0 0 0 1 16 255 255 158 87 40 12 3 1 0 0 0 0 0 0 0 0 0 0 0 0 1 5 18 30 34 30 17 5 1 0 0 0 0 0 0 0 1 6 26 68 129 229 255 45 2 0 0 0 0 0 0 0 0 0 0 0 0 0 0 0 0 0 0 0 0 0 0 0 0 0 0 0 0 0 0 0 0 0 0 0 0 0 0 0 0 0 0 0 0 0 0 0 8 172 255 189 103 49 15 3 1 0 0 0 0 0 0 1 2 8 29 71 135 238 255 46 3 22 255 255 157 86 39 11 3 1 0 0 0 0 0 0
1 1 0 0 0 0 0 0 0 0 1 3 15 65 111 157 231 212 143 98 43 9 2 0 0 0 0 0 0 0 0 0 0 0 0 0 0 0 0 0 0 0 1 1 1 1 1 0 0 0 0 0 0 0 0 0 0 0 0 0 0 0 2 9 43 82 79 79 81 46 9 2 0 0 0 0 0 0 0 0 1 5 11 12 12 8 3 1 0 0 0 0 0 0 0 0 2 11 51 98 138 220 255 81 60 255 236 147 102 57 13 3 1 0 0 0 0 0 0 0 1 2 13 54 100 145 233 255 61 3 0 0 0 0 0 0 0 0 0 0 0 0 0 0 0 0 0 0 0 0 0 0 0 0 0 0 0 0 0 2 39 255 249 153 106 63 15 3 1 0 0 0 0 0 0 0 1 3 9 15 16 15 10 3 1 0 0 0 0 0 0 0 1 3 17 68 110 159 255 255 30 1 0 0 0 0 0 0 0 0 0 0 0 0 0 0 0 0 5 114 255 215 136 97 51 11 2 0 0 0 0 0 0 0 0 1 3 9 16 17 16 10 3 1 0 0 0 0 0 0 0 0 0 0 1 2 8 13 14 12 7 2 1 0 0 0 0 0 0 0 1 3 13 59 103 148 236 255 67 3 0 0 3 57 255 235 148 103 61 15 3 1 0 0 0 0 0 0 0 1 2 5 7 7 6 3 1 0 0 0 0 0 0 0 0 0 0 0 0 0 0 1 2 6 11 13 12 7 2 1 0 0 0 0 0 0 0 1 5 25 80 118 153 175 139 107 58 12 2 0 0 0 0 0 0 0 0 1 3 17 69 109 157 255 255 43 2 0 0 0 0 0 0 0 6 128 255 214 135 97 51 11 2 1 0 0 0 1 3 15 60 103 145 232 255 66 3 0 0 0 0 0 0 0 0 0 0 0 0 0 0 0 0 0 0 1 22 255 255 169 115 75 20 4 1 0 0 0 0 0 0 0 0 2 8 42 97 136 212 255 110 5 0 0 1 21 255 255 173 116 79 27 5 1 0 0 0 0 0 0 0 0 1 3 6 7 6 4 4 49 255 236 255 255 255 219 255 76 5 4 21 73 112 164 255 255 33 1 0 0 0 0 0 0 0 0 0 0 0 0 0 0 0 0 0 0 7 143 255 194 125 88 38 8 1 0 0 0 0 0 0 0 0 0 0 0 0 0 1 3 9 14 15 14 8 2 1 0 0 0 0 0 0 0 1 4 21 74 113 166 255 255 22 1 0 0 0 0 0 0 0 0 0 0 0 0 0 0 0 0 0 0 0 0 0 0 0 0 0 0 0 0 0 0 0 0 0 0 0 0 0 0 0 0 0 0 0 0 0 4 82 255 225 143 102 52 10 2 0 0 0 0 0 0 0 0 1 5 24 77 114 169 255 255 36 228 255 190 124 88 37 7 1 0 0 0 0 0 0 0
0 0 0 0 0 0 0 0 0 0 0 2 17 135 150 128 129 126 134 157 68 8 1 0 0 0 0 0 0 0 0 0 0 0 0 0 0 0 0 0 0 0 0 0 0 0 0 0 0 0 0 0 0 0 0 0 0 0 0 0 0 0 1 8 58 103 61 61 101 70 9 1 0 0 0 0 0 0 0 0 1 2 4 5 4 3 1 0 0 0 0 0 0 0 0 0 1 11 85 146 132 161 255 255 255 255 170 132 141 113 14 2 0 0 0 0 0 0 0 0 0 2 13 94 144 132 167 255 255 32 1 0 0 0 0 0 0 0 0 0 0 0 0 0 0 0 0 0 0 0 0 0 0 0 0 0 0 0 1 20 255 255 177 135 144 122 16 2 0 0 0 0 0 0 0 0 0 1 3 6 7 6 4 1 0 0 0 0 0 0 0 0 0 2 19 135 140 135 183 255 255 14 1 0 0 0 0 0 0 0 0 0 0 0 0 0 0 3 57 255 235 154 129 146 86 11 1 0 0 0 0 0 0 0 0 0 1 3 6 7 6 4 1 0 0 0 0 0 0 0 0 0 0 0 0 1 3 5 5 4 3 1 0 0 0 0 0 0 0 0 0 2 14 118 143 132 166 255 255 35 2 1 29 255 255 166 130 141 118 16 2 0 0 0 0 0 0 0 0 0 1 1 2 2 2 1 0 0 0 0 0 0 0 0 0 0 0 0 0 0 0 0 1 2 4 5 4 3 1 0 0 0 0 0 0 0 0 1 4 30 155 130 102 101 112 148 112 13 2 0 0 0 0 0 0 0 0 0 2 19 145 140 135 180 255 255 21 1 0 0 0 0 0 3 66 255 237 155 131 147 90 11 1 0 0 0 0 0 2 16 125 143 131 165 255 255 36 2 0 0 0 0 0 0 0 0 0 0 0 0 0 0 0 0 0 10 241 255 198 140 140 148 24 3 0 0 0 0 0 0 0 0 0 1 8 64 154 133 155 238 255 58 3 1 10 227 255 200 138 132 137 31 4 1 0 0 0 0 0 0 0 0 0 1 2 2 2 2 25 255 255 208 255 255 255 215 249 255 41 5 24 146 136 133 182 255 255 15 1 0 0 0 0 0 0 0 0 0 0 0 0 0 0 0 0 3 71 255 222 148 131 144 55 7 1 0 0 0 0 0 0 0 0 0 0 0 0 0 0 1 3 6 6 5 3 1 0 0 0 0 0 0 0 0 0 3 23 145 138 137 192 255 199 9 0 0 0 0 0 0 0 0 0 0 0 0 0 0 0 0 0 0 0 0 0 0 0 0 0 0 0 0 0 0 0 0 0 0 0 0 0 0 0 0 0 0 0 0 2 42 255 250 161 133 148 95 11 1 0 0 0 0 0 0 0 0 1 4 29 148 133 136 194 255 255 255 218 144 130 147 52 7 1 0 0 0 0 0 0 0
0 0 0 0 0 0 0 0 0 0 0 3 49 255 239 132 83 89 159 253 255 21 1 0 0 0 0 0 0 0 0 0 0 0 0 0 0 0 0 0 0 0 0 0 0 0 0 0 0 0 0 0 0 0 0 0 0 0 0 0 0 0 1 14 169 198 79 78 203 240 19 1 0 0 0 0 0 0 0 0 0 1 1 1 1 1 0 0 0 0 0 0 0 0 0 0 2 27 255 251 167 131 177 255 255 190 133 156 246 255 41 3 0 0 0 0 0 0 0 0 0 2 33 255 249 157 130 174 255 255 14 1 0 0 0 0 0 0 0 0 0 0 0 0 0 0 0 0 0 0 0 0 0 0 0 0 0 0 10 219 255 190 134 152 242 255 43 3 0 0 0 0 0 0 0 0 0 0 1 2 2 2 1 0 0 0 0 0 0 0 0 0 0 4 54 255 230 147 135 197 255 135 6 0 0 0 0 0 0 0 0 0 0 0 0 0 1 29 255 255 157 125 165 254 255 28 2 0 0 0 0 0 0 0 0 0 0 1 2 2 2 1 0 0 0 0 0 0 0 0 0 0 0 0 0 0 1 1 2 1 1 0 0 0 0 0 0 0 0 0 0 3 43 255 248 153 128 172 255 255 17 14 255 255 175 127 150 246 255 44 3 0 0 0 0 0 0 0 0 0 0 0 1 1 0 0 0 0 0 0 0 0 0 0 0 0 0 0 0 0 0 0 0 1 1 1 1 1 0 0 0 0 0 0 0 0 0 1 6 84 255 198 92 72 125 239 255 38 3 0 0 0 0 0 0 0 0 0 4 58 255 234 147 132 185 255 196 9 0 0 0 0 2 36 255 252 157 127 171 255 255 30 2 0 0 0 0 0 3 50 255 250 157 129 173 255 255 18 1 0 0 0 0 0 0 0 0 0 0 0 0 0 0 0 5 107 255 209 140 142 219 255 66 5 0 0 0 0 0 0 0 0 0 1 18 244 252 172 129 160 255 255 32 6 110 255 210 140 135 207 255 84 6 1 0 0 0 0 0 0 0 0 0 0 1 1 1 11 230 255 190 173 193 208 192 184 181 255 255 27 67 255 224 138 131 191 255 140 7 0 0 0 0 0 0 0 0 0 0 0 0 0 0 0 2 39 255 248 153 131 187 255 212 15 1 0 0 0 0 0 0 0 0 0 0 0 0 0 0 0 1 2 2 2 1 0 0 0 0 0 0 0 0 0 0 5 61 255 223 142 138 204 255 91 4 0 0 0 0 0 0 0 0 0 0 0 0 0 0 0 0 0 0 0 0 0 0 0 0 0 0 0 0 0 0 0 0 0 0 0 0 0 0 0 0 0 0 1 20 255 255 165 128 161 247 255 32 2 0 0 0 0 0 0 0 0 1 6 85 255 215 137 141 220 255 255 154 130 188 255 195 13 1 0 0 0 0 0 0 0
0 0 0 0 0 0 0 0 0 0 1 17 255 228 220 155 68 79 179 231 255 123 7 0 0 0 0 0 0 0 0 0 0 0 0 0 0 0 0 0 0 0 0 0 0 0 0 0 0 0 0 0 0 0 0 0 0 0 0 0 0 0 4 62 255 255 215 221 255 255 94 5 0 0 0 0 0 0 0 0 0 0 0 0 0 0 0 0 0 0 0 0 0 0 0 0 8 147 255 239 197 120 113 152 157 117 115 186 238 248 255 16 1 0 0 0 0 0 0 0 1 11 217 255 239 187 112 111 174 255 132 6 0 0 0 0 0 0 0 0 0 0 0 0 0 0 0 0 0 0 0 0 0 0 0 0 0 5 96 255 191 118 110 177 232 237 253 14 1 0 0 0 0 0 0 0 0 0 0 1 1 1 0 0 0 0 0 0 0 0 0 0 1 22 255 233 227 169 107 121 198 255 63 3 0 0 0 0 0 0 0 0 0 0 0 1 12 248 255 155 103 117 200 241 255 147 8 0 0 0 0 0 0 0 0 0 0 0 1 1 1 0 0 0 0 0 0 0 0 0 0 0 0 0 0 0 0 0 0 0 0 0 0 0 0 0 0 0 0 0 1 16 255 244 235 184 110 108 169 255 178 162 255 177 111 110 183 237 243 255 15 1 0 0 0 0 0 0 0 0 0 0 0 0 0 0 0 0 0 0 0 0 0 0 0 0 0 0 0 0 0 0 0 0 0 0 0 0 0 0 0 0 0 0 0 0 0 2 34 255 226 216 120 77 171 226 242 225 12 1 0 0 0 0 0 0 0 1 23 255 228 228 171 105 114 186 255 89 4 0 0 1 17 255 255 152 103 119 203 241 255 168 9 1 0 0 0 1 21 255 243 236 189 112 110 172 255 189 8 0 0 0 0 0 0 0 0 0 0 0 0 0 0 2 52 255 209 126 105 157 220 226 255 27 1 0 0 0 0 0 0 0 0 6 100 255 234 196 121 106 157 255 255 92 255 214 126 102 151 224 238 255 35 2 0 0 0 0 0 0 0 0 0 0 0 0 5 102 255 183 122 126 124 118 123 132 123 171 255 255 255 232 227 162 103 118 196 255 65 3 0 0 0 0 0 0 0 0 0 0 0 0 0 1 18 255 255 151 106 132 214 247 255 83 5 0 0 0 0 0 0 0 0 0 0 0 0 0 0 0 0 0 1 0 0 0 0 0 0 0 0 0 0 0 1 23 255 226 224 160 105 126 214 255 46 2 0 0 0 0 0 0 0 0 0 0 0 0 0 0 0 0 0 0 0 0 0 0 0 0 0 0 0 0 0 0 0 0 0 0 0 0 0 0 0 0 0 8 173 255 163 107 114 189 234 255 197 10 1 0 0 0 0 0 0 0 2 37 255 236 226 158 107 123 161 133 107 136 215 244 255 76 4 0 0 0 0 0 0 0
0 0 0 0 0 0 0 0 0 0 6 114 255 156 139 141 71 84 142 148 182 255 56 3 0 0 0 0 0 0 0 0 0 0 0 0 0 0 0 0 0 0 0 0 0 0 0 0 0 0 0 0 0 0 0 0 0 0 0 0 0 1 26 255 203 202 255 255 199 188 255 39 2 0 0 0 0 0 0 0 0 0 0 0 0 0 0 0 0 0 0 0 0 0 0 3 60 255 175 153 154 106 67 66 66 66 98 153 150 166 255 129 6 0 0 0 0 0 0 0 4 88 255 174 152 151 98 69 95 179 255 61 3 0 0 0 0 0 0 0 0 0 0 0 0 0 0 0 0 0 0 0 0 0 0 0 2 45 255 194 104 71 91 147 146 160 255 97 5 0 0 0 0 0 0 0 0 0 0 0 0 0 0 0 0 0 0 0 0 0 0 0 8 157 255 162 148 145 87 71 109 211 255 31 1 0 0 0 0 0 0 0 0 0 0 5 94 255 155 85 69 110 157 152 172 255 58 3 0 0 0 0 0 0 0 0 0 0 0 0 0 0 0 0 0 0 0 0 0 0 0 0 0 0 0 0 0 0 0 0 0 0 0 0 0 0 0 0 0 0 6 113 255 163 148 152 97 67 93 183 255 255 192 98 69 98 154 150 164 255 108 6 0 0 0 0 0 0 0 0 0 0 0 0 0 0 0 0 0 0 0 0 0 0 0 0 0 0 0 0 0 0 0 0 0 0 0 0 0 0 0 0 0 0 0 0 1 13 255 242 158 152 165 125 168 147 161 255 83 4 0 0 0 0 0 0 0 8 166 255 158 146 147 87 68 103 198 255 46 2 0 7 157 255 152 83 68 110 155 151 169 255 66 3 0 0 0 9 182 255 163 148 154 99 69 94 175 255 82 4 0 0 0 0 0 0 0 0 0 0 0 0 1 27 255 224 115 72 79 138 146 159 255 212 10 0 0 0 0 0 0 0 2 44 255 184 153 150 110 70 86 159 255 255 245 119 72 77 139 154 167 247 255 15 1 0 0 0 0 0 0 0 0 0 0 2 51 255 191 101 73 78 69 62 70 80 76 97 184 255 255 167 150 147 85 70 109 209 255 32 1 0 0 0 0 0 0 0 0 0 0 0 0 7 155 255 147 83 73 123 155 160 194 255 37 2 0 0 0 0 0 0 0 0 0 0 0 0 0 0 0 0 0 0 0 0 0 0 0 0 0 0 0 0 8 165 255 159 147 141 82 74 120 231 255 20 1 0 0 0 0 0 0 0 0 0 0 0 0 0 0 0 0 0 0 0 0 0 0 0 0 0 0 0 0 0 0 0 0 0 0 0 0 0 0 0 4 77 255 168 90 68 103 151 149 168 255 79 4 0 0 0 0 0 0 1 15 255 243 162 152 144 81 62 66 62 72 129 156 159 197 255 34 2 0 0 0 0 0 0
0 0 0 0 0 0 0 0 0 2 49 255 161 93 79 97 86 93 89 83 109 209 255 26 1 0 0 0 0 0 0 0 0 0 0 0 0 0 0 0 0 0 0 0 0 0 0 0 0 0 0 0 0 0 0 0 0 0 0 0 0 10 206 255 133 126 174 172 120 121 220 255 14 1 0 0 0 0 0 0 0 0 0 0 0 0 0 0 0 0 0 0 0 0 1 26 255 195 107 84 92 80 38 26 26 35 73 93 82 97 172 255 60 3 0 0 0 0 0 2 41 255 183 103 84 93 76 42 49 96 205 255 30 1 0 0 0 0 0 0 0 0 0 0 0 0 0 0 0 0 0 0 0 0 0 1 20 255 221 104 52 41 68 91 81 97 169 255 43 2 0 0 0 0 0 0 0 0 0 0 0 0 0 0 0 0 0 0 0 0 0 3 64 255 157 95 83 93 65 41 56 117 253 255 13 1 0 0 0 0 0 0 0 0 2 41 255 171 81 44 45 89 94 84 105 192 255 24 1 0 0 0 0 0 0 0 0 0 0 0 0 0 0 0 0 0 0 0 0 0 0 0 0 0 0 0 0 0 0 0 0 0 0 0 0 0 0 0 0 2 48 255 165 95 81 94 77 42 49 100 211 216 105 52 43 79 96 83 97 166 255 48 2 0 0 0 0 0 0 0 0 0 0 0 0 0 0 0 0 0 0 0 0 0 0 0 0 0 0 0 0 0 0 0 0 0 0 0 0 0 0 0 0 0 0 0 5 100 255 142 94 97 165 201 125 86 98 173 255 37 2 0 0 0 0 0 3 68 255 154 93 81 94 67 40 53 108 230 255 23 4 66 255 163 78 43 45 86 91 82 101 188 255 30 1 0 4 78 255 161 94 81 94 78 42 48 91 189 255 38 2 0 0 0 0 0 0 0 0 0 0 0 11 247 255 125 59 40 57 91 83 94 151 255 84 4 0 0 0 0 0 1 19 255 217 112 85 90 85 45 45 85 182 243 130 62 40 57 98 89 97 146 255 126 6 0 0 0 0 0 0 0 0 0 1 24 255 219 104 52 39 41 34 29 34 41 41 51 93 163 150 100 86 99 66 41 56 115 251 255 13 1 0 0 0 0 0 0 0 0 0 0 3 68 255 161 75 44 50 92 90 88 117 230 255 15 1 0 0 0 0 0 0 0 0 0 0 0 0 0 0 0 0 0 0 0 0 0 0 0 0 0 0 3 67 255 155 95 83 94 61 42 61 126 255 158 8 0 0 0 0 0 0 0 0 0 0 0 0 0 0 0 0 0 0 0 0 0 0 0 0 0 0 0 0 0 0 0 0 0 0 0 0 0 0 2 39 255 193 89 47 43 81 92 82 101 184 255 36 2 0 0 0 0 0 6 110 255 140 93 86 98 57 30 25 27 47 95 91 88 119 237 255 13 1 0 0 0 0 0
0 0 0 0 0 0 0 0 1 20 255 208 94 51 43 64 115 107 55 44 60 121 255 219 10 0 0 0 0 0 0 0 0 0 0 0 0 0 0 0 0 0 0 0 0 0 0 0 0 0 0 0 0 0 0 0 0 0 0 0 4 84 255 149 79 70 83 81 65 70 129 255 104 5 0 0 0 0 0 0 0 0 0 0 0 0 0 0 0 0 0 0 0 0 10 222 255 114 59 43 48 50 21 11 10 19 47 49 42 53 97 208 255 29 1 0 0 0 1 16 255 227 104 56 43 49 51 25 24 48 116 255 255 13 1 0 0 0 0 0 0 0 0 0 0 0 0 0 0 0 0 0 0 0 0 8 172 255 125 52 26 23 45 49 42 53 99 221 255 18 1 0 0 0 0 0 0 0 0 0 0 0 0 0 0 0 0 0 0 0 1 28 255 192 88 52 43 51 43 23 28 60 140 255 100 5 0 0 0 0 0 0 0 1 17 255 221 96 40 23 30 61 50 43 58 113 255 194 9 0 0 0 0 0 0 0 0 0 0 0 0 0 0 0 0 0 0 0 0 0 0 0 0 0 0 0 0 0 0 0 0 0 0 0 0 0 0 0 1 20 255 209 95 52 41 50 54 26 25 48 86 87 50 26 26 56 52 43 53 96 215 255 22 1 0 0 0 0 0 0 0 0 0 0 0 0 0 0 0 0 0 0 0 0 0 0 0 0 0 0 0 0 0 0 0 0 0 0 0 0 0 0 0 0 0 2 45 255 171 80 53 63 129 176 92 50 55 102 231 255 15 1 0 0 0 1 31 255 190 88 50 42 51 45 23 26 55 129 255 195 45 255 195 87 38 22 29 57 48 42 56 111 252 241 12 2 37 255 192 89 50 41 50 54 26 24 45 104 234 255 16 1 0 0 0 0 0 0 0 0 0 5 100 255 149 64 29 21 37 51 43 51 85 181 255 39 2 0 0 0 0 7 153 255 126 62 44 48 56 29 23 41 77 96 59 30 22 38 57 47 52 81 170 255 58 3 0 0 0 0 0 0 0 0 9 191 255 123 52 25 19 18 14 12 15 18 19 24 41 62 62 51 46 56 47 23 28 59 140 255 115 6 0 0 0 0 0 0 0 0 0 1 33 255 198 87 37 22 32 57 47 45 64 132 255 113 6 0 0 0 0 0 0 0 0 0 0 0 0 0 0 0 0 0 0 0 0 0 0 0 0 0 1 30 255 190 89 52 44 52 40 23 30 65 155 255 67 3 0 0 0 0 0 0 0 0 0 0 0 0 0 0 0 0 0 0 0 0 0 0 0 0 0 0 0 0 0 0 0 0 0 0 0 0 1 16 255 240 108 45 24 27 56 50 42 55 107 236 255 14 1 0 0 0 2 47 255 165 77 49 45 55 36 14 9 12 28 58 48 45 65 135 255 103 5 0 0 0 0 0
0 0 0 0 0 0 0 0 8 155 255 126 53 28 24 51 160 132 40 23 32 67 153 255 87 4 0 0 0 0 0 0 0 0 0 0 0 0 0 0 0 0 0 0 0 0 0 0 0 0 0 0 0 0 0 0 0 0 0 2 40 255 191 88 45 36 36 35 32 40 76 173 255 48 2 0 0 0 0 0 0 0 0 0 0 0 0 0 0 0 0 0 0 5 96 255 154 65 31 21 23 27 11 4 4 9 25 23 20 27 53 122 255 255 12 1 0 0 6 135 255 133 57 29 21 24 30 14 12 24 63 151 255 116 6 0 0 0 0 0 0 0 0 0 0 0 0 0 0 0 0 0 0 0 4 73 255 164 69 26 12 12 25 23 20 29 56 132 255 155 7 0 0 0 0 0 0 0 0 0 0 0 0 0 0 0 0 0 0 0 11 219 255 116 49 27 21 25 24 12 14 31 78 177 255 45 2 0 0 0 0 0 0 7 144 255 132 52 20 11 18 36 26 21 31 65 156 255 80 4 0 0 0 0 0 0 0 0 0 0 0 0 0 0 0 0 0 0 0 0 0 0 0 0 0 0 0 0 0 0 0 0 0 0 0 0 0 0 8 171 255 125 52 27 20 25 33 15 12 20 31 31 21 12 15 34 26 21 28 54 130 255 210 9 0 0 0 0 0 0 0 0 0 0 0 0 0 0 0 0 0 0 0 0 0 0 0 0 0 0 0 0 0 0 0 0 0 0 0 0 0 0 0 0 1 19 255 226 101 45 30 43 90 111 68 31 31 58 139 255 133 6 0 0 1 12 255 255 114 48 26 20 25 26 13 13 28 69 162 255 255 255 116 45 18 11 17 33 24 20 30 63 147 255 103 22 255 246 112 48 26 20 25 31 14 11 22 55 137 255 134 6 0 0 0 0 0 0 0 0 2 47 255 185 82 33 14 11 20 25 21 26 47 107 240 255 17 1 0 0 3 69 255 167 72 34 22 24 32 16 11 17 29 34 24 13 11 22 29 24 26 44 98 217 255 29 1 0 0 0 0 0 0 4 79 255 156 66 26 12 8 7 5 5 5 7 8 10 16 22 23 23 22 29 30 13 13 30 78 180 255 54 3 0 0 0 0 0 0 0 1 14 255 255 116 46 18 11 18 30 23 22 34 76 173 255 51 2 0 0 0 0 0 0 0 0 0 0 0 0 0 0 0 0 0 0 0 0 0 0 0 1 12 255 255 113 50 28 22 26 22 12 15 34 90 202 255 31 1 0 0 0 0 0 0 0 0 0 0 0 0 0 0 0 0 0 0 0 0 0 0 0 0 0 0 0 0 0 0 0 0 0 0 0 7 147 255 139 58 23 12 16 33 25 21 29 59 138 255 109 5 0 0 1 19 255 218 97 42 25 22 27 19 7 4 5 15 30 24 22 35 78 179 255 49 2 0 0 0 0
0 0 0 0 0 0 0 3 66 255 169 76 31 15 16 61 179 167 43 14 17 38 91 195 255 41 2 0 0 0 0 0 0 0 0 0 0 0 0 0 0 0 0 0 0 0 0 0 0 0 0 0 0 0 0 0 0 0 1 17 255 247 117 52 26 17 15 14 15 22 46 109 234 255 23 1 0 0 0 0 0 0 0 0 0 0 0 0 0 0 0 0 2 48 255 200 94 38 16 10 10 11 5 2 2 4 10 10 9 14 29 71 160 255 110 5 0 3 63 255 181 80 32 15 10 11 14 7 6 12 35 88 187 255 54 3 0 0 0 0 0 0 0 0 0 0 0 0 0 0 0 0 0 2 34 255 207 98 39 13 6 6 11 10 9 15 33 79 176 255 69 3 0 0 0 0 0 0 0 0 0 0 0 0 0 0 0 0 0 4 86 255 156 69 28 13 9 11 11 6 6 16 44 108 235 255 21 1 0 0 0 0 3 68 255 181 80 29 10 5 9 18 12 10 16 39 96 201 255 37 2 0 0 0 0 0 0 0 0 0 0 0 0 0 0 0 0 0 0 0 0 0 0 0 0 0 0 0 0 0 0 0 0 0 0 0 0 4 75 255 173 76 30 13 9 11 16 7 5 8 10 10 8 5 8 17 12 10 14 31 78 172 255 89 4 0 0 0 0 0 0 0 0 0 0 0 0 0 0 0 0 0 0 0 0 0 0 0 0 0 0 0 0 0 0 0 0 0 0 0 0 0 0 0 7 147 255 139 60 26 17 30 61 65 50 20 17 34 84 184 255 61 3 0 5 105 255 155 68 27 13 9 11 12 6 6 14 39 101 232 255 171 70 25 9 5 8 15 11 9 16 37 89 195 255 255 255 149 65 26 12 9 11 15 7 5 11 31 82 182 255 62 3 0 0 0 0 0 0 1 21 255 236 111 46 17 6 5 9 10 9 13 26 63 147 255 149 7 0 2 34 255 215 102 42 18 10 11 15 8 5 7 10 11 9 5 5 10 13 11 13 24 57 133 255 239 11 1 0 0 0 0 2 40 255 202 93 37 13 5 3 2 2 2 2 2 3 4 5 7 8 9 10 13 15 7 6 16 44 108 228 255 25 1 0 0 0 0 0 0 6 115 255 154 67 25 9 5 8 13 10 10 18 44 107 227 255 23 1 0 0 0 0 0 0 0 0 0 0 0 0 0 0 0 0 0 0 0 0 0 0 5 107 255 158 68 28 14 10 11 10 6 7 18 52 124 255 246 12 1 0 0 0 0 0 0 0 0 0 0 0 0 0 0 0 0 0 0 0 0 0 0 0 0 0 0 0 0 0 0 0 0 0 3 69 255 182 81 32 11 6 8 16 11 9 15 34 83 182 255 50 2 0 7 145 255 135 57 23 12 10 11 8 3 1 2 7 13 10 10 19 46 111 234 255 22 1 0 0 0
0 0 0 0 0 0 1 31 255 216 107 48 18 8 16 114 161 172 67 11 9 22 56 122 251 255 19 1 0 0 0 0 0 0 0 0 0 0 0 0 0 0 0 0 0 0 0 0 0 0 0 0 0 0 0 0 0 0 7 137 255 153 72 32 14 7 5 5 6 12 29 69 147 255 189 9 0 0 0 0 0 0 0 0 0 0 0 0 0 0 0 1 23 255 246 124 58 23 8 4 4 4 2 1 1 2 3 3 4 6 16 43 98 197 255 53 4 30 255 225 114 50 19 7 4 4 5 3 2 6 20 53 115 233 255 27 1 0 0 0 0 0 0 0 0 0 0 0 0 0 0 0 1 15 255 255 129 59 22 7 2 2 4 4 4 7 19 50 110 219 255 34 2 0 0 0 0 0 0 0 0 0 0 0 0 0 0 0 2 40 255 199 98 43 16 6 4 4 4 2 3 8 26 67 148 255 206 9 0 0 0 1 34 255 225 113 50 17 5 2 4 7 5 4 8 23 60 126 254 255 15 1 0 0 0 0 0 0 0 0 0 0 0 0 0 0 0 0 0 0 0 0 0 0 0 0 0 0 0 0 0 0 0 0 0 0 2 36 255 215 109 48 17 6 4 4 6 3 2 2 3 3 3 2 3 7 5 4 7 18 48 105 207 255 43 2 0 0 0 0 0 0 0 0 0 0 0 0 0 0 0 0 0 0 0 0 0 0 0 0 0 0 0 0 0 0 0 0 0 0 0 0 0 3 67 255 179 86 37 14 10 20 40 39 35 13 9 21 53 114 226 255 29 4 51 255 197 97 42 15 6 4 4 4 2 3 7 23 62 117 146 96 44 14 4 2 3 5 4 4 8 21 56 127 255 255 210 95 40 14 6 3 4 5 3 2 5 17 50 113 226 255 30 1 0 0 0 0 0 8 172 255 147 68 27 8 3 2 3 4 4 6 14 39 91 187 255 69 4 16 255 255 133 63 25 9 4 4 5 3 2 2 3 3 3 2 2 4 5 4 6 13 35 81 166 255 96 5 0 0 0 1 19 255 255 127 57 21 6 2 1 1 1 0 1 1 1 1 2 2 3 3 4 5 6 3 3 8 26 66 142 255 211 10 0 0 0 0 0 3 53 255 191 94 41 14 4 2 3 5 4 4 9 27 66 142 255 201 9 0 0 0 0 0 0 0 0 0 0 0 0 0 0 0 0 0 0 0 0 0 2 50 255 197 99 43 16 6 4 4 3 2 3 10 31 76 161 255 107 5 0 0 0 0 0 0 0 0 0 0 0 0 0 0 0 0 0 0 0 0 0 0 0 0 0 0 0 0 0 0 0 0 1 33 255 223 113 50 18 5 2 3 6 4 4 7 19 52 116 234 255 22 4 65 255 177 85 35 13 5 4 4 3 1 1 1 2 4 4 5 10 28 69 146 255 202 9 0 0 0
0 0 0 0 0 1 13 255 255 138 69 31 10 6 35 255 153 154 190 18 5 13 36 78 159 255 184 8 0 0 0 0 0 0 0 0 0 0 0 0 0 0 0 0 0 0 0 0 0 0 0 0 0 0 0 0 0 3 61 255 188 96 48 20 7 3 2 2 2 6 18 46 92 178 255 80 4 0 0 0 0 0 0 0 0 0 0 0 0 0 0 10 237 255 154 78 38 13 4 2 1 1 1 0 0 0 1 1 1 3 9 27 62 124 240 255 44 255 255 141 72 33 10 3 1 1 1 1 1 3 11 33 73 148 255 251 11 0 0 0 0 0 0 0 0 0 0 0 0 0 0 0 7 142 255 165 81 38 13 3 1 1 1 1 1 3 10 32 70 138 255 255 16 1 0 0 0 0 0 0 0 0 0 0 0 0 0 1 18 255 254 128 64 27 8 3 1 1 1 1 1 4 15 44 94 187 255 97 5 0 1 16 255 255 140 72 33 9 2 1 1 2 2 2 4 14 39 79 158 255 130 6 0 0 0 0 0 0 0 0 0 0 0 0 0 0 0 0 0 0 0 0 0 0 0 0 0 0 0 0 0 0 0 0 0 1 16 255 255 135 69 32 10 3 1 1 2 1 1 1 1 1 1 1 1 2 2 2 3 10 31 66 129 253 255 20 1 0 0 0 0 0 0 0 0 0 0 0 0 0 0 0 0 0 0 0 0 0 0 0 0 0 0 0 0 0 0 0 0 0 0 0 2 35 255 226 114 57 24 8 5 12 25 23 22 7 5 12 34 72 141 255 249 41 255 243 125 63 27 8 3 1 1 1 1 1 3 13 36 56 63 50 27 8 2 1 1 2 1 2 4 12 38 83 148 187 122 63 25 8 2 1 1 2 1 1 3 10 32 72 142 255 255 13 1 0 0 0 4 75 255 179 92 44 16 4 1 1 1 1 1 2 8 25 59 117 226 255 46 164 255 167 84 41 15 4 2 1 2 1 1 1 1 1 1 1 1 1 1 1 2 7 21 52 103 201 255 46 2 0 0 9 200 255 162 81 37 12 3 1 0 0 0 0 0 0 0 0 1 1 1 1 1 2 2 1 1 4 15 42 88 174 255 89 4 0 0 0 1 26 255 236 120 60 25 7 2 1 1 1 1 2 5 16 44 90 179 255 87 4 0 0 0 0 0 0 0 0 0 0 0 0 0 0 0 0 0 0 0 1 23 255 240 124 64 28 9 3 1 1 1 1 1 5 18 49 102 204 255 55 3 0 0 0 0 0 0 0 0 0 0 0 0 0 0 0 0 0 0 0 0 0 0 0 0 0 0 0 0 0 0 1 14 255 255 139 71 32 10 3 1 1 2 1 2 3 11 34 74 148 255 192 48 255 226 114 56 22 7 2 1 1 1 0 0 0 1 1 1 2 5 17 45 92 181 255 87 4 0 0
0 0 0 0 0 5 109 255 168 89 48 20 6 11 147 229 170 169 255 68 6 7 24 54 101 191 255 84 4 0 0 0 0 0 0 0 0 0 0 0 0 0 0 0 0 0 0 0 0 0 0 0 0 0 0 0 1 30 255 227 120 64 33 11 3 1 1 1 1 3 10 32 62 112 214 255 40 2 0 0 0 0 0 0 0 0 0 0 0 0 5 113 255 185 97 52 24 7 2 1 0 0 0 0 0 0 0 0 0 1 4 17 42 79 153 255 255 255 174 90 49 21 6 1 1 0 0 0 0 1 6 21 49 94 178 255 108 5 0 0 0 0 0 0 0 0 0 0 0 0 0 3 70 255 200 105 55 25 7 2 0 0 0 0 1 1 6 21 48 88 169 255 157 7 0 0 0 0 0 0 0 0 0 0 0 0 0 8 162 255 161 84 44 17 4 1 0 0 0 0 1 2 9 30 63 117 219 255 52 3 7 152 255 169 89 49 21 5 1 0 0 1 1 1 2 7 25 54 102 196 255 65 3 0 0 0 0 0 0 0 0 0 0 0 0 0 0 0 0 0 0 0 0 0 0 0 0 0 0 0 0 0 0 0 0 7 153 255 166 86 47 20 5 1 1 0 0 0 0 0 0 0 0 0 0 1 0 1 1 5 19 44 82 159 255 188 9 0 0 0 0 0 0 0 0 0 0 0 0 0 0 0 0 0 0 0 0 0 0 0 0 0 0 0 0 0 0 0 0 0 0 1 16 255 255 145 76 39 14 4 3 6 12 12 11 4 2 6 22 49 90 174 255 255 255 154 81 43 17 4 1 0 0 0 0 0 2 7 19 25 26 24 14 4 1 0 0 0 0 1 2 7 26 54 74 83 67 43 16 4 1 0 0 0 0 0 1 5 20 48 90 174 255 130 6 0 0 2 39 255 219 114 61 29 9 2 1 0 0 0 0 1 4 15 40 76 143 255 255 255 201 105 57 27 8 2 1 0 0 0 0 0 0 0 0 0 0 0 0 0 1 3 12 35 68 129 250 255 23 1 4 89 255 192 102 55 25 7 2 0 0 0 0 0 0 0 0 0 0 0 0 0 0 0 0 0 1 2 8 28 59 110 211 255 45 2 0 0 11 251 255 150 78 41 15 4 1 0 0 0 0 1 2 9 30 61 114 214 255 44 2 0 0 0 0 0 0 0 0 0 0 0 0 0 0 0 0 0 0 10 207 255 152 80 43 18 5 1 1 0 0 0 1 3 11 34 68 130 246 255 29 1 0 0 0 0 0 0 0 0 0 0 0 0 0 0 0 0 0 0 0 0 0 0 0 0 0 0 0 0 0 6 130 255 167 87 47 20 5 1 0 0 0 0 1 2 6 22 51 95 184 255 255 255 146 76 39 14 3 1 0 0 0 0 0 0 0 0 0 1 2 9 30 62 114 214 255 43 2 0
0 0 0 0 2 53 255 199 106 60 34 12 6 60 255 177 175 183 200 255 29 5 15 39 67 118 219 255 43 2 0 0 0 0 0 0 0 0 0 0 0 0 0 0 0 0 0 0 0 0 0 0 0 0 0 1 13 255 255 143 77 45 22 6 2 0 0 0 0 1 6 21 43 73 135 255 255 18 1 0 0 0 0 0 0 0 0 0 0 3 59 255 213 114 64 37 15 4 1 0 0 0 0 0 0 0 0 0 0 1 2 10 29 54 99 193 255 225 114 61 34 13 3 1 0 0 0 0 0 1 3 12 35 62 110 205 255 52 2 0 0 0 0 0 0 0 0 0 0 0 2 36 255 230 124 69 40 15 4 1 0 0 0 0 0 1 3 12 34 60 105 196 255 73 3 0 0 0 0 0 0 0 0 0 0 0 4 77 255 189 101 58 31 10 2 1 0 0 0 0 0 1 5 20 44 75 134 251 255 32 73 255 195 104 59 34 12 3 1 0 0 0 0 0 1 4 16 39 68 124 235 255 35 1 0 0 0 0 0 0 0 0 0 0 0 0 0 0 0 0 0 0 0 0 0 0 0 0 0 0 0 0 0 0 3 69 255 192 103 59 33 12 3 1 0 0 0 0 0 0 0 0 0 0 0 0 0 0 1 3 11 31 56 99 186 255 81 4 0 0 0 0 0 0 0 0 0 0 0 0 0 0 0 0 0 0 0 0 0 0 0 0 0 0 0 0 0 0 0 0 0 7 149 255 167 91 53 28 8 2 1 2 4 5 4 2 1 3 13 34 61 114 228 255 194 100 56 30 10 2 1 0 0 0 0 0 1 3 8 10 10 10 6 2 0 0 0 0 0 0 1 4 16 33 35 36 35 27 9 2 1 0 0 0 0 0 1 3 12 34 61 108 203 255 65 3 1 19 255 255 138 74 42 19 5 1 0 0 0 0 0 0 2 9 28 52 92 180 255 254 128 69 40 17 4 1 0 0 0 0 0 0 0 0 0 0 0 0 0 0 0 2 7 23 47 83 157 255 229 12 45 255 215 117 66 39 15 4 1 0 0 0 0 0 0 0 0 0 0 0 0 0 0 0 0 0 0 1 4 18 41 72 132 254 255 23 1 5 107 255 179 95 54 28 9 2 0 0 0 0 0 0 1 5 19 44 74 133 255 255 22 1 0 0 0 0 0 0 0 0 0 0 0 0 0 0 0 0 4 89 255 180 96 55 29 10 2 1 0 0 0 0 0 1 6 23 48 83 152 255 255 12 1 0 0 0 0 0 0 0 0 0 0 0 0 0 0 0 0 0 0 0 0 0 0 0 0 0 0 0 3 62 255 197 104 58 32 12 3 1 0 0 0 0 0 1 3 14 37 65 121 243 255 181 95 54 28 8 2 0 0 0 0 0 0 0 0 0 0 0 1 5 20 43 73 133 254 255 20 1
0 0 0 1 28 255 243 125 69 43 24 8 30 255 222 150 161 166 161 255 226 14 9 27 46 74 135 255 255 21 1 0 0 0 0 0 0 0 0 0 0 0 0 0 0 0 0 0 0 0 0 0 0 0 0 6 117 255 172 90 53 32 13 3 1 0 0 0 0 1 3 12 31 51 85 159 255 146 7 0 0 0 0 0 0 0 0 0 1 31 255 243 130 72 44 26 8 2 0 0 0 0 0 0 0 0 0 0 0 0 1 5 18 40 66 106 148 117 74 45 23 7 2 0 0 0 0 0 0 0 2 7 24 43 70 127 239 255 24 1 0 0 0 0 0 0 0 0 0 1 17 255 255 142 78 48 28 9 2 0 0 0 0 0 0 0 2 7 23 42 67 120 224 255 36 2 0 0 0 0 0 0 0 0 0 2 41 255 225 118 67 42 21 5 1 0 0 0 0 0 0 1 3 12 31 50 83 155 255 255 255 228 120 67 42 22 7 1 0 0 0 0 0 0 0 2 9 29 48 79 146 255 255 16 1 0 0 0 0 0 0 0 0 0 0 0 0 0 0 0 0 0 0 0 0 0 0 0 0 0 0 0 0 1 33 255 223 119 67 42 22 6 1 0 0 0 0 0 0 0 0 0 0 0 0 0 0 0 0 1 6 20 40 65 114 214 255 39 2 0 0 0 0 0 0 0 0 0 0 0 0 0 0 0 0 0 0 0 0 0 0 0 0 0 0 0 0 0 0 0 3 68 255 193 102 60 39 18 4 1 0 1 1 1 1 1 1 2 7 24 45 75 119 152 107 66 41 20 5 1 0 0 0 0 0 0 0 1 3 3 3 3 2 1 0 0 0 0 0 0 0 2 8 17 16 15 16 14 5 1 0 0 0 0 0 0 0 1 6 22 43 70 125 235 255 35 10 182 255 165 87 52 30 11 3 1 0 0 0 0 0 0 1 5 17 38 62 103 152 128 80 49 29 10 2 1 0 0 0 0 0 0 0 0 0 0 0 0 0 0 0 1 4 14 34 57 98 184 255 180 255 255 132 73 46 27 9 2 0 0 0 0 0 0 0 0 0 0 0 0 0 0 0 0 0 0 0 1 2 10 29 50 84 158 255 215 13 52 255 205 110 63 39 18 5 1 0 0 0 0 0 0 1 3 11 31 51 84 159 255 231 10 0 0 0 0 0 0 0 0 0 0 0 0 0 0 0 2 44 255 211 112 63 40 19 5 1 0 0 0 0 0 0 1 3 14 35 56 93 173 255 105 5 0 0 0 0 0 0 0 0 0 0 0 0 0 0 0 0 0 0 0 0 0 0 0 0 0 0 1 31 255 232 123 68 41 21 6 1 0 0 0 0 0 0 0 2 8 26 48 79 124 148 103 64 41 18 4 1 0 0 0 0 0 0 0 0 0 0 0 1 3 11 31 50 83 158 255 201 9
0 0 1 12 255 255 156 83 50 32 15 16 239 255 157 132 145 144 133 182 255 110 11 18 33 51 86 163 255 191 9 0 0 0 0 0 0 0 0 0 0 0 0 0 0 0 0 0 0 0 0 0 0 0 3 55 255 204 110 62 40 22 7 2 0 0 0 0 0 0 1 6 21 38 59 102 191 255 65 3 0 0 0 0 0 0 0 1 14 255 255 153 82 50 32 16 4 1 0 0 0 0 0 0 0 0 0 0 0 0 1 3 11 29 45 57 66 60 49 35 14 4 1 0 0 0 0 0 0 0 1 4 15 31 49 82 152 255 207 10 0 0 0 0 0 0 0 0 0 8 168 255 170 90 53 35 18 5 1 0 0 0 0 0 0 0 1 3 14 31 47 77 142 255 255 16 1 0 0 0 0 0 0 0 1 20 255 255 144 78 48 31 13 3 1 0 0 0 0 0 0 0 1 6 20 36 56 99 195 255 255 151 78 47 31 13 3 1 0 0 0 0 0 0 0 1 5 19 36 55 93 172 255 146 7 0 0 0 0 0 0 0 0 0 0 0 0 0 0 0 0 0 0 0 0 0 0 0 0 0 0 0 1 14 255 255 143 77 47 31 13 3 1 0 0 0 0 0 0 0 0 0 0 0 0 0 0 0 0 1 3 12 29 46 74 137 255 255 18 1 0 0 0 0 0 0 0 0 0 0 0 0 0 0 0 0 0 0 0 0 0 0 0 0 0 0 0 0 0 1 34 255 229 123 68 43 28 10 2 1 0 0 0 0 0 0 0 1 4 15 35 50 61 68 58 46 31 12 3 1 0 0 0 0 0 0 0 0 1 1 1 1 1 0 0 0 0 0 0 0 0 1 3 6 6 6 6 5 2 0 0 0 0 0 0 0 0 1 3 13 32 49 80 149 255 255 133 255 192 104 60 38 19 6 1 0 0 0 0 0 0 0 1 2 10 28 44 58 68 63 51 36 19 5 1 0 0 0 0 0 0 0 0 0 0 0 0 0 0 0 0 0 2 8 24 42 66 118 232 255 255 167 85 50 32 16 5 1 0 0 0 0 0 0 0 0 0 0 0 0 0 0 0 0 0 0 0 0 1 5 19 37 58 100 185 255 182 255 248 130 72 45 28 10 2 1 0 0 0 0 0 0 0 1 6 21 37 58 101 190 255 101 5 0 0 0 0 0 0 0 0 0 0 0 0 0 1 19 255 255 136 74 45 29 11 3 1 0 0 0 0 0 0 0 2 8 25 40 62 109 206 255 51 2 0 0 0 0 0 0 0 0 0 0 0 0 0 0 0 0 0 0 0 0 0 0 0 0 1 13 255 255 148 80 48 30 12 3 1 0 0 0 0 0 0 0 1 4 16 37 52 62 66 57 45 30 10 2 0 0 0 0 0 0 0 0 0 0 0 0 0 1 6 21 37 57 101 192 255 110
0 0 6 121 255 186 105 63 40 24 15 122 255 187 121 132 140 135 123 132 223 255 68 13 24 40 63 108 195 255 90 4 0 0 0 0 0 0 0 0 0 0 0 0 0 0 0 0 0 0 0 0 0 1 27 255 246 135 77 49 31 14 4 1 0 0 0 0 0 0 1 3 13 30 46 73 128 233 255 31 1 0 0 0 0 0 0 6 124 255 182 100 59 38 23 9 2 0 0 0 0 0 0 0 0 0 0 0 0 0 0 1 6 20 31 31 30 31 33 26 8 2 0 0 0 0 0 0 0 0 0 2 8 21 38 60 103 188 255 90 4 0 0 0 0 0 0 0 4 81 255 203 112 65 41 25 10 2 1 0 0 0 0 0 0 0 0 2 7 22 37 57 96 174 255 161 7 0 0 0 0 0 0 0 9 195 255 172 97 59 38 22 7 2 0 0 0 0 0 0 0 0 1 3 11 27 44 72 122 187 169 104 59 36 22 7 2 0 0 0 0 0 0 0 0 1 3 11 28 44 67 112 202 255 65 3 0 0 0 0 0 0 0 0 0 0 0 0 0 0 0 0 0 0 0 0 0 0 0 0 0 0 6 127 255 176 97 57 37 23 7 2 0 0 0 0 0 0 0 0 0 0 0 0 0 0 0 0 0 0 1 6 20 35 56 94 172 255 174 8 0 0 0 0 0 0 0 0 0 0 0 0 0 0 0 0 0 0 0 0 0 0 0 0 0 0 0 0 1 15 255 255 151 84 52 33 19 5 1 0 0 0 0 0 0 0 0 0 2 8 26 34 32 31 32 32 21 6 1 0 0 0 0 0 0 0 0 0 0 0 0 0 0 0 0 0 0 0 0 0 0 0 1 2 2 2 2 2 1 0 0 0 0 0 0 0 0 0 2 7 23 38 59 100 185 255 255 247 127 73 47 30 11 3 1 0 0 0 0 0 0 0 0 1 5 18 32 33 31 31 33 26 11 3 1 0 0 0 0 0 0 0 0 0 0 0 0 0 0 0 0 0 1 4 15 33 51 83 147 240 200 115 64 39 23 9 2 1 0 0 0 0 0 0 0 0 0 0 0 0 0 0 0 0 0 0 0 0 1 3 11 28 46 71 123 241 255 255 167 90 54 35 19 5 1 0 0 0 0 0 0 0 0 1 3 12 28 46 72 123 220 255 51 2 0 0 0 0 0 0 0 0 0 0 0 0 8 167 255 166 92 56 36 21 6 1 0 0 0 0 0 0 0 0 1 4 15 30 47 76 137 254 255 26 1 0 0 0 0 0 0 0 0 0 0 0 0 0 0 0 0 0 0 0 0 0 0 0 6 125 255 181 100 59 37 21 6 2 0 0 0 0 0 0 0 0 0 2 9 28 35 31 31 32 32 21 6 1 0 0 0 0 0 0 0 0 0 0 0 0 0 1 3 12 27 46 73 127 236 255
0 3 61 255 221 127 82 59 37 20 79 255 226 135 117 161 162 154 142 115 154 255 255 49 18 36 57 83 133 236 255 50 2 0 0 0 0 0 0 0 0 0 0 0 0 0 0 0 0 0 0 0 0 11 238 255 167 99 67 46 24 7 2 0 0 0 0 0 0 0 0 2 7 23 42 65 96 160 255 255 14 1 0 0 0 0 3 59 255 214 124 78 53 32 15 4 1 0 0 0 0 0 0 0 0 0 0 0 0 0 0 1 3 11 19 16 14 16 20 16 4 1 0 0 0 0 0 0 0 0 0 1 4 13 33 55 82 131 229 255 46 2 0 0 0 0 0 2 43 255 241 138 85 59 36 16 5 1 0 0 0 0 0 0 0 0 0 1 4 13 31 52 77 122 214 255 78 4 0 0 0 0 0 4 88 255 205 118 77 55 33 14 3 1 0 0 0 0 0 0 0 0 0 1 6 19 41 63 81 94 90 78 56 31 13 3 1 0 0 0 0 0 0 0 0 0 1 6 19 39 59 85 137 240 255 32 1 0 0 0 0 0 0 0 0 0 0 0 0 0 0 0 0 0 0 0 0 0 0 0 0 3 63 255 216 123 78 53 31 14 4 1 0 0 0 0 0 0 0 0 0 0 0 0 0 0 0 0 0 0 1 3 12 28 51 77 121 209 255 83 4 0 0 0 0 0 0 0 0 0 0 0 0 0 0 0 0 0 0 0 0 0 0 0 0 0 0 0 7 141 255 186 108 70 49 26 10 3 1 0 0 0 0 0 0 0 0 0 1 4 16 21 16 14 17 20 12 3 1 0 0 0 0 0 0 0 0 0 0 0 0 0 0 0 0 0 0 0 0 0 0 0 0 1 1 1 1 0 0 0 0 0 0 0 0 0 0 0 1 4 14 32 54 80 130 220 255 163 97 64 42 22 6 1 0 0 0 0 0 0 0 0 0 1 3 10 21 18 14 15 20 15 5 1 0 0 0 0 0 0 0 0 0 0 0 0 0 0 0 0 0 0 0 2 9 26 48 71 96 119 109 86 60 34 14 4 1 0 0 0 0 0 0 0 0 0 0 0 0 0 0 0 0 0 0 0 0 0 0 1 6 20 42 63 95 157 245 200 121 76 50 28 11 3 1 0 0 0 0 0 0 0 0 0 2 6 20 43 63 91 148 255 255 28 1 0 0 0 0 0 0 0 0 0 0 4 75 255 202 117 76 52 30 13 3 1 0 0 0 0 0 0 0 0 0 2 8 22 44 66 101 172 255 255 12 1 0 0 0 0 0 0 0 0 0 0 0 0 0 0 0 0 0 0 0 0 0 3 63 255 217 125 80 54 32 13 3 1 0 0 0 0 0 0 0 0 0 1 5 17 22 16 14 18 21 11 3 1 0 0 0 0 0 0 0 0 0 0 0 0 0 0 2 6 20 43 64 95 161 255
1 33 255 255 155 105 89 83 46 70 255 255 160 122 167 219 218 214 206 144 125 181 255 255 42 41 79 88 108 165 255 255 28 1 0 0 0 0 0 0 0 0 0 0 0 0 0 0 0 0 0 0 5 103 255 200 125 95 85 58 18 4 1 0 0 0 0 0 0 0 0 1 4 17 50 86 95 122 196 255 131 6 0 0 0 1 32 255 255 152 102 85 69 30 9 2 0 0 0 0 0 0 0 0 0 0 0 0 0 0 0 0 1 4 8 7 6 7 10 7 2 0 0 0 0 0 0 0 0 0 0 0 2 7 32 73 91 108 162 255 255 23 1 0 0 0 1 21 255 255 167 109 89 79 39 10 2 1 0 0 0 0 0 0 0 0 0 0 2 8 28 70 88 104 151 249 255 41 2 0 0 0 2 44 255 239 145 101 87 78 32 8 2 0 0 0 0 0 0 0 0 0 0 1 3 13 51 78 65 54 56 75 79 30 8 2 0 0 0 0 0 0 0 0 0 0 1 3 13 43 79 89 109 169 255 255 15 1 0 0 0 0 0 0 0 0 0 0 0 0 0 0 0 0 0 0 0 0 0 0 1 33 255 255 154 105 90 74 28 8 2 0 0 0 0 0 0 0 0 0 0 0 0 0 0 0 0 0 0 0 0 2 7 24 69 91 104 149 246 255 44 2 0 0 0 0 0 0 0 0 0 0 0 0 0 0 0 0 0 0 0 0 0 0 0 0 0 3 67 255 219 135 98 86 68 21 5 1 0 0 0 0 0 0 0 0 0 0 0 2 7 10 7 6 8 10 5 1 0 0 0 0 0 0 0 0 0 0 0 0 0 0 0 0 0 0 0 0 0 0 0 0 0 0 0 0 0 0 0 0 0 0 0 0 0 0 0 0 0 2 8 29 74 92 105 125 137 114 97 83 49 16 3 1 0 0 0 0 0 0 0 0 0 0 1 4 10 8 6 7 9 7 2 1 0 0 0 0 0 0 0 0 0 0 0 0 0 0 0 0 0 0 0 1 5 20 61 87 74 66 67 81 87 38 9 2 0 0 0 0 0 0 0 0 0 0 0 0 0 0 0 0 0 0 0 0 0 0 0 1 3 14 48 82 96 109 127 117 103 94 66 24 6 1 0 0 0 0 0 0 0 0 0 0 1 3 14 54 80 90 114 182 255 255 12 1 0 0 0 0 0 0 0 0 2 38 255 243 146 102 89 70 27 7 2 0 0 0 0 0 0 0 0 0 0 1 4 16 55 86 96 127 204 255 122 6 0 0 0 0 0 0 0 0 0 0 0 0 0 0 0 0 0 0 0 0 1 35 255 255 154 104 89 71 29 8 2 0 0 0 0 0 0 0 0 0 0 1 2 8 10 7 6 8 10 5 1 0 0 0 0 0 0 0 0 0 0 0 0 0 0 0 1 3 14 54 85 96 119 154
17 255 255 180 126 127 182 244 216 255 255 182 133 166 252 244 245 250 251 234 143 137 200 255 255 137 236 173 125 130 189 255 255 14 1 0 0 0 0 0 0 0 0 0 0 0 0 0 0 0 0 2 53 255 232 147 121 155 211 153 20 3 0 0 0 0 0 0 0 0 0 0 2 16 115 224 161 123 146 228 255 65 3 0 1 15 255 255 181 125 124 178 200 43 6 1 0 0 0 0 0 0 0 0 0 0 0 0 0 0 0 0 1 2 3 2 2 2 3 2 1 0 0 0 0 0 0 0 0 0 0 0 1 6 49 212 184 127 130 189 255 233 10 0 0 0 10 228 255 190 129 122 168 229 72 9 1 0 0 0 0 0 0 0 0 0 0 0 1 5 38 210 193 131 125 172 255 255 20 1 0 1 21 255 255 168 122 130 191 233 49 6 1 0 0 0 0 0 0 0 0 0 0 0 2 14 132 192 84 40 47 130 228 47 6 1 0 0 0 0 0 0 0 0 0 0 0 2 11 79 219 171 122 133 202 255 165 7 0 0 0 0 0 0 0 0 0 0 0 0 0 0 0 0 0 0 0 0 0 1 16 255 255 178 127 132 193 224 39 6 1 0 0 0 0 0 0 0 0 0 0 0 0 0 0 0 0 0 0 0 0 1 4 31 207 199 132 124 171 255 255 22 1 0 0 0 0 0 0 0 0 0 0 0 0 0 0 0 0 0 0 0 0 0 0 0 2 36 255 254 157 121 142 209 221 28 4 1 0 0 0 0 0 0 0 0 0 0 0 1 2 3 3 2 3 3 2 1 0 0 0 0 0 0 0 0 0 0 0 0 0 0 0 0 0 0 0 0 0 0 0 0 0 0 0 0 0 0 0 0 0 0 0 0 0 0 0 0 0 1 6 42 222 195 117 83 80 99 162 220 103 14 2 0 0 0 0 0 0 0 0 0 0 0 0 2 3 3 2 2 3 2 1 0 0 0 0 0 0 0 0 0 0 0 0 0 0 0 0 0 0 0 0 1 3 22 160 198 89 47 57 133 248 80 8 1 0 0 0 0 0 0 0 0 0 0 0 0 0 0 0 0 0 0 0 0 0 0 0 0 2 13 101 217 165 96 76 81 126 217 198 29 4 1 0 0 0 0 0 0 0 0 0 0 0 2 16 144 209 158 120 137 206 255 130 6 0 0 0 0 0 0 0 1 19 255 255 172 125 135 197 205 35 5 1 0 0 0 0 0 0 0 0 0 0 0 2 18 159 226 150 120 148 234 255 64 3 0 0 0 0 0 0 0 0 0 0 0 0 0 0 0 0 0 0 1 18 255 255 181 127 128 186 199 40 6 1 0 0 0 0 0 0 0 0 0 0 0 1 3 4 3 2 3 3 2 1 0 0 0 0 0 0 0 0 0 0 0 0 0 0 0 0 2 16 149 221 161 109 91
219 255 188 125 127 220 255 255 255 255 185 126 136 219 222 201 199 203 210 232 194 122 131 202 255 255 255 255 206 123 128 195 255 156 7 0 0 0 0 0 0 0 0 0 0 0 0 0 0 0 1 29 255 255 152 119 161 255 255 255 71 5 0 0 0 0 0 0 0 0 0 0 4 52 255 255 255 170 120 149 241 255 32 2 7 145 255 189 127 129 221 255 255 213 13 1 0 0 0 0 0 0 0 0 0 0 0 0 0 0 0 0 0 0 1 1 1 1 1 1 0 0 0 0 0 0 0 0 0 0 0 0 1 16 255 255 255 208 126 130 198 255 104 5 0 5 105 255 202 129 120 197 255 255 255 28 2 0 0 0 0 0 0 0 0 0 0 0 1 11 179 255 255 227 129 122 179 255 189 9 1 8 180 255 174 121 132 237 255 255 246 16 1 0 0 0 0 0 0 0 0 0 0 0 4 59 255 255 248 58 89 255 255 250 16 1 0 0 0 0 0 0 0 0 0 0 0 2 30 255 255 255 199 124 136 212 255 79 4 0 0 0 0 0 0 0 0 0 0 0 0 0 0 0 0 0 0 0 0 8 177 255 188 125 130 224 255 255 182 11 1 0 0 0 0 0 0 0 0 0 0 0 0 0 0 0 0 0 0 0 0 1 8 130 255 255 227 132 122 176 255 224 10 0 0 0 0 0 0 0 0 0 0 0 0 0 0 0 0 0 0 0 0 0 0 1 16 255 255 164 119 144 255 255 255 128 8 1 0 0 0 0 0 0 0 0 0 0 0 0 1 1 1 1 1 1 1 0 0 0 0 0 0 0 0 0 0 0 0 0 0 0 0 0 0 0 0 0 0 0 0 0 0 0 0 0 0 0 0 0 0 0 0 0 0 0 0 0 0 1 13 206 255 255 196 76 60 131 255 255 255 43 3 0 0 0 0 0 0 0 0 0 0 0 0 0 1 1 1 1 1 1 0 0 0 0 0 0 0 0 0 0 0 0 0 0 0 0 0 0 0 0 0 0 5 77 255 255 220 59 99 255 255 255 35 2 0 0 0 0 0 0 0 0 0 0 0 0 0 0 0 0 0 0 0 0 0 0 0 0 3 41 255 255 255 133 59 82 217 255 255 118 8 1 0 0 0 0 0 0 0 0 0 0 0 4 62 255 255 255 182 118 136 218 255 67 3 0 0 0 0 0 0 9 197 255 183 125 136 238 255 255 149 10 1 0 0 0 0 0 0 0 0 0 0 0 4 71 255 255 255 156 118 152 248 255 34 1 0 0 0 0 0 0 0 0 0 0 0 0 0 0 0 0 0 8 171 255 186 126 129 220 255 255 175 11 1 0 0 0 0 0 0 0 0 0 0 0 0 1 1 1 1 1 1 1 0 0 0 0 0 0 0 0 0 0 0 0 0 0 0 0 0 4 65 255 255 255 147 67
255 189 105 85 134 211 211 209 213 157 100 85 129 165 140 127 123 125 132 150 168 110 82 110 183 242 217 213 207 123 83 107 188 255 72 3 0 0 0 0 0 0 0 0 0 0 0 0 0 1 13 255 255 144 91 100 180 209 206 220 255 30 2 0 0 0 0 0 0 0 0 1 22 255 235 205 206 184 103 89 135 255 255 18 65 255 180 105 87 139 215 214 220 255 87 5 0 0 0 0 0 0 0 0 0 0 0 0 0 0 0 0 0 0 0 0 0 0 0 0 0 0 0 0 0 0 0 0 0 0 0 0 6 104 255 216 206 203 127 86 110 194 255 49 5 52 255 197 112 84 120 206 211 212 255 186 10 1 0 0 0 0 0 0 0 0 0 0 4 73 255 214 206 208 138 85 100 172 255 81 8 73 255 169 99 87 147 214 206 208 255 95 5 0 0 0 0 0 0 0 0 0 0 1 26 255 230 221 255 254 255 225 210 255 108 6 0 0 0 0 0 0 0 0 0 0 1 10 186 255 213 211 206 121 87 117 207 255 39 2 0 0 0 0 0 0 0 0 0 0 0 0 0 0 0 0 0 0 4 78 255 184 105 86 136 206 203 208 255 75 4 0 0 0 0 0 0 0 0 0 0 0 0 0 0 0 0 0 0 0 0 3 54 255 209 202 207 142 86 99 172 255 98 5 0 0 0 0 0 0 0 0 0 0 0 0 0 0 0 0 0 0 0 0 0 7 135 255 154 94 92 162 211 204 208 255 52 3 0 0 0 0 0 0 0 0 0 0 0 0 0 0 0 0 0 0 0 0 0 0 0 0 0 0 0 0 0 0 0 0 0 0 0 0 0 0 0 0 0 0 0 0 0 0 0 0 0 0 0 0 0 0 0 0 0 0 0 0 0 4 83 255 209 200 204 100 66 175 202 206 240 255 16 1 0 0 0 0 0 0 0 0 0 0 0 0 0 0 0 0 0 0 0 0 0 0 0 0 0 0 0 0 0 0 0 0 0 0 0 0 0 0 0 2 32 255 216 209 253 191 255 221 204 255 255 14 1 0 0 0 0 0 0 0 0 0 0 0 0 0 0 0 0 0 0 0 0 0 0 1 15 255 241 208 202 182 71 117 202 195 209 255 49 3 0 0 0 0 0 0 0 0 0 0 1 26 255 223 212 216 199 108 85 121 218 255 33 1 0 0 0 0 4 84 255 175 103 89 147 209 204 211 255 62 3 0 0 0 0 0 0 0 0 0 0 1 30 255 218 203 209 176 97 89 138 255 255 15 1 0 0 0 0 0 0 0 0 0 0 0 0 0 0 0 4 75 255 176 103 85 136 209 207 215 255 72 4 0 0 0 0 0 0 0 0 0 0 0 0 0 0 0 0 0 0 0 0 0 0 0 0 0 0 0 0 0 0 0 0 0 0 0 1 29 255 221 205 204 178 67
195 97 54 56 110 123 107 98 88 66 48 53 92 90 73 66 63 63 68 78 98 82 48 52 77 101 104 110 124 102 52 53 95 193 255 33 2 0 0 0 0 0 0 0 0 0 0 0 0 6 122 255 145 72 51 77 124 112 105 129 240 217 11 1 0 0 0 0 0 0 0 8 164 255 139 106 110 122 79 50 67 137 255 255 255 194 92 53 57 114 126 111 120 181 255 40 2 0 0 0 0 0 0 0 0 0 0 0 0 0 0 0 0 0 0 0 0 0 0 0 0 0 0 0 0 0 0 0 0 0 0 2 45 255 169 116 108 121 103 55 56 100 210 255 56 255 213 101 56 53 101 127 111 110 150 255 72 4 0 0 0 0 0 0 0 0 0 2 33 255 186 118 106 120 112 58 52 87 183 255 104 255 181 87 52 61 119 121 106 112 168 255 40 2 0 0 0 0 0 0 0 0 0 9 187 255 136 120 169 255 255 138 119 175 255 50 2 0 0 0 0 0 0 0 0 0 4 72 255 148 110 110 125 98 53 58 108 230 255 17 1 0 0 0 0 0 0 0 0 0 0 0 0 0 0 0 0 2 35 255 187 92 54 57 109 118 105 115 185 255 35 2 0 0 0 0 0 0 0 0 0 0 0 0 0 0 0 0 0 0 1 25 255 199 119 105 119 114 59 52 87 180 255 46 2 0 0 0 0 0 0 0 0 0 0 0 0 0 0 0 0 0 0 0 3 60 255 159 77 50 68 122 115 103 117 198 255 22 1 0 0 0 0 0 0 0 0 0 0 0 0 0 0 0 0 0 0 0 0 0 0 0 0 0 0 0 0 0 0 0 0 0 0 0 0 0 0 0 0 0 0 0 0 0 0 0 0 0 0 0 0 0 0 0 0 0 0 0 2 38 255 179 114 105 126 137 100 140 111 107 142 255 113 6 0 0 0 0 0 0 0 0 0 0 0 0 0 0 0 0 0 0 0 0 0 0 0 0 0 0 0 0 0 0 0 0 0 0 0 0 0 0 1 12 242 234 129 115 163 255 241 133 110 147 255 103 5 0 0 0 0 0 0 0 0 0 0 0 0 0 0 0 0 0 0 0 0 0 0 6 112 255 142 107 111 146 121 154 120 102 119 202 255 20 1 0 0 0 0 0 0 0 0 0 9 186 252 131 107 114 128 89 50 60 114 243 255 14 1 0 0 2 39 255 182 88 53 61 115 118 105 119 193 255 28 1 0 0 0 0 0 0 0 0 1 11 212 238 126 103 113 125 75 49 68 136 255 122 6 0 0 0 0 0 0 0 0 0 0 0 0 0 0 2 36 255 187 89 52 56 110 122 108 120 188 255 34 2 0 0 0 0 0 0 0 0 0 0 0 0 0 0 0 0 0 0 0 0 0 0 0 0 0 0 0 0 0 0 0 0 0 1 11 221 248 129 103 110 130 79
74 43 26 35 68 59 47 39 32 25 21 29 51 42 33 29 27 27 30 36 47 49 26 22 29 37 42 49 60 65 31 25 44 102 236 255 13 1 0 0 0 0 0 0 0 0 0 0 3 57 255 167 72 34 27 51 65 52 48 67 133 255 86 4 0 0 0 0 0 0 3 65 255 147 72 49 51 62 51 27 32 71 182 255 255 110 44 26 35 70 61 51 58 101 223 255 18 1 0 0 0 0 0 0 0 0 0 0 0 0 0 0 0 0 0 0 0 0 0 0 0 0 0 0 0 0 0 0 0 0 1 20 255 209 94 55 50 59 65 33 27 48 115 255 255 255 117 48 27 32 67 63 51 52 81 176 255 33 2 0 0 0 0 0 0 0 1 13 255 236 105 58 49 57 68 36 25 42 100 255 255 255 101 42 26 39 71 58 48 54 95 212 255 15 1 0 0 0 0 0 0 0 4 72 255 138 71 60 92 155 136 76 62 98 208 255 22 1 0 0 0 0 0 0 0 2 34 255 176 81 51 50 61 63 30 27 52 126 255 140 7 0 0 0 0 0 0 0 0 0 0 0 0 0 0 0 1 14 255 228 99 43 26 35 66 57 48 57 105 234 255 14 1 0 0 0 0 0 0 0 0 0 0 0 0 0 0 0 0 0 10 214 255 115 60 48 57 68 37 25 41 94 213 255 20 1 0 0 0 0 0 0 0 0 0 0 0 0 0 0 0 0 0 1 29 255 196 83 36 26 44 68 54 46 58 113 255 151 8 0 0 0 0 0 0 0 0 0 0 0 0 0 0 0 0 0 0 0 0 0 0 0 0 0 0 0 0 0 0 0 0 0 0 0 0 0 0 0 0 0 0 0 0 0 0 0 0 0 0 0 0 0 0 0 0 0 0 1 15 255 226 101 56 50 71 148 162 89 55 50 75 155 255 49 2 0 0 0 0 0 0 0 0 0 0 0 0 0 0 0 0 0 0 0 0 0 0 0 0 0 0 0 0 0 0 0 0 0 0 0 0 0 5 96 255 133 68 59 94 166 134 73 55 77 162 255 46 2 0 0 0 0 0 0 0 0 0 0 0 0 0 0 0 0 0 0 0 0 2 50 255 158 75 50 56 95 188 147 68 48 60 116 255 153 7 0 0 0 0 0 0 0 0 4 73 255 138 67 48 52 64 59 29 28 55 132 255 120 6 0 1 15 255 222 97 42 26 38 67 56 48 59 111 252 206 10 0 0 0 0 0 0 0 0 4 82 255 132 64 47 52 66 50 26 32 67 157 255 53 3 0 0 0 0 0 0 0 0 0 0 0 0 1 14 255 233 101 42 25 34 67 59 50 59 107 238 255 13 1 0 0 0 0 0 0 0 0 0 0 0 0 0 0 0 0 0 0 0 0 0 0 0 0 0 0 0 0 0 0 0 0 4 86 255 137 66 47 52 74 99
25 17 12 19 34 26 18 14 11 9 8 14 22 17 13 11 10 10 12 14 20 24 12 9 10 13 15 19 26 34 17 12 20 51 134 255 110 5 0 0 0 0 0 0 0 0 0 1 26 255 209 91 35 15 14 27 29 22 21 33 74 178 255 41 2 0 0 0 0 1 28 255 189 82 36 22 21 27 27 14 15 36 95 180 140 59 21 12 19 35 26 22 27 53 129 255 143 7 0 0 0 0 0 0 0 0 0 0 0 0 0 0 0 0 0 0 0 0 0 0 0 0 0 0 0 0 0 0 0 0 8 174 255 123 49 25 21 26 33 17 12 23 64 169 255 161 63 23 12 17 36 28 21 23 42 104 245 255 13 1 0 0 0 0 0 0 5 104 255 135 55 27 21 25 34 20 12 20 54 139 233 145 55 20 13 22 34 25 20 25 50 124 255 110 6 0 0 0 0 0 0 1 33 255 181 76 36 29 43 64 60 38 31 51 119 255 157 8 0 0 0 0 0 0 1 13 255 244 105 42 23 21 27 32 16 13 25 66 160 255 59 3 0 0 0 0 0 0 0 0 0 0 0 0 0 0 5 105 255 130 50 20 12 19 32 25 20 27 55 132 255 101 5 0 0 0 0 0 0 0 0 0 0 0 0 0 0 0 0 4 87 255 150 62 29 21 25 33 20 12 19 47 120 255 161 8 0 0 0 0 0 0 0 0 0 0 0 0 0 0 0 0 1 12 248 255 113 42 17 13 24 31 23 20 28 60 148 255 63 3 0 0 0 0 0 0 0 0 0 0 0 0 0 0 0 0 0 0 0 0 0 0 0 0 0 0 0 0 0 0 0 0 0 0 0 0 0 0 0 0 0 0 0 0 0 0 0 0 0 0 0 0 0 0 0 0 0 6 115 255 129 53 27 23 44 132 181 65 27 23 38 89 211 255 23 1 0 0 0 0 0 0 0 0 0 0 0 0 0 0 0 0 0 0 0 0 0 0 0 0 0 0 0 0 0 0 0 0 0 0 0 2 46 255 175 74 35 29 47 72 62 36 26 39 92 217 255 21 1 0 0 0 0 0 0 0 0 0 0 0 0 0 0 0 0 0 0 1 23 255 213 91 38 23 28 68 168 117 41 23 29 63 154 255 67 3 0 0 0 0 0 0 2 33 255 183 77 34 21 21 28 32 15 13 26 69 168 255 54 3 6 114 255 125 48 19 12 20 32 24 21 28 59 139 255 82 4 0 0 0 0 0 0 2 38 255 177 73 32 20 22 30 27 13 14 33 87 206 255 24 1 0 0 0 0 0 0 0 0 0 0 0 5 103 255 130 51 20 12 18 33 26 22 28 57 134 255 113 5 0 0 0 0 0 0 0 0 0 0 0 0 0 0 0 0 0 0 0 0 0 0 0 0 0 0 0 0 0 0 0 2 39 255 177 75 33 21 24 46 134
8 6 5 9 14 10 7 5 4 3 3 5 8 6 5 4 4 4 4 5 7 9 5 3 3 4 5 7 10 14 8 5 9 27 78 185 255 54 3 0 0 0 0 0 0 0 0 10 223 255 126 49 17 7 6 12 11 9 9 16 42 110 244 255 18 1 0 0 0 10 210 255 116 45 18 9 8 11 11 6 7 18 44 71 60 29 10 6 9 14 11 9 12 28 75 171 255 63 3 0 0 0 0 0 0 0 0 0 0 0 0 0 0 0 0 0 0 0 0 0 0 0 0 0 0 0 0 0 0 4 78 255 171 72 26 11 8 10 14 8 6 11 34 82 118 79 33 11 6 8 16 11 8 10 22 60 148 255 113 6 0 0 0 0 0 2 48 255 184 79 30 12 8 10 14 9 6 10 27 65 95 68 29 10 6 10 14 10 8 11 27 73 174 255 51 2 0 0 0 0 1 14 255 255 113 43 18 13 18 24 23 17 15 27 68 160 255 64 3 0 0 0 0 0 5 99 255 144 60 22 10 8 10 13 7 6 12 35 94 211 255 27 1 0 0 0 0 0 0 0 0 0 0 0 0 2 48 255 179 76 26 9 5 8 13 10 8 12 29 77 179 255 46 2 0 0 0 0 0 0 0 0 0 0 0 0 0 0 2 41 255 195 88 34 14 9 10 14 9 5 9 24 69 168 255 75 4 0 0 0 0 0 0 0 0 0 0 0 0 0 0 0 5 105 255 154 63 22 8 6 11 12 9 8 13 33 90 207 255 30 1 0 0 0 0 0 0 0 0 0 0 0 0 0 0 0 0 0 0 0 0 0 0 0 0 0 0 0 0 0 0 0 0 0 0 0 0 0 0 0 0 0 0 0 0 0 0 0 0 0 0 0 0 0 0 0 3 53 255 176 75 29 13 12 33 110 138 56 15 10 19 51 131 255 217 10 0 0 0 0 0 0 0 0 0 0 0 0 0 0 0 0 0 0 0 0 0 0 0 0 0 0 0 0 0 0 0 0 0 0 1 23 255 238 106 42 18 13 21 29 26 16 12 20 52 134 255 191 9 0 0 0 0 0 0 0 0 0 0 0 0 0 0 0 0 0 0 9 200 255 131 52 20 11 16 52 110 88 28 11 14 35 93 210 255 33 1 0 0 0 0 1 13 255 255 113 43 17 9 8 11 14 7 6 13 37 100 222 255 29 56 255 176 73 25 9 5 9 13 9 8 13 32 82 193 255 40 2 0 0 0 0 1 15 255 246 110 41 16 8 9 12 12 6 6 16 48 127 255 216 10 0 0 0 0 0 0 0 0 0 0 2 47 255 176 75 27 9 5 8 14 10 9 13 30 78 185 255 56 3 0 0 0 0 0 0 0 0 0 0 0 0 0 0 0 0 0 0 0 0 0 0 0 0 0 0 0 0 0 1 16 255 243 108 42 16 9 12 41 177
2 2 2 3 5 3 2 2 1 1 1 2 2 2 2 1 1 1 1 2 2 3 2 1 1 1 2 2 4 5 3 2 4 15 49 119 243 255 28 1 0 0 0 0 0 0 5 97 255 172 78 29 9 3 3 4 4 3 3 8 25 70 155 255 156 7 0 0 4 90 255 165 74 27 9 4 3 4 4 2 3 8 19 27 24 13 5 2 3 5 4 3 6 15 46 109 225 255 31 1 0 0 0 0 0 0 0 0 0 0 0 0 0 0 0 0 0 0 0 0 0 0 0 0 0 0 0 0 2 40 255 220 108 45 15 5 3 4 5 3 2 5 17 37 47 36 16 5 2 3 5 4 3 4 12 37 94 196 255 54 3 0 0 0 1 21 255 242 119 50 17 6 3 4 5 3 2 4 13 28 37 29 14 5 3 4 5 4 3 5 15 47 115 239 255 25 1 0 0 0 6 122 255 164 73 26 9 5 7 9 8 7 7 15 42 104 216 255 30 1 0 0 0 2 46 255 195 92 37 12 4 3 4 4 3 2 6 19 58 136 255 255 12 0 0 0 0 0 0 0 0 0 0 0 1 22 255 240 116 47 14 4 2 3 4 3 3 6 16 48 117 243 255 21 1 0 0 0 0 0 0 0 0 0 0 0 0 1 18 255 254 124 54 19 6 3 4 5 3 2 4 13 42 109 225 255 40 2 0 0 0 0 0 0 0 0 0 0 0 0 0 2 53 255 204 97 38 12 4 2 4 4 3 3 6 19 58 136 255 255 13 1 0 0 0 0 0 0 0 0 0 0 0 0 0 0 0 0 0 0 0 0 0 0 0 0 0 0 0 0 0 0 0 0 0 0 0 0 0 0 0 0 0 0 0 0 0 0 0 0 0 0 0 0 0 1 27 255 238 114 47 16 6 7 28 96 98 55 11 5 10 32 84 182 255 95 5 0 0 0 0 0 0 0 0 0 0 0 0 0 0 0 0 0 0 0 0 0 0 0 0 0 0 0 0 0 0 0 0 0 10 229 255 153 68 25 9 6 8 10 10 6 5 11 32 86 184 255 85 4 0 0 0 0 0 0 0 0 0 0 0 0 0 0 0 0 4 87 255 178 83 32 10 5 10 42 71 68 20 6 7 20 59 136 255 255 14 1 0 0 0 6 119 255 161 72 26 8 3 3 4 5 3 2 6 21 62 143 255 255 255 241 116 45 14 4 2 3 4 3 3 6 18 52 127 255 255 17 1 0 0 0 6 132 255 154 70 25 8 3 3 4 4 2 3 8 29 81 178 255 93 5 0 0 0 0 0 0 0 0 1 22 255 242 115 46 14 4 2 3 5 4 3 6 17 49 120 241 255 27 1 0 0 0 0 0 0 0 0 0 0 0 0 0 0 0 0 0 0 0 0 0 0 0 0 0 0 0 0 7 144 255 154 68 24 8 4 9 57 187
1 1 1 1 1 1 1 0 0 0 0 1 1 1 0 0 0 0 0 1 1 1 1 0 0 0 1 1 1 1 1 1 2 9 33 81 157 255 255 12 1 0 0 0 0 2 48 255 215 114 54 18 4 1 1 1 1 1 1 4 15 49 103 194 255 73 4 2 47 255 216 112 53 17 4 2 1 1 1 1 1 3 7 9 8 5 2 1 1 1 1 1 2 9 31 75 148 255 255 13 1 0 0 0 0 0 0 0 0 0 0 0 0 0 0 0 0 0 0 0 0 0 0 0 0 0 0 1 18 255 255 143 74 30 8 2 1 1 1 1 1 2 8 15 18 15 7 2 1 1 2 1 1 2 6 24 66 129 246 255 28 1 0 0 9 188 255 156 81 34 9 3 1 1 1 1 1 2 5 11 14 11 6 2 1 1 1 1 1 2 9 33 80 158 255 239 11 0 0 3 58 255 203 109 53 16 5 2 2 3 3 2 3 8 28 72 144 255 255 12 1 0 1 21 255 250 131 65 24 6 2 1 1 1 1 1 3 11 40 93 183 255 110 5 0 0 0 0 0 0 0 0 0 0 9 200 255 157 80 32 8 2 1 1 1 1 1 3 9 33 81 160 255 213 9 0 0 0 0 0 0 0 0 0 0 0 0 8 181 255 164 84 37 11 3 1 1 1 1 1 2 7 29 75 146 255 255 19 1 0 0 0 0 0 0 0 0 0 0 0 1 26 255 250 133 67 25 6 2 1 1 1 1 1 3 11 41 92 177 255 124 6 0 0 0 0 0 0 0 0 0 0 0 0 0 0 0 0 0 0 0 0 0 0 0 0 0 0 0 0 0 0 0 0 0 0 0 0 0 0 0 0 0 0 0 0 0 0 0 0 0 0 0 0 1 12 255 255 157 79 32 9 3 5 28 96 81 69 10 3 5 21 60 118 218 255 47 2 0 0 0 0 0 0 0 0 0 0 0 0 0 0 0 0 0 0 0 0 0 0 0 0 0 0 0 0 0 0 0 5 103 255 191 101 48 15 4 2 3 3 3 2 2 6 21 60 121 222 255 42 2 0 0 0 0 0 0 0 0 0 0 0 0 0 0 2 43 255 219 117 58 20 5 3 7 34 51 58 15 4 4 12 41 91 173 255 133 6 0 0 3 59 255 207 108 52 16 4 1 1 1 1 1 1 3 12 43 97 195 255 255 163 81 31 8 2 1 1 1 1 1 3 10 37 87 165 255 156 7 0 0 3 63 255 201 104 50 15 4 1 1 1 1 1 1 4 18 57 117 217 255 46 2 0 0 0 0 0 0 0 10 225 255 160 80 31 8 2 1 1 1 1 1 3 9 34 81 155 255 242 11 0 0 0 0 0 0 0 0 0 0 0 0 0 0 0 0 0 0 0 0 0 0 0 0 0 0 0 3 71 255 199 104 48 15 4 2 13 146 165
0 0 0 0 0 0 0 0 0 0 0 0 0 0 0 0 0 0 0 0 0 0 0 0 0 0 0 0 0 0 0 0 1 5 23 61 103 182 255 113 5 0 0 0 1 22 255 253 139 80 41 11 2 1 0 0 0 0 1 2 10 38 74 126 231 255 39 26 255 255 142 81 42 11 2 1 0 0 0 0 0 1 2 3 3 2 1 0 0 0 0 0 1 5 21 57 99 175 255 120 6 0 0 0 0 0 0 0 0 0 0 0 0 0 0 0 0 0 0 0 0 0 0 0 0 0 0 8 163 255 169 95 56 21 5 1 0 0 0 0 0 1 3 5 6 5 3 1 0 0 0 0 0 1 4 16 51 89 159 255 255 13 1 4 85 255 189 104 61 25 6 1 0 0 0 0 0 1 2 4 4 4 2 1 0 0 0 0 0 1 5 24 63 105 186 255 101 5 1 29 255 241 131 78 41 11 2 1 1 1 1 1 1 5 20 56 99 178 255 107 5 1 9 213 255 161 91 52 16 4 1 0 0 0 0 0 1 7 30 69 119 211 255 53 2 0 0 0 0 0 0 0 0 4 88 255 190 105 61 23 5 1 0 0 0 0 0 1 5 24 62 107 193 255 97 5 0 0 0 0 0 0 0 0 0 0 4 88 255 197 109 63 27 6 1 1 0 0 0 0 1 4 20 57 97 170 255 183 8 0 0 0 0 0 0 0 0 0 0 0 11 228 255 159 90 51 16 4 1 0 0 0 0 0 2 7 32 69 116 212 255 66 3 0 0 0 0 0 0 0 0 0 0 0 0 0 0 0 0 0 0 0 0 0 0 0 0 0 0 0 0 0 0 0 0 0 0 0 0 0 0 0 0 0 0 0 0 0 0 0 0 0 0 0 6 126 255 186 104 61 24 5 2 4 35 121 98 134 15 2 3 14 47 82 139 255 255 24 1 0 0 0 0 0 0 0 0 0 0 0 0 0 0 0 0 0 0 0 0 0 0 0 0 0 0 0 0 0 2 53 255 218 122 73 37 9 2 1 1 1 1 1 1 3 14 47 83 142 255 255 20 1 0 0 0 0 0 0 0 0 0 0 0 0 1 20 255 255 141 82 45 13 3 1 5 27 41 55 12 2 2 7 31 67 113 208 255 66 3 1 31 255 244 135 78 41 10 2 1 0 0 0 0 0 2 8 32 73 125 197 179 110 63 23 5 1 0 0 0 0 0 1 6 28 65 109 197 255 73 4 1 31 255 236 132 76 38 10 2 1 0 0 0 0 1 2 12 44 81 139 255 255 22 1 0 0 0 0 0 5 106 255 192 107 62 23 5 1 0 0 0 0 0 1 6 25 60 101 180 255 101 5 0 0 0 0 0 0 0 0 0 0 0 0 0 0 0 0 0 0 0 0 0 0 0 0 0 2 38 255 236 130 76 38 9 2 4 48 255 169
0 0 0 0 0 0 0 0 0 0 0 0 0 0 0 0 0 0 0 0 0 0 0 0 0 0 0 0 0 0 0 0 1 3 16 50 72 114 205 255 54 3 0 0 9 201 255 158 91 61 34 7 1 0 0 0 0 0 0 1 6 30 59 85 146 255 255 255 255 162 94 65 36 7 1 0 0 0 0 0 0 0 1 1 1 0 0 0 0 0 0 0 1 3 15 49 71 112 205 255 61 3 0 0 0 0 0 0 0 0 0 0 0 0 0 0 0 0 0 0 0 0 0 0 0 0 4 74 255 192 107 68 47 14 3 1 0 0 0 0 0 0 1 2 2 2 1 0 0 0 0 0 0 0 2 11 44 67 102 182 255 127 8 44 255 220 121 75 51 18 3 1 0 0 0 0 0 0 1 1 1 1 1 0 0 0 0 0 0 1 3 17 54 75 117 209 255 50 15 255 255 153 88 61 34 7 1 0 0 0 0 0 1 3 14 49 73 114 204 255 51 7 103 255 190 105 69 46 11 2 0 0 0 0 0 0 1 4 23 57 81 132 242 255 25 1 0 0 0 0 0 0 2 44 255 217 121 75 52 16 3 1 0 0 0 0 0 1 3 18 53 77 122 218 255 49 2 0 0 0 0 0 0 0 0 2 48 255 226 125 76 53 20 4 1 0 0 0 0 0 1 3 14 46 69 107 193 255 81 4 0 0 0 0 0 0 0 0 0 5 96 255 180 101 66 43 11 2 0 0 0 0 0 0 1 5 24 57 81 133 243 255 37 2 0 0 0 0 0 0 0 0 0 0 0 0 0 0 0 0 0 0 0 0 0 0 0 0 0 0 0 0 0 0 0 0 0 0 0 0 0 0 0 0 0 0 0 0 0 0 0 0 0 3 62 255 208 116 74 52 17 3 1 6 70 188 214 255 43 3 2 9 39 62 91 161 255 244 11 0 0 0 0 0 0 0 0 0 0 0 0 0 0 0 0 0 0 0 0 0 0 0 0 0 0 0 0 1 28 255 250 136 81 57 30 6 1 0 0 0 0 0 0 2 9 39 62 92 163 255 190 9 0 0 0 0 0 0 0 0 0 0 0 0 8 164 255 161 92 63 38 9 2 1 4 18 37 60 10 2 1 5 24 55 79 131 235 255 33 16 255 255 153 89 62 34 7 1 0 0 0 0 0 0 1 5 26 59 77 92 88 74 54 17 3 1 0 0 0 0 0 1 4 21 53 77 125 227 255 38 15 255 255 148 88 62 31 6 1 0 0 0 0 0 0 1 8 36 61 91 161 255 203 9 0 0 0 0 3 55 255 218 121 76 53 17 3 1 0 0 0 0 0 1 3 18 49 72 114 207 255 48 2 0 0 0 0 0 0 0 0 0 0 0 0 0 0 0 0 0 0 0 0 0 0 0 1 19 255 255 148 87 61 31 6 2 18 255 218 186
0 0 0 0 0 0 0 0 0 0 0 0 0 0 0 0 0 0 0 0 0 0 0 0 0 0 0 0 0 0 0 0 0 2 11 44 55 74 127 238 255 27 1 4 88 255 181 98 63 51 28 5 1 0 0 0 0 0 0 1 4 24 52 62 92 170 255 255 190 101 67 57 32 6 1 0 0 0 0 0 0 0 0 0 0 0 0 0 0 0 0 0 0 2 10 46 56 75 128 238 255 31 1 0 0 0 0 0 0 0 0 0 0 0 0 0 0 0 0 0 0 0 0 0 0 2 37 255 221 119 71 55 42 10 2 0 0 0 0 0 0 0 0 0 1 0 0 0 0 0 0 0 0 0 1 8 40 56 69 111 201 255 109 255 255 137 79 59 47 12 2 0 0 0 0 0 0 0 0 0 0 0 0 0 0 0 0 0 0 0 2 13 52 59 76 130 245 255 204 255 172 95 63 52 27 5 1 0 0 0 0 0 0 2 10 46 59 76 127 241 255 116 255 217 118 72 58 45 8 1 0 0 0 0 0 0 1 3 18 50 59 84 150 255 215 10 0 0 0 0 0 1 21 255 253 134 78 59 48 11 2 0 0 0 0 0 0 0 2 13 50 60 79 133 248 255 25 1 0 0 0 0 0 0 1 25 255 255 138 80 59 49 14 2 0 0 0 0 0 0 0 2 9 40 54 70 118 216 255 39 2 0 0 0 0 0 0 0 2 46 255 206 111 68 53 38 8 1 0 0 0 0 0 0 1 3 18 52 61 85 148 255 255 19 1 0 0 0 0 0 0 0 0 0 0 0 0 0 0 0 0 0 0 0 0 0 0 0 0 0 0 0 0 0 0 0 0 0 0 0 0 0 0 0 0 0 0 0 0 0 0 0 1 31 255 234 127 75 58 49 12 2 2 24 255 245 255 233 255 15 2 6 32 52 64 100 183 255 104 5 0 0 0 0 0 0 0 0 0 0 0 0 0 0 0 0 0 0 0 0 0 0 0 0 0 0 1 13 255 255 154 85 59 50 24 4 1 0 0 0 0 0 0 1 6 32 52 64 102 187 255 88 4 0 0 0 0 0 0 0 0 0 0 4 74 255 183 100 64 53 32 6 1 1 2 11 38 85 11 1 1 3 17 50 60 83 144 255 255 205 255 174 95 64 55 29 5 1 0 0 0 0 0 0 1 3 20 51 47 43 43 50 49 12 2 0 0 0 0 0 0 0 3 15 47 59 81 141 255 255 176 255 169 93 63 56 25 4 1 0 0 0 0 0 0 1 6 29 51 64 100 183 255 85 4 0 0 1 28 255 244 133 78 59 49 12 2 0 0 0 0 0 0 0 2 12 43 55 75 129 243 255 23 1 0 0 0 0 0 0 0 0 0 0 0 0 0 0 0 0 0 0 0 0 0 0 9 194 255 166 92 63 53 25 5 7 125 255 168 172
0 0 0 0 0 0 0 0 0 0 0 0 0 0 0 0 0 0 0 0 0 0 0 0 0 0 0 0 0 0 0 0 0 1 8 39 46 51 78 146 255 229 13 44 255 209 110 63 47 45 22 4 1 0 0 0 0 0 0 0 3 17 51 50 61 104 186 197 114 66 51 55 28 4 1 0 0 0 0 0 0 0 0 0 0 0 0 0 0 0 0 0 0 1 8 48 49 53 79 144 255 255 13 1 0 0 0 0 0 0 0 0 0 0 0 0 0 0 0 0 0 0 0 0 1 16 255 255 135 74 50 48 40 7 1 0 0 0 0 0 0 0 0 0 0 0 0 0 0 0 0 0 0 0 1 6 38 53 50 69 122 251 255 255 157 83 55 51 46 9 1 0 0 0 0 0 0 0 0 0 0 0 0 0 0 0 0 0 0 0 2 10 54 51 53 80 154 255 255 214 105 62 50 48 20 4 1 0 0 0 0 0 0 1 8 47 53 54 79 151 255 255 255 132 73 53 56 52 7 1 0 0 0 0 0 0 0 2 13 47 47 56 91 172 255 92 4 0 0 0 0 9 183 255 154 82 54 51 47 9 1 0 0 0 0 0 0 0 2 10 50 51 53 81 150 255 250 11 0 0 0 0 0 0 11 255 255 153 83 54 49 52 11 2 0 0 0 0 0 0 0 1 7 33 45 49 72 131 253 255 16 1 0 0 0 0 0 1 20 255 242 126 70 49 47 35 6 1 0 0 0 0 0 0 0 2 13 50 51 56 88 165 255 188 8 0 0 0 0 0 0 0 0 0 0 0 0 0 0 0 0 0 0 0 0 0 0 0 0 0 0 0 0 0 0 0 0 0 0 0 0 0 0 0 0 0 0 0 0 0 0 1 13 255 255 141 77 52 50 51 10 2 9 174 255 226 200 193 255 118 7 5 26 48 49 64 109 203 255 49 2 0 0 0 0 0 0 0 0 0 0 0 0 0 0 0 0 0 0 0 0 0 0 0 0 0 6 126 255 173 92 56 46 46 18 3 0 0 0 0 0 0 0 1 5 25 47 48 65 113 215 255 45 2 0 0 0 0 0 0 0 0 2 40 255 218 112 64 49 50 27 5 1 0 1 8 57 175 20 2 1 2 12 49 50 55 87 168 255 255 205 105 62 49 53 23 4 1 0 0 0 0 0 0 0 2 14 43 28 20 21 34 45 9 1 0 0 0 0 0 0 0 2 11 43 50 55 86 166 255 255 210 104 61 49 56 19 3 0 0 0 0 0 0 0 1 4 22 45 48 64 110 207 255 40 2 1 12 255 255 147 80 53 50 48 9 1 0 0 0 0 0 0 0 1 9 38 47 52 80 149 255 228 10 0 0 0 0 0 0 0 0 0 0 0 0 0 0 0 0 0 0 0 0 0 4 86 255 188 99 60 49 51 20 6 58 255 187 128 139
0 0 0 0 0 0 0 0 0 0 0 0 0 0 0 0 0 0 0 0 0 0 0 0 0 0 0 0 0 0 0 0 0 1 6 35 41 37 49 87 168 255 175 255 248 127 67 42 38 41 15 3 0 0 0 0 0 0 0 0 2 13 56 44 42 60 84 87 63 44 44 60 24 4 1 0 0 0 0 0 0 0 0 0 0 0 0 0 0 0 0 0 0 1 8 60 50 41 50 85 163 255 112 6 0 0 0 0 0 0 0 0 0 0 0 0 0 0 0 0 0 0 0 0 7 140 255 157 80 47 38 49 41 6 1 0 0 0 0 0 0 0 0 0 0 0 0 0 0 0 0 0 0 0 1 6 39 58 40 45 75 147 251 189 97 53 41 51 50 8 1 0 0 0 0 0 0 0 0 0 0 0 0 0 0 0 0 0 0 0 1 10 67 52 40 52 95 177 216 126 66 42 43 48 14 2 0 0 0 0 0 0 0 1 8 56 54 41 52 95 183 248 153 80 48 44 66 81 9 1 0 0 0 0 0 0 0 2 10 46 40 40 57 103 203 255 46 2 0 0 4 81 255 176 91 52 40 49 52 8 1 0 0 0 0 0 0 0 1 9 57 50 39 51 89 175 255 111 5 0 0 0 0 5 107 255 176 90 51 39 48 66 10 1 0 0 0 0 0 0 0 1 5 26 40 37 46 78 152 255 145 7 0 0 0 0 0 8 160 255 146 76 45 38 44 31 5 1 0 0 0 0 0 0 0 2 10 55 48 40 54 96 185 255 87 4 0 0 0 0 0 0 0 0 0 0 0 0 0 0 0 0 0 0 0 0 0 0 0 0 0 0 0 0 0 0 0 0 0 0 0 0 0 0 0 0 0 0 0 0 0 6 132 255 165 84 48 38 49 60 9 5 80 255 189 156 128 141 199 255 57 6 19 48 41 42 65 121 237 255 23 1 0 0 0 0 0 0 0 0 0 0 0 0 0 0 0 0 0 0 0 0 0 0 0 3 60 255 194 101 56 39 40 45 12 2 0 0 0 0 0 0 0 1 3 18 45 40 43 68 129 248 255 20 1 0 0 0 0 0 0 1 20 255 255 134 69 43 40 51 21 3 1 0 1 16 213 239 57 4 1 2 10 55 47 39 55 105 200 220 121 64 42 43 56 18 3 0 0 0 0 0 0 0 0 2 9 33 16 9 10 22 37 7 1 0 0 0 0 0 0 0 1 8 40 47 40 55 102 191 225 126 66 43 44 66 15 2 0 0 0 0 0 0 0 0 3 15 41 40 43 66 125 248 255 17 6 116 255 169 86 50 39 46 50 8 1 0 0 0 0 0 0 0 1 6 32 44 39 51 89 177 255 101 5 0 0 0 0 0 0 0 0 0 0 0 0 0 0 0 0 0 0 0 2 42 255 210 110 60 41 42 53 17 33 255 227 121 98 107
0 0 0 0 0 0 0 0 0 0 0 0 0 0 0 0 0 0 0 0 0 0 0 0 0 0 0 0 0 0 0 0 0 1 5 29 39 29 33 54 105 224 255 255 157 77 43 30 32 36 10 2 0 0 0 0 0 0 0 0 2 12 82 49 32 34 37 37 34 32 45 81 22 3 0 0 0 0 0 0 0 0 0 0 0 0 0 0 0 0 0 0 0 1 12 119 70 36 33 52 99 195 255 53 3 0 0 0 0 0 0 0 0 0 0 0 0 0 0 0 0 0 0 3 66 255 189 96 51 32 33 63 51 6 1 0 0 0 0 0 0 0 0 0 0 0 0 0 0 0 0 0 0 0 1 6 50 87 38 31 47 80 112 94 59 36 34 64 70 9 1 0 0 0 0 0 0 0 0 0 0 0 0 0 0 0 0 0 0 0 1 14 125 77 36 36 57 85 96 69 43 31 43 53 10 2 0 0 0 0 0 0 0 1 10 94 75 37 37 59 91 109 81 50 34 48 143 235 21 2 0 0 0 0 0 0 0 1 8 47 37 30 37 64 128 251 255 22 1 2 43 255 216 109 57 35 33 59 76 9 1 0 0 0 0 0 0 0 1 11 87 62 32 34 55 107 207 255 55 3 0 0 2 50 255 203 106 55 34 32 65 137 15 1 0 0 0 0 0 0 0 1 3 18 37 29 30 49 94 191 255 72 3 0 0 0 3 72 255 179 90 48 31 32 46 27 4 1 0 0 0 0 0 0 0 1 10 76 56 31 35 58 112 219 255 46 2 0 0 0 0 0 0 0 0 0 0 0 0 0 0 0 0 0 0 0 0 0 0 0 0 0 0 0 0 0 0 0 0 0 0 0 0 0 0 0 0 0 0 0 3 64 255 200 101 52 32 32 64 104 14 45 255 222 129 103 85 101 131 236 255 31 16 56 39 30 41 74 148 255 190 9 0 0 0 0 0 0 0 0 0 0 0 0 0 0 0 0 0 0 0 0 0 0 1 32 255 234 119 61 36 29 40 47 9 1 0 0 0 0 0 0 0 0 2 12 48 36 30 43 77 152 255 184 8 0 0 0 0 0 0 9 196 255 162 82 45 31 39 65 17 3 0 0 5 81 255 215 255 20 1 1 11 82 56 31 37 63 94 99 68 41 31 44 75 15 2 0 0 0 0 0 0 0 0 1 5 19 8 4 5 13 26 5 1 0 0 0 0 0 0 0 1 6 38 51 32 37 61 91 101 71 43 33 50 113 17 2 0 0 0 0 0 0 0 0 2 10 38 35 30 42 77 155 255 155 76 255 203 103 53 33 31 52 64 9 1 0 0 0 0 0 0 0 1 5 26 45 31 34 56 108 210 255 50 2 0 0 0 0 0 0 0 0 0 0 0 0 0 0 0 0 0 1 20 255 254 129 66 38 30 43 69 33 255 255 146 83 82 89
0 0 0 0 0 0 0 0 0 0 0 0 0 0 0 0 0 0 0 0 0 0 0 0 0 0 0 0 0 0 0 0 0 1 4 22 40 24 23 37 72 141 237 200 106 53 29 21 26 29 6 1 0 0 0 0 0 0 0 0 2 22 209 97 28 18 15 15 17 25 72 174 29 3 0 0 0 0 0 0 0 0 0 0 0 0 0 0 0 0 0 0 0 3 39 255 233 50 25 35 65 127 244 255 26 1 0 0 0 0 0 0 0 0 0 0 0 0 0 0 0 0 2 35 255 235 122 64 35 23 40 150 114 10 1 0 0 0 0 0 0 0 0 0 0 0 0 0 0 0 0 0 0 0 1 10 130 228 62 25 31 42 49 45 36 27 39 156 190 17 1 0 0 0 0 0 0 0 0 0 0 0 0 0 0 0 0 0 0 0 3 38 255 247 56 28 34 40 42 37 29 26 57 81 11 1 0 0 0 0 0 0 0 2 28 255 213 53 29 36 44 48 42 32 32 134 255 255 92 5 0 0 0 0 0 0 0 1 8 56 39 24 25 44 83 160 255 198 10 23 255 255 141 72 38 25 36 135 204 18 1 0 0 0 0 0 0 0 2 23 226 153 37 25 37 69 131 246 255 27 1 1 23 255 245 129 68 37 24 40 215 255 47 3 0 0 0 0 0 0 0 0 2 11 32 23 21 33 64 125 237 255 40 2 0 2 38 255 228 117 60 33 22 29 58 24 4 0 0 0 0 0 0 0 0 2 18 184 121 31 24 38 72 139 255 255 23 1 0 0 0 0 0 0 0 0 0 0 0 0 0 0 0 0 0 0 0 0 0 0 0 0 0 0 0 0 0 0 0 0 0 0 0 0 0 0 0 0 0 1 32 255 238 128 67 36 23 41 188 255 72 255 255 146 93 74 65 78 91 153 255 255 33 101 50 23 27 49 96 183 255 81 4 0 0 0 0 0 0 0 0 0 0 0 0 0 0 0 0 0 0 0 0 1 15 255 255 151 77 40 24 23 48 63 9 1 0 0 0 0 0 0 0 0 2 10 62 38 22 29 51 97 191 255 86 4 0 0 0 0 4 93 255 193 102 55 31 25 52 133 19 2 0 2 38 255 215 207 255 156 8 2 22 223 131 32 27 37 43 44 38 27 27 71 164 21 2 0 0 0 0 0 0 0 0 1 3 8 4 2 2 6 13 3 1 0 0 0 0 0 0 0 1 6 41 74 30 26 36 43 45 39 30 34 118 251 36 3 0 0 0 0 0 0 0 0 1 7 35 32 21 29 52 101 198 255 255 255 131 68 36 23 30 88 133 13 1 0 0 0 0 0 0 0 1 3 21 57 27 24 39 71 134 250 255 23 1 0 0 0 0 0 0 0 0 0 0 0 0 0 0 0 0 8 174 255 163 83 44 26 25 65 179 255 255 181 98 68 87 93
0 0 0 0 0 0 0 0 0 0 0 0 0 0 0 0 0 0 0 0 0 0 0 0 0 0 0 0 0 0 0 0 0 0 3 16 42 19 15 26 53 84 110 100 72 40 20 14 18 19 4 1 0 0 0 0 0 0 0 0 5 86 255 255 57 11 6 6 9 37 255 255 94 6 0 0 0 0 0 0 0 0 0 0 0 0 0 0 0 0 0 0 1 14 255 255 255 244 31 26 47 85 155 255 255 12 0 0 0 0 0 0 0 0 0 0 0 0 0 0 0 1 17 255 255 149 82 46 25 23 132 255 255 41 2 0 0 0 0 0 0 0 0 0 0 0 0 0 0 0 0 0 0 0 3 50 255 255 255 37 20 21 21 21 21 25 126 255 255 72 4 0 0 0 0 0 0 0 0 0 0 0 0 0 0 0 0 0 0 1 12 215 249 255 255 38 20 18 18 18 18 29 160 220 21 2 0 0 0 0 0 0 0 9 166 255 255 226 36 22 21 20 20 23 88 255 254 219 255 40 2 0 0 0 0 0 0 1 11 95 51 20 17 32 59 102 186 255 123 234 255 167 92 52 28 23 104 255 255 74 5 0 0 0 0 0 0 0 6 108 255 255 122 23 27 49 85 154 255 237 12 10 211 255 155 84 48 26 25 172 255 247 255 18 1 0 0 0 0 0 0 0 1 6 23 16 13 23 47 84 148 255 255 21 2 17 255 255 146 81 45 22 16 34 111 24 3 0 0 0 0 0 0 0 0 4 67 255 255 81 20 27 51 90 162 255 208 10 0 0 0 0 0 0 0 0 0 0 0 0 0 0 0 0 0 0 0 0 0 0 0 0 0 0 0 0 0 0 0 0 0 0 0 0 0 0 0 0 1 15 255 255 149 84 48 26 25 174 255 255 255 255 168 98 74 63 58 69 72 101 182 255 255 255 156 24 19 36 66 117 216 255 40 2 0 0 0 0 0 0 0 0 0 0 0 0 0 0 0 0 0 0 0 7 150 255 176 97 55 28 16 22 101 144 14 1 0 0 0 0 0 0 0 0 1 14 135 58 18 20 37 68 122 223 255 46 2 0 0 2 50 255 222 121 69 40 23 28 178 255 51 4 1 18 255 255 162 167 201 255 75 9 95 255 255 90 22 20 19 19 19 18 43 255 255 64 4 0 0 0 0 0 0 0 0 0 1 2 1 1 1 2 4 1 0 0 0 0 0 0 0 0 1 7 66 194 42 18 19 19 19 20 23 90 255 248 172 10 1 0 0 0 0 0 0 0 1 5 29 29 15 19 39 71 133 255 255 163 88 49 25 18 57 255 255 44 3 0 0 0 0 0 0 0 0 3 20 109 29 17 27 50 86 156 255 203 9 0 0 0 0 0 0 0 0 0 0 0 0 0 0 0 4 77 255 189 104 58 31 18 38 255 255 255 215 116 73 75 133 144
0 0 0 0 0 0 0 0 0 0 0 0 0 0 0 0 0 0 0 0 0 0 0 0 0 0 0 0 0 0 0 0 0 0 2 11 44 15 9 17 37 45 48 46 44 28 12 7 9 8 2 0 0 0 0 0 0 0 0 2 37 255 210 254 255 23 3 3 13 181 255 221 255 39 2 0 0 0 0 0 0 0 0 0 0 0 0 0 0 0 0 0 5 109 255 189 209 255 140 26 35 56 91 169 255 106 5 0 0 0 0 0 0 0 0 0 0 0 0 0 0 7 161 255 158 87 54 33 20 77 255 247 244 255 15 1 0 0 0 0 0 0 0 0 0 0 0 0 0 0 0 0 0 1 20 255 230 219 255 200 21 9 8 9 13 72 255 234 215 255 32 2 0 0 0 0 0 0 0 0 0 0 0 0 0 0 0 0 0 4 81 255 187 205 255 187 19 8 7 8 14 92 255 255 83 5 0 0 0 0 0 0 4 72 255 199 213 255 150 18 9 8 11 48 255 227 159 156 238 255 16 1 0 0 0 0 0 2 26 223 129 21 11 22 41 64 109 216 255 255 177 96 59 38 22 64 255 241 207 255 31 1 0 0 0 0 0 2 49 255 208 232 255 77 21 34 54 89 164 255 115 110 255 171 91 55 33 23 104 255 210 189 255 139 7 0 0 0 0 0 0 0 1 3 12 8 7 15 34 55 86 156 255 188 17 148 255 154 86 54 32 14 13 76 246 52 4 0 0 0 0 0 0 0 1 27 255 212 245 255 48 20 35 56 93 170 255 84 4 0 0 0 0 0 0 0 0 0 0 0 0 0 0 0 0 0 0 0 0 0 0 0 0 0 0 0 0 0 0 0 0 0 0 0 0 0 0 0 7 152 255 161 87 54 34 23 108 255 228 217 255 188 100 66 62 61 63 70 62 67 108 206 255 255 255 86 16 26 45 72 128 246 255 18 1 0 0 0 0 0 0 0 0 0 0 0 0 0 0 0 0 0 3 71 255 189 101 61 39 19 11 53 255 255 49 3 0 0 0 0 0 0 0 0 3 42 255 225 25 13 25 47 74 129 245 255 23 1 1 24 255 240 128 72 46 28 20 109 255 231 255 19 9 163 255 160 110 115 128 216 255 118 255 208 239 255 54 11 8 7 9 22 229 255 219 255 25 1 0 0 0 0 0 0 0 0 0 1 0 0 0 1 1 0 0 0 0 0 0 0 0 0 1 20 255 255 154 19 9 8 8 11 51 255 243 199 255 66 4 0 0 0 0 0 0 0 1 4 20 22 9 12 28 50 80 119 130 90 57 35 18 32 255 255 231 255 16 1 0 0 0 0 0 0 0 3 41 251 62 13 18 35 55 91 169 255 85 4 0 0 0 0 0 0 0 0 0 0 0 0 0 2 37 255 206 110 64 41 22 23 218 255 239 191 117 73 63 128 220 231
0 0 0 0 0 0 0 0 0 0 0 0 0 0 0 0 0 0 0 0 0 0 0 0 0 0 0 0 0 0 0 0 0 0 1 8 40 11 5 9 21 20 19 19 22 16 6 3 3 3 1 0 0 0 0 0 0 0 1 14 255 230 142 153 255 118 7 5 66 255 173 155 227 255 15 1 0 0 0 0 0 0 0 0 0 0 0 0 0 0 0 2 51 255 178 115 116 178 255 83 26 33 48 88 176 255 47 2 0 0 0 0 0 0 0 0 0 0 0 0 3 72 255 168 82 46 32 23 47 255 213 145 151 255 113 6 0 0 0 0 0 0 0 0 0 0 0 0 0 0 0 0 0 7 147 255 141 127 175 255 88 8 3 4 32 255 211 137 139 244 249 12 1 0 0 0 0 0 0 0 0 0 0 0 0 0 0 0 2 35 255 178 118 114 171 255 69 6 3 5 40 255 205 181 255 32 2 0 0 0 0 2 34 255 196 124 121 182 255 60 6 4 17 238 229 128 87 91 136 255 120 6 0 0 0 0 0 6 101 224 255 61 9 13 25 36 58 117 228 199 96 50 33 25 41 255 226 142 138 242 252 12 1 0 0 0 1 20 255 215 136 137 217 255 49 23 31 47 87 185 255 255 193 91 49 32 23 64 255 197 120 115 166 255 59 3 0 0 0 0 0 0 0 1 4 3 3 8 20 31 45 79 158 255 255 255 163 80 46 32 20 9 33 255 209 255 17 1 0 0 0 0 0 0 9 182 252 144 147 244 255 31 22 32 48 89 181 255 38 2 0 0 0 0 0 0 0 0 0 0 0 0 0 0 0 0 0 0 0 0 0 0 0 0 0 0 0 0 0 0 0 0 0 0 0 0 0 3 71 255 172 84 46 31 24 68 255 200 129 116 117 85 53 42 52 68 81 77 54 42 57 101 166 178 211 255 46 18 27 40 67 135 255 159 8 0 0 0 0 0 0 0 0 0 0 0 0 0 0 0 0 2 34 255 200 99 53 34 23 12 26 255 240 209 255 18 1 0 0 0 0 0 0 1 13 217 208 255 105 12 15 28 40 66 133 255 183 9 11 219 255 129 65 39 27 19 61 255 199 169 255 140 87 255 165 87 66 67 71 120 255 255 255 139 142 233 255 23 4 3 8 98 255 175 157 255 163 8 0 0 0 0 0 0 0 0 0 0 0 0 0 0 0 0 0 0 0 0 0 0 0 0 6 109 255 203 255 67 7 3 3 19 255 231 143 132 188 255 28 1 0 0 0 0 0 0 0 2 9 11 5 6 17 31 40 48 50 41 32 22 21 194 255 170 161 255 115 6 0 0 0 0 0 0 1 11 180 201 255 26 11 21 32 48 90 184 255 40 2 0 0 0 0 0 0 0 0 0 0 0 1 15 255 234 112 57 36 25 19 113 255 177 120 84 55 43 73 213 199 200
0 0 0 0 0 0 0 0 0 0 0 0 0 0 0 0 0 0 0 0 0 0 0 0 0 0 0 0 0 0 0 0 0 0 1 6 29 7 3 4 8 8 7 7 8 6 3 1 1 1 0 0 0 0 0 0 0 0 5 96 255 128 79 81 144 255 45 29 255 171 97 88 130 255 110 6 0 0 0 0 0 0 0 0 0 0 0 0 0 0 1 24 255 206 96 60 57 93 191 255 48 18 23 41 90 203 255 19 1 0 0 0 0 0 0 0 0 0 0 2 33 255 187 85 39 21 16 27 249 233 116 74 83 158 255 50 2 0 0 0 0 0 0 0 0 0 0 0 0 0 0 0 3 63 255 148 75 64 91 171 255 33 3 10 149 235 116 71 76 133 255 98 5 0 0 0 0 0 0 0 0 0 0 0 0 0 0 1 13 255 221 99 62 57 87 164 255 22 3 13 225 214 119 117 222 229 12 1 0 0 1 14 255 233 107 65 61 95 176 255 19 6 72 255 124 63 42 46 71 155 255 54 3 0 0 0 2 41 255 164 200 255 27 7 12 17 27 52 87 78 44 24 17 25 203 252 124 74 77 136 255 104 5 0 0 0 7 151 255 118 73 71 118 235 255 28 16 22 42 100 231 233 103 44 23 17 37 255 212 105 61 60 88 189 255 26 1 0 0 0 0 0 0 0 1 1 1 4 9 15 21 37 82 206 255 221 87 38 21 15 10 14 181 240 169 255 103 6 0 0 0 0 0 4 72 255 136 80 78 135 255 163 20 15 22 42 95 218 255 14 1 0 0 0 0 0 0 0 0 0 0 0 0 0 0 0 0 0 0 0 0 0 0 0 0 0 0 0 0 0 0 0 0 0 0 0 2 35 255 192 87 40 22 16 38 255 210 106 63 51 43 33 24 24 44 89 122 93 49 25 26 42 65 83 117 224 255 26 14 19 32 66 152 255 66 3 0 0 0 0 0 0 0 0 0 0 0 0 0 0 1 14 255 234 104 47 24 16 11 14 149 255 145 140 255 117 6 0 0 0 0 0 0 4 78 255 147 170 255 47 10 14 19 31 64 143 255 85 104 255 143 62 30 18 14 32 255 206 112 101 160 255 255 194 84 42 33 33 36 61 133 214 132 79 74 128 255 106 7 3 38 255 165 95 91 142 255 64 3 0 0 0 0 0 0 0 0 0 0 0 0 0 0 0 0 0 0 0 0 0 0 2 47 255 160 129 184 255 25 2 6 76 255 124 73 72 107 240 221 11 0 0 0 0 0 0 0 1 3 4 2 3 8 14 16 17 17 16 15 16 97 255 155 92 93 157 255 49 2 0 0 0 0 0 4 66 255 161 255 123 12 10 15 23 43 97 219 255 16 1 0 0 0 0 0 0 0 0 0 0 6 122 255 124 54 27 17 15 60 255 173 90 53 33 23 28 101 166 128 119
0 0 0 0 0 0 0 0 0 0 0 0 0 0 0 0 0 0 0 0 0 0 0 0 0 0 0 0 0 0 0 0 0 0 1 3 13 4 1 1 3 2 2 2 3 2 1 0 0 0 0 0 0 0 0 0 0 2 40 255 153 67 39 40 80 188 255 219 242 97 48 44 68 150 255 45 2 0 0 0 0 0 0 0 0 0 0 0 0 0 10 213 255 112 47 28 26 45 102 223 189 19 10 18 42 109 255 141 7 0 0 0 0 0 0 0 0 0 1 12 242 231 98 39 17 9 12 97 255 124 57 35 41 85 199 255 22 1 0 0 0 0 0 0 0 0 0 0 0 0 0 1 30 255 186 78 37 29 43 92 211 154 12 49 255 123 56 33 37 68 162 255 46 2 0 0 0 0 0 0 0 0 0 0 0 0 0 5 98 255 121 50 29 25 40 90 232 89 10 72 255 119 62 65 126 255 92 5 0 0 6 110 255 126 52 30 27 44 96 250 78 31 255 140 63 29 18 21 34 82 197 255 25 1 0 1 15 255 206 115 126 255 154 11 5 7 11 20 29 27 17 10 11 79 255 133 61 35 38 71 165 255 47 2 0 3 63 255 142 60 35 33 57 124 255 97 12 10 19 46 90 91 47 20 10 15 141 247 112 50 28 27 43 103 251 202 10 0 0 0 0 0 0 0 0 0 1 1 3 6 8 16 39 96 157 101 42 17 9 6 8 71 255 140 109 156 255 43 2 0 0 0 2 34 255 173 73 40 38 68 149 255 67 10 9 19 45 117 255 105 5 0 0 0 0 0 0 0 0 0 0 0 0 0 0 0 0 0 0 0 0 0 0 0 0 0 0 0 0 0 0 0 0 0 0 1 14 255 234 101 40 17 9 15 142 241 110 50 27 19 15 11 10 13 43 140 170 123 50 15 11 15 23 34 57 123 255 126 12 8 14 30 77 182 255 29 1 0 0 0 0 0 0 0 0 0 0 0 0 0 6 118 255 125 49 20 10 6 8 65 255 146 79 81 147 255 47 2 0 0 0 0 2 34 255 162 92 99 202 255 20 6 7 13 29 72 182 255 255 178 72 28 13 8 13 127 252 112 57 53 92 217 245 105 40 19 14 14 16 27 54 78 56 38 36 63 133 255 36 14 210 202 89 47 46 77 177 255 28 1 0 0 0 0 0 0 0 0 0 0 0 0 0 0 0 0 0 0 0 0 1 18 255 200 95 71 107 240 130 9 24 255 133 62 34 35 55 131 255 89 4 0 0 0 0 0 0 0 1 1 1 1 3 5 6 5 5 5 7 45 255 173 80 45 48 85 196 255 21 1 0 0 0 1 29 255 172 113 146 255 49 6 6 9 19 46 118 255 119 6 0 0 0 0 0 0 0 0 0 3 55 255 154 61 24 11 8 28 255 200 90 41 21 12 10 24 123 92 68 58
0 0 0 0 0 0 0 0 0 0 0 0 0 0 0 0 0 0 0 0 0 0 0 0 0 0 0 0 0 0 0 0 0 0 0 1 4 2 1 0 1 1 1 1 1 1 0 0 0 0 0 0 0 0 0 0 1 15 255 208 84 33 18 19 40 110 255 255 138 51 23 20 33 81 199 255 18 1 0 0 0 0 0 0 0 0 0 0 0 4 89 255 142 56 22 12 11 20 49 118 255 54 7 8 19 55 144 255 58 3 0 0 0 0 0 0 0 0 5 95 255 124 47 17 7 5 33 255 146 63 26 15 19 42 110 255 162 8 0 0 0 0 0 0 0 0 0 0 0 0 1 12 241 248 103 39 17 12 19 45 112 255 84 254 169 68 26 15 17 33 88 212 255 20 1 0 0 0 0 0 0 0 0 0 0 0 2 44 255 159 63 24 12 11 18 46 119 255 75 255 151 64 31 34 69 168 255 44 2 2 48 255 159 64 25 13 11 20 50 130 255 255 239 83 30 12 7 8 15 40 109 255 208 10 1 6 112 255 119 69 71 137 255 59 5 3 4 6 9 8 6 5 26 255 155 68 28 15 18 35 88 208 255 20 2 28 255 185 76 29 15 14 26 62 142 255 32 5 8 18 30 30 18 8 6 45 255 128 55 23 12 12 20 52 134 255 76 4 0 0 0 0 0 0 0 0 0 0 1 2 3 7 17 37 54 39 18 7 3 3 29 255 170 80 62 92 205 255 16 1 0 1 13 255 236 97 36 19 17 32 77 173 255 24 5 8 21 60 157 255 48 2 0 0 0 0 0 0 0 0 0 0 0 0 0 0 0 0 0 0 0 0 0 0 0 0 0 0 0 0 0 0 0 0 0 6 111 255 126 48 18 7 6 43 255 124 53 22 11 7 5 4 4 10 61 179 167 151 65 11 4 5 8 13 26 63 149 255 47 5 6 13 36 99 242 231 11 1 0 0 0 0 0 0 0 0 0 0 0 3 54 255 160 63 23 9 4 3 28 255 184 79 40 42 82 194 255 18 1 0 0 1 14 255 229 95 51 54 115 255 109 8 3 5 13 35 103 255 241 98 35 12 5 5 43 255 131 56 27 26 45 89 96 49 18 8 5 5 6 10 19 25 21 16 16 29 74 193 175 98 255 112 44 22 21 39 99 245 209 10 0 0 0 0 0 0 0 0 0 0 0 0 0 0 0 0 0 0 0 0 6 125 255 111 50 36 56 128 255 61 105 225 78 29 15 15 27 69 171 255 42 2 0 0 0 0 0 0 0 0 0 0 1 2 2 2 2 2 14 214 209 93 39 21 22 42 110 255 170 8 0 0 0 11 210 245 106 69 87 190 255 18 3 4 8 21 59 150 255 49 2 0 0 0 0 0 0 0 1 25 255 199 83 29 11 5 9 116 255 109 43 18 8 4 5 24 105 49 32 25
0 0 0 0 0 0 0 0 0 0 0 0 0 0 0 0 0 0 0 0 0 0 0 0 0 0 0 0 0 0 0 0 0 0 0 1 1 1 0 0 0 0 0 0 0 0 0 0 0 0 0 0 0 0 0 0 6 114 255 118 43 15 8 8 21 65 164 181 79 27 11 9 16 41 114 255 130 7 0 0 0 0 0 0 0 0 0 0 2 42 255 180 75 27 10 5 4 9 23 63 147 173 14 4 9 27 79 192 255 25 1 0 0 0 0 0 0 2 44 255 168 66 22 7 3 9 118 205 83 30 12 6 8 20 57 146 255 65 3 0 0 0 0 0 0 0 0 0 0 0 5 98 255 136 53 18 7 5 8 22 66 193 255 255 102 35 12 6 7 16 45 119 255 153 8 0 0 0 0 0 0 0 0 0 0 1 20 255 216 89 32 11 5 4 8 23 77 246 255 255 92 33 15 16 36 95 223 255 21 22 255 207 87 31 11 5 5 9 26 87 255 255 148 48 15 5 3 3 7 19 56 142 255 81 7 52 255 159 67 38 38 78 181 255 23 2 1 2 2 2 2 7 84 227 89 33 13 6 7 16 44 115 255 155 19 204 252 104 38 13 6 6 11 30 81 206 119 9 3 6 9 9 6 4 12 170 172 71 26 10 5 5 9 25 72 174 255 33 2 0 0 0 0 0 0 0 0 0 0 1 1 2 6 13 17 13 7 3 2 9 161 240 99 43 33 50 117 255 120 6 1 5 105 255 130 50 18 8 7 14 38 98 248 91 7 4 10 30 88 212 255 22 1 0 0 0 0 0 0 0 0 0 0 0 0 0 0 0 0 0 0 0 0 0 0 0 0 0 0 0 0 0 0 0 2 50 255 161 65 23 8 3 11 151 169 69 25 9 4 2 1 1 2 13 131 148 131 142 126 14 2 2 3 5 11 31 82 189 213 14 3 6 17 50 134 255 92 5 0 0 0 0 0 0 0 0 0 0 1 24 255 206 87 31 10 3 2 10 170 251 106 41 19 21 42 111 255 135 7 0 0 6 121 255 130 52 27 28 63 151 255 43 3 2 5 17 51 105 100 48 16 5 3 13 194 182 74 27 12 11 19 31 33 19 8 3 2 2 2 4 6 7 7 6 6 13 39 112 255 255 176 64 22 10 9 19 52 134 255 85 4 0 0 0 0 0 0 0 0 0 0 0 0 0 0 0 0 0 0 3 53 255 149 59 25 18 29 75 200 255 255 124 44 14 6 6 12 35 95 222 255 17 1 0 0 0 0 0 0 0 0 0 0 0 0 0 1 4 63 255 115 46 18 9 10 21 58 150 255 72 4 0 4 80 255 135 59 39 48 111 255 96 6 2 3 9 29 82 200 255 20 1 0 0 0 0 0 0 10 215 255 111 41 14 5 4 39 255 135 56 20 7 3 2 4 21 66 26 14 10
0 0 0 0 0 0 0 0 0 0 0 0 0 0 0 0 0 0 0 0 0 0 0 0 0 0 0 0 0 0 0 0 0 0 0 0 0 0 0 0 0 0 0 0 0 0 0 0 0 0 0 0 0 0 0 2 51 255 164 65 22 7 3 4 10 33 67 71 38 13 5 4 7 21 62 155 255 54 3 0 0 0 0 0 0 0 0 1 18 255 228 100 38 13 4 2 2 4 11 32 87 255 46 4 4 13 41 111 255 214 10 0 0 0 0 0 1 18 255 222 96 34 11 3 3 37 255 113 44 15 5 3 4 9 29 81 189 255 28 1 0 0 0 0 0 0 0 0 0 2 47 255 176 73 26 9 3 2 4 11 39 118 250 181 66 19 6 2 3 7 22 63 154 255 64 3 0 0 0 0 0 0 0 0 0 8 170 255 125 47 15 5 2 2 4 13 50 145 255 153 56 17 7 8 18 50 127 255 234 224 255 119 45 15 5 2 2 4 15 56 140 172 86 28 7 2 1 1 3 9 28 77 180 255 78 255 214 92 36 20 20 42 108 255 133 7 1 1 1 1 2 25 255 118 48 16 5 3 3 7 22 61 155 255 255 255 140 55 19 6 3 2 5 14 44 115 255 39 3 2 3 3 2 4 48 255 101 37 12 4 2 2 4 12 37 100 238 255 13 1 0 0 0 0 0 0 0 0 0 0 0 1 2 4 5 4 2 1 4 57 255 134 54 23 17 26 65 160 255 52 5 48 255 170 70 25 8 3 3 6 18 53 130 255 30 3 4 15 46 122 255 161 8 0 0 0 0 0 0 0 0 0 0 0 0 0 0 0 0 0 0 0 0 0 0 0 0 0 0 0 0 0 0 1 24 255 213 91 33 11 3 4 45 255 98 36 12 4 1 1 0 1 3 35 243 116 95 125 230 32 3 1 1 2 5 15 42 107 255 63 5 3 8 25 74 177 255 43 2 0 0 0 0 0 0 0 0 0 9 185 255 117 45 15 4 2 4 60 255 138 57 20 9 10 22 62 157 255 61 3 3 56 255 172 72 27 13 14 33 88 208 255 15 2 2 8 21 37 36 20 7 2 4 61 255 109 39 13 5 4 7 10 10 7 3 1 1 1 1 1 2 2 2 2 3 6 21 75 206 243 106 36 11 4 4 9 26 74 182 255 42 2 0 0 0 0 0 0 0 0 0 0 0 0 0 0 0 0 1 23 255 203 86 31 12 8 15 43 124 255 251 86 25 7 3 2 6 17 49 125 255 122 6 0 0 0 0 0 0 0 0 0 0 0 0 0 1 20 255 154 64 23 8 4 4 10 30 83 192 255 34 3 37 255 177 75 32 21 26 63 151 255 38 2 1 4 14 43 116 255 143 7 0 0 0 0 0 5 95 255 150 59 20 6 2 11 167 195 80 28 9 3 1 1 3 14 32 13 6 4
0 0 0 0 0 0 0 0 0 0 0 0 0 0 0 0 0 0 0 0 0 0 0 0 0 0 0 0 0 0 0 0 0 0 0 0 0 0 0 0 0 0 0 0 0 0 0 0 0 0 0 0 0 0 1 22 255 214 96 36 11 3 1 2 5 14 24 25 16 6 2 1 3 10 33 90 204 255 23 1 0 0 0 0 0 0 0 7 135 255 131 53 19 6 2 1 1 1 5 17 58 154 171 12 2 6 21 61 152 255 93 4 0 0 0 0 7 139 255 127 52 17 5 2 10 159 194 75 24 7 2 1 1 4 14 43 111 255 212 10 0 0 0 0 0 0 0 0 1 21 255 227 102 39 13 4 1 1 2 6 22 62 105 84 38 11 3 1 1 3 11 33 87 198 255 29 1 0 0 0 0 0 0 0 4 73 255 161 69 25 7 2 1 1 2 7 30 72 106 74 31 9 3 3 9 26 70 171 255 255 170 66 23 7 2 1 1 2 8 31 60 68 43 15 4 1 0 0 1 4 14 40 106 255 255 255 128 51 19 9 10 22 61 146 255 52 3 0 0 1 6 103 227 80 26 8 2 1 1 3 10 33 93 233 255 214 83 29 9 3 1 1 2 7 24 77 196 183 11 1 1 1 1 13 201 165 66 20 6 2 1 1 2 6 19 55 139 255 107 5 0 0 0 0 0 0 0 0 0 0 0 0 1 1 1 1 1 1 21 255 184 80 29 11 8 13 35 93 210 255 51 255 220 98 37 12 4 1 1 3 9 29 84 221 145 9 2 7 24 66 155 255 65 3 0 0 0 0 0 0 0 0 0 0 0 0 0 0 0 0 0 0 0 0 0 0 0 0 0 0 0 0 0 10 207 255 125 49 16 5 2 13 216 173 67 20 5 2 1 0 0 1 8 130 178 102 75 116 181 105 7 1 0 1 2 7 22 64 157 255 21 2 4 13 39 102 229 255 19 1 0 0 0 0 0 0 0 4 79 255 152 63 23 7 2 2 23 255 183 80 30 10 4 4 11 34 92 209 255 32 27 255 213 97 39 14 6 7 17 49 123 255 92 5 1 3 8 12 12 7 3 2 22 255 168 69 22 6 2 2 2 3 3 2 1 0 0 0 0 0 0 1 1 1 1 3 12 44 93 103 57 20 5 2 2 4 13 40 106 237 255 20 1 0 0 0 0 0 0 0 0 0 0 0 0 0 0 0 9 182 255 120 47 16 6 4 7 24 69 130 118 55 15 3 1 1 2 8 25 69 163 255 54 3 0 0 0 0 0 0 0 0 0 0 0 0 6 99 255 98 35 11 3 1 2 5 15 44 111 249 255 32 255 239 105 41 16 10 14 35 93 221 255 14 1 2 7 22 64 155 255 59 3 0 0 0 2 47 255 191 84 31 10 3 4 53 255 113 44 14 4 1 0 0 2 7 12 6 2 1
0 0 0 0 0 0 0 0 0 0 0 0 0 0 0 0 0 0 0 0 0 0 0 0 0 0 0 0 0 0 0 0 0 0 0 0 0 0 0 0 0 0 0 0 0 0 0 0 0 0 0 0 0 0 8 173 255 127 53 19 5 1 1 1 2 5 8 8 6 2 1 1 1 5 18 50 123 255 171 8 0 0 0 0 0 0 3 58 255 166 73 28 9 3 1 0 0 1 2 10 37 102 255 54 4 3 11 34 88 195 255 47 2 0 0 3 62 255 167 72 28 9 2 4 55 255 119 47 14 3 1 0 1 2 7 23 63 150 255 85 4 0 0 0 0 0 0 0 9 189 255 134 56 20 6 2 1 0 1 3 11 28 39 34 19 5 1 0 0 1 5 17 48 119 255 255 12 1 0 0 0 0 0 2 35 255 202 92 37 13 3 1 0 0 1 4 15 31 39 31 15 4 1 1 4 13 39 100 206 208 101 38 12 3 1 0 0 1 4 14 23 24 18 7 2 0 0 0 0 2 6 22 63 153 255 172 75 28 10 4 4 12 35 90 205 255 21 1 0 2 39 255 134 53 15 4 1 0 0 1 5 18 53 119 175 112 48 16 4 1 0 0 1 3 14 49 121 255 60 4 0 0 4 60 255 105 41 11 3 1 0 0 1 3 9 30 81 183 255 51 2 0 0 0 0 0 0 0 0 0 0 0 0 0 0 0 1 7 121 255 114 46 16 5 3 6 19 53 127 255 255 255 132 54 20 6 2 1 0 1 4 16 53 132 255 53 4 3 12 36 90 200 255 30 1 0 0 0 0 0 0 0 0 0 0 0 0 0 0 0 0 0 0 0 0 0 0 0 0 0 0 0 4 88 255 162 71 26 8 2 5 70 255 114 43 11 3 1 0 0 0 3 48 255 130 91 71 104 133 255 37 2 0 0 1 3 11 38 104 255 108 7 2 6 21 57 135 255 154 7 0 0 0 0 0 0 2 39 255 199 88 34 11 3 1 8 146 255 113 45 16 5 2 2 5 18 52 124 255 255 255 255 125 53 20 7 3 3 9 27 73 165 255 37 2 1 2 4 3 2 1 7 131 255 110 43 12 3 1 1 1 1 1 1 0 0 0 0 0 0 0 0 0 0 0 2 6 22 37 40 26 10 3 1 1 2 6 22 60 140 255 166 8 0 0 0 0 0 0 0 0 0 0 0 0 0 0 4 74 255 159 69 26 8 2 2 4 13 33 51 49 30 8 2 1 0 1 4 13 38 97 217 255 26 1 0 0 0 0 0 0 0 0 0 0 2 39 255 149 62 20 5 2 1 1 2 7 23 61 147 255 255 255 143 59 22 8 5 7 19 55 135 255 103 6 1 3 11 36 92 205 255 27 1 0 1 22 255 235 111 46 16 5 2 18 255 179 74 25 7 2 1 0 0 1 2 4 2 1 0
0 0 0 0 0 0 0 0 0 0 0 0 0 0 0 0 0 0 0 0 0 0 0 0 0 0 0 0 0 0 0 0 0 0 0 0 0 0 0 0 0 0 0 0 0 0 0 0 0 0 0 0 0 4 72 255 165 74 30 10 3 1 0 0 1 2 2 2 2 1 0 0 1 2 9 28 72 162 255 71 4 0 0 0 0 1 28 255 215 100 42 15 4 1 0 0 0 0 1 6 26 78 180 255 20 2 5 19 51 116 243 255 24 1 1 30 255 215 101 42 15 4 2 22 255 192 84 31 8 2 0 0 0 1 3 12 36 90 194 255 40 2 0 0 0 0 0 4 81 255 170 77 32 10 3 1 0 0 0 1 5 11 14 12 8 2 1 0 0 1 2 8 27 70 159 255 112 5 0 0 0 0 1 14 255 255 122 53 20 6 2 0 0 0 0 2 6 12 14 11 6 2 1 1 2 6 21 53 89 90 54 21 6 2 0 0 0 0 2 5 8 8 6 3 1 0 0 0 0 1 3 11 36 77 111 83 42 15 5 2 2 6 20 54 129 255 160 8 1 14 255 224 97 37 9 2 0 0 0 1 2 9 28 54 71 53 26 8 2 1 0 0 0 2 8 32 83 184 255 23 1 1 21 255 170 75 27 7 1 0 0 0 0 1 5 16 47 110 231 255 24 1 0 0 0 0 0 0 0 0 0 0 0 0 0 0 3 50 255 158 71 27 8 2 1 3 10 30 79 184 255 189 82 31 10 3 1 0 0 1 2 9 35 90 201 255 21 3 6 19 52 123 255 232 11 1 0 0 0 0 0 0 0 0 0 0 0 0 0 0 0 0 0 0 0 0 0 0 0 0 0 2 44 255 200 95 40 14 4 2 27 255 175 81 30 7 1 0 0 0 1 19 255 210 116 95 84 101 123 223 218 12 1 0 0 1 6 24 68 153 255 42 3 3 11 32 79 174 255 70 3 0 0 0 0 1 17 255 251 121 51 19 5 2 3 61 255 160 70 26 8 2 1 1 3 9 29 72 164 255 255 173 74 29 10 3 1 1 4 15 44 104 234 255 14 1 1 1 1 1 3 54 255 157 72 27 7 2 0 0 0 0 0 0 0 0 0 0 0 0 0 0 0 0 0 1 3 9 13 14 10 4 1 0 0 1 3 11 34 80 172 255 74 4 0 0 0 0 0 0 0 0 0 0 0 0 2 34 255 201 95 40 14 4 1 1 2 6 14 19 18 13 4 1 0 0 0 2 6 21 57 133 255 222 10 0 0 0 0 0 0 0 0 0 1 14 255 228 101 40 11 3 1 0 0 1 3 12 35 91 209 255 204 89 35 12 4 2 3 10 34 84 180 255 45 3 2 6 20 54 127 255 228 11 1 9 176 255 140 63 25 8 2 6 106 255 119 48 15 4 1 0 0 0 0 1 1 1 0 0
0 0 0 0 0 0 0 0 0 0 0 0 0 0 0 0 0 0 0 0 0 0 0 0 0 0 0 0 0 0 0 0 0 0 0 0 0 0 0 0 0 0 0 0 0 0 0 0 0 0 0 0 1 33 255 207 101 45 17 5 1 0 0 0 0 0 1 1 0 0 0 0 0 1 4 16 44 100 208 255 34 2 0 0 1 12 255 255 135 60 24 7 2 1 0 0 0 0 1 4 19 62 126 255 134 7 3 10 30 69 148 255 233 11 13 255 255 133 61 24 7 2 8 158 255 130 61 21 5 1 0 0 0 0 2 6 21 55 121 248 255 18 1 0 0 0 2 39 255 207 102 46 17 5 1 0 0 0 0 1 2 4 4 4 3 1 0 0 0 0 1 4 15 42 96 194 255 53 2 0 0 0 6 114 255 153 72 31 10 3 1 0 0 0 0 1 2 4 4 4 2 1 0 0 1 3 11 25 36 36 26 11 3 1 0 0 0 0 1 2 2 2 2 1 0 0 0 0 0 0 1 6 18 35 44 37 21 8 2 1 1 3 11 34 81 170 255 67 9 100 255 145 70 27 6 1 0 0 0 0 1 4 13 22 26 22 12 4 1 0 0 0 0 1 5 22 58 123 255 141 8 7 130 255 119 55 18 4 1 0 0 0 0 1 2 9 28 66 141 255 204 10 0 0 0 0 0 0 0 0 0 0 0 0 0 1 22 255 222 104 45 16 4 1 1 1 5 17 49 96 132 97 50 18 5 1 0 0 0 0 1 5 24 62 131 255 137 8 3 10 31 74 158 255 95 5 0 0 0 0 0 0 0 0 0 0 0 0 0 0 0 0 0 0 0 0 0 0 0 0 1 20 255 248 122 56 23 7 2 10 197 255 119 59 20 4 1 0 0 0 7 142 255 144 109 132 150 123 118 149 255 82 4 0 0 1 3 15 47 104 225 255 16 2 5 18 47 106 218 255 37 2 0 0 0 7 139 255 150 72 30 10 3 2 28 255 214 103 45 15 4 1 0 0 1 5 16 44 100 194 198 106 45 16 5 1 0 1 2 8 27 66 148 255 111 6 0 0 0 1 24 255 218 104 48 17 4 1 0 0 0 0 0 0 0 0 0 0 0 0 0 0 0 0 0 0 1 3 4 4 3 2 0 0 0 0 1 6 18 47 103 215 255 38 2 0 0 0 0 0 0 0 0 0 0 1 13 255 255 124 57 23 7 2 0 0 1 2 5 6 6 5 2 0 0 0 0 1 3 11 34 80 167 255 96 5 0 0 0 0 0 0 0 0 6 109 255 145 68 27 7 1 0 0 0 0 2 6 21 55 109 152 107 54 20 6 2 1 1 5 20 53 113 232 255 18 1 3 10 32 77 165 255 101 9 74 255 171 82 36 13 4 3 45 255 169 81 34 9 2 0 0 0 0 0 0 0 0 0 0
0 0 0 0 0 0 0 0 0 0 0 0 0 0 0 0 0 0 0 0 0 0 0 0 0 0 0 0 0 0 0 0 0 0 0 0 0 0 0 0 0 0 0 0 0 0 0 0 0 0 0 1 13 255 255 130 63 28 9 2 1 0 0 0 0 0 0 0 0 0 0 0 0 1 2 8 27 63 132 255 255 14 1 0 5 108 255 170 84 38 13 4 1 0 0 0 0 0 0 2 14 54 93 178 255 59 4 5 17 43 89 178 255 127 131 255 167 82 38 14 4 4 70 255 174 90 47 14 3 1 0 0 0 0 1 3 12 34 75 154 255 157 7 0 0 1 19 255 255 128 63 28 9 2 1 0 0 0 0 0 1 1 1 1 1 0 0 0 0 0 0 2 8 26 59 119 236 255 25 1 0 2 51 255 189 94 45 18 5 1 0 0 0 0 0 0 1 1 1 1 1 0 0 0 0 1 4 10 13 13 10 5 1 0 0 0 0 0 0 0 1 1 1 0 0 0 0 0 0 0 1 3 8 14 16 15 9 3 1 0 0 1 6 21 53 108 215 255 113 255 188 98 55 19 4 1 0 0 0 0 0 2 5 8 9 8 5 2 0 0 0 0 0 1 3 14 44 85 167 255 65 64 255 171 87 45 12 2 0 0 0 0 0 0 1 4 16 41 86 173 255 91 4 0 0 0 0 0 0 0 0 0 0 0 0 9 181 255 144 69 30 9 2 1 0 1 2 9 28 46 55 46 28 10 2 1 0 0 0 0 1 3 16 46 88 174 255 58 4 5 18 47 99 200 255 47 2 0 0 0 0 0 0 0 0 0 0 0 0 0 0 0 0 0 0 0 0 0 0 0 8 169 255 153 74 34 12 4 5 86 255 165 83 46 14 3 0 0 0 3 62 255 180 106 132 224 255 196 133 113 197 255 38 2 0 0 2 9 33 72 146 255 118 7 3 10 29 66 136 255 255 18 1 0 3 64 255 187 92 44 17 5 2 12 255 255 137 68 30 9 2 0 0 0 1 2 9 27 58 88 89 60 28 9 2 1 0 0 1 4 16 45 96 193 255 53 3 0 1 9 196 255 142 70 34 10 2 0 0 0 0 0 0 0 0 0 0 0 0 0 0 0 0 0 0 0 0 1 1 1 1 0 0 0 0 0 1 3 10 28 64 134 255 255 17 1 0 0 0 0 0 0 0 0 0 5 111 255 158 77 35 13 3 1 0 0 0 1 1 2 2 1 1 0 0 0 0 0 1 6 20 50 103 206 255 49 2 0 0 0 0 0 0 2 50 255 188 95 49 17 4 1 0 0 0 0 1 3 11 32 53 64 52 32 11 3 1 0 1 3 11 34 72 146 255 138 7 2 5 19 49 103 206 255 131 255 211 106 50 21 7 3 19 255 233 114 59 24 5 1 0 0 0 0 0 0 0 0 0 0
0 0 0 0 0 0 0 0 0 0 0 0 0 0 0 0 0 0 0 0 0 0 0 0 0 0 0 0 0 0 0 0 0 0 0 0 0 0 0 0 0 0 0 0 0 0 0 0 0 0 0 6 122 255 162 82 41 16 4 1 0 0 0 0 0 0 0 0 0 0 0 0 0 0 1 4 16 42 83 164 255 122 6 3 51 255 199 105 54 24 7 2 0 0 0 0 0 0 0 2 11 54 74 119 224 255 28 4 9 27 56 109 217 255 255 207 104 53 24 7 3 37 255 220 114 66 39 9 2 0 0 0 0 0 0 1 6 21 49 96 188 255 72 3 1 8 178 255 160 80 40 16 5 1 0 0 0 0 0 0 0 0 0 0 0 0 0 0 0 0 0 1 4 15 37 74 147 255 220 10 1 23 255 233 119 60 28 10 2 1 0 0 0 0 0 0 0 0 0 0 0 0 0 0 0 1 2 3 4 4 4 2 1 0 0 0 0 0 0 0 0 0 0 0 0 0 0 0 0 0 0 1 3 5 5 5 3 1 0 0 0 1 3 13 36 70 139 255 255 255 125 70 46 14 2 0 0 0 0 0 0 1 2 3 3 3 1 1 0 0 0 0 0 0 2 9 36 63 112 226 255 255 233 117 68 40 8 1 0 0 0 0 0 0 0 2 8 25 55 108 211 255 48 2 0 0 0 0 0 0 0 0 0 0 4 76 255 177 93 49 19 5 1 0 0 0 1 5 14 20 22 20 14 5 1 0 0 0 0 0 0 2 10 36 63 114 220 255 26 4 10 30 64 127 246 255 22 1 0 0 0 0 0 0 0 0 0 0 0 0 0 0 0 0 0 0 0 0 0 4 73 255 181 93 48 21 6 4 45 255 211 110 64 38 9 2 0 0 1 31 255 223 118 96 190 236 234 233 178 101 133 255 255 16 1 0 1 5 23 54 98 189 255 57 4 5 17 43 84 164 255 167 8 2 31 255 225 117 59 27 9 3 6 110 255 171 88 47 19 5 1 0 0 0 0 1 4 15 31 38 38 32 16 4 1 0 0 0 0 2 9 32 65 122 238 255 26 1 4 85 255 175 92 52 25 6 1 0 0 0 0 0 0 0 0 0 0 0 0 0 0 0 0 0 0 0 0 0 0 0 0 0 0 0 0 0 0 1 5 17 41 83 159 255 159 7 0 0 0 0 0 0 0 0 2 52 255 193 99 50 22 7 2 0 0 0 0 0 0 1 1 0 0 0 0 0 0 0 1 3 11 32 65 129 248 255 24 1 0 0 0 0 1 22 255 235 121 66 37 11 2 0 0 0 0 0 0 1 6 16 24 26 23 16 5 1 0 0 0 1 6 22 48 93 183 255 62 4 3 11 32 66 131 255 255 255 136 67 32 12 4 8 144 255 149 79 45 16 3 1 0 0 0 0 0 0 0 0 0 0
0 0 0 0 0 0 0 0 0 0 0 0 0 0 0 0 0 0 0 0 0 0 0 0 0 0 0 0 0 0 0 0 0 0 0 0 0 0 0 0 0 0 0 0 0 0 0 0 0 0 3 62 255 197 100 53 26 9 2 1 0 0 0 0 0 0 0 0 0 0 0 0 0 0 0 2 9 27 54 100 191 255 59 29 255 237 122 65 35 14 4 1 0 0 0 0 0 0 0 1 10 62 67 81 140 255 220 12 5 16 36 68 134 255 255 130 66 35 14 4 17 255 255 138 76 52 32 6 1 0 0 0 0 0 0 1 3 12 32 61 115 220 255 36 6 83 255 185 97 52 25 9 2 1 0 0 0 0 0 0 0 0 0 0 0 0 0 0 0 0 0 0 2 8 23 48 89 173 255 96 14 187 255 144 74 39 17 5 1 0 0 0 0 0 0 0 0 0 0 0 0 0 0 0 0 0 1 1 1 1 1 1 0 0 0 0 0 0 0 0 0 0 0 0 0 0 0 0 0 0 0 0 1 1 2 2 1 0 0 0 0 0 2 7 23 48 91 174 249 160 85 55 40 9 2 0 0 0 0 0 0 0 0 1 1 1 0 0 0 0 0 0 0 0 1 6 29 51 78 149 255 255 152 82 60 38 6 1 0 0 0 0 0 0 0 1 4 15 36 68 130 250 255 24 1 0 0 0 0 0 0 0 0 2 37 255 210 109 61 35 12 3 1 0 0 0 1 2 5 8 8 7 5 2 1 0 0 0 0 0 0 1 6 27 48 75 139 255 201 11 6 18 42 79 150 255 193 9 0 0 0 0 0 0 0 0 0 0 0 0 0 0 0 0 0 0 0 0 2 36 255 214 110 59 30 12 4 23 255 254 132 75 54 33 6 1 0 1 13 255 255 141 84 115 197 175 164 183 192 115 93 157 255 143 7 0 1 3 15 43 68 120 232 255 29 4 9 27 53 98 187 255 79 17 255 255 138 73 39 16 5 4 54 255 200 105 59 33 12 3 1 0 0 0 0 0 2 7 14 15 15 14 7 2 1 0 0 0 0 1 5 21 45 78 147 255 220 13 44 255 210 108 62 40 16 3 1 0 0 0 0 0 0 0 0 0 0 0 0 0 0 0 0 0 0 0 0 0 0 0 0 0 0 0 0 0 0 1 2 9 26 52 96 189 255 75 4 0 0 0 0 0 0 1 26 255 236 120 63 33 12 3 1 0 0 0 0 0 0 0 0 0 0 0 0 0 0 0 0 1 6 19 43 79 150 255 229 10 0 0 0 0 9 177 255 146 78 48 27 7 1 0 0 0 0 0 0 1 2 6 9 9 9 6 2 1 0 0 0 1 3 13 33 61 115 222 255 30 3 6 20 44 83 155 240 168 88 44 20 6 5 67 255 181 96 58 35 10 2 0 0 0 0 0 0 0 0 0 0 0
0 0 0 0 0 0 0 0 0 0 0 0 0 0 0 0 0 0 0 0 0 0 0 0 0 0 0 0 0 0 0 0 0 0 0 0 0 0 0 0 0 0 0 0 0 0 0 0 0 1 33 255 237 122 64 35 15 4 1 0 0 0 0 0 0 0 0 0 0 0 0 0 0 0 0 1 5 16 36 63 118 234 255 255 255 148 75 42 22 7 2 0 0 0 0 0 0 0 0 1 12 99 77 61 88 169 255 96 7 8 22 44 78 119 119 77 44 22 7 9 140 255 162 86 54 44 25 5 1 0 0 0 0 0 0 0 1 6 20 40 71 135 255 255 74 255 219 112 60 34 15 4 1 0 0 0 0 0 0 0 0 0 0 0 0 0 0 0 0 0 0 0 1 4 13 31 56 105 207 255 255 255 174 89 48 25 9 2 1 0 0 0 0 0 0 0 0 0 0 0 0 0 0 0 0 0 0 0 0 0 0 0 0 0 0 0 0 0 0 0 0 0 0 0 0 0 0 0 0 0 0 0 0 0 0 0 0 0 0 0 0 0 1 4 14 34 59 89 110 86 61 49 35 7 1 0 0 0 0 0 0 0 0 0 0 0 0 0 0 0 0 0 0 0 1 4 22 44 59 94 152 152 95 64 60 40 6 1 0 0 0 0 0 0 0 0 2 8 22 44 79 152 255 217 10 0 0 0 0 0 0 0 1 17 255 255 132 69 42 23 7 1 0 0 0 0 0 1 2 2 3 2 2 1 0 0 0 0 0 0 0 1 4 19 39 53 88 170 255 90 7 10 28 51 91 179 255 84 4 0 0 0 0 0 0 0 0 0 0 0 0 0 0 0 0 0 0 1 17 255 255 134 68 38 18 6 12 213 255 155 83 55 51 27 5 1 0 6 117 255 167 90 76 162 155 122 111 129 160 154 79 100 192 255 71 3 0 2 9 34 50 77 145 255 247 13 5 16 34 60 113 222 255 255 255 166 85 47 25 9 3 28 255 239 123 66 41 21 6 1 0 0 0 0 0 0 1 3 5 5 5 5 3 1 0 0 0 0 0 1 3 13 31 52 90 171 255 165 255 255 131 69 44 30 10 2 0 0 0 0 0 0 0 0 0 0 0 0 0 0 0 0 0 0 0 0 0 0 0 0 0 0 0 0 0 0 0 0 1 5 16 33 60 116 222 255 39 2 0 0 0 0 0 11 250 255 148 75 42 21 6 2 0 0 0 0 0 0 0 0 0 0 0 0 0 0 0 0 0 1 3 10 28 50 90 176 255 97 5 0 0 4 75 255 174 91 53 37 18 4 1 0 0 0 0 0 0 0 1 2 3 3 3 2 1 0 0 0 0 0 2 7 22 42 73 139 255 255 14 3 11 29 52 80 105 85 56 30 11 5 36 255 225 114 64 45 27 6 1 0 0 0 0 0 0 0 0 0 0 0
0 0 0 0 0 0 0 0 0 0 0 0 0 0 0 0 0 0 0 0 0 0 0 0 0 0 0 0 0 0 0 0 0 0 0 0 0 0 0 0 0 0 0 0 0 0 0 0 1 16 255 255 148 78 43 23 8 2 1 0 0 0 0 0 0 0 0 0 0 0 0 0 0 0 0 1 2 8 23 42 76 155 255 255 193 95 50 27 12 3 1 0 0 0 0 0 0 0 0 2 27 234 153 62 62 109 209 255 50 6 13 28 44 53 53 44 29 13 7 69 255 192 101 58 43 39 18 3 1 0 0 0 0 0 0 0 1 3 11 26 47 85 167 255 255 255 139 71 39 21 8 2 0 0 0 0 0 0 0 0 0 0 0 0 0 0 0 0 0 0 0 0 0 2 7 19 37 68 136 255 255 244 114 59 32 15 4 1 0 0 0 0 0 0 0 0 0 0 0 0 0 0 0 0 0 0 0 0 0 0 0 0 0 0 0 0 0 0 0 0 0 0 0 0 0 0 0 0 0 0 0 0 0 0 0 0 0 0 0 0 0 0 0 2 7 23 37 44 48 45 47 51 30 5 1 0 0 0 0 0 0 0 0 0 0 0 0 0 0 0 0 0 0 0 0 3 16 43 49 59 70 70 60 58 79 54 6 1 0 0 0 0 0 0 0 0 1 4 13 29 51 94 180 255 97 5 0 0 0 0 0 0 7 146 255 165 84 47 29 14 3 1 0 0 0 0 0 0 0 1 1 1 0 0 0 0 0 0 0 0 0 0 2 11 32 42 60 110 214 255 50 7 17 34 60 113 216 255 42 2 0 0 0 0 0 0 0 0 0 0 0 0 0 0 0 0 0 8 168 255 166 85 45 24 10 8 98 255 185 97 57 47 57 22 4 1 3 56 255 200 106 67 103 193 126 91 81 96 132 186 95 73 123 234 255 39 2 1 6 25 39 54 92 174 255 113 8 8 21 39 72 144 255 255 223 108 56 31 15 5 14 255 255 151 78 45 28 12 3 1 0 0 0 0 0 0 0 1 2 2 2 1 1 0 0 0 0 0 0 0 2 7 20 36 59 109 227 255 255 164 84 49 33 21 5 1 0 0 0 0 0 0 0 0 0 0 0 0 0 0 0 0 0 0 0 0 0 0 0 0 0 0 0 0 0 0 0 0 1 2 8 20 40 73 139 255 255 19 1 0 0 0 5 109 255 178 93 50 27 11 3 1 0 0 0 0 0 0 0 0 0 0 0 0 0 0 0 0 0 0 1 5 16 33 58 110 209 255 48 2 2 38 255 217 111 60 39 27 10 2 0 0 0 0 0 0 0 0 0 1 1 1 1 1 0 0 0 0 0 0 1 3 13 29 50 89 172 255 117 7 6 17 32 40 45 41 34 18 7 18 255 255 144 76 47 37 18 4 1 0 0 0 0 0 0 0 0 0 0 0
0 0 0 0 0 0 0 0 0 0 0 0 0 0 0 0 0 0 0 0 0 0 0 0 0 0 0 0 0 0 0 0 0 0 0 0 0 0 0 0 0 0 0 0 0 0 0 0 7 161 255 177 95 54 30 13 4 1 0 0 0 0 0 0 0 0 0 0 0 0 0 0 0 0 0 0 1 4 13 29 55 104 174 192 120 67 36 17 6 2 0 0 0 0 0 0 0 0 0 7 122 255 255 139 58 76 137 255 255 27 7 16 23 23 24 24 17 8 40 255 237 125 69 44 40 35 11 2 0 0 0 0 0 0 0 0 0 1 5 16 32 59 114 218 255 174 93 50 26 12 4 1 0 0 0 0 0 0 0 0 0 0 0 0 0 0 0 0 0 0 0 0 0 1 3 11 25 49 92 162 214 145 81 43 21 8 2 1 0 0 0 0 0 0 0 0 0 0 0 0 0 0 0 0 0 0 0 0 0 0 0 0 0 0 0 0 0 0 0 0 0 0 0 0 0 0 0 0 0 0 0 0 0 0 0 0 0 0 0 0 0 0 0 1 4 13 22 21 21 24 42 68 26 4 1 0 0 0 0 0 0 0 0 0 0 0 0 0 0 0 0 0 0 0 0 2 11 46 48 38 33 33 41 80 180 152 12 1 0 0 0 0 0 0 0 0 0 2 6 18 35 63 115 218 255 52 2 0 0 0 0 3 69 255 197 107 60 35 18 7 2 0 0 0 0 0 0 0 0 0 0 0 0 0 0 0 0 0 0 0 0 0 1 7 25 35 47 77 140 255 255 29 10 22 42 75 139 255 255 19 1 0 0 0 0 0 0 0 0 0 0 0 0 0 0 0 4 82 255 202 107 59 32 14 7 53 255 218 118 67 46 52 93 21 3 2 30 255 244 130 74 74 206 179 121 84 71 85 127 178 168 73 84 149 255 255 18 1 4 16 32 42 64 113 212 255 61 7 12 27 51 96 166 208 135 75 40 19 8 8 129 255 184 98 55 33 18 6 2 0 0 0 0 0 0 0 0 0 0 0 0 0 0 0 0 0 0 0 0 0 1 3 11 26 43 77 144 240 198 110 60 38 24 12 3 1 0 0 0 0 0 0 0 0 0 0 0 0 0 0 0 0 0 0 0 0 0 0 0 0 0 0 0 0 0 0 0 0 0 1 4 11 28 50 90 170 255 186 8 0 0 2 54 255 212 114 64 36 17 6 1 0 0 0 0 0 0 0 0 0 0 0 0 0 0 0 0 0 0 0 1 2 8 21 41 73 135 253 255 25 18 255 255 142 76 45 30 18 5 1 0 0 0 0 0 0 0 0 0 0 0 0 0 0 0 0 0 0 0 0 0 2 7 19 36 62 112 206 255 58 5 9 17 19 19 19 18 10 11 175 255 174 95 56 39 31 11 2 0 0 0 0 0 0 0 0 0 0 0 0
0 0 0 0 0 0 0 0 0 0 0 0 0 0 0 0 0 0 0 0 0 0 0 0 0 0 0 0 0 0 0 0 0 0 0 0 0 0 0 0 0 0 0 0 0 0 0 4 76 255 209 118 71 43 20 7 2 0 0 0 0 0 0 0 0 0 0 0 0 0 0 0 0 0 0 0 0 2 7 20 47 73 90 94 77 54 28 9 3 1 0 0 0 0 0 0 0 0 3 57 255 231 255 255 133 70 97 168 255 255 15 8 10 10 10 11 8 22 255 255 159 90 57 41 43 30 7 1 0 0 0 0 0 0 0 0 0 1 2 8 23 49 83 120 141 106 70 41 17 6 2 0 0 0 0 0 0 0 0 0 0 0 0 0 0 0 0 0 0 0 0 0 0 0 1 5 16 41 69 90 103 86 64 35 13 4 1 0 0 0 0 0 0 0 0 0 0 0 0 0 0 0 0 0 0 0 0 0 0 0 0 0 0 0 0 0 0 0 0 0 0 0 0 0 0 0 0 0 0 0 0 0 0 0 0 0 0 0 0 0 0 0 0 0 2 6 10 9 9 15 56 168 31 4 0 0 0 0 0 0 0 0 0 0 0 0 0 0 0 0 0 0 0 0 0 1 10 67 61 27 16 18 48 255 255 255 62 3 0 0 0 0 0 0 0 0 0 1 3 10 25 50 83 146 255 255 28 1 0 0 2 39 255 242 133 79 50 28 10 3 1 0 0 0 0 0 0 0 0 0 0 0 0 0 0 0 0 0 0 0 0 0 1 4 17 32 44 64 99 172 255 255 18 14 33 59 97 173 255 185 8 0 0 0 0 0 0 0 0 0 0 0 0 0 0 2 45 255 239 134 79 47 23 9 32 255 255 146 85 56 52 121 255 39 4 15 255 255 164 94 74 170 255 178 152 121 97 115 154 177 254 142 77 103 177 255 171 8 2 9 24 38 54 83 143 255 255 35 7 18 42 69 89 100 82 59 32 11 7 67 255 218 123 74 46 24 10 3 1 0 0 0 0 0 0 0 0 0 0 0 0 0 0 0 0 0 0 0 0 0 0 1 5 17 36 63 92 117 106 79 52 33 16 6 1 0 0 0 0 0 0 0 0 0 0 0 0 0 0 0 0 0 0 0 0 0 0 0 0 0 0 0 0 0 0 0 0 0 0 0 2 6 19 39 68 115 204 255 86 4 1 26 255 254 142 82 50 27 9 3 1 0 0 0 0 0 0 0 0 0 0 0 0 0 0 0 0 0 0 0 0 1 4 12 31 57 94 169 255 255 213 255 178 100 62 38 23 10 3 1 0 0 0 0 0 0 0 0 0 0 0 0 0 0 0 0 0 0 0 0 0 1 3 11 28 52 82 139 251 255 30 5 7 8 7 8 8 9 99 255 212 117 73 51 36 24 6 1 0 0 0 0 0 0 0 0 0 0 0 0
0 0 0 0 0 0 0 0 0 0 0 0 0 0 0 0 0 0 0 0 0 0 0 0 0 0 0 0 0 0 0 0 0 0 0 0 0 0 0 0 0 0 0 0 0 0 2 41 255 243 142 91 67 40 13 3 1 0 0 0 0 0 0 0 0 0 0 0 0 0 0 0 0 0 0 0 0 1 3 14 47 59 51 50 55 50 21 5 1 0 0 0 0 0 0 0 0 1 30 255 255 200 197 255 255 149 91 121 204 255 141 9 4 4 4 4 12 193 255 186 115 82 66 54 65 27 5 1 0 0 0 0 0 0 0 0 0 0 1 4 17 51 71 71 72 70 64 40 11 3 1 0 0 0 0 0 0 0 0 0 0 0 0 0 0 0 0 0 0 0 0 0 0 0 1 3 10 38 60 54 53 57 61 30 8 2 0 0 0 0 0 0 0 0 0 0 0 0 0 0 0 0 0 0 0 0 0 0 0 0 0 0 0 0 0 0 0 0 0 0 0 0 0 0 0 0 0 0 0 0 0 0 0 0 0 0 0 0 0 0 0 0 0 0 1 2 3 3 4 20 247 255 110 7 1 0 0 0 0 0 0 0 0 0 0 0 0 0 0 0 0 0 0 0 0 2 18 203 157 27 9 19 191 255 255 255 255 31 1 0 0 0 0 0 0 0 0 0 1 5 18 49 75 108 177 255 255 13 1 1 21 255 255 166 102 74 52 23 6 1 0 0 0 0 0 0 0 0 0 0 0 0 0 0 0 0 0 0 0 0 0 0 0 2 10 31 53 73 86 121 199 255 135 15 28 59 83 123 207 255 89 4 0 0 0 0 0 0 0 0 0 0 0 0 1 24 255 255 161 101 73 46 17 21 255 255 178 108 78 76 183 255 255 246 21 158 255 196 119 93 171 255 220 196 229 255 255 251 220 198 233 255 141 92 124 212 255 87 5 5 16 39 62 79 107 172 255 255 20 13 40 57 53 52 56 56 27 8 39 255 253 148 95 71 48 18 5 1 0 0 0 0 0 0 0 0 0 0 0 0 0 0 0 0 0 0 0 0 0 0 0 1 3 10 34 66 65 61 61 68 59 32 10 3 1 0 0 0 0 0 0 0 0 0 0 0 0 0 0 0 0 0 0 0 0 0 0 0 0 0 0 0 0 0 0 0 0 0 0 0 1 3 12 34 66 91 140 237 255 46 14 251 255 171 105 75 49 19 5 1 0 0 0 0 0 0 0 0 0 0 0 0 0 0 0 0 0 0 0 0 0 0 2 7 25 56 81 122 211 255 255 220 127 87 67 38 16 5 1 0 0 0 0 0 0 0 0 0 0 0 0 0 0 0 0 0 0 0 0 0 0 0 1 6 22 54 76 105 170 255 255 14 3 3 3 3 5 59 255 246 145 94 74 63 38 16 3 1 0 0 0 0 0 0 0 0 0 0 0 0
0 0 0 0 0 0 0 0 0 0 0 0 0 0 0 0 0 0 0 0 0 0 0 0 0 0 0 0 0 0 0 0 0 0 0 0 0 0 0 0 0 0 0 0 0 1 20 255 255 158 104 90 92 45 9 2 0 0 0 0 0 0 0 0 0 0 0 0 0 0 0 0 0 0 0 0 0 0 2 11 58 56 33 30 46 55 16 3 1 0 0 0 0 0 0 0 1 13 255 255 179 156 148 181 255 255 158 105 136 224 255 77 5 1 1 6 94 255 207 125 97 108 150 165 217 36 4 1 0 0 0 0 0 0 0 0 0 0 1 2 14 73 78 47 41 54 77 48 8 1 0 0 0 0 0 0 0 0 0 0 0 0 0 0 0 0 0 0 0 0 0 0 0 0 0 1 7 40 63 38 31 43 73 28 5 1 0 0 0 0 0 0 0 0 0 0 0 0 0 0 0 0 0 0 0 0 0 0 0 0 0 0 0 0 0 0 0 0 0 0 0 0 0 0 0 0 0 0 0 0 0 0 0 0 0 0 0 0 0 0 0 0 0 0 0 1 1 1 7 106 255 255 255 49 2 0 0 0 0 0 0 0 0 0 0 0 0 0 0 0 0 0 0 0 0 5 90 255 255 86 13 79 255 221 182 192 255 255 15 1 0 0 0 0 0 0 0 0 1 3 14 69 95 94 120 192 255 131 6 10 230 255 184 117 97 101 80 20 4 1 0 0 0 0 0 0 0 0 0 0 0 0 0 0 0 0 0 0 0 0 0 0 0 1 6 34 114 141 104 98 132 220 255 85 33 86 95 99 138 233 255 47 2 0 0 0 0 0 0 0 0 0 0 0 11 248 255 178 113 92 95 58 24 194 255 194 121 97 125 255 255 255 244 255 255 255 215 131 105 175 255 237 180 200 247 255 255 255 244 203 191 249 255 143 103 141 238 255 49 5 11 54 123 111 96 118 188 255 185 19 44 56 35 30 44 65 25 26 255 255 164 107 92 100 75 14 3 1 0 0 0 0 0 0 0 0 0 0 0 0 0 0 0 0 0 0 0 0 0 0 0 0 1 7 40 102 56 36 41 79 104 37 6 1 0 0 0 0 0 0 0 0 0 0 0 0 0 0 0 0 0 0 0 0 0 0 0 0 0 0 0 0 0 0 0 0 0 0 0 0 0 1 7 35 93 91 104 155 255 255 208 255 193 119 93 96 64 15 3 1 0 0 0 0 0 0 0 0 0 0 0 0 0 0 0 0 0 0 0 0 0 0 1 4 22 79 94 101 142 227 239 148 103 100 112 48 11 2 1 0 0 0 0 0 0 0 0 0 0 0 0 0 0 0 0 0 0 0 0 0 0 0 1 3 18 84 100 96 119 189 255 121 7 1 1 2 31 255 255 157 106 98 120 140 55 11 2 0 0 0 0 0 0 0 0 0 0 0 0 0
0 0 0 0 0 0 0 0 0 0 0 0 0 0 0 0 0 0 0 0 0 0 0 0 0 0 0 0 0 0 0 0 0 0 0 0 0 0 0 0 0 0 0 0 0 8 171 255 166 101 86 124 193 83 9 1 0 0 0 0 0 0 0 0 0 0 0 0 0 0 0 0 0 0 0 0 0 0 2 13 107 70 24 20 44 73 14 2 0 0 0 0 0 0 0 0 6 117 255 176 117 114 109 117 158 230 255 126 95 135 235 255 42 2 3 47 255 218 126 89 106 227 255 255 255 172 10 1 0 0 0 0 0 0 0 0 0 0 0 2 20 185 126 40 26 54 135 96 10 1 0 0 0 0 0 0 0 0 0 0 0 0 0 0 0 0 0 0 0 0 0 0 0 0 0 1 7 51 85 31 20 41 118 31 4 1 0 0 0 0 0 0 0 0 0 0 0 0 0 0 0 0 0 0 0 0 0 0 0 0 0 0 0 0 0 0 0 0 0 0 0 0 0 0 0 0 0 0 0 0 0 0 0 0 0 0 0 0 0 0 0 0 0 0 0 0 0 3 46 255 211 191 248 255 23 1 0 0 0 0 0 0 0 0 0 0 0 0 0 0 0 0 0 0 2 45 255 233 242 255 101 255 210 142 116 127 181 255 157 7 0 0 0 0 0 0 0 0 0 2 20 189 179 104 87 117 203 255 74 111 255 192 113 89 122 205 220 31 3 0 0 0 0 0 0 0 0 0 0 0 0 0 0 0 0 0 0 0 0 0 0 0 0 1 8 92 255 255 192 99 91 134 238 255 155 210 156 95 94 143 253 255 22 1 0 0 0 0 0 0 0 0 0 5 108 255 184 109 86 111 178 149 188 255 202 118 89 127 255 255 241 176 172 239 255 255 135 94 131 255 220 156 140 167 182 191 200 197 186 168 144 164 230 244 116 96 145 255 255 26 17 185 255 234 117 88 115 199 255 147 76 71 26 19 42 101 42 236 255 173 104 87 125 216 236 24 2 0 0 0 0 0 0 0 0 0 0 0 0 0 0 0 0 0 0 0 0 0 0 0 0 0 1 8 86 218 76 26 40 165 255 88 8 1 0 0 0 0 0 0 0 0 0 0 0 0 0 0 0 0 0 0 0 0 0 0 0 0 0 0 0 0 0 0 0 0 0 0 0 0 0 1 7 56 199 127 87 100 166 255 255 225 122 88 107 179 147 17 2 0 0 0 0 0 0 0 0 0 0 0 0 0 0 0 0 0 0 0 0 0 0 0 1 3 31 194 159 99 92 109 113 94 100 170 249 124 12 2 0 0 0 0 0 0 0 0 0 0 0 0 0 0 0 0 0 0 0 0 0 0 0 0 0 3 29 228 199 115 89 117 202 255 58 3 1 13 255 255 157 99 89 152 255 255 212 17 2 0 0 0 0 0 0 0 0 0 0 0 0 0
0 0 0 0 0 0 0 0 0 0 0 0 0 0 0 0 0 0 0 0 0 0 0 0 0 0 0 0 0 0 0 0 0 0 0 0 0 0 0 0 0 0 0 0 4 73 255 174 94 66 91 206 252 255 26 2 0 0 0 0 0 0 0 0 0 0 0 0 0 0 0 0 0 0 0 0 0 0 2 31 247 152 26 15 57 132 18 2 0 0 0 0 0 0 0 3 55 255 188 101 74 77 75 72 89 132 189 162 75 78 134 252 255 21 22 255 237 125 74 72 157 249 246 241 228 255 70 4 0 0 0 0 0 0 0 0 0 0 0 5 68 255 241 60 24 98 244 255 31 2 0 0 0 0 0 0 0 0 0 0 0 0 0 0 0 0 0 0 0 0 0 0 0 0 0 1 10 109 156 36 17 64 195 56 5 1 0 0 0 0 0 0 0 0 0 0 0 0 0 0 0 0 0 0 0 0 0 0 0 0 0 0 0 0 0 0 0 0 0 0 0 0 0 0 0 0 0 0 0 0 0 0 0 0 0 0 0 0 0 0 0 0 0 0 0 0 1 19 255 228 132 118 153 255 195 9 0 0 0 0 0 0 0 0 0 0 0 0 0 0 0 0 0 1 21 255 245 155 158 255 255 255 134 85 71 78 105 188 255 73 3 0 0 0 0 0 0 0 0 5 72 255 254 153 71 70 117 229 255 255 203 108 69 80 187 255 255 135 8 1 0 0 0 0 0 0 0 0 0 0 0 0 0 0 0 0 0 0 0 0 0 0 0 2 40 255 255 242 239 137 68 78 137 255 255 255 240 121 68 82 145 255 196 9 0 0 0 0 0 0 0 0 2 53 255 195 104 67 77 173 255 255 255 221 114 71 79 194 232 180 128 99 105 129 174 128 80 78 166 181 128 96 100 114 111 106 107 110 115 115 99 100 138 196 153 74 83 146 255 247 105 255 255 249 179 77 70 113 219 255 255 159 28 15 63 217 255 255 180 98 67 88 205 255 255 111 7 0 0 0 0 0 0 0 0 0 0 0 0 0 0 0 0 0 0 0 0 0 0 0 0 0 2 32 255 238 192 36 83 255 255 255 36 2 0 0 0 0 0 0 0 0 0 0 0 0 0 0 0 0 0 0 0 0 0 0 0 0 0 0 0 0 0 0 0 0 0 0 0 0 0 1 16 216 241 207 93 67 98 176 212 126 75 76 162 248 255 52 4 0 0 0 0 0 0 0 0 0 0 0 0 0 0 0 0 0 0 0 0 0 0 0 1 7 111 255 238 125 61 50 50 61 124 232 251 255 48 3 0 0 0 0 0 0 0 0 0 0 0 0 0 0 0 0 0 0 0 0 0 0 0 0 1 7 111 255 253 175 77 72 117 222 255 28 6 99 255 160 88 64 98 226 250 251 255 89 5 0 0 0 0 0 0 0 0 0 0 0 0 0
0 0 0 0 0 0 0 0 0 0 0 0 0 0 0 0 0 0 0 0 0 0 0 0 0 0 0 0 0 0 0 0 0 0 0 0 0 0 0 0 0 0 0 2 35 255 194 94 51 47 119 196 194 249 129 7 0 0 0 0 0 0 0 0 0 0 0 0 0 0 0 0 0 0 0 0 0 0 8 124 218 255 62 22 137 204 39 3 0 0 0 0 0 0 1 25 255 212 104 55 43 47 47 41 46 67 106 143 67 45 70 139 255 216 207 255 133 66 44 72 173 155 132 121 133 199 255 32 1 0 0 0 0 0 0 0 0 0 1 26 255 186 203 168 57 255 221 238 168 9 1 0 0 0 0 0 0 0 0 0 0 0 0 0 0 0 0 0 0 0 0 0 0 0 0 2 34 255 224 79 28 176 179 209 15 1 0 0 0 0 0 0 0 0 0 0 0 0 0 0 0 0 0 0 0 0 0 0 0 0 0 0 0 0 0 0 0 0 0 0 0 0 0 0 0 0 0 0 0 0 0 0 0 0 0 0 0 0 0 0 0 0 0 0 0 0 7 144 255 133 75 66 85 158 255 80 4 0 0 0 0 0 0 0 0 0 0 0 0 0 0 0 0 8 177 255 140 90 94 154 237 153 78 48 40 44 56 101 203 255 35 2 0 0 0 0 0 0 1 28 255 189 185 182 73 43 63 130 255 250 115 57 44 89 183 175 189 255 55 3 0 0 0 0 0 0 0 0 0 0 0 0 0 0 0 0 0 0 0 0 0 0 1 17 255 237 160 143 162 166 63 45 72 140 219 205 192 158 58 46 76 160 255 84 4 0 0 0 0 0 0 1 27 255 220 107 55 43 89 193 201 234 211 116 60 44 85 170 128 89 61 50 55 60 68 56 46 73 141 100 67 54 63 67 59 52 50 54 62 67 61 56 75 114 148 64 47 77 162 255 255 211 158 159 178 84 44 60 118 228 255 255 77 27 213 255 255 202 96 52 46 112 191 176 185 255 48 2 0 0 0 0 0 0 0 0 0 0 0 0 0 0 0 0 0 0 0 0 0 0 0 1 11 220 244 188 251 148 255 191 181 243 255 14 1 0 0 0 0 0 0 0 0 0 0 0 0 0 0 0 0 0 0 0 0 0 0 0 0 0 0 0 0 0 0 0 0 0 0 0 0 5 82 255 188 190 122 49 51 75 84 60 46 81 186 187 198 255 18 1 0 0 0 0 0 0 0 0 0 0 0 0 0 0 0 0 0 0 0 0 0 0 2 45 255 192 184 155 48 23 22 46 147 171 171 215 255 19 1 0 0 0 0 0 0 0 0 0 0 0 0 0 0 0 0 0 0 0 0 0 0 0 2 43 255 178 174 183 83 45 62 125 255 255 65 255 174 85 47 47 122 174 151 149 191 255 40 2 0 0 0 0 0 0 0 0 0 0 0 0
0 0 0 0 0 0 0 0 0 0 0 0 0 0 0 0 0 0 0 0 0 0 0 0 0 0 0 0 0 0 0 0 0 0 0 0 0 0 0 0 0 0 1 14 255 241 108 48 27 41 142 128 119 151 255 50 3 0 0 0 0 0 0 0 0 0 0 0 0 0 0 0 0 0 0 0 0 2 46 255 159 184 255 102 255 181 151 10 1 0 0 0 0 0 10 212 255 118 53 28 23 25 25 20 21 32 54 90 59 27 35 72 166 255 255 160 69 33 28 79 121 83 62 55 68 116 245 255 13 1 0 0 0 0 0 0 0 0 9 170 252 134 139 255 255 233 151 154 255 65 3 0 0 0 0 0 0 0 0 0 0 0 0 0 0 0 0 0 0 0 0 0 0 0 1 10 170 215 193 255 154 255 167 255 68 4 0 0 0 0 0 0 0 0 0 0 0 0 0 0 0 0 0 0 0 0 0 0 0 0 0 0 0 0 0 0 0 0 0 0 0 0 0 0 0 0 0 0 0 0 0 0 0 0 0 0 0 0 0 0 0 0 0 0 0 3 60 255 154 71 40 34 44 84 185 255 38 2 0 0 0 0 0 0 0 0 0 0 0 0 0 0 4 76 255 155 73 48 49 71 94 69 40 24 20 21 28 50 110 240 255 14 1 0 0 0 0 0 10 195 245 127 110 135 86 29 32 64 115 106 57 29 32 99 119 101 120 201 255 22 1 0 0 0 0 0 0 0 0 0 0 0 0 0 0 0 0 0 0 0 0 0 7 138 255 140 85 75 93 131 65 27 35 62 93 105 116 143 58 27 39 85 187 255 41 2 0 0 0 0 0 11 222 255 123 54 28 32 112 136 118 111 90 53 30 30 89 100 64 39 27 23 24 24 24 22 26 66 86 51 32 28 34 34 28 23 21 23 29 33 32 29 37 60 99 57 27 39 88 195 239 128 86 88 116 95 31 30 56 103 153 199 255 182 255 186 161 97 48 27 39 133 121 100 118 214 255 22 1 0 0 0 0 0 0 0 0 0 0 0 0 0 0 0 0 0 0 0 0 0 0 4 83 255 152 125 182 255 255 128 105 146 255 112 5 0 0 0 0 0 0 0 0 0 0 0 0 0 0 0 0 0 0 0 0 0 0 0 0 0 0 0 0 0 0 0 0 0 0 0 2 37 255 175 123 124 141 44 25 28 30 26 31 95 134 113 135 255 104 6 0 0 0 0 0 0 0 0 0 0 0 0 0 0 0 0 0 0 0 0 0 1 17 255 212 128 113 132 44 12 11 40 125 102 97 136 255 145 7 0 0 0 0 0 0 0 0 0 0 0 0 0 0 0 0 0 0 0 0 0 0 1 17 255 209 117 101 123 94 31 32 64 148 255 255 236 97 43 25 41 127 101 79 78 114 226 255 16 1 0 0 0 0 0 0 0 0 0 0 0
0 0 0 0 0 0 0 0 0 0 0 0 0 0 0 0 0 0 0 0 0 0 0 0 0 0 0 0 0 0 0 0 0 0 0 0 0 0 0 0 0 0 5 106 255 136 56 23 16 43 125 78 68 97 200 255 20 1 0 0 0 0 0 0 0 0 0 0 0 0 0 0 0 0 0 0 1 18 255 204 120 135 255 255 226 168 255 57 3 0 0 0 0 4 91 255 151 62 26 13 10 11 11 9 9 14 26 47 47 17 17 37 93 200 201 91 35 17 21 86 70 41 27 24 33 62 139 255 100 5 0 0 0 0 0 0 0 3 68 255 147 88 100 208 255 163 97 101 190 255 30 1 0 0 0 0 0 0 0 0 0 0 0 0 0 0 0 0 0 0 0 0 0 0 3 67 255 148 154 255 255 204 145 170 255 27 1 0 0 0 0 0 0 0 0 0 0 0 0 0 0 0 0 0 0 0 0 0 0 0 0 0 0 0 0 0 0 0 0 0 0 0 0 0 0 0 0 0 0 0 0 0 0 0 0 0 0 0 0 0 0 0 0 0 1 27 255 198 86 37 19 16 21 43 105 237 255 15 1 0 0 0 0 0 0 0 0 0 0 0 0 2 38 255 193 85 37 24 23 29 33 27 18 11 8 9 12 24 56 135 255 116 6 0 0 0 0 4 79 255 144 77 63 83 105 24 16 27 42 40 25 15 27 100 70 55 68 120 255 155 8 0 0 0 0 0 0 0 0 0 0 0 0 0 0 0 0 0 0 0 0 3 64 255 167 77 43 37 50 81 71 18 15 24 36 48 64 95 63 18 19 43 105 235 255 18 1 0 0 0 4 88 255 148 63 26 15 31 128 84 61 47 35 22 14 24 84 53 29 16 10 9 9 9 8 9 16 54 46 25 14 12 15 14 11 9 8 9 12 14 14 13 17 30 55 46 17 20 43 83 99 66 44 45 67 101 26 15 24 43 72 130 255 255 194 111 70 42 22 15 39 122 72 54 68 128 255 171 8 0 0 0 0 0 0 0 0 0 0 0 0 0 0 0 0 0 0 0 0 0 2 37 255 179 93 79 122 207 159 83 59 84 176 255 55 3 0 0 0 0 0 0 0 0 0 0 0 0 0 0 0 0 0 0 0 0 0 0 0 0 0 0 0 0 0 0 0 0 0 1 15 255 236 113 74 78 121 45 13 10 10 11 25 108 82 65 85 158 255 44 2 0 0 0 0 0 0 0 0 0 0 0 0 0 0 0 0 0 0 0 0 7 136 255 129 76 66 86 42 8 7 35 81 57 53 79 162 255 64 3 0 0 0 0 0 0 0 0 0 0 0 0 0 0 0 0 0 0 0 0 0 6 134 255 128 70 56 73 99 26 17 33 84 199 255 136 53 21 14 39 101 57 38 38 62 131 255 125 6 0 0 0 0 0 0 0 0 0 0 0
0 0 0 0 0 0 0 0 0 0 0 0 0 0 0 0 0 0 0 0 0 0 0 0 0 0 0 0 0 0 0 0 0 0 0 0 0 0 0 0 0 2 48 255 175 77 29 12 11 50 91 50 39 60 126 255 149 7 0 0 0 0 0 0 0 0 0 0 0 0 0 0 0 0 0 0 6 123 255 132 87 102 185 250 162 151 206 255 25 1 0 0 2 45 255 194 87 33 12 5 4 4 4 3 3 5 11 23 32 10 8 18 46 84 85 46 18 9 20 97 42 20 11 10 15 33 79 180 255 46 2 0 0 0 0 0 1 31 255 197 93 59 72 119 149 101 63 65 121 255 255 12 1 0 0 0 0 0 0 0 0 0 0 0 0 0 0 0 0 0 0 0 0 1 33 255 199 110 116 173 219 143 114 124 255 198 10 0 0 0 0 0 0 0 0 0 0 0 0 0 0 0 0 0 0 0 0 0 0 0 0 0 0 0 0 0 0 0 0 0 0 0 0 0 0 0 0 0 0 0 0 0 0 0 0 0 0 0 0 0 0 0 0 0 11 238 255 120 47 18 9 7 10 22 58 139 255 121 6 0 0 0 0 0 0 0 0 0 0 0 1 17 255 251 115 46 19 11 9 10 11 9 7 4 3 3 5 11 29 76 180 255 58 3 0 0 2 39 255 193 88 46 36 56 126 27 8 10 14 13 9 8 26 93 44 30 38 70 156 255 64 3 0 0 0 0 0 0 0 0 0 0 0 0 0 0 0 0 0 0 1 33 255 215 98 42 21 17 26 49 83 16 7 9 13 20 33 59 74 15 10 22 57 139 255 152 7 0 0 2 41 255 188 83 33 13 9 36 122 56 30 19 13 8 7 20 74 30 13 6 4 3 3 3 3 3 10 39 23 11 6 5 6 5 4 3 3 3 4 5 5 5 7 14 27 32 10 9 19 32 37 30 21 23 42 101 25 8 10 17 34 81 159 206 123 63 30 17 9 10 42 92 45 29 39 74 162 255 74 4 0 0 0 0 0 0 0 0 0 0 0 0 0 0 0 0 0 0 0 1 16 255 241 109 56 50 72 94 79 50 34 48 105 227 255 28 1 0 0 0 0 0 0 0 0 0 0 0 0 0 0 0 0 0 0 0 0 0 0 0 0 0 0 0 0 0 0 0 0 6 120 255 140 69 45 51 87 52 9 4 3 5 25 114 55 38 52 101 223 255 18 1 0 0 0 0 0 0 0 0 0 0 0 0 0 0 0 0 0 0 3 61 255 171 78 45 38 50 38 7 6 28 46 30 28 45 97 210 255 32 1 0 0 0 0 0 0 0 0 0 0 0 0 0 0 0 0 0 0 0 3 63 255 174 78 41 31 46 97 25 9 17 44 91 116 70 28 11 10 39 69 33 18 18 33 76 175 255 60 3 0 0 0 0 0 0 0 0 0 0
0 0 0 0 0 0 0 0 0 0 0 0 0 0 0 0 0 0 0 0 0 0 0 0 0 0 0 0 0 0 0 0 0 0 0 0 0 0 0 0 1 22 255 236 110 45 16 6 10 72 68 35 24 39 81 173 255 66 3 0 0 0 0 0 0 0 0 0 0 0 0 0 0 0 0 3 54 255 178 91 70 78 100 119 109 126 149 255 195 9 0 1 21 255 249 121 51 18 6 2 1 1 1 1 1 2 4 10 16 6 4 9 21 33 33 21 9 6 23 123 33 10 5 4 7 18 47 114 240 255 21 1 0 0 0 1 12 248 255 128 61 44 53 64 69 59 42 45 78 163 255 113 5 0 0 0 0 0 0 0 0 0 0 0 0 0 0 0 0 0 0 0 1 14 255 255 136 86 88 95 104 94 94 95 166 255 85 4 0 0 0 0 0 0 0 0 0 0 0 0 0 0 0 0 0 0 0 0 0 0 0 0 0 0 0 0 0 0 0 0 0 0 0 0 0 0 0 0 0 0 0 0 0 0 0 0 0 0 0 0 0 0 0 5 99 255 166 73 27 9 4 3 4 11 33 85 184 255 55 3 0 0 0 0 0 0 0 0 0 0 7 142 255 154 68 26 9 4 3 3 3 3 2 1 1 1 2 5 15 45 113 237 255 30 1 1 17 255 255 124 56 29 23 50 144 40 6 4 4 4 3 5 27 85 32 16 21 43 100 213 255 30 1 0 0 0 0 0 0 0 0 0 0 0 0 0 0 0 0 1 16 255 255 135 59 24 10 8 13 37 120 18 4 3 5 8 17 42 110 16 5 11 33 83 180 255 67 3 1 18 255 249 118 49 17 6 8 52 108 43 15 7 4 3 4 17 65 19 6 2 1 1 1 1 1 2 6 24 11 5 2 2 2 2 1 1 1 1 1 2 2 2 3 6 12 18 6 4 7 11 13 12 9 12 32 102 28 5 4 7 17 48 80 93 71 36 14 7 4 8 51 68 30 16 22 45 101 214 255 39 2 0 0 0 0 0 0 0 0 0 0 0 0 0 0 0 0 0 0 7 145 255 153 68 36 32 39 41 37 29 20 29 64 142 255 245 12 1 0 0 0 0 0 0 0 0 0 0 0 0 0 0 0 0 0 0 0 0 0 0 0 0 0 0 0 0 0 0 3 60 255 190 89 44 29 35 65 73 9 2 1 4 30 116 45 24 33 65 144 255 150 7 0 0 0 0 0 0 0 0 0 0 0 0 0 0 0 0 0 1 29 255 224 109 50 27 21 28 30 6 4 18 23 15 14 26 59 133 255 255 13 1 0 0 0 0 0 0 0 0 0 0 0 0 0 0 0 0 0 1 31 255 227 111 50 24 18 35 97 26 6 8 21 39 46 32 14 5 8 41 46 19 9 9 18 46 111 232 255 31 1 0 0 0 0 0 0 0 0 0
0 0 0 0 0 0 0 0 0 0 0 0 0 0 0 0 0 0 0 0 0 0 0 0 0 0 0 0 0 0 0 0 0 0 0 0 0 0 0 0 9 195 255 157 74 29 8 4 17 173 70 27 16 27 59 118 230 255 34 1 0 0 0 0 0 0 0 0 0 0 0 0 0 0 1 25 255 237 124 72 69 67 56 60 79 111 115 183 255 83 5 10 220 255 161 79 33 10 3 1 0 0 0 0 0 1 2 4 6 3 2 4 8 12 12 8 4 5 37 168 40 6 2 1 3 9 31 77 158 255 188 9 0 0 0 5 104 255 171 88 46 36 41 36 33 35 30 35 57 109 211 255 58 3 0 0 0 0 0 0 0 0 0 0 0 0 0 0 0 0 0 0 6 123 255 174 99 81 74 55 52 66 89 86 119 219 255 44 2 0 0 0 0 0 0 0 0 0 0 0 0 0 0 0 0 0 0 0 0 0 0 0 0 0 0 0 0 0 0 0 0 0 0 0 0 0 0 0 0 0 0 0 0 0 0 0 0 0 0 0 0 0 2 48 255 211 110 50 16 5 2 1 2 6 20 57 123 240 255 27 1 0 0 0 0 0 0 0 0 3 64 255 195 100 45 15 4 2 1 1 1 1 1 0 0 0 1 2 8 29 76 154 255 255 13 8 152 255 167 85 40 19 17 65 155 99 8 2 1 1 1 4 32 90 28 10 12 29 69 144 255 255 12 1 0 0 0 0 0 0 0 0 0 0 0 0 0 0 0 8 175 255 176 88 39 13 5 3 8 48 200 32 3 1 2 3 10 50 207 30 4 6 20 55 118 228 255 34 9 159 255 162 79 31 9 4 12 131 110 43 9 3 1 1 3 15 63 14 3 1 0 0 0 0 0 1 3 10 5 2 1 1 1 0 0 0 0 0 0 0 0 1 1 2 5 7 3 2 2 4 4 4 4 7 32 118 38 5 2 3 9 28 39 42 40 20 6 3 2 9 83 61 22 9 12 29 68 142 255 255 20 1 0 0 0 0 0 0 0 0 0 0 0 0 0 0 0 0 3 70 255 201 103 49 24 20 20 18 17 15 11 18 43 92 178 255 101 5 0 0 0 0 0 0 0 0 0 0 0 0 0 0 0 0 0 0 0 0 0 0 0 0 0 0 0 0 0 1 33 255 246 128 63 30 19 28 69 179 17 2 1 5 42 126 51 18 22 48 99 193 255 69 3 0 0 0 0 0 0 0 0 0 0 0 0 0 0 0 1 12 251 255 147 74 35 16 11 15 20 4 3 8 10 7 7 15 40 88 174 255 131 6 0 0 0 0 0 0 0 0 0 0 0 0 0 0 0 0 1 13 255 255 148 75 34 14 11 34 110 33 5 4 9 15 17 13 6 3 7 47 32 11 4 4 10 30 75 151 255 255 15 1 0 0 0 0 0 0 0 0
0 0 0 0 0 0 0 0 0 0 0 0 0 0 0 0 0 0 0 0 0 0 0 0 0 0 0 0 0 0 0 0 0 0 0 0 0 0 0 4 87 255 192 108 58 19 5 5 60 255 173 31 11 19 49 88 155 255 255 15 1 0 0 0 0 0 0 0 0 0 0 0 0 0 11 233 255 160 95 77 99 74 37 35 70 113 105 129 223 255 51 116 255 198 109 60 22 5 1 0 0 0 0 0 0 0 1 1 2 1 1 1 3 4 4 3 2 8 101 185 82 8 1 1 1 5 21 59 108 195 255 88 4 0 2 52 255 212 118 70 42 33 33 20 16 20 21 30 49 82 140 251 255 30 1 0 0 0 0 0 0 0 0 0 0 0 0 0 0 0 0 3 60 255 208 120 88 103 80 37 31 57 112 106 99 148 255 255 23 1 0 0 0 0 0 0 0 0 0 0 0 0 0 0 0 0 0 0 0 0 0 0 0 0 0 0 0 0 0 0 0 0 0 0 0 0 0 0 0 0 0 0 0 0 0 0 0 0 0 0 0 1 23 255 255 140 80 38 10 2 1 0 1 3 12 43 88 160 255 239 11 0 0 0 0 0 0 0 1 32 255 236 130 73 32 9 2 1 0 0 0 0 0 0 0 0 0 1 5 20 57 103 182 255 137 85 255 199 113 66 31 13 21 160 191 255 37 2 0 0 1 5 50 122 32 7 6 21 56 102 181 255 109 5 0 0 0 0 0 0 0 0 0 0 0 0 0 0 4 85 255 209 117 66 28 7 2 2 12 139 207 97 7 1 1 2 12 132 221 101 8 3 12 41 84 152 255 255 125 255 199 111 60 21 5 4 48 255 186 65 8 1 1 1 2 14 72 13 2 0 0 0 0 0 0 0 1 3 2 1 0 0 0 0 0 0 0 0 0 0 0 0 0 1 1 2 1 1 1 1 1 1 2 6 46 157 85 7 1 1 4 14 18 19 20 10 3 1 2 22 243 95 19 5 7 20 54 99 177 255 196 9 0 0 0 0 0 0 0 0 0 0 0 0 0 0 0 2 36 255 239 134 78 40 16 10 9 7 7 6 5 11 32 67 119 213 255 49 2 0 0 0 0 0 0 0 0 0 0 0 0 0 0 0 0 0 0 0 0 0 0 0 0 0 0 0 1 15 255 255 161 92 52 22 13 32 180 255 59 4 1 8 98 151 95 17 16 41 77 131 235 255 35 2 0 0 0 0 0 0 0 0 0 0 0 0 0 0 5 112 255 182 102 59 26 9 5 7 9 2 1 3 3 3 3 9 30 66 117 213 255 68 3 0 0 0 0 0 0 0 0 0 0 0 0 0 0 0 6 116 255 180 101 59 25 9 9 48 147 56 6 2 3 5 6 5 2 2 8 67 25 6 2 2 5 21 58 103 184 255 150 7 0 0 0 0 0 0 0 0
0 0 0 0 0 0 0 0 0 0 0 0 0 0 0 0 0 0 0 0 0 0 0 0 0 0 0 0 0 0 0 0 0 0 0 0 0 0 2 45 255 219 123 80 51 14 4 25 255 222 255 102 11 14 46 75 104 174 255 131 6 0 0 0 0 0 0 0 0 0 0 0 0 5 96 255 184 109 89 137 218 135 33 26 83 134 118 99 146 255 255 255 225 126 79 51 15 3 1 0 0 0 0 0 0 0 0 0 0 0 0 0 1 1 1 1 3 38 255 195 255 26 2 0 1 3 15 51 80 126 224 255 48 3 26 255 248 138 87 67 46 33 25 11 7 10 13 26 50 71 95 157 255 255 14 1 0 0 0 0 0 0 0 0 0 0 0 0 0 0 1 31 255 240 134 91 108 184 136 35 23 75 183 180 105 104 169 255 226 10 0 0 0 0 0 0 0 0 0 0 0 0 0 0 0 0 0 0 0 0 0 0 0 0 0 0 0 0 0 0 0 0 0 0 0 0 0 0 0 0 0 0 0 0 0 0 0 0 0 0 0 9 195 255 161 95 64 30 6 1 0 0 0 2 8 36 70 105 180 255 108 5 0 0 0 0 0 1 15 255 255 151 90 59 24 5 1 0 0 0 0 0 0 0 0 0 0 1 3 14 47 75 117 212 255 255 240 128 82 59 25 12 70 255 244 255 255 14 1 0 1 12 182 190 62 7 4 15 51 78 118 208 255 54 3 0 0 0 0 0 0 0 0 0 0 0 0 2 44 255 228 130 82 55 21 4 1 3 49 255 201 255 37 2 0 3 46 255 203 255 43 4 8 33 67 102 182 255 255 249 130 81 51 15 4 21 255 240 255 249 19 1 0 0 2 17 109 15 2 0 0 0 0 0 0 0 0 1 1 0 0 0 0 0 0 0 0 0 0 0 0 0 0 0 0 1 0 0 0 0 0 0 1 10 128 207 255 30 2 1 2 5 7 8 8 4 1 1 6 99 255 255 38 4 4 14 49 75 113 195 255 90 4 0 0 0 0 0 0 0 0 0 0 0 0 0 1 16 255 255 150 92 66 36 11 5 3 2 2 2 2 6 24 56 83 137 247 255 23 1 0 0 0 0 0 0 0 0 0 0 0 0 0 0 0 0 0 0 0 0 0 0 0 0 0 0 7 143 255 177 105 74 51 17 14 108 255 219 255 23 3 34 255 215 255 39 13 38 69 93 150 255 255 15 1 0 0 0 0 0 0 0 0 0 0 0 0 3 58 255 210 118 77 53 19 5 2 2 3 1 1 1 1 1 1 5 22 57 84 135 240 255 37 2 0 0 0 0 0 0 0 0 0 0 0 0 0 3 55 255 204 116 76 52 18 5 13 139 190 216 15 1 1 2 2 1 1 2 16 173 28 4 1 1 3 15 49 76 117 205 255 72 3 0 0 0 0 0 0 0
0 0 0 0 0 0 0 0 0 0 0 0 0 0 0 0 0 0 0 0 0 0 0 0 0 0 0 0 0 0 0 0 0 0 0 0 0 1 20 255 244 131 77 60 47 11 11 189 255 179 215 255 51 13 48 68 70 103 186 255 58 3 0 0 0 0 0 0 0 0 0 0 2 45 255 197 109 78 120 255 255 255 64 32 143 159 146 87 93 166 255 255 135 78 59 45 11 2 0 0 0 0 0 0 0 0 0 0 0 0 0 0 0 0 0 1 14 255 239 211 255 138 8 1 0 2 11 46 61 79 132 248 255 41 252 255 147 85 68 77 66 35 16 5 3 4 7 23 60 69 67 93 168 255 140 6 0 0 0 0 0 0 0 0 0 0 0 0 0 1 14 255 255 143 84 84 177 233 238 63 31 172 218 225 145 81 100 177 255 97 5 0 0 0 0 0 0 0 0 0 0 0 0 0 0 0 0 0 0 0 0 0 0 0 0 0 0 0 0 0 0 0 0 0 0 0 0 0 0 0 0 0 0 0 0 0 0 0 0 0 4 85 255 172 96 65 54 23 4 1 0 0 0 1 6 31 57 69 107 200 255 56 3 0 0 0 0 7 135 255 165 91 63 51 18 3 1 0 0 0 0 0 0 0 0 0 0 0 2 9 40 57 74 130 250 255 145 81 62 58 22 39 255 216 195 175 255 107 5 0 4 72 255 233 255 20 3 11 49 63 76 124 232 255 27 1 0 0 0 0 0 0 0 0 0 0 1 21 255 247 132 78 59 48 15 3 1 18 255 215 194 240 254 13 1 16 255 216 188 241 255 19 6 26 56 70 111 199 244 144 83 61 45 11 10 169 255 177 212 255 95 5 0 0 3 31 182 28 2 0 0 0 0 0 0 0 0 0 0 0 0 0 0 0 0 0 0 0 0 0 0 0 0 0 0 0 0 0 0 0 0 0 3 46 255 230 255 198 10 1 1 2 2 3 3 1 1 2 43 255 201 252 217 13 3 10 47 59 71 113 209 255 47 2 0 0 0 0 0 0 0 0 0 0 0 0 7 147 255 158 89 64 59 34 7 2 1 1 1 1 1 4 17 49 61 84 147 255 207 10 0 0 0 0 0 0 0 0 0 0 0 0 0 0 0 0 0 0 0 0 0 0 0 0 0 3 65 255 189 103 69 63 58 16 55 255 212 177 255 171 22 230 246 241 255 238 23 39 68 67 90 158 255 135 6 0 0 0 0 0 0 0 0 0 0 0 1 30 255 234 125 76 62 51 14 3 1 1 1 0 0 0 0 0 1 3 17 52 62 82 141 255 255 18 1 0 0 0 0 0 0 0 0 0 0 0 1 26 255 227 121 74 60 49 13 6 52 255 232 255 77 5 1 0 0 0 0 4 59 255 83 6 1 0 2 10 43 59 73 119 218 255 35 2 0 0 0 0 0 0
0 0 0 0 0 0 0 0 0 0 0 0 0 0 0 0 0 0 0 0 0 0 0 0 0 0 0 0 0 0 0 0 0 0 0 0 0 8 158 255 136 70 46 44 42 13 82 255 164 120 138 230 255 38 56 64 47 57 103 207 255 26 1 0 0 0 0 0 0 0 0 1 20 255 225 110 62 66 176 206 185 205 247 96 208 164 153 85 59 86 135 118 71 46 43 39 8 1 0 0 0 0 0 0 0 0 0 0 0 0 0 0 0 0 0 5 103 255 155 152 164 255 58 3 0 1 8 40 44 47 71 139 255 255 255 159 80 51 58 113 148 47 10 3 1 2 4 22 91 76 47 53 90 179 255 62 3 0 0 0 0 0 0 0 0 0 0 0 0 6 127 255 152 77 55 98 195 180 197 234 117 248 176 168 169 74 58 95 189 255 46 2 0 0 0 0 0 0 0 0 0 0 0 0 0 0 0 0 0 0 0 0 0 0 0 0 0 0 0 0 0 0 0 0 0 0 0 0 0 0 0 0 0 0 0 0 0 0 0 2 42 255 193 94 54 43 43 16 3 0 0 0 0 1 4 24 44 43 59 111 224 255 28 1 0 0 3 60 255 174 89 52 42 41 12 2 0 0 0 0 0 0 0 0 0 0 0 0 1 6 30 41 45 69 109 117 76 49 48 59 39 255 255 144 119 110 179 255 48 4 35 255 203 204 255 112 8 9 48 49 47 68 131 255 233 11 0 0 0 0 0 0 0 0 0 0 8 170 255 138 70 44 40 39 10 2 7 118 255 142 134 151 255 94 11 110 255 144 129 150 255 145 11 19 44 45 59 87 99 71 49 44 38 13 78 255 169 114 132 175 255 40 2 1 6 91 167 74 6 0 0 0 0 0 0 0 0 0 0 0 0 0 0 0 0 0 0 0 0 0 0 0 0 0 0 0 0 0 0 0 0 1 18 255 212 174 165 255 78 4 0 0 1 1 1 0 1 18 255 227 143 165 255 85 6 9 46 46 43 61 116 234 255 24 1 0 0 0 0 0 0 0 0 0 0 3 68 255 173 85 50 44 53 32 5 1 0 0 0 0 0 2 12 41 42 48 80 159 255 88 4 0 0 0 0 0 0 0 0 0 0 0 0 0 0 0 0 0 0 0 0 0 0 0 1 30 255 205 103 57 44 58 83 46 255 227 135 119 164 255 255 255 163 162 174 255 147 53 69 49 52 86 176 255 61 3 0 0 0 0 0 0 0 0 0 1 12 248 255 131 68 47 49 49 11 2 0 0 0 0 0 0 0 0 0 2 12 47 44 47 75 147 255 144 7 0 0 0 0 0 0 0 0 0 0 0 11 243 255 129 66 45 48 46 11 23 255 209 188 187 255 32 2 0 0 0 1 23 255 185 255 31 2 0 1 7 36 43 43 64 121 247 255 15 1 0 0 0 0 0
0 0 0 0 0 0 0 0 0 0 0 0 0 0 0 0 0 0 0 0 0 0 0 0 0 0 0 0 0 0 0 0 0 0 0 0 3 68 255 154 70 35 25 29 36 53 255 185 92 70 78 134 255 255 105 63 31 30 52 115 255 205 10 0 0 0 0 0 0 0 0 8 166 255 126 57 36 66 157 120 107 139 255 255 188 138 124 86 38 39 50 45 32 25 27 29 6 1 0 0 0 0 0 0 0 0 0 0 0 0 0 0 0 0 2 46 255 169 93 90 104 198 255 27 1 1 6 29 29 25 36 73 164 255 200 87 41 30 63 196 255 151 13 2 1 1 4 33 170 106 37 28 45 94 199 255 27 1 0 0 0 0 0 0 0 0 0 0 3 56 255 168 78 40 40 116 133 114 142 255 255 185 118 105 129 72 35 48 102 218 255 19 1 0 0 0 0 0 0 0 0 0 0 0 0 0 0 0 0 0 0 0 0 0 0 0 0 0 0 0 0 0 0 0 0 0 0 0 0 0 0 0 0 0 0 0 0 0 1 18 255 228 107 48 28 25 29 10 2 0 0 0 0 0 3 15 29 25 31 56 122 255 229 11 1 1 28 255 200 92 44 27 25 28 7 1 0 0 0 0 0 0 0 0 0 0 0 0 1 4 18 25 25 31 41 43 34 27 37 82 255 255 149 83 64 63 101 211 255 39 255 245 130 130 167 255 50 11 43 36 27 35 67 147 255 98 5 0 0 0 0 0 0 0 0 3 69 255 154 71 35 23 25 26 7 4 49 255 156 85 79 88 168 255 149 255 161 87 76 85 160 255 73 16 30 26 27 33 36 30 26 28 29 52 255 192 93 65 72 107 217 255 15 2 33 255 141 255 24 1 0 0 0 0 0 0 0 0 0 0 0 0 0 0 0 0 0 0 0 0 0 0 0 0 0 0 0 0 0 0 0 7 133 255 135 103 101 182 255 36 2 0 0 0 0 0 7 137 255 134 87 100 177 255 41 10 44 33 24 31 58 129 255 212 10 0 0 0 0 0 0 0 0 0 1 34 255 201 93 43 26 29 43 27 4 1 0 0 0 0 0 1 7 30 27 26 40 84 184 255 43 2 0 0 0 0 0 0 0 0 0 0 0 0 0 0 0 0 0 0 0 0 0 1 12 241 248 112 52 29 28 65 188 255 255 133 77 70 97 221 255 204 102 91 105 184 255 231 86 37 28 44 95 201 255 27 1 0 0 0 0 0 0 0 0 5 94 255 142 66 34 27 38 45 9 1 0 0 0 0 0 0 0 0 0 1 9 37 29 25 37 74 159 255 59 3 0 0 0 0 0 0 0 0 0 5 99 255 149 66 34 26 35 40 17 162 255 134 114 120 235 230 12 1 0 0 8 164 255 159 234 225 11 1 1 5 24 28 24 32 61 135 255 118 6 0 0 0 0 0
0 0 0 0 0 0 0 0 0 0 0 0 0 0 0 0 0 0 0 0 0 0 0 0 0 0 0 0 0 0 0 0 0 0 0 1 33 255 191 82 34 16 12 17 58 255 237 102 48 37 41 71 156 255 255 99 22 15 25 59 140 255 83 4 0 0 0 0 0 0 3 67 255 152 65 28 23 65 94 63 57 87 173 240 147 101 86 82 26 16 17 16 13 11 14 16 4 1 0 0 0 0 0 0 0 0 0 0 0 0 0 0 0 1 19 255 211 95 51 47 59 115 255 220 11 1 4 16 15 12 17 35 75 121 88 42 20 22 100 196 208 255 54 3 0 1 7 92 196 172 39 15 21 46 108 252 219 11 0 0 0 0 0 0 0 0 0 1 26 255 201 89 38 21 34 113 78 66 95 177 222 124 72 60 75 65 22 23 50 119 255 132 7 0 0 0 0 0 0 0 0 0 0 0 0 0 0 0 0 0 0 0 0 0 0 0 0 0 0 0 0 0 0 0 0 0 0 0 0 0 0 0 0 0 0 0 0 0 7 131 255 124 53 23 13 12 14 5 1 0 0 0 0 0 2 7 14 12 14 27 60 140 255 90 5 11 226 255 112 45 21 13 13 14 4 1 0 0 0 0 0 0 0 0 0 0 0 0 0 2 8 12 11 12 14 14 13 15 44 247 255 170 79 44 31 32 52 118 255 255 255 139 74 72 100 207 255 32 33 23 14 16 32 76 177 255 48 2 0 0 0 0 0 0 1 31 255 185 81 34 16 11 12 13 5 21 255 200 88 47 41 48 98 255 255 241 94 48 40 45 86 197 255 49 18 12 11 11 12 11 11 16 48 255 242 106 48 34 36 58 122 255 105 18 226 223 161 245 145 8 0 0 0 0 0 0 0 0 0 0 0 0 0 0 0 0 0 0 0 0 0 0 0 0 0 0 0 0 0 0 3 57 255 157 77 55 56 104 233 255 15 1 0 0 0 3 56 255 153 72 49 55 102 228 255 28 37 21 12 14 28 64 149 255 89 4 0 0 0 0 0 0 0 1 14 255 244 109 46 20 13 16 29 18 3 0 0 0 0 0 0 1 4 16 14 12 19 41 100 224 255 19 1 0 0 0 0 0 0 0 0 0 0 0 0 0 0 0 0 0 0 0 0 5 93 255 135 56 24 14 23 130 255 255 154 71 40 38 53 105 154 100 57 46 57 101 214 255 193 37 15 21 46 109 253 220 11 0 0 0 0 0 0 0 2 42 255 167 73 31 16 14 25 36 7 1 0 0 0 0 0 0 0 0 0 1 6 23 16 12 17 35 84 191 255 26 1 0 0 0 0 0 0 0 2 46 255 174 77 32 16 13 23 36 98 255 153 77 61 68 133 255 88 5 0 3 65 255 152 110 143 255 87 5 1 3 12 14 11 15 29 69 163 255 53 3 0 0 0 0
0 0 0 0 0 0 0 0 0 0 0 0 0 0 0 0 0 0 0 0 0 0 0 0 0 0 0 0 0 0 0 0 0 0 1 14 255 248 107 41 16 7 6 26 255 255 131 53 24 17 20 36 79 164 233 226 31 8 11 29 75 180 255 40 2 0 0 0 0 1 29 255 186 81 32 14 15 57 48 31 29 48 82 106 90 67 58 69 18 7 5 5 4 4 6 6 2 0 0 0 0 0 0 0 0 0 0 0 0 0 0 0 0 7 139 255 119 49 26 23 31 61 142 255 92 5 2 6 6 5 7 15 29 42 33 18 10 26 174 135 136 191 255 20 1 2 34 255 166 180 63 11 9 21 55 140 255 89 4 0 0 0 0 0 0 0 0 10 212 255 113 44 18 11 29 84 45 37 55 82 95 68 40 31 40 52 15 11 24 61 151 255 55 3 0 0 0 0 0 0 0 0 0 0 0 0 0 0 0 0 0 0 0 0 0 0 0 0 0 0 0 0 0 0 0 0 0 0 0 0 0 0 0 0 0 0 0 3 57 255 154 64 25 10 5 5 5 2 0 0 0 0 0 0 1 3 5 5 6 12 29 73 174 255 50 93 255 140 57 22 9 5 5 5 2 0 0 0 0 0 0 0 0 0 0 0 0 0 0 1 3 4 4 4 4 5 5 13 117 246 168 85 39 21 14 15 26 65 171 255 185 77 39 37 55 119 255 255 36 13 6 7 15 38 97 219 255 21 1 0 0 0 0 1 11 225 243 103 40 16 7 4 5 5 10 154 255 114 46 24 19 25 54 131 206 125 52 25 19 22 44 110 248 255 29 6 4 4 4 4 5 22 255 255 133 55 23 15 17 29 67 161 255 255 255 143 134 153 255 63 3 0 0 0 0 0 0 0 0 0 0 0 0 0 0 0 0 0 0 0 0 0 0 0 0 0 0 0 0 1 25 255 198 88 41 27 29 55 131 255 128 6 0 0 1 24 255 194 84 37 25 28 54 130 255 251 41 12 6 6 12 31 78 182 255 42 2 0 0 0 0 0 0 5 108 255 133 55 22 9 6 8 14 9 2 0 0 0 0 0 0 0 2 6 6 5 8 19 50 125 255 148 7 0 0 0 0 0 0 0 0 0 0 0 0 0 0 0 0 0 0 0 2 42 255 171 72 27 11 8 40 239 183 146 77 35 20 18 25 43 56 42 27 22 28 50 103 173 228 72 11 10 22 56 140 255 86 4 0 0 0 0 0 1 18 255 219 93 36 14 7 7 14 21 5 1 0 0 0 0 0 0 0 0 0 1 3 10 7 5 7 16 42 108 255 207 10 0 0 0 0 0 0 1 22 255 219 95 38 15 7 6 16 89 255 197 85 41 30 36 73 170 255 40 3 28 255 186 88 68 85 175 255 39 2 1 4 5 5 6 13 34 89 206 255 24 1 0 0 0
0 0 0 0 0 0 0 0 0 0 0 0 0 0 0 0 0 0 0 0 0 0 0 0 0 0 0 0 0 0 0 0 0 0 6 120 255 140 57 20 7 3 8 102 255 150 68 27 11 7 9 17 37 75 131 212 76 8 5 14 39 103 235 255 17 1 0 0 0 11 210 251 107 41 15 7 11 42 23 14 13 23 34 42 46 41 39 53 13 3 2 1 1 1 2 2 1 0 0 0 0 0 0 0 0 0 0 0 0 0 0 0 3 60 255 156 65 25 12 10 15 31 78 184 255 46 3 2 2 2 3 6 10 13 11 7 7 45 179 94 81 124 255 134 8 12 220 230 144 134 150 15 5 10 28 77 183 255 42 2 0 0 0 0 0 0 4 87 255 148 60 22 8 7 23 52 25 19 27 34 36 31 20 15 20 34 10 5 11 31 86 201 255 24 1 0 0 0 0 0 0 0 0 0 0 0 0 0 0 0 0 0 0 0 0 0 0 0 0 0 0 0 0 0 0 0 0 0 0 0 0 0 0 0 0 0 1 28 255 206 87 32 11 4 2 2 1 1 0 0 0 0 0 0 0 1 1 2 2 5 13 37 100 238 255 255 182 76 29 10 4 2 2 1 1 0 0 0 0 0 0 0 0 0 0 0 0 0 0 0 1 1 1 1 1 1 3 35 255 147 80 39 18 9 6 6 12 34 82 127 86 40 20 18 29 66 162 255 174 14 3 3 6 18 50 125 255 164 8 0 0 0 0 5 92 255 137 54 20 7 3 2 2 5 71 255 156 63 24 11 8 12 27 57 79 55 26 12 8 10 22 58 138 255 165 10 2 1 1 1 7 94 255 150 68 27 11 6 7 14 36 98 255 255 206 96 96 102 203 255 31 1 0 0 0 0 0 0 0 0 0 0 0 0 0 0 0 0 0 0 0 0 0 0 0 0 0 0 0 9 178 255 115 46 21 13 14 28 72 170 255 59 3 1 9 183 255 114 44 18 11 14 28 71 170 255 204 16 3 2 5 14 39 103 230 255 17 1 0 0 0 0 2 51 255 171 71 27 10 4 2 3 5 3 1 0 0 0 0 0 0 0 1 2 2 2 3 9 25 66 159 255 62 3 0 0 0 0 0 0 0 0 0 0 0 0 0 0 0 0 0 1 17 255 225 98 37 13 5 10 106 178 106 64 34 16 9 8 10 15 18 15 11 9 12 23 46 85 145 209 20 5 10 28 77 180 255 39 2 0 0 0 0 7 135 255 128 49 17 6 3 3 6 9 2 0 0 0 0 0 0 0 0 0 0 0 1 3 2 2 3 7 20 58 148 255 84 4 0 0 0 0 0 8 176 255 127 49 18 6 3 4 40 255 235 110 45 21 14 18 39 99 231 255 30 201 255 109 49 39 48 102 230 255 16 1 1 2 2 2 6 16 46 118 255 193 9 0 0 0
0 0 0 0 0 0 0 0 0 0 0 0 0 0 0 0 0 0 0 0 0 0 0 0 0 0 0 0 0 0 0 0 0 3 55 255 180 79 30 10 3 3 37 255 158 78 34 13 5 3 3 7 16 34 70 132 255 22 3 6 20 57 138 255 138 7 0 0 4 86 255 145 59 21 7 3 7 24 11 6 6 9 13 16 21 22 25 36 9 2 1 0 0 0 1 0 0 0 0 0 0 0 0 0 0 0 0 0 0 0 0 1 29 255 208 92 35 12 5 4 7 16 43 109 236 255 21 1 1 1 1 2 3 4 3 3 9 94 121 68 51 78 161 255 68 103 255 150 112 117 255 43 4 5 14 42 108 236 255 18 1 0 0 0 0 2 41 255 191 84 32 11 4 4 14 27 13 9 11 12 13 12 8 7 9 17 5 3 5 16 48 122 255 183 9 0 0 0 0 0 0 0 0 0 0 0 0 0 0 0 0 0 0 0 0 0 0 0 0 0 0 0 0 0 0 0 0 0 0 0 0 0 0 0 0 1 11 240 255 125 48 16 5 2 1 0 0 0 0 0 0 0 0 0 0 0 0 1 1 2 6 19 57 145 255 255 113 42 14 4 1 1 0 0 0 0 0 0 0 0 0 0 0 0 0 0 0 0 0 0 0 0 0 0 0 1 9 133 202 95 39 17 7 3 2 2 6 16 35 47 36 19 9 8 15 37 90 184 255 65 4 1 3 8 26 69 160 255 69 3 0 0 2 46 255 187 79 29 9 3 1 1 2 36 255 208 92 35 12 5 3 5 12 22 28 22 11 5 3 4 11 30 74 162 255 61 4 0 0 2 35 255 165 79 34 13 5 3 3 7 19 58 132 184 114 64 65 67 125 255 255 14 1 0 0 0 0 0 0 0 0 0 0 0 0 0 0 0 0 0 0 0 0 0 0 0 0 0 4 72 255 152 64 25 10 5 6 14 39 99 216 255 28 5 75 255 154 65 23 9 5 6 14 38 93 195 255 79 5 1 2 6 20 56 134 255 131 7 0 0 0 1 25 255 226 101 38 13 4 1 1 1 1 1 0 0 0 0 0 0 0 0 0 0 1 1 1 4 12 35 92 204 255 28 1 0 0 0 0 0 0 0 0 0 0 0 0 0 0 0 0 7 145 255 134 54 19 6 4 34 255 117 58 28 14 7 3 3 4 5 6 5 4 3 5 10 20 42 102 253 61 6 5 14 42 107 238 255 17 1 0 0 3 59 255 166 72 26 8 3 1 1 2 3 1 0 0 0 0 0 0 0 0 0 0 0 0 1 1 1 1 3 10 31 86 191 255 39 2 0 0 0 4 73 255 162 70 26 8 3 2 14 245 242 130 59 24 10 6 9 21 56 139 255 255 255 149 62 28 21 27 57 137 255 126 6 1 0 1 1 2 8 24 66 158 255 80 4 0 0
0 0 0 0 0 0 0 0 0 0 0 0 0 0 0 0 0 0 0 0 0 0 0 0 0 0 0 0 0 0 0 0 1 26 255 225 108 45 16 5 2 13 236 226 103 42 17 6 2 1 1 3 7 15 39 104 255 96 7 3 10 32 81 177 255 63 3 2 43 255 196 89 34 11 3 2 3 10 5 2 2 3 4 6 8 10 14 20 5 1 0 0 0 0 0 0 0 0 0 0 0 0 0 0 0 0 0 0 0 0 1 12 255 255 129 54 19 6 2 2 3 8 24 63 141 255 173 8 1 0 0 1 1 1 1 2 26 255 91 52 34 51 104 227 255 255 203 104 92 123 185 197 12 3 7 23 62 142 255 159 7 0 0 0 1 17 255 244 116 49 17 5 2 2 6 11 6 4 4 4 4 4 3 2 4 6 2 1 2 8 27 73 163 255 79 4 0 0 0 0 0 0 0 0 0 0 0 0 0 0 0 0 0 0 0 0 0 0 0 0 0 0 0 0 0 0 0 0 0 0 0 0 0 0 0 5 102 255 160 73 27 8 2 1 0 0 0 0 0 0 0 0 0 0 0 0 0 0 0 1 3 10 33 83 147 132 67 24 7 2 1 0 0 0 0 0 0 0 0 0 0 0 0 0 0 0 0 0 0 0 0 0 0 0 0 3 45 255 131 60 20 7 3 1 1 1 2 7 13 16 13 8 4 3 7 20 49 103 197 255 25 2 1 4 13 39 96 208 255 33 2 1 21 255 242 116 47 16 4 1 0 1 16 255 255 127 54 19 6 2 1 2 4 7 9 7 4 2 1 2 5 15 41 97 199 255 24 1 1 11 212 233 106 43 17 6 2 1 1 3 10 31 60 75 58 43 45 46 76 160 255 125 6 0 0 0 0 0 0 0 0 0 0 0 0 0 0 0 0 0 0 0 0 0 0 0 0 2 34 255 202 93 37 13 4 2 3 7 21 57 131 255 255 57 255 202 93 37 12 4 2 3 7 20 51 106 196 255 34 2 1 3 10 31 78 173 255 59 3 0 0 11 250 255 139 59 21 6 2 1 0 0 0 0 0 0 0 0 0 0 0 0 0 0 0 0 1 2 6 19 53 126 255 236 11 1 0 0 0 0 0 0 0 0 0 0 0 0 0 0 3 67 255 178 80 31 10 3 10 173 219 98 35 12 6 2 1 1 1 1 2 2 1 1 2 4 9 24 77 156 255 20 3 7 23 62 145 255 140 7 0 1 29 255 217 100 41 14 4 1 0 0 1 1 0 0 0 0 0 0 0 0 0 0 0 0 0 0 0 0 0 1 5 17 50 116 247 255 17 1 0 2 35 255 205 96 40 13 4 1 5 93 255 153 71 31 12 4 3 4 11 33 86 197 255 228 96 37 15 11 15 33 82 178 255 57 3 0 0 0 1 4 12 38 95 201 255 38 2 0
0 0 0 0 0 0 0 0 0 0 0 0 0 0 0 0 0 0 0 0 0 0 0 0 0 0 0 0 0 0 0 0 11 249 255 139 65 26 8 2 5 87 255 148 68 24 8 2 1 0 0 1 3 7 26 87 163 255 40 3 5 18 49 109 223 255 33 22 255 252 124 55 20 5 1 1 1 3 2 1 1 1 1 2 3 4 6 8 2 1 0 0 0 0 0 0 0 0 0 0 0 0 0 0 0 0 0 0 0 0 6 120 255 167 79 33 10 3 1 1 1 4 13 37 85 178 255 76 4 0 0 0 0 0 1 7 106 232 109 47 25 35 69 147 255 255 135 80 91 133 147 255 72 5 4 13 38 87 182 255 75 4 0 0 7 141 255 149 70 29 9 2 1 1 2 3 2 1 1 1 1 1 1 1 1 2 1 1 1 4 15 45 102 210 255 41 2 0 0 0 0 0 0 0 0 0 0 0 0 0 0 0 0 0 0 0 0 0 0 0 0 0 0 0 0 0 0 0 0 0 0 0 0 0 2 52 255 200 97 44 15 4 1 0 0 0 0 0 0 0 0 0 0 0 0 0 0 0 0 0 1 5 18 43 62 58 37 13 3 1 0 0 0 0 0 0 0 0 0 0 0 0 0 0 0 0 0 0 0 0 0 0 0 0 1 15 255 207 102 42 11 3 1 0 0 0 1 2 4 5 4 3 1 1 3 10 26 59 129 255 176 9 1 2 7 22 59 131 255 255 14 9 190 255 148 71 28 8 2 1 0 7 147 255 158 76 33 10 3 1 0 1 1 2 3 2 1 1 0 1 2 7 23 59 129 255 160 8 5 77 255 147 69 25 8 2 1 0 0 1 5 15 25 29 27 27 31 32 49 96 192 255 59 3 0 0 0 0 0 0 0 0 0 0 0 0 0 0 0 0 0 0 0 0 0 0 1 14 255 255 128 57 22 6 2 1 1 3 11 34 79 170 255 255 255 128 58 22 6 2 1 1 3 10 27 59 127 255 255 14 1 1 5 17 48 108 225 255 30 2 5 105 255 174 84 36 11 3 1 0 0 0 0 0 0 0 0 0 0 0 0 0 0 0 0 0 0 1 3 10 32 77 164 255 106 5 0 0 0 0 0 0 0 0 0 0 0 0 0 1 34 255 222 110 49 17 5 5 66 255 150 84 24 6 2 1 0 0 0 0 0 0 0 0 1 1 4 15 61 123 255 108 7 4 12 38 89 184 255 64 4 12 240 255 137 62 24 7 2 0 0 0 0 0 0 0 0 0 0 0 0 0 0 0 0 0 0 0 0 0 0 1 2 9 29 71 153 255 169 8 1 15 255 255 128 58 23 7 2 2 42 255 191 98 41 16 5 2 1 2 5 19 54 107 160 120 62 23 8 5 7 20 50 111 226 255 28 1 0 0 0 2 6 22 58 125 255 255 17 1
0 0 0 0 0 0 0 0 0 0 0 0 0 0 0 0 0 0 0 0 0 0 0 0 0 0 0 0 0 0 0 5 114 255 174 85 40 15 4 3 39 255 192 100 48 14 4 1 0 0 0 0 1 4 19 79 124 240 255 16 3 10 31 68 139 255 255 255 255 155 78 36 11 3 1 0 0 1 0 0 0 0 0 1 1 1 2 2 1 0 0 0 0 0 0 0 0 0 0 0 0 0 0 0 0 0 0 0 0 3 62 255 203 102 51 20 5 1 0 0 0 2 7 22 53 110 214 255 37 2 0 0 0 0 2 42 255 161 147 61 20 25 49 90 142 133 87 74 116 149 133 199 255 33 3 7 23 55 113 222 255 40 2 3 65 255 185 92 44 17 4 1 0 0 1 1 1 0 0 0 0 0 0 0 0 0 0 0 0 2 8 28 65 132 255 255 19 1 0 0 0 0 0 0 0 0 0 0 0 0 0 0 0 0 0 0 0 0 0 0 0 0 0 0 0 0 0 0 0 0 0 0 0 1 27 255 244 124 61 27 8 2 0 0 0 0 0 0 0 0 0 0 0 0 0 0 0 0 0 0 1 2 9 20 25 24 17 6 2 0 0 0 0 0 0 0 0 0 0 0 0 0 0 0 0 0 0 0 0 0 0 0 0 0 5 95 255 139 80 32 7 2 0 0 0 0 0 1 1 1 1 1 0 1 1 5 14 36 84 167 255 71 4 1 3 13 37 81 160 255 135 100 255 179 90 44 17 4 1 0 3 72 255 192 96 48 19 5 1 0 0 0 0 1 1 1 0 0 0 0 1 3 13 37 83 167 255 72 41 255 195 99 47 15 4 1 0 0 0 1 2 6 9 11 12 15 19 22 33 60 118 232 255 31 1 0 0 0 0 0 0 0 0 0 0 0 0 0 0 0 0 0 0 0 0 0 6 124 255 159 80 37 12 3 1 0 0 1 6 20 51 109 221 255 172 83 37 12 3 1 0 0 1 5 14 35 81 161 255 124 6 1 2 9 30 69 142 255 255 16 52 255 202 105 52 21 6 1 0 0 0 0 0 0 0 0 0 0 0 0 0 0 0 0 0 0 0 0 1 5 19 49 102 205 255 54 2 0 0 0 0 0 0 0 0 0 0 0 1 16 255 255 137 68 31 10 4 30 255 205 114 80 20 4 1 0 0 0 0 0 0 0 0 0 0 1 2 11 56 101 173 255 46 4 7 23 56 114 225 255 39 102 255 167 85 40 14 4 1 0 0 0 0 0 0 0 0 0 0 0 0 0 0 0 0 0 0 0 0 0 0 0 1 5 17 45 94 189 255 79 11 137 255 160 79 36 13 3 2 17 255 244 124 64 25 8 2 1 0 1 3 11 32 54 68 58 38 14 4 2 3 11 32 70 142 255 234 11 1 0 0 1 3 12 36 77 157 255 163 8
0 0 0 0 0 0 0 0 0 0 0 0 0 0 0 0 0 0 0 0 0 0 0 0 0 0 0 0 0 0 3 59 255 206 106 55 25 8 3 17 255 248 124 69 35 9 2 0 0 0 0 0 1 3 17 82 96 154 255 110 7 5 18 44 86 172 255 255 191 95 50 22 6 1 0 0 0 0 0 0 0 0 0 0 0 0 1 1 0 0 0 0 0 0 0 0 0 0 0 0 0 0 0 0 0 0 0 0 1 33 255 237 124 64 32 11 3 1 0 0 0 1 3 12 34 68 133 255 255 16 1 0 0 1 17 255 234 142 184 145 23 18 34 51 63 61 59 97 180 165 128 140 255 255 14 4 13 36 70 136 255 255 20 34 255 225 115 59 28 9 2 1 0 0 0 0 0 0 0 0 0 0 0 0 0 0 0 0 0 1 4 17 42 81 157 255 158 8 0 0 0 0 0 0 0 0 0 0 0 0 0 0 0 0 0 0 0 0 0 0 0 0 0 0 0 0 0 0 0 0 0 0 0 11 231 255 149 77 39 15 4 1 0 0 0 0 0 0 0 0 0 0 0 0 0 0 0 0 0 0 0 1 3 8 9 9 7 3 1 0 0 0 0 0 0 0 0 0 0 0 0 0 0 0 0 0 0 0 0 0 0 0 0 2 43 255 186 99 69 26 5 1 0 0 0 0 0 0 0 0 0 0 0 0 1 2 7 22 57 109 209 255 33 2 2 7 23 51 99 202 255 255 221 110 57 28 9 2 1 2 39 255 228 118 61 30 11 3 1 0 0 0 0 0 0 0 0 0 0 0 0 2 7 24 57 109 219 255 255 255 128 68 33 9 2 0 0 0 0 0 1 2 3 4 5 7 9 13 21 39 73 144 255 255 14 1 0 0 0 0 0 0 0 0 0 0 0 0 0 0 0 0 0 0 0 3 62 255 196 99 52 23 7 2 0 0 0 1 3 11 33 68 111 136 95 55 24 7 2 0 0 0 1 2 7 21 54 102 198 255 61 3 1 5 18 45 88 170 255 240 255 242 123 64 33 12 3 1 0 0 0 0 0 0 0 0 0 0 0 0 0 0 0 0 0 0 0 0 1 3 11 32 65 126 241 255 26 1 0 0 0 0 0 0 0 0 0 0 7 147 255 165 84 44 19 6 13 233 255 136 91 88 19 3 0 0 0 0 0 0 0 0 0 0 0 0 1 9 59 89 122 231 255 19 4 14 36 71 140 255 255 255 202 102 54 25 7 2 0 0 0 0 0 0 0 0 0 0 0 0 0 0 0 0 0 0 0 0 0 0 0 0 1 2 9 29 60 115 220 255 179 255 191 98 51 23 7 2 7 129 255 151 80 43 15 4 1 0 0 0 1 5 17 25 28 26 20 7 2 1 2 6 20 45 87 169 255 103 5 0 0 0 2 7 22 50 97 190 255 89
0 0 0 0 0 0 0 0 0 0 0 0 0 0 0 0 0 0 0 0 0 0 0 0 0 0 0 0 0 1 32 255 239 124 66 35 15 4 8 134 255 155 81 50 25 5 1 0 0 0 0 0 0 2 18 102 83 102 187 255 50 5 10 28 55 107 198 209 116 61 32 13 3 1 0 0 0 0 0 0 0 0 0 0 0 0 0 0 0 0 0 0 0 0 0 0 0 0 0 0 0 0 0 0 0 0 0 1 16 255 255 143 75 41 20 6 1 0 0 0 0 0 2 6 21 43 81 158 255 136 7 0 0 7 137 255 156 131 196 255 68 14 22 27 27 29 53 194 214 173 133 103 166 255 124 8 7 22 45 82 157 255 227 255 255 139 72 38 17 5 1 0 0 0 0 0 0 0 0 0 0 0 0 0 0 0 0 0 0 0 2 9 27 52 94 182 255 70 3 0 0 0 0 0 0 0 0 0 0 0 0 0 0 0 0 0 0 0 0 0 0 0 0 0 0 0 0 0 0 0 0 0 5 92 255 170 89 48 25 8 2 0 0 0 0 0 0 0 0 0 0 0 0 0 0 0 0 0 0 0 0 0 1 2 3 3 2 1 0 0 0 0 0 0 0 0 0 0 0 0 0 0 0 0 0 0 0 0 0 0 0 0 1 20 255 243 123 76 67 21 3 1 0 0 0 0 0 0 0 0 0 0 0 0 0 1 3 14 39 71 132 255 255 14 1 4 13 33 64 129 254 255 138 69 37 16 5 1 1 20 255 255 138 72 39 18 5 1 0 0 0 0 0 0 0 0 0 0 0 0 0 1 4 15 40 73 144 255 255 173 85 50 23 5 1 0 0 0 0 0 0 1 1 1 2 2 4 6 12 25 47 87 168 255 130 6 0 0 0 0 0 0 0 0 0 0 0 0 0 0 0 0 0 0 1 32 255 233 121 63 34 14 3 1 0 0 0 0 1 6 21 40 52 58 49 34 15 4 1 0 0 0 0 1 3 12 37 66 122 231 255 30 2 3 10 29 56 104 211 255 255 153 75 40 20 6 1 0 0 0 0 0 0 0 0 0 0 0 0 0 0 0 0 0 0 0 0 0 0 1 6 20 42 77 145 255 216 10 0 0 0 0 0 0 0 0 0 3 65 255 189 99 53 28 11 8 97 255 166 92 86 116 22 3 0 0 0 0 0 0 0 0 0 0 0 0 1 11 83 91 88 147 255 155 9 8 23 46 87 176 255 255 130 65 34 15 4 1 0 0 0 0 0 0 0 0 0 0 0 0 0 0 0 0 0 0 0 0 0 0 0 0 0 1 5 18 39 70 137 255 255 255 119 62 33 13 4 4 57 255 182 95 54 29 8 2 0 0 0 0 1 2 7 10 10 10 8 3 1 0 1 3 11 29 55 103 203 255 53 2 0 0 1 3 13 32 61 116 229 255
0 0 0 0 0 0 0 0 0 0 0 0 0 0 0 0 0 0 0 0 0 0 0 0 0 0 0 0 1 15 255 255 145 75 42 22 8 5 61 255 186 97 56 36 16 3 1 0 0 0 0 0 0 3 25 152 93 74 120 234 255 24 6 17 36 63 92 94 66 39 20 6 2 0 0 0 0 0 0 0 0 0 0 0 0 0 0 0 0 0 0 0 0 0 0 0 0 0 0 0 0 0 0 0 0 0 0 7 146 255 168 86 47 26 11 3 1 0 0 0 0 0 1 3 12 28 51 96 189 255 63 3 3 62 255 188 111 131 178 224 255 37 12 12 11 18 89 245 191 166 146 89 107 198 255 61 7 13 28 51 96 196 255 255 170 85 46 24 9 2 1 0 0 0 0 0 0 0 0 0 0 0 0 0 0 0 0 0 0 0 1 5 16 33 59 111 219 255 35 2 0 0 0 0 0 0 0 0 0 0 0 0 0 0 0 0 0 0 0 0 0 0 0 0 0 0 0 0 0 0 0 2 43 255 200 103 55 31 14 4 1 0 0 0 0 0 0 0 0 0 0 0 0 0 0 0 0 0 0 0 0 0 0 1 1 1 1 0 0 0 0 0 0 0 0 0 0 0 0 0 0 0 0 0 0 0 0 0 0 0 0 0 8 161 255 153 83 67 78 19 3 0 0 0 0 0 0 0 0 0 0 0 0 0 0 0 2 8 26 48 83 162 255 120 6 2 7 20 43 77 120 126 81 45 23 8 2 1 9 187 255 162 83 46 25 9 3 1 0 0 0 0 0 0 0 0 0 0 0 0 0 0 2 8 28 51 91 153 168 105 60 37 14 3 1 0 0 0 0 0 0 0 0 0 0 1 1 2 6 15 30 54 101 195 255 61 3 0 0 0 0 0 0 0 0 0 0 0 0 0 0 0 0 1 13 255 255 143 74 41 21 7 2 0 0 0 0 0 1 3 11 21 23 23 23 19 7 2 0 0 0 0 0 0 2 7 25 44 75 142 255 255 14 2 5 17 36 66 124 211 175 96 49 25 10 3 1 0 0 0 0 0 0 0 0 0 0 0 0 0 0 0 0 0 0 0 0 0 0 1 3 11 27 48 87 171 255 92 4 0 0 0 0 0 0 0 1 30 255 220 114 61 34 16 8 49 255 201 106 72 111 171 38 4 0 0 0 0 0 0 0 0 0 0 0 0 2 19 178 126 76 97 186 255 74 7 13 30 56 102 163 140 82 43 21 8 2 0 0 0 0 0 0 0 0 0 0 0 0 0 0 0 0 0 0 0 0 0 0 0 0 0 0 1 2 9 24 45 86 162 225 145 76 40 20 7 3 28 255 226 115 61 38 18 5 1 0 0 0 0 0 1 2 3 3 3 3 1 0 0 0 1 5 18 36 65 126 245 255 27 1 0 0 2 6 20 39 72 143 255
0 0 0 0 0 0 0 0 0 0 0 0 0 0 0 0 0 0 0 0 0 0 0 0 0 0 0 0 7 147 255 177 91 49 27 12 5 32 255 233 121 66 42 26 9 2 0 0 0 0 0 0 0 5 55 207 162 73 83 154 255 205 13 10 23 36 41 42 37 25 11 3 1 0 0 0 0 0 0 0 0 0 0 0 0 0 0 0 0 0 0 0 0 0 0 0 0 0 0 0 0 0 0 0 0 0 3 68 255 199 105 56 31 15 5 1 0 0 0 0 0 0 0 1 6 16 34 64 122 234 255 34 32 255 232 127 94 143 151 175 255 255 20 5 6 27 246 189 160 159 165 103 79 128 239 255 32 8 17 34 64 126 224 205 111 57 31 14 4 1 0 0 0 0 0 0 0 0 0 0 0 0 0 0 0 0 0 0 0 0 1 2 8 20 39 73 142 255 255 15 1 0 0 0 0 0 0 0 0 0 0 0 0 0 0 0 0 0 0 0 0 0 0 0 0 0 0 0 0 0 1 20 255 255 130 67 36 18 7 2 0 0 0 0 0 0 0 0 0 0 0 0 0 0 0 0 0 0 0 0 0 0 0 0 0 0 0 0 0 0 0 0 0 0 0 0 0 0 0 0 0 0 0 0 0 0 0 0 0 0 0 4 74 255 188 101 67 85 136 22 3 0 0 0 0 0 0 0 0 0 0 0 0 0 0 0 1 4 16 34 57 106 204 255 60 4 3 11 29 46 56 57 47 30 14 4 1 4 85 255 192 101 54 30 14 5 1 0 0 0 0 0 0 0 0 0 0 0 0 0 0 0 1 5 19 39 58 73 77 63 46 28 8 2 0 0 0 0 0 0 0 0 0 0 0 0 0 1 3 8 19 36 65 124 237 255 31 1 0 0 0 0 0 0 0 0 0 0 0 0 0 0 0 6 129 255 172 90 50 27 11 3 1 0 0 0 0 0 0 1 4 9 9 9 9 8 3 1 0 0 0 0 0 0 1 4 15 30 51 90 176 255 139 7 3 9 23 44 71 97 86 60 34 15 5 1 0 0 0 0 0 0 0 0 0 0 0 0 0 0 0 0 0 0 0 0 0 0 0 0 1 5 15 31 57 110 213 255 46 2 0 0 0 0 0 1 12 251 255 142 73 40 21 10 27 255 253 131 76 84 207 209 139 9 1 0 0 0 0 0 0 0 0 0 0 0 4 60 255 237 102 75 123 229 255 39 8 19 37 58 74 68 51 30 12 4 1 0 0 0 0 0 0 0 0 0 0 0 0 0 0 0 0 0 0 0 0 0 0 0 0 0 0 0 1 4 14 30 55 84 102 79 50 27 11 4 14 255 255 148 77 44 26 10 2 1 0 0 0 0 0 0 1 1 1 1 1 0 0 0 0 1 3 9 23 44 81 156 255 255 13 1 0 1 3 11 26 49 89 140
0 0 0 0 0 0 0 0 0 0 0 0 0 0 0 0 0 0 0 0 0 0 0 0 0 0 0 3 71 255 211 118 67 37 17 7 17 255 255 159 88 54 36 17 5 1 0 0 0 0 0 0 1 17 255 220 255 146 78 110 196 255 105 10 12 19 19 19 19 13 5 1 0 0 0 0 0 0 0 0 0 0 0 0 0 0 0 0 0 0 0 0 0 0 0 0 0 0 0 0 0 0 0 0 0 2 36 255 241 133 74 42 20 8 2 1 0 0 0 0 0 0 0 1 3 9 24 49 87 158 255 255 255 255 158 99 112 169 145 144 199 255 149 9 7 92 255 168 148 167 189 183 85 94 160 255 255 18 10 24 50 83 111 106 77 45 21 7 2 0 0 0 0 0 0 0 0 0 0 0 0 0 0 0 0 0 0 0 0 0 0 1 4 11 29 55 99 179 255 130 6 0 0 0 0 0 0 0 0 0 0 0 0 0 0 0 0 0 0 0 0 0 0 0 0 0 0 0 0 0 9 211 255 172 93 51 25 10 3 1 0 0 0 0 0 0 0 0 0 0 0 0 0 0 0 0 0 0 0 0 0 0 0 0 0 0 0 0 0 0 0 0 0 0 0 0 0 0 0 0 0 0 0 0 0 0 0 0 0 0 2 41 255 237 130 80 83 220 255 54 4 0 0 0 0 0 0 0 0 0 0 0 0 0 0 0 0 2 9 25 47 79 140 252 255 32 3 6 17 26 26 26 26 18 7 2 2 44 255 232 128 72 41 20 7 2 1 0 0 0 0 0 0 0 0 0 0 0 0 0 0 0 1 3 11 29 38 37 37 39 38 20 5 1 0 0 0 0 0 0 0 0 0 0 0 0 0 0 1 3 10 25 49 87 160 255 255 15 1 0 0 0 0 0 0 0 0 0 0 0 0 0 3 68 255 216 117 66 37 18 6 1 0 0 0 0 0 0 0 1 2 3 3 3 3 3 1 0 0 0 0 0 0 0 0 2 8 20 39 68 120 219 255 73 5 4 13 30 42 45 44 39 23 8 2 1 0 0 0 0 0 0 0 0 0 0 0 0 0 0 0 0 0 0 0 0 0 0 0 0 1 2 8 21 44 80 146 255 255 22 1 0 0 0 0 5 115 255 182 99 55 28 13 16 237 255 170 97 80 201 255 244 255 58 3 0 0 0 0 0 0 0 0 0 0 1 23 255 228 255 244 93 93 154 255 255 23 11 24 33 34 34 32 19 6 2 0 0 0 0 0 0 0 0 0 0 0 0 0 0 0 0 0 0 0 0 0 0 0 0 0 0 0 0 1 2 7 20 37 45 48 44 35 17 6 8 131 255 192 105 61 35 18 5 1 0 0 0 0 0 0 0 0 0 0 0 0 0 0 0 0 0 1 4 14 33 61 106 192 255 131 6 0 0 1 5 16 36 57 69
0 0 0 0 0 0 0 0 0 0 0 0 0 0 0 0 0 0 0 0 0 0 0 0 0 0 2 38 255 244 142 90 60 30 10 11 170 255 193 116 80 56 34 10 2 1 0 0 0 0 0 0 6 115 255 235 243 255 147 99 137 233 255 62 8 8 8 8 8 5 2 1 0 0 0 0 0 0 0 0 0 0 0 0 0 0 0 0 0 0 0 0 0 0 0 0 0 0 0 0 0 0 0 0 1 16 255 255 162 99 65 36 13 4 1 0 0 0 0 0 0 0 0 0 1 4 16 45 76 115 199 255 255 202 120 110 196 196 166 137 143 219 255 74 44 255 197 163 161 187 211 255 178 96 116 194 255 161 13 17 45 59 59 58 59 40 13 4 1 0 0 0 0 0 0 0 0 0 0 0 0 0 0 0 0 0 0 0 0 0 0 0 2 6 22 52 82 125 211 255 63 3 0 0 0 0 0 0 0 0 0 0 0 0 0 0 0 0 0 0 0 0 0 0 0 0 0 0 0 5 102 255 207 122 80 48 18 5 1 0 0 0 0 0 0 0 0 0 0 0 0 0 0 0 0 0 0 0 0 0 0 0 0 0 0 0 0 0 0 0 0 0 0 0 0 0 0 0 0 0 0 0 0 0 0 0 0 0 0 1 22 255 255 162 103 100 240 255 255 255 21 1 0 0 0 0 0 0 0 0 0 0 0 0 0 0 0 1 4 17 46 74 105 168 255 255 17 3 8 13 12 12 13 8 3 2 22 255 255 156 96 64 35 12 3 1 0 0 0 0 0 0 0 0 0 0 0 0 0 0 0 0 0 1 6 19 24 19 19 25 31 12 3 1 0 0 0 0 0 0 0 0 0 0 0 0 0 0 0 1 5 17 44 75 114 191 255 162 7 0 0 0 0 0 0 0 0 0 0 0 0 2 38 255 253 147 92 60 30 10 3 1 0 0 0 0 0 0 0 0 0 1 1 1 1 1 0 0 0 0 0 0 0 0 0 1 4 12 35 64 94 147 250 255 41 4 7 19 24 22 23 24 14 4 1 0 0 0 0 0 0 0 0 0 0 0 0 0 0 0 0 0 0 0 0 0 0 0 0 0 0 1 4 13 40 71 107 174 255 219 10 0 0 0 3 60 255 223 129 83 51 21 13 124 255 201 122 97 184 255 229 230 253 255 28 1 0 0 0 0 0 0 0 0 0 9 179 255 208 213 255 232 103 114 186 255 203 15 14 17 16 16 18 10 3 1 0 0 0 0 0 0 0 0 0 0 0 0 0 0 0 0 0 0 0 0 0 0 0 0 0 0 0 0 0 1 3 11 24 24 23 25 23 9 6 70 255 222 133 89 61 31 11 3 1 0 0 0 0 0 0 0 0 0 0 0 0 0 0 0 0 0 1 2 8 26 56 85 131 222 255 66 3 0 1 2 9 27 40 37
0 0 0 0 0 0 0 0 0 0 0 0 0 0 0 0 0 0 0 0 0 0 0 0 0 1 18 255 255 157 100 82 70 28 11 91 255 212 127 95 98 84 37 7 1 0 0 0 0 0 0 3 55 255 213 194 189 245 255 142 106 150 255 255 35 4 3 3 3 2 1 0 0 0 0 0 0 0 0 0 0 0 0 0 0 0 0 0 0 0 0 0 0 0 0 0 0 0 0 0 0 0 0 0 7 145 255 178 110 86 73 36 8 2 0 0 0 0 0 0 0 0 0 0 1 2 12 51 85 95 131 202 205 135 112 185 245 201 187 148 114 143 238 255 255 255 165 163 181 190 198 222 255 172 102 128 213 255 90 17 46 46 33 35 51 38 9 2 0 0 0 0 0 0 0 0 0 0 0 0 0 0 0 0 0 0 0 0 0 0 0 0 1 3 17 63 84 95 139 241 255 32 1 0 0 0 0 0 0 0 0 0 0 0 0 0 0 0 0 0 0 0 0 0 0 0 0 0 2 53 255 227 134 96 85 58 13 3 1 0 0 0 0 0 0 0 0 0 0 0 0 0 0 0 0 0 0 0 0 0 0 0 0 0 0 0 0 0 0 0 0 0 0 0 0 0 0 0 0 0 0 0 0 0 0 0 0 0 0 10 211 255 178 113 111 235 255 228 219 255 161 8 0 0 0 0 0 0 0 0 0 0 0 0 0 0 0 1 2 12 59 92 91 114 186 255 168 9 3 5 4 4 5 3 2 10 199 255 171 107 85 74 35 8 2 0 0 0 0 0 0 0 0 0 0 0 0 0 0 0 0 0 0 1 3 9 12 9 9 14 20 6 1 0 0 0 0 0 0 0 0 0 0 0 0 0 0 0 0 1 3 12 50 82 91 125 210 255 78 4 0 0 0 0 0 0 0 0 0 0 1 18 255 255 160 104 87 73 25 6 1 0 0 0 0 0 0 0 0 0 0 0 0 0 0 0 0 0 0 0 0 0 0 0 0 0 2 8 36 85 87 103 158 255 255 22 4 9 12 10 11 11 6 2 0 0 0 0 0 0 0 0 0 0 0 0 0 0 0 0 0 0 0 0 0 0 0 0 0 0 0 0 2 9 45 81 89 117 196 255 100 5 0 1 30 255 248 145 98 85 63 21 76 255 220 131 103 173 255 221 176 171 177 255 255 12 1 0 0 0 0 0 0 0 4 81 255 198 165 161 203 255 195 106 124 202 255 109 11 8 6 7 7 4 1 0 0 0 0 0 0 0 0 0 0 0 0 0 0 0 0 0 0 0 0 0 0 0 0 0 0 0 0 0 0 0 1 5 12 11 10 12 12 6 41 255 246 142 99 93 87 31 6 1 0 0 0 0 0 0 0 0 0 0 0 0 0 0 0 0 0 0 0 1 4 22 65 84 96 141 242 255 34 2 0 1 5 18 27 20
0 0 0 0 0 0 0 0 0 0 0 0 0 0 0 0 0 0 0 0 0 0 0 0 0 8 176 255 167 99 79 98 126 36 59 255 228 128 87 98 179 220 67 7 1 0 0 0 0 0 1 29 255 241 147 137 135 161 225 224 106 98 156 255 255 16 1 1 1 1 0 0 0 0 0 0 0 0 0 0 0 0 0 0 0 0 0 0 0 0 0 0 0 0 0 0 0 0 0 0 0 0 0 3 67 255 193 110 81 93 122 47 7 1 0 0 0 0 0 0 0 0 0 0 0 2 11 88 131 93 84 96 97 91 138 232 195 174 176 161 104 96 153 255 255 181 136 157 174 165 158 163 213 253 129 91 130 229 255 75 61 39 20 22 47 36 6 1 0 0 0 0 0 0 0 0 0 0 0 0 0 0 0 0 0 0 0 0 0 0 0 0 0 2 18 120 115 84 92 150 255 255 14 1 0 0 0 0 0 0 0 0 0 0 0 0 0 0 0 0 0 0 0 0 0 0 0 1 25 255 245 138 89 87 124 118 14 2 0 0 0 0 0 0 0 0 0 0 0 0 0 0 0 0 0 0 0 0 0 0 0 0 0 0 0 0 0 0 0 0 0 0 0 0 0 0 0 0 0 0 0 0 0 0 0 0 0 0 4 91 255 187 110 92 178 255 200 150 155 196 255 74 4 0 0 0 0 0 0 0 0 0 0 0 0 0 0 0 2 15 137 166 102 84 114 199 255 78 5 2 1 1 1 1 5 85 255 185 106 80 97 131 46 6 1 0 0 0 0 0 0 0 0 0 0 0 0 0 0 0 0 0 0 0 1 3 4 3 4 6 9 3 1 0 0 0 0 0 0 0 0 0 0 0 0 0 0 0 0 0 2 11 87 126 87 85 128 225 255 39 2 0 0 0 0 0 0 0 0 0 8 165 255 168 100 81 108 140 28 4 1 0 0 0 0 0 0 0 0 0 0 0 0 0 0 0 0 0 0 0 0 0 0 0 0 0 1 7 57 176 110 80 99 168 255 200 11 4 4 4 4 4 2 1 0 0 0 0 0 0 0 0 0 0 0 0 0 0 0 0 0 0 0 0 0 0 0 0 0 0 0 0 1 9 77 132 91 84 121 215 255 50 3 14 255 255 151 94 86 119 137 85 255 243 135 91 123 249 210 147 125 118 120 182 255 123 6 0 0 0 0 0 0 2 43 255 221 133 122 118 136 188 243 141 90 123 219 255 59 5 2 2 2 1 0 0 0 0 0 0 0 0 0 0 0 0 0 0 0 0 0 0 0 0 0 0 0 0 0 0 0 0 0 0 0 0 1 2 5 4 4 5 5 22 255 255 150 92 85 135 192 46 6 1 0 0 0 0 0 0 0 0 0 0 0 0 0 0 0 0 0 0 0 1 3 22 115 110 80 91 148 255 255 15 1 1 2 9 14 10
0 0 0 0 0 0 0 0 0 0 0 0 0 0 0 0 0 0 0 0 0 0 0 0 4 83 255 187 99 66 80 179 255 187 255 255 135 78 70 147 255 255 255 24 1 0 0 0 0 1 13 255 255 150 98 93 92 102 141 195 135 73 92 166 255 131 7 1 0 0 0 0 0 0 0 0 0 0 0 0 0 0 0 0 0 0 0 0 0 0 0 0 0 0 0 0 0 0 0 0 0 0 1 35 255 222 116 71 71 151 238 139 11 1 0 0 0 0 0 0 0 0 0 0 0 2 27 255 228 124 59 45 47 72 173 177 139 135 144 152 111 73 95 152 169 117 114 140 142 131 117 113 138 191 181 80 80 136 255 255 221 46 13 15 46 35 5 1 0 0 0 0 0 0 0 0 0 0 0 0 0 0 0 0 0 0 0 0 0 0 0 0 0 3 43 255 210 101 67 90 164 255 123 6 0 0 0 0 0 0 0 0 0 0 0 0 0 0 0 0 0 0 0 0 0 0 0 10 198 255 147 82 66 108 224 255 41 3 0 0 0 0 0 0 0 0 0 0 0 0 0 0 0 0 0 0 0 0 0 0 0 0 0 0 0 0 0 0 0 0 0 0 0 0 0 0 0 0 0 0 0 0 0 0 0 0 0 2 46 255 207 110 72 101 212 173 121 96 102 125 220 255 39 2 0 0 0 0 0 0 0 0 0 0 0 0 0 0 3 48 255 255 165 75 72 117 217 255 38 2 0 0 0 2 42 255 207 111 69 74 166 250 141 11 1 0 0 0 0 0 0 0 0 0 0 0 0 0 0 0 0 0 0 0 0 1 1 1 1 2 3 1 0 0 0 0 0 0 0 0 0 0 0 0 0 0 0 0 0 0 2 27 255 232 118 66 78 135 255 255 18 1 0 0 0 0 0 0 0 4 71 255 185 99 66 81 190 255 65 5 1 0 0 0 0 0 0 0 0 0 0 0 0 0 0 0 0 0 0 0 0 0 0 0 0 0 1 17 249 255 197 82 66 98 180 255 86 5 2 1 1 1 1 0 0 0 0 0 0 0 0 0 0 0 0 0 0 0 0 0 0 0 0 0 0 0 0 0 0 0 0 0 2 24 255 236 134 70 76 128 240 255 31 133 255 168 91 67 101 227 255 255 255 146 83 78 166 186 130 95 87 81 82 111 200 255 60 3 0 0 0 0 1 20 255 255 137 89 88 86 90 118 174 187 83 78 130 239 255 29 2 1 1 0 0 0 0 0 0 0 0 0 0 0 0 0 0 0 0 0 0 0 0 0 0 0 0 0 0 0 0 0 0 0 0 0 0 1 1 1 1 2 10 182 255 160 89 66 103 226 255 189 13 1 0 0 0 0 0 0 0 0 0 0 0 0 0 0 0 0 0 0 0 0 4 45 252 201 91 64 88 163 255 135 6 1 1 3 5 4
0 0 0 0 0 0 0 0 0 0 0 0 0 0 0 0 0 0 0 0 0 0 0 2 42 255 211 108 60 52 130 247 255 255 255 150 77 51 80 205 202 213 255 149 8 0 0 0 0 6 136 255 166 89 64 62 62 63 84 127 156 67 57 95 186 255 59 3 0 0 0 0 0 0 0 0 0 0 0 0 0 0 0 0 0 0 0 0 0 0 0 0 0 0 0 0 0 0 0 0 0 1 15 255 255 133 69 50 94 232 248 255 54 3 0 0 0 0 0 0 0 0 0 0 0 8 135 255 232 192 55 23 25 69 155 117 95 98 110 126 126 64 56 68 74 72 95 114 108 98 85 77 86 121 172 90 54 79 152 255 255 183 17 12 47 32 5 1 0 0 0 0 0 0 0 0 0 0 0 0 0 0 0 0 0 0 0 0 0 0 0 0 1 14 255 229 236 173 62 56 95 188 255 59 3 0 0 0 0 0 0 0 0 0 0 0 0 0 0 0 0 0 0 0 0 0 4 85 255 164 84 51 63 179 232 233 255 14 1 0 0 0 0 0 0 0 0 0 0 0 0 0 0 0 0 0 0 0 0 0 0 0 0 0 0 0 0 0 0 0 0 0 0 0 0 0 0 0 0 0 0 0 0 0 0 0 1 22 255 242 122 65 57 128 155 104 71 60 65 77 132 255 255 18 1 0 0 0 0 0 0 0 0 0 0 0 0 1 16 255 221 216 220 99 50 67 127 251 255 17 1 0 1 20 255 246 123 65 50 105 237 244 255 56 3 0 0 0 0 0 0 0 0 0 0 0 0 0 0 0 0 0 0 0 0 0 0 0 0 1 1 0 0 0 0 0 0 0 0 0 0 0 0 0 0 0 0 0 0 0 8 137 255 240 200 70 50 77 151 255 160 7 0 0 0 0 0 0 2 33 255 208 108 59 51 122 229 217 255 22 1 0 0 0 0 0 0 0 0 0 0 0 0 0 0 0 0 0 0 0 0 0 0 0 0 0 5 98 255 225 228 130 52 58 103 200 255 41 2 0 0 0 0 0 0 0 0 0 0 0 0 0 0 0 0 0 0 0 0 0 0 0 0 0 0 0 0 0 0 0 0 0 7 130 255 241 214 84 51 74 141 255 255 255 192 97 56 60 169 244 255 255 160 84 55 84 166 116 78 61 59 55 56 67 116 226 255 31 1 0 0 0 8 181 255 150 81 60 63 63 59 73 110 164 96 54 75 140 255 233 11 1 0 0 0 0 0 0 0 0 0 0 0 0 0 0 0 0 0 0 0 0 0 0 0 0 0 0 0 0 0 0 0 0 0 0 0 0 0 0 1 4 80 255 177 91 54 61 167 212 213 255 77 4 0 0 0 0 0 0 0 0 0 0 0 0 0 0 0 0 0 0 0 1 14 235 231 237 157 56 54 94 186 255 63 3 1 1 2 1
0 0 0 0 0 0 0 0 0 0 0 0 0 0 0 0 0 0 0 0 0 0 1 18 255 241 120 60 37 60 212 187 185 215 159 83 44 40 119 167 130 129 171 255 61 3 0 0 3 65 255 186 92 51 40 39 39 38 49 79 131 75 38 53 105 211 255 25 1 0 0 0 0 0 0 0 0 0 0 0 0 0 0 0 0 0 0 0 0 0 0 0 0 0 0 0 0 0 0 0 0 6 128 255 149 73 41 47 165 189 180 218 255 23 1 0 0 0 0 0 0 0 0 0 3 55 255 175 161 183 75 15 17 71 104 74 63 68 80 100 128 68 33 29 31 43 76 86 77 70 60 51 52 74 118 112 43 45 80 140 205 255 72 14 51 29 4 1 0 0 0 0 0 0 0 0 0 0 0 0 0 0 0 0 0 0 0 0 0 0 0 0 5 100 255 172 168 205 85 38 54 107 218 255 28 1 0 0 0 0 0 0 0 0 0 0 0 0 0 0 0 0 0 0 0 2 42 255 195 93 47 36 89 195 160 167 255 100 5 0 0 0 0 0 0 0 0 0 0 0 0 0 0 0 0 0 0 0 0 0 0 0 0 0 0 0 0 0 0 0 0 0 0 0 0 0 0 0 0 0 0 0 0 0 0 0 10 215 255 140 68 40 55 140 96 59 39 35 39 46 74 146 255 158 8 0 0 0 0 0 0 0 0 0 0 0 0 6 107 255 154 139 168 161 46 39 70 144 255 130 7 1 8 174 255 143 68 39 51 182 183 174 217 255 25 1 0 0 0 0 0 0 0 0 0 0 0 0 0 0 0 0 0 0 0 0 0 0 0 0 0 0 0 0 0 0 0 0 0 0 0 0 0 0 0 0 0 0 0 3 57 255 175 166 198 111 37 44 84 173 255 70 3 0 0 0 0 1 14 255 251 119 59 36 56 188 166 167 255 140 7 0 0 0 0 0 0 0 0 0 0 0 0 0 0 0 0 0 0 0 0 0 0 0 0 2 44 255 186 150 164 199 60 35 57 115 238 255 18 1 0 0 0 0 0 0 0 0 0 0 0 0 0 0 0 0 0 0 0 0 0 0 0 0 0 0 0 0 0 0 0 3 54 255 180 165 190 140 42 43 81 179 255 249 113 55 37 78 198 164 145 126 80 47 42 104 119 71 45 38 39 36 37 39 64 130 255 255 13 1 0 4 75 255 168 82 46 39 43 44 38 43 67 109 117 44 43 76 155 255 89 5 0 0 0 0 0 0 0 0 0 0 0 0 0 0 0 0 0 0 0 0 0 0 0 0 0 0 0 0 0 0 0 0 0 0 0 0 0 0 2 38 255 199 99 50 36 81 192 147 145 200 255 38 2 0 0 0 0 0 0 0 0 0 0 0 0 0 0 0 0 0 0 5 88 255 176 172 212 75 36 53 105 213 255 30 1 0 0 0
0 0 0 0 0 0 0 0 0 0 0 0 0 0 0 0 0 0 0 0 0 0 7 142 255 136 63 32 28 105 180 122 104 94 70 41 25 44 169 110 77 72 103 201 255 28 1 1 31 255 212 102 49 28 23 22 21 21 27 48 90 92 29 29 56 121 255 187 9 0 0 0 0 0 0 0 0 0 0 0 0 0 0 0 0 0 0 0 0 0 0 0 0 0 0 0 0 0 0 0 3 56 255 172 81 39 26 67 196 128 112 141 255 197 9 0 0 0 0 0 0 0 0 1 24 255 207 118 101 123 130 18 15 74 63 45 40 46 58 79 112 85 22 12 13 25 57 62 54 49 41 32 30 44 75 127 42 25 38 65 111 189 255 46 60 24 4 0 0 0 0 0 0 0 0 0 0 0 0 0 0 0 0 0 0 0 0 0 0 0 0 2 44 255 180 115 108 147 148 34 30 58 124 255 221 11 0 0 0 0 0 0 0 0 0 0 0 0 0 0 0 0 0 0 1 18 255 237 113 51 27 35 159 139 102 110 180 255 46 2 0 0 0 0 0 0 0 0 0 0 0 0 0 0 0 0 0 0 0 0 0 0 0 0 0 0 0 0 0 0 0 0 0 0 0 0 0 0 0 0 0 0 0 0 0 5 94 255 163 76 37 27 65 116 60 32 20 19 21 25 40 79 167 255 69 3 0 0 0 0 0 0 0 0 0 0 2 47 255 169 98 84 112 183 62 25 37 79 167 255 56 7 75 255 166 78 37 26 78 189 122 108 139 255 218 10 0 0 0 0 0 0 0 0 0 0 0 0 0 0 0 0 0 0 0 0 0 0 0 0 0 0 0 0 0 0 0 0 0 0 0 0 0 0 0 0 0 0 1 27 255 208 117 103 136 189 43 25 45 96 201 255 33 1 0 0 0 6 125 255 144 65 32 26 93 171 112 112 163 255 58 3 0 0 0 0 0 0 0 0 0 0 0 0 0 0 0 0 0 0 0 0 0 0 1 20 255 228 118 91 108 170 103 27 30 62 138 255 162 8 0 0 0 0 0 0 0 0 0 0 0 0 0 0 0 0 0 0 0 0 0 0 0 0 0 0 0 0 0 0 1 23 255 209 117 102 130 196 53 26 44 92 150 117 61 31 33 130 142 97 70 53 36 25 39 126 78 42 25 21 22 21 21 21 34 69 150 255 116 6 2 35 255 195 93 44 25 23 27 28 23 25 39 70 125 45 25 41 86 181 255 39 2 0 0 0 0 0 0 0 0 0 0 0 0 0 0 0 0 0 0 0 0 0 0 0 0 0 0 0 0 0 0 0 0 0 0 0 0 1 16 255 241 114 52 27 32 144 141 96 90 126 247 255 16 1 0 0 0 0 0 0 0 0 0 0 0 0 0 0 0 0 2 39 255 181 120 114 160 144 32 29 56 122 255 255 12 1 0 0
0 0 0 0 0 0 0 0 0 0 0 0 0 0 0 0 0 0 0 0 0 3 64 255 168 75 33 18 36 208 120 75 53 39 28 19 17 72 159 78 45 40 60 123 255 235 12 13 255 255 122 54 25 14 11 10 10 10 14 29 63 124 30 16 30 67 152 255 78 4 0 0 0 0 0 0 0 0 0 0 0 0 0 0 0 0 0 0 0 0 0 0 0 0 0 0 0 0 0 1 25 255 212 99 43 21 25 144 144 86 68 86 163 255 83 4 0 0 0 0 0 0 0 10 210 255 128 74 62 88 202 35 17 78 40 26 24 30 43 66 97 130 21 6 6 14 40 45 37 32 26 19 17 25 53 120 51 16 17 29 57 119 255 255 130 24 3 0 0 0 0 0 0 0 0 0 0 0 0 0 0 0 0 0 0 0 0 0 0 0 1 19 255 228 111 73 69 103 198 50 19 30 67 151 255 90 4 0 0 0 0 0 0 0 0 0 0 0 0 0 0 0 0 0 7 136 255 136 61 27 17 58 200 100 64 69 111 231 255 22 1 0 0 0 0 0 0 0 0 0 0 0 0 0 0 0 0 0 0 0 0 0 0 0 0 0 0 0 0 0 0 0 0 0 0 0 0 0 0 0 0 0 0 0 2 48 255 196 91 40 20 22 96 84 39 17 9 8 9 12 20 42 94 206 255 35 2 0 0 0 0 0 0 0 0 1 22 255 224 105 61 51 76 135 120 22 20 42 96 212 255 82 255 201 93 41 20 28 169 133 81 65 84 162 255 93 5 0 0 0 0 0 0 0 0 0 0 0 0 0 0 0 0 0 0 0 0 0 0 0 0 0 0 0 0 0 0 0 0 0 0 0 0 0 0 0 0 1 12 255 255 130 74 64 96 185 78 18 23 51 117 255 255 14 1 0 3 60 255 182 82 35 18 32 201 122 77 73 104 206 255 25 1 0 0 0 0 0 0 0 0 0 0 0 0 0 0 0 0 0 0 0 0 0 8 178 255 139 71 55 70 118 212 35 17 33 77 171 255 70 3 0 0 0 0 0 0 0 0 0 0 0 0 0 0 0 0 0 0 0 0 0 0 0 0 0 0 0 0 0 9 181 255 128 72 62 90 158 97 21 23 41 58 49 30 18 46 193 97 54 32 21 15 15 46 131 56 24 12 10 11 10 10 10 17 36 83 180 255 55 17 255 249 114 50 23 13 12 14 15 12 13 22 50 112 56 17 21 46 107 234 255 15 1 0 0 0 0 0 0 0 0 0 0 0 0 0 0 0 0 0 0 0 0 0 0 0 0 0 0 0 0 0 0 0 0 0 0 0 6 125 255 140 62 27 17 48 207 102 62 54 74 145 255 128 6 0 0 0 0 0 0 0 0 0 0 0 0 0 0 0 1 16 255 236 115 77 75 113 223 50 18 30 66 151 255 105 5 0 0
0 0 0 0 0 0 0 0 0 0 0 0 0 0 0 0 0 0 0 0 1 33 255 215 100 42 17 14 83 202 93 47 26 15 11 9 22 184 119 60 28 22 35 72 157 255 114 134 255 154 68 29 12 6 4 4 4 4 7 18 56 153 42 11 15 37 91 199 255 39 2 0 0 0 0 0 0 0 0 0 0 0 0 0 0 0 0 0 0 0 0 0 0 0 0 0 0 0 0 10 214 255 128 55 23 13 48 249 109 60 42 53 98 199 255 40 2 0 0 0 0 0 4 91 255 165 78 47 41 78 169 102 28 88 29 15 13 18 33 64 105 188 34 4 3 8 25 30 24 19 14 9 8 15 43 100 84 13 8 13 30 73 162 255 255 70 5 0 0 0 0 0 0 0 0 0 0 0 0 0 0 0 0 0 0 0 0 0 0 0 7 147 255 138 67 46 46 81 155 113 17 16 37 88 192 255 45 2 0 0 0 0 0 0 0 0 0 0 0 0 0 0 0 3 59 255 171 78 33 15 20 164 151 80 43 44 67 141 255 193 9 0 0 0 0 0 0 0 0 0 0 0 0 0 0 0 0 0 0 0 0 0 0 0 0 0 0 0 0 0 0 0 0 0 0 0 0 0 0 0 0 0 0 1 24 255 240 115 50 21 11 30 178 71 26 9 4 3 4 5 9 22 53 124 255 255 16 1 0 0 0 0 0 0 0 9 184 255 138 64 37 32 54 103 238 39 12 22 55 132 255 255 255 122 52 22 14 57 236 103 56 41 52 96 198 255 46 2 0 0 0 0 0 0 0 0 0 0 0 0 0 0 0 0 0 0 0 0 0 0 0 0 0 0 0 0 0 0 0 0 0 0 0 0 0 0 0 5 118 255 163 78 47 43 72 132 225 27 13 28 66 152 255 130 6 2 29 255 222 107 46 19 13 76 222 102 56 48 65 127 255 195 9 0 0 0 0 0 0 0 0 0 0 0 0 0 0 0 0 0 0 0 0 4 81 255 172 82 43 34 48 97 208 82 14 18 43 100 207 255 33 1 0 0 0 0 0 0 0 0 0 0 0 0 0 0 0 0 0 0 0 0 0 0 0 0 0 0 0 4 77 255 162 77 45 39 64 113 225 32 12 17 20 18 13 16 107 167 76 31 14 8 6 11 70 114 48 15 6 4 4 4 4 4 8 19 46 106 225 255 247 255 148 65 26 11 6 5 6 6 5 6 13 40 92 95 15 11 25 61 140 255 116 6 0 0 0 0 0 0 0 0 0 0 0 0 0 0 0 0 0 0 0 0 0 0 0 0 0 0 0 0 0 0 0 0 0 0 3 56 255 177 81 34 14 16 112 163 85 42 33 44 84 176 255 56 3 0 0 0 0 0 0 0 0 0 0 0 0 0 0 6 128 255 144 71 50 52 90 171 137 18 16 37 87 186 255 49 2 0
0 0 0 0 0 0 0 0 0 0 0 0 0 0 0 0 0 0 0 1 15 255 255 130 58 23 10 29 255 139 78 31 13 6 4 7 60 255 112 50 18 12 20 43 94 201 255 255 195 90 39 15 5 2 1 1 1 1 3 13 67 145 95 11 8 21 54 121 253 255 18 1 0 0 0 0 0 0 0 0 0 0 0 0 0 0 0 0 0 0 0 0 0 0 0 0 0 0 5 94 255 164 75 31 12 16 160 180 98 47 27 33 58 120 247 255 17 1 0 0 0 2 46 255 201 98 48 30 31 76 132 255 118 114 28 8 6 10 28 82 142 171 79 7 2 4 13 17 13 9 6 4 4 9 38 94 211 23 4 6 16 45 95 173 239 255 29 1 0 0 0 0 0 0 0 0 0 0 0 0 0 0 0 0 0 0 0 0 0 3 62 255 172 82 42 29 33 67 117 255 38 10 20 51 117 243 255 23 1 0 0 0 0 0 0 0 0 0 0 0 0 0 1 27 255 214 102 45 18 10 58 255 124 68 31 28 41 83 169 255 80 4 0 0 0 0 0 0 0 0 0 0 0 0 0 0 0 0 0 0 0 0 0 0 0 0 0 0 0 0 0 0 0 0 0 0 0 0 0 0 0 0 0 10 205 255 143 65 28 11 10 72 206 90 20 5 2 1 1 2 4 11 30 72 155 255 150 7 0 0 0 0 0 0 4 77 255 169 82 39 23 20 42 99 196 129 13 12 32 81 174 255 161 74 30 12 19 197 163 92 43 26 31 57 118 238 255 20 1 0 0 0 0 0 0 0 0 0 0 0 0 0 0 0 0 0 0 0 0 0 0 0 0 0 0 0 0 0 0 0 0 0 0 0 0 0 3 58 255 195 95 48 30 30 59 114 253 84 11 15 38 89 188 255 64 15 242 255 131 61 26 11 28 255 152 94 46 34 41 76 161 255 83 4 0 0 0 0 0 0 0 0 0 0 0 0 0 0 0 0 0 0 2 42 255 209 101 48 26 21 37 86 142 255 29 10 24 57 124 255 255 14 1 0 0 0 0 0 0 0 0 0 0 0 0 0 0 0 0 0 0 0 0 0 0 0 0 0 2 39 255 204 98 47 28 26 48 101 219 92 10 6 7 6 7 37 255 128 65 20 6 3 3 17 172 100 46 10 3 1 1 1 1 2 3 9 25 61 140 255 255 201 89 37 14 5 2 2 2 2 2 3 8 35 92 225 27 7 13 35 84 177 255 52 3 0 0 0 0 0 0 0 0 0 0 0 0 0 0 0 0 0 0 0 0 0 0 0 0 0 0 0 0 0 0 0 0 1 26 255 220 106 47 18 9 38 255 122 75 31 20 26 49 105 218 255 26 1 0 0 0 0 0 0 0 0 0 0 0 0 3 59 255 179 86 45 33 39 76 127 255 47 10 20 50 111 231 255 23 1
0 0 0 0 0 0 0 0 0 0 0 0 0 0 0 0 0 0 0 6 132 255 156 74 33 13 11 115 244 116 69 22 6 2 2 20 255 168 116 50 12 6 10 24 55 122 253 244 118 53 21 7 2 1 0 0 0 1 2 14 108 137 255 32 5 11 31 70 149 255 150 7 0 0 0 0 0 0 0 0 0 0 0 0 0 0 0 0 0 0 0 0 0 0 0 0 0 2 47 255 199 96 44 17 9 55 255 130 88 41 18 19 34 69 146 255 149 7 0 0 1 23 255 241 118 57 29 19 27 89 130 255 255 217 41 6 3 6 33 161 181 143 255 24 2 2 5 7 5 3 2 1 2 7 42 132 239 73 6 3 8 26 51 87 150 255 216 11 1 0 0 0 0 0 0 0 0 0 0 0 0 0 0 0 0 0 0 0 1 28 255 208 102 49 25 18 25 63 109 207 151 13 11 29 68 144 255 219 10 0 0 0 0 0 0 0 0 0 0 0 0 1 12 254 255 129 59 25 10 23 255 184 113 66 24 17 25 48 98 198 255 38 2 0 0 0 0 0 0 0 0 0 0 0 0 0 0 0 0 0 0 0 0 0 0 0 0 0 0 0 0 0 0 0 0 0 0 0 0 0 0 0 4 82 255 164 80 37 15 6 26 255 159 146 24 3 1 0 0 1 2 5 16 41 88 180 255 68 3 0 0 0 0 2 38 255 201 98 48 23 12 13 39 100 142 255 49 9 19 47 84 111 80 42 17 10 67 255 124 84 37 17 18 33 67 140 255 158 8 0 0 0 0 0 0 0 0 0 0 0 0 0 0 0 0 0 0 0 0 0 0 0 0 0 0 0 0 0 0 0 0 0 0 0 0 1 29 255 227 113 55 28 19 22 54 103 161 255 33 9 21 51 109 223 255 248 255 157 74 34 14 12 116 255 124 90 44 24 26 46 96 199 255 41 2 0 0 0 0 0 0 0 0 0 0 0 0 0 0 0 0 1 19 255 248 123 58 28 15 13 31 81 118 246 126 12 13 32 71 153 255 123 6 0 0 0 0 0 0 0 0 0 0 0 0 0 0 0 0 0 0 0 0 0 0 0 0 1 18 255 251 122 58 28 16 17 42 97 148 255 33 4 2 2 11 148 217 118 61 14 3 1 4 51 255 124 54 8 1 1 0 0 0 1 1 4 13 36 83 165 200 114 53 21 7 2 1 1 1 1 1 1 6 40 139 224 85 8 7 20 49 106 223 255 25 1 0 0 0 0 0 0 0 0 0 0 0 0 0 0 0 0 0 0 0 0 0 0 0 0 0 0 0 0 0 0 0 11 245 255 131 61 27 10 14 175 211 113 74 25 11 14 28 61 131 255 219 10 0 0 0 0 0 0 0 0 0 0 0 1 30 255 220 106 51 28 21 33 71 109 195 214 17 11 28 64 138 255 214 10
0 0 0 0 0 0 0 0 0 0 0 0 0 0 0 0 0 0 3 60 255 180 87 41 18 9 46 255 148 95 68 17 3 1 6 100 255 129 115 63 10 3 5 13 32 66 111 108 64 30 11 3 1 0 0 0 0 0 2 27 207 163 231 161 11 6 17 40 83 172 255 63 3 0 0 0 0 0 0 0 0 0 0 0 0 0 0 0 0 0 0 0 0 0 0 0 1 20 255 234 115 54 24 10 21 255 183 104 84 40 12 10 19 39 83 173 255 66 3 1 10 206 255 141 66 32 16 12 30 126 125 156 240 240 143 10 2 7 80 237 181 153 250 116 7 1 2 2 2 1 1 0 1 8 76 177 164 255 27 3 4 13 25 43 84 155 255 86 4 0 0 0 0 0 0 0 0 0 0 0 0 0 0 0 0 0 0 0 11 231 255 123 58 28 14 10 20 70 101 140 255 56 9 16 38 81 168 255 98 5 0 0 0 0 0 0 0 0 0 0 0 5 115 255 159 74 33 14 11 107 255 130 99 74 20 10 13 26 54 116 246 255 17 1 0 0 0 0 0 0 0 0 0 0 0 0 0 0 0 0 0 0 0 0 0 0 0 0 0 0 0 0 0 0 0 0 0 0 0 0 0 2 38 255 192 92 44 20 7 10 129 255 152 193 46 4 0 0 0 0 1 2 8 22 48 102 210 255 33 1 0 0 1 17 255 248 118 55 27 12 6 9 42 106 116 204 255 20 10 23 36 42 35 21 10 27 255 171 101 83 35 11 10 18 37 79 166 255 66 3 0 0 0 0 0 0 0 0 0 0 0 0 0 0 0 0 0 0 0 0 0 0 0 0 0 0 0 0 0 0 0 0 0 0 1 12 251 255 131 62 31 15 10 17 58 93 119 240 172 14 12 28 61 133 255 255 211 92 42 18 9 47 255 153 100 93 51 18 15 27 55 117 244 255 19 1 0 0 0 0 0 0 0 0 0 0 0 0 0 0 0 8 174 255 143 68 33 15 7 8 28 84 98 152 255 51 9 17 40 87 179 255 56 3 0 0 0 0 0 0 0 0 0 0 0 0 0 0 0 0 0 0 0 0 0 0 0 7 158 255 146 69 33 15 8 11 41 95 118 230 168 10 1 3 51 255 139 102 67 12 2 1 15 248 173 167 97 10 1 0 0 0 0 0 1 2 6 20 44 72 82 57 29 11 3 1 0 0 0 0 0 1 8 80 186 158 255 32 5 10 28 61 133 255 197 10 0 0 0 0 0 0 0 0 0 0 0 0 0 0 0 0 0 0 0 0 0 0 0 0 0 0 0 0 0 0 5 106 255 161 74 34 14 8 66 255 143 105 85 22 6 7 15 34 74 158 255 92 4 0 0 0 0 0 0 0 0 0 1 13 255 255 130 61 30 16 13 29 75 92 131 255 76 10 15 36 78 166 255 111
0 0 0 0 0 0 0 0 0 0 0 0 0 0 0 0 0 1 29 255 212 101 47 22 10 20 255 210 103 78 75 15 2 2 39 255 159 99 112 108 13 2 2 6 16 31 43 42 30 15 5 1 0 0 0 0 0 0 6 78 204 171 156 255 62 6 8 21 45 96 202 255 28 1 0 0 0 0 0 0 0 0 0 0 0 0 0 0 0 0 0 0 0 0 0 0 8 165 255 133 62 29 13 10 107 255 121 81 83 45 9 5 9 21 45 98 206 255 32 6 84 255 163 77 36 17 8 9 49 168 117 88 116 173 255 52 5 27 255 185 150 143 157 255 46 3 1 1 1 0 0 0 2 21 247 171 137 253 153 9 2 5 11 21 45 90 187 255 41 2 0 0 0 0 0 0 0 0 0 0 0 0 0 0 0 0 0 5 94 255 152 69 32 14 7 6 19 95 96 103 191 255 23 9 20 43 93 195 255 50 2 0 0 0 0 0 0 0 0 0 3 59 255 190 90 41 18 9 44 255 158 90 90 97 20 5 6 13 29 64 144 255 143 7 0 0 0 0 0 0 0 0 0 0 0 0 0 0 0 0 0 0 0 0 0 0 0 0 0 0 0 0 0 0 0 0 0 0 0 0 1 16 255 240 112 50 23 10 6 52 255 158 134 159 162 11 1 0 0 0 0 1 3 11 25 55 121 255 255 13 1 0 7 137 255 143 65 30 13 5 3 8 58 111 93 131 255 104 10 10 14 15 13 9 12 132 255 116 82 87 39 8 5 9 20 43 94 200 255 30 1 0 0 0 0 0 0 0 0 0 0 0 0 0 0 0 0 0 0 0 0 0 0 0 0 0 0 0 0 0 0 0 0 0 5 107 255 152 71 33 16 7 6 15 75 87 85 142 255 66 9 14 33 75 152 195 114 52 22 10 20 255 209 103 83 104 77 15 8 14 30 65 141 255 158 8 0 0 0 0 0 0 0 0 0 0 0 0 0 0 4 79 255 168 78 36 17 7 3 5 29 96 84 104 204 255 21 9 21 47 102 216 255 28 1 0 0 0 0 0 0 0 0 0 0 0 0 0 0 0 0 0 0 0 0 0 3 69 255 171 81 38 17 7 4 9 46 95 90 140 255 57 4 18 255 189 99 88 86 12 2 5 88 255 139 176 248 27 2 0 0 0 0 0 0 1 3 9 20 28 30 24 14 5 1 0 0 0 0 0 0 2 24 255 174 136 237 189 12 5 14 34 74 156 255 81 4 0 0 0 0 0 0 0 0 0 0 0 0 0 0 0 0 0 0 0 0 0 0 0 0 0 0 0 0 2 51 255 189 90 41 18 8 28 255 186 103 101 114 24 4 3 7 18 41 89 190 255 44 2 0 0 0 0 0 0 0 0 6 121 255 152 72 33 16 8 8 30 94 81 91 171 255 33 9 19 43 94 203 255
0 0 0 0 0 0 0 0 0 0 0 0 0 0 0 0 1 11 233 255 122 54 24 11 10 117 255 129 69 68 93 16 3 14 247 218 103 77 119 210 28 3 1 2 7 12 15 15 12 6 2 1 0 0 0 0 0 1 26 255 146 137 113 193 255 27 5 10 23 51 117 255 225 11 0 0 0 0 0 0 0 0 0 0 0 0 0 0 0 0 0 0 0 0 0 3 69 255 161 72 32 14 8 48 255 160 79 67 88 63 9 3 4 10 23 52 118 255 255 62 255 189 89 40 18 8 4 13 141 155 107 51 58 113 198 255 32 149 244 140 111 113 110 210 255 18 1 0 0 0 0 0 6 99 254 153 109 149 255 60 4 2 4 9 23 49 109 234 255 18 1 0 0 0 0 0 0 0 0 0 0 0 0 0 0 0 2 45 255 184 85 37 16 7 3 4 26 151 101 75 119 255 130 11 10 22 49 109 230 255 25 1 0 0 0 0 0 0 0 1 31 255 222 105 48 21 9 18 242 212 99 64 91 140 26 4 3 6 15 34 78 167 255 61 3 0 0 0 0 0 0 0 0 0 0 0 0 0 0 0 0 0 0 0 0 0 0 0 0 0 0 0 0 0 0 0 0 0 0 0 7 139 255 138 61 26 11 5 22 255 202 105 106 136 255 56 3 0 0 0 0 0 1 5 12 29 65 143 255 100 5 3 61 255 168 78 35 15 6 2 2 12 120 115 78 84 162 255 44 6 5 5 4 6 54 255 146 76 71 97 52 7 2 4 9 22 51 116 255 255 12 1 0 0 0 0 0 0 0 0 0 0 0 0 0 0 0 0 0 0 0 0 0 0 0 0 0 0 0 0 0 0 0 2 52 255 183 84 37 16 7 3 3 18 123 89 63 89 185 255 30 8 17 37 65 77 53 27 11 10 100 255 127 68 77 128 184 23 5 7 15 34 76 165 255 68 3 0 0 0 0 0 0 0 0 0 0 0 0 2 40 255 201 93 41 18 8 3 2 5 35 114 80 69 123 255 107 10 11 24 55 125 255 255 12 1 0 0 0 0 0 0 0 0 0 0 0 0 0 0 0 0 0 0 0 1 32 255 201 95 43 19 8 3 2 8 63 96 71 90 181 255 28 110 255 119 69 82 126 18 4 39 255 170 114 158 222 111 7 0 0 0 0 0 0 0 1 4 8 10 10 9 5 2 1 0 0 0 0 0 0 7 115 247 152 109 146 255 74 6 7 17 39 87 190 255 39 2 0 0 0 0 0 0 0 0 0 0 0 0 0 0 0 0 0 0 0 0 0 0 0 0 0 0 1 23 255 221 105 48 21 9 12 163 255 115 74 108 152 35 4 1 3 8 21 48 108 229 255 18 1 0 0 0 0 0 0 3 60 255 182 83 38 17 7 4 6 40 132 82 64 108 243 197 14 10 22 51 117 250
0 0 0 0 0 0 0 0 0 0 0 0 0 0 0 0 5 88 255 145 64 27 11 7 50 255 163 76 47 70 126 22 8 96 255 127 64 67 136 191 90 6 1 1 2 4 5 5 4 2 1 0 0 0 0 0 0 8 149 240 120 94 77 118 255 191 11 5 11 26 63 146 255 93 5 0 0 0 0 0 0 0 0 0 0 0 0 0 0 0 0 0 0 0 1 32 255 194 89 38 16 7 20 255 213 98 52 60 106 141 14 2 2 4 11 27 63 144 255 255 255 107 46 20 8 3 4 47 255 137 92 33 30 66 125 255 255 255 147 93 76 80 73 126 255 144 7 0 0 0 0 2 43 255 161 115 84 94 193 255 27 2 2 4 11 25 58 134 255 148 7 0 0 0 0 0 0 0 0 0 0 0 0 0 0 1 22 255 227 104 45 19 7 3 1 5 51 178 121 59 73 154 255 55 7 10 24 57 130 255 214 10 0 0 0 0 0 0 1 13 255 255 125 55 24 10 9 94 255 123 59 50 107 158 46 5 1 2 7 17 40 92 200 255 27 1 0 0 0 0 0 0 0 0 0 0 0 0 0 0 0 0 0 0 0 0 0 0 0 0 0 0 0 0 0 0 0 0 0 3 63 255 168 75 32 13 5 9 142 255 122 68 81 116 184 255 22 1 0 0 0 0 1 2 5 14 33 77 171 255 48 34 255 205 93 40 17 7 2 1 3 33 254 133 71 54 97 213 255 16 2 1 2 22 255 197 89 51 68 115 110 11 2 2 4 10 26 62 145 255 109 5 0 0 0 0 0 0 0 0 0 0 0 0 0 0 0 0 0 0 0 0 0 0 0 0 0 0 0 0 0 0 1 25 255 220 102 44 18 7 3 1 4 35 192 113 51 54 111 254 180 13 8 16 24 27 21 12 7 41 255 158 75 48 86 172 243 71 6 3 7 17 39 90 198 255 33 1 0 0 0 0 0 0 0 0 0 0 1 17 255 240 113 49 20 8 3 1 1 6 58 128 85 48 72 154 255 44 7 12 28 67 151 255 113 5 0 0 0 0 0 0 0 0 0 0 0 0 0 0 0 0 0 0 1 12 252 248 114 49 21 9 3 1 2 13 123 101 59 56 110 255 255 255 158 73 52 92 162 33 19 255 229 109 88 116 150 255 44 2 0 0 0 0 0 0 0 1 2 3 3 3 2 1 0 0 0 0 0 0 2 45 255 151 110 85 93 184 255 33 4 8 19 46 109 236 255 16 1 0 0 0 0 0 0 0 0 0 0 0 0 0 0 0 0 0 0 0 0 0 0 0 0 0 9 194 255 125 55 24 10 7 65 255 144 69 58 121 151 72 6 1 1 4 10 24 57 129 255 140 7 0 0 0 0 0 1 31 255 216 101 43 18 8 3 2 8 91 162 103 49 65 139 255 75 8 11 26 59 105
0 0 0 0 0 0 0 0 0 0 0 0 0 0 0 2 39 255 174 78 32 13 6 20 255 203 93 43 36 88 144 43 55 255 168 73 41 67 129 138 255 33 2 0 1 1 1 1 1 1 0 0 0 0 0 0 3 60 255 141 86 60 49 67 145 255 73 6 5 12 32 79 180 255 43 2 0 0 0 0 0 0 0 0 0 0 0 0 0 0 0 0 0 1 13 255 247 109 46 18 7 9 109 255 122 55 35 66 157 255 42 3 1 2 5 13 32 82 196 255 144 58 23 9 3 2 16 255 184 119 76 23 16 35 74 172 255 229 96 58 49 50 46 72 161 255 64 3 0 0 1 18 255 219 108 77 60 57 114 255 218 11 1 2 4 12 30 71 162 255 64 3 0 0 0 0 0 0 0 0 0 0 0 0 0 9 186 255 129 54 22 9 3 1 1 12 172 140 135 55 45 90 198 255 23 5 11 28 67 150 255 86 4 0 0 0 0 0 5 107 255 145 64 27 11 6 41 255 163 71 35 46 127 129 123 10 1 1 3 8 19 47 114 255 205 10 0 0 0 0 0 0 0 0 0 0 0 0 0 0 0 0 0 0 0 0 0 0 0 0 0 0 0 0 0 0 0 0 1 30 255 202 92 39 15 6 5 60 255 154 69 43 60 84 119 255 147 8 0 0 0 0 0 1 2 6 16 39 96 222 255 255 255 117 48 20 8 3 1 1 8 132 190 153 76 36 54 123 255 87 5 1 7 124 255 117 51 36 78 154 255 33 2 1 2 4 12 32 78 176 255 50 2 0 0 0 0 0 0 0 0 0 0 0 0 0 0 0 0 0 0 0 0 0 0 0 0 0 0 0 0 0 10 212 255 123 53 21 8 3 1 1 8 112 167 154 53 33 62 141 255 66 7 6 8 9 7 5 16 243 211 92 43 39 118 166 170 255 27 2 3 7 19 46 112 248 255 14 1 0 0 0 0 0 0 0 0 0 7 136 255 132 58 24 9 3 1 0 1 13 163 128 103 38 41 90 207 255 18 6 13 34 80 177 255 52 2 0 0 0 0 0 0 0 0 0 0 0 0 0 0 0 0 0 5 93 255 137 59 24 10 4 1 1 3 32 229 126 55 36 66 168 255 250 98 44 44 115 138 95 178 255 131 66 64 76 106 207 255 17 1 0 0 0 0 0 0 0 1 1 1 1 1 0 0 0 0 0 0 1 18 255 204 99 72 61 56 107 240 233 13 4 9 23 57 131 255 119 6 0 0 0 0 0 0 0 0 0 0 0 0 0 0 0 0 0 0 0 0 0 0 0 0 4 79 255 153 65 27 11 5 28 255 184 83 41 52 123 127 247 20 1 1 1 4 11 28 68 157 255 58 3 0 0 0 1 13 255 255 120 52 21 8 3 1 2 29 255 162 141 46 39 80 175 255 32 6 12 25 39
0 0 0 0 0 0 0 0 0 0 0 0 0 0 1 15 255 221 96 39 15 6 8 97 255 113 49 24 33 127 132 222 255 227 97 40 28 71 101 113 220 197 11 1 0 0 0 0 0 0 0 0 0 0 0 1 27 255 190 86 55 36 29 37 80 176 255 30 3 6 15 40 99 220 255 17 1 0 0 0 0 0 0 0 0 0 0 0 0 0 0 0 0 6 117 255 138 56 22 8 5 42 255 149 66 30 28 102 184 181 221 13 1 1 2 5 16 41 85 108 67 29 11 4 2 6 97 255 121 87 60 16 8 18 40 86 142 108 56 34 28 28 26 39 89 197 255 30 1 0 7 142 255 126 65 47 39 34 62 143 255 85 5 1 2 5 14 36 87 195 255 30 1 0 0 0 0 0 0 0 0 0 0 0 4 77 255 153 66 27 10 4 1 1 3 55 255 124 118 57 28 48 112 255 116 9 5 13 32 78 178 255 40 2 0 0 0 2 46 255 167 74 31 12 5 15 224 216 94 39 22 52 125 118 255 39 2 1 1 3 9 23 59 139 255 81 4 0 0 0 0 0 0 0 0 0 0 0 0 0 0 0 0 0 0 0 0 0 0 0 0 0 0 0 0 0 0 1 11 227 252 112 46 18 7 4 27 255 193 86 38 27 41 55 71 145 255 59 3 0 0 0 0 0 1 2 7 19 50 131 255 255 152 61 24 9 3 1 0 3 48 255 132 130 93 28 30 67 150 255 32 4 45 255 143 63 29 31 117 180 206 177 10 1 1 2 5 15 39 95 210 255 21 1 0 0 0 0 0 0 0 0 0 0 0 0 0 0 0 0 0 0 0 0 0 0 0 0 0 0 0 4 86 255 147 63 26 10 3 1 1 2 41 255 138 150 71 23 33 78 174 255 25 3 2 3 2 6 86 255 120 49 25 42 151 123 128 247 160 9 2 3 8 23 57 136 255 111 6 0 0 0 0 0 0 0 0 3 60 255 158 68 28 11 4 1 0 0 3 52 255 145 127 36 24 49 119 255 101 8 6 16 40 95 209 255 23 1 0 0 0 0 0 0 0 0 0 0 0 0 0 0 0 2 41 255 167 72 29 11 4 1 1 1 7 112 178 155 64 25 38 88 156 117 55 28 47 129 129 255 255 173 73 38 41 46 66 122 255 137 7 0 0 0 0 0 0 0 0 0 0 0 0 0 0 0 0 0 0 6 128 255 120 58 43 39 33 58 133 255 83 6 4 11 28 68 158 255 52 3 0 0 0 0 0 0 0 0 0 0 0 0 0 0 0 0 0 0 0 0 0 0 2 36 255 183 82 33 13 5 10 154 250 106 44 26 50 106 127 244 85 5 0 1 2 5 13 34 85 194 255 25 1 0 0 5 99 255 140 60 25 10 3 1 1 8 145 225 157 156 57 25 42 100 235 176 12 5 9 13
0 0 0 0 0 0 0 0 0 0 0 0 0 0 6 111 255 124 49 19 7 4 37 255 144 60 24 15 42 160 165 255 255 129 52 22 22 77 73 81 129 255 75 4 0 0 0 0 0 0 0 0 0 0 0 10 199 255 110 49 31 19 15 19 41 99 236 171 10 3 7 19 50 121 255 127 6 0 0 0 0 0 0 0 0 0 0 0 0 0 0 0 3 54 255 169 72 28 10 4 14 216 199 84 34 17 33 178 144 137 255 85 5 0 1 2 7 17 32 37 26 13 5 2 3 41 255 157 75 57 42 11 4 8 19 36 51 43 27 17 14 13 13 20 45 109 251 255 13 4 62 255 157 68 36 25 22 18 32 77 175 255 37 2 1 2 6 17 43 108 250 250 12 1 0 0 0 0 0 0 0 0 0 2 36 255 184 80 32 12 4 1 1 1 21 255 167 108 89 62 20 25 59 138 255 43 4 6 15 39 98 226 255 18 1 0 1 19 255 208 90 36 14 5 6 71 255 118 49 20 17 67 103 119 187 231 12 1 0 1 4 11 29 74 177 255 38 2 0 0 0 0 0 0 0 0 0 0 0 0 0 0 0 0 0 0 0 0 0 0 0 0 0 0 0 0 0 4 86 255 136 56 22 8 3 10 175 255 109 44 19 15 24 32 40 81 189 255 27 1 0 0 0 0 0 1 3 9 26 69 146 155 78 31 11 4 1 0 1 18 255 188 98 95 115 27 16 34 86 217 176 27 255 191 81 33 17 37 171 146 145 255 71 4 0 1 2 7 19 47 116 255 151 8 0 0 0 0 0 0 0 0 0 0 0 0 0 0 0 0 0 0 0 0 0 0 0 0 0 0 2 39 255 178 77 30 12 4 1 0 1 15 255 203 121 114 121 22 17 40 99 246 130 8 1 1 2 34 255 159 66 26 16 56 133 86 84 139 255 60 4 1 4 10 28 71 165 255 50 2 0 0 0 0 0 0 1 29 255 198 85 33 13 5 2 1 0 1 20 255 174 150 138 43 15 26 65 154 255 40 5 7 18 47 116 255 188 9 0 0 0 0 0 0 0 0 0 0 0 0 0 0 1 18 255 219 93 36 13 5 2 1 0 2 41 255 128 137 96 21 20 39 57 47 27 19 59 122 145 249 209 95 38 21 23 26 37 68 158 255 63 3 0 0 0 0 0 0 0 0 0 0 0 0 0 0 0 0 3 55 255 154 66 32 23 21 17 30 71 164 255 34 3 5 13 34 86 203 255 24 1 0 0 0 0 0 0 0 0 0 0 0 0 0 0 0 0 0 0 0 0 1 13 255 229 100 41 15 6 5 55 255 134 56 23 17 50 84 110 144 255 33 2 0 1 2 6 16 43 109 255 179 9 1 2 43 255 167 72 29 11 4 1 1 3 55 255 140 121 126 88 19 22 52 128 255 60 5 3 4
0 0 0 0 0 0 0 0 0 0 0 0 0 2 49 255 161 66 24 8 3 13 214 209 84 31 12 12 72 147 168 185 142 67 26 12 19 82 53 53 78 175 255 34 2 0 0 0 0 0 0 0 0 0 4 76 255 139 58 26 15 9 7 9 20 51 129 255 62 4 3 9 24 63 154 255 54 3 0 0 0 0 0 0 0 0 0 0 0 0 0 1 25 255 208 91 36 13 5 6 70 255 112 43 17 12 57 175 106 99 173 255 40 2 0 1 3 6 10 12 9 5 2 1 15 255 214 92 44 33 25 7 2 3 7 13 17 15 11 7 5 5 5 9 22 56 140 255 108 38 255 197 86 35 18 12 10 9 16 38 97 224 253 13 1 1 2 7 21 55 139 255 103 5 0 0 0 0 0 0 0 0 1 14 255 234 102 40 15 5 2 1 1 7 143 255 112 81 65 69 16 13 30 79 194 244 15 3 6 18 50 127 255 141 7 1 7 138 255 118 45 17 6 3 25 255 154 64 25 11 17 108 85 102 127 255 89 5 0 0 1 5 13 38 99 230 255 16 1 0 0 0 0 0 0 0 0 0 0 0 0 0 0 0 0 0 0 0 0 0 0 0 0 0 0 0 2 39 255 171 72 27 10 4 5 67 255 139 57 22 9 7 12 15 21 43 109 255 216 10 0 0 0 0 0 0 1 4 12 31 55 57 34 14 5 2 0 0 6 115 255 116 66 71 120 32 10 17 46 123 255 255 255 110 42 16 12 61 154 106 102 186 255 34 2 0 1 3 8 23 60 147 255 61 3 0 0 0 0 0 0 0 0 0 0 0 0 0 0 0 0 0 0 0 0 0 0 0 0 1 15 255 225 99 38 14 5 2 1 0 6 108 255 129 91 90 186 33 10 20 53 133 255 47 3 1 10 186 221 92 35 13 15 90 89 58 52 82 183 255 25 2 1 4 13 35 90 208 255 22 1 0 0 0 0 0 11 218 255 112 43 16 5 2 1 0 0 7 149 255 127 124 120 63 12 13 34 88 208 218 14 3 8 22 60 148 255 81 4 0 0 0 0 0 0 0 0 0 0 0 0 0 8 163 255 125 48 17 6 2 1 0 1 16 255 202 104 105 156 27 10 14 19 16 12 16 95 105 123 112 88 45 19 10 10 12 19 36 88 201 255 30 1 0 0 0 0 0 0 0 0 0 0 0 0 0 0 1 24 255 199 86 34 16 10 9 8 14 36 93 224 197 11 2 6 16 44 116 255 205 10 0 0 0 0 0 0 0 0 0 0 0 0 0 0 0 0 0 0 0 0 5 101 255 127 51 19 7 3 20 255 178 75 28 12 12 49 65 83 100 224 224 12 1 0 1 2 7 21 56 141 255 72 4 17 255 213 92 35 13 5 2 1 1 23 255 188 92 82 92 160 24 12 27 72 170 255 21 2 1
0 0 0 0 0 0 0 0 0 0 0 0 1 21 255 209 91 34 11 4 5 73 255 120 45 15 6 19 186 116 119 82 58 30 12 7 19 85 41 33 44 103 237 245 13 1 0 0 0 0 0 0 0 2 34 255 178 75 30 12 6 3 3 4 9 26 73 177 255 25 2 4 11 32 86 200 255 23 1 0 0 0 0 0 0 0 0 0 0 0 0 10 222 255 117 46 17 6 3 27 255 158 64 22 9 15 134 113 74 66 105 230 255 17 1 0 1 2 3 3 3 2 1 6 108 255 121 50 24 17 12 4 1 1 2 4 5 5 4 3 2 2 2 4 10 28 74 174 255 255 255 111 44 17 8 5 4 4 7 19 50 125 255 91 5 1 1 3 9 28 74 175 255 48 2 0 0 0 0 0 0 0 5 99 255 129 52 19 7 2 1 0 3 61 255 151 71 57 50 79 15 7 15 42 113 255 84 6 3 8 25 67 159 255 63 6 56 255 151 62 22 8 3 8 120 240 92 33 12 6 28 183 84 81 86 172 255 41 2 0 1 2 6 18 52 129 255 121 6 0 0 0 0 0 0 0 0 0 0 0 0 0 0 0 0 0 0 0 0 0 0 0 0 0 0 1 16 255 226 97 36 13 4 3 29 255 181 77 29 10 4 3 4 6 10 22 58 143 255 87 4 0 0 0 0 0 0 2 5 12 18 19 13 6 2 1 0 2 47 255 152 68 43 55 98 41 8 8 25 76 211 255 181 65 22 8 16 138 102 72 66 111 244 255 14 1 0 1 3 10 30 81 189 255 26 1 0 0 0 0 0 0 0 0 0 0 0 0 0 0 0 0 0 0 0 0 0 0 0 6 114 255 125 50 18 6 2 1 0 2 48 255 163 78 65 82 154 66 9 10 27 78 190 255 16 4 59 255 121 49 18 8 22 174 63 36 30 45 107 255 161 9 1 2 6 17 46 118 255 185 9 0 0 0 0 4 84 255 139 58 21 7 2 1 0 0 3 64 255 157 86 89 95 127 15 7 17 46 116 255 72 5 4 10 30 80 188 255 40 2 0 0 0 0 0 0 0 0 0 0 0 4 72 255 161 67 24 8 2 1 0 0 6 121 255 127 78 88 168 47 7 5 6 5 6 25 187 95 82 48 34 19 8 4 4 5 8 18 45 113 254 240 12 1 0 0 0 0 0 0 0 0 0 0 0 0 0 9 172 255 113 44 17 7 4 3 3 6 18 49 125 255 67 4 2 7 22 61 149 255 82 4 0 0 0 0 0 0 0 0 0 0 0 0 0 0 0 0 0 0 2 47 255 167 68 25 9 3 7 104 255 104 39 14 6 10 49 50 58 64 131 255 91 5 0 0 1 3 10 28 78 184 255 44 123 255 120 47 17 6 2 1 1 8 161 255 113 56 53 79 186 43 8 13 37 99 255 104 6 1
0 0 0 0 0 0 0 0 0 0 0 0 8 159 255 119 47 17 5 3 30 255 166 69 24 8 6 52 238 106 70 35 22 12 5 4 19 81 34 19 24 55 131 255 93 5 0 0 0 0 0 0 1 13 248 236 102 39 14 5 2 1 1 1 4 13 39 105 255 168 9 2 5 15 45 114 255 166 8 0 0 0 0 0 0 0 0 0 0 0 5 98 255 149 61 23 8 3 9 157 244 96 34 11 6 36 250 83 49 42 59 130 255 142 7 0 0 1 1 1 1 1 3 48 255 163 67 26 12 7 4 1 0 0 1 1 1 1 1 1 1 1 1 2 4 13 38 101 253 255 155 60 22 8 3 2 1 1 3 8 25 68 164 255 39 2 0 1 4 13 38 97 216 255 21 1 0 0 0 0 0 2 42 255 164 69 26 9 3 1 0 1 27 255 196 88 43 38 43 92 16 4 7 22 65 160 255 35 3 4 12 34 87 201 255 70 255 194 84 32 11 3 3 44 255 130 51 17 6 7 61 172 105 65 56 102 225 255 17 1 0 1 3 9 26 69 162 255 53 3 0 0 0 0 0 0 0 0 0 0 0 0 0 0 0 0 0 0 0 0 0 0 0 0 0 7 139 255 128 51 18 6 2 10 170 248 105 40 14 4 2 1 1 2 4 10 30 78 180 255 40 2 0 0 0 0 0 1 2 4 6 6 4 2 1 0 1 18 255 203 88 38 28 42 69 60 8 4 13 43 104 153 92 36 11 6 37 239 80 46 40 61 137 255 122 6 0 0 1 5 14 42 108 255 195 9 0 0 0 0 0 0 0 0 0 0 0 0 0 0 0 0 0 0 0 0 0 0 2 51 255 162 67 25 8 3 1 0 1 21 255 212 93 46 46 72 100 206 18 5 14 42 112 255 100 28 255 167 69 25 9 7 47 190 63 23 16 24 58 140 255 61 3 1 2 8 23 63 153 255 81 4 0 0 2 39 255 176 75 29 10 3 1 0 0 1 29 255 196 91 55 60 90 229 34 5 8 24 66 161 255 29 3 5 14 41 105 233 255 16 1 0 0 0 0 0 0 0 0 0 2 35 255 196 87 34 11 3 1 0 0 3 52 255 164 77 58 77 118 123 11 2 2 2 5 53 193 102 51 21 12 7 3 2 1 2 3 8 22 58 139 255 99 5 0 0 0 0 0 0 0 0 0 0 0 0 3 67 255 145 60 22 8 3 1 1 1 3 8 25 70 168 255 26 2 3 10 31 80 182 255 37 2 0 0 0 0 0 0 0 0 0 0 0 0 0 0 0 0 1 22 255 219 95 35 12 4 3 40 255 142 58 20 6 3 8 46 39 37 39 76 177 255 44 2 0 0 1 4 14 40 106 255 255 255 159 65 23 8 2 1 0 3 64 255 146 63 33 35 72 124 97 10 7 19 55 139 255 39 2
0 0 0 0 0 0 0 0 0 0 0 3 64 255 151 63 24 8 3 10 173 240 99 38 12 4 15 207 144 94 41 15 8 4 2 3 19 70 29 11 12 29 72 170 255 42 2 0 0 0 0 0 5 92 255 131 54 19 6 2 1 0 0 1 2 6 20 58 142 255 63 4 2 7 22 61 146 255 65 3 0 0 0 0 0 0 0 0 0 2 49 255 185 81 31 11 3 4 57 255 136 54 18 6 9 110 165 73 33 25 32 70 162 255 62 3 0 0 0 0 0 1 20 255 212 93 36 13 5 3 1 1 0 0 0 0 0 0 0 0 0 0 0 1 2 6 19 53 115 140 78 31 10 3 1 1 0 1 1 4 12 36 95 223 255 16 1 1 2 6 18 50 122 255 159 8 0 0 0 0 1 17 255 215 93 35 12 4 1 0 1 10 197 255 112 48 25 24 42 103 20 3 3 11 36 96 228 234 13 2 5 16 45 116 255 255 255 114 44 15 5 2 16 255 196 79 28 9 3 17 226 121 132 59 36 56 128 255 138 7 0 0 1 4 12 35 90 207 255 24 1 0 0 0 0 0 0 0 0 0 0 0 0 0 0 0 0 0 0 0 0 0 0 0 3 64 255 166 69 26 8 3 4 59 255 134 56 20 6 2 1 0 0 1 2 5 14 40 101 227 255 17 1 0 0 0 0 0 1 1 2 2 1 1 0 0 7 142 255 117 47 21 17 30 51 125 12 3 7 21 43 57 40 18 6 10 112 160 74 31 23 33 74 170 255 57 3 0 1 2 7 21 58 144 255 78 4 0 0 0 0 0 0 0 0 0 0 0 0 0 0 0 0 0 0 0 0 1 23 255 211 92 35 12 4 1 0 0 9 188 255 123 51 26 33 62 91 255 59 6 7 22 63 155 255 255 255 101 37 13 5 11 136 120 69 16 8 12 31 79 185 255 26 1 1 3 11 32 84 191 255 40 2 1 15 255 229 101 38 14 4 1 0 0 1 12 246 255 112 50 33 44 103 170 112 9 4 12 35 98 241 156 9 2 7 20 54 130 255 127 6 0 0 0 0 0 0 0 0 1 16 255 245 109 44 16 5 1 0 0 1 22 255 206 93 45 42 65 95 255 36 3 1 1 13 170 125 106 34 10 4 2 1 1 0 1 1 4 10 29 75 177 255 47 2 0 0 0 0 0 0 0 0 0 0 1 29 255 185 80 31 11 3 1 1 0 0 1 4 12 37 100 249 159 9 2 5 15 41 102 231 255 14 1 0 0 0 0 0 0 0 0 0 0 0 0 0 0 0 9 199 255 125 50 18 5 2 14 255 208 85 31 10 3 2 7 39 28 22 23 42 102 226 255 19 1 0 1 2 6 20 58 150 255 244 96 34 11 3 1 0 1 28 255 189 82 34 19 24 62 86 255 28 5 10 30 84 207 248 14
0 0 0 0 0 0 0 0 0 0 1 28 255 191 84 32 11 4 4 62 255 133 54 20 6 6 67 255 105 73 25 7 3 1 1 3 16 54 23 6 6 14 38 98 224 255 17 1 0 0 0 2 42 255 169 72 27 9 3 1 0 0 0 0 1 3 10 31 81 184 255 25 2 3 11 31 81 187 255 28 1 0 0 0 0 0 0 0 1 23 255 225 103 42 15 5 2 21 255 183 79 30 9 5 35 255 103 59 23 13 17 37 90 200 255 28 1 0 0 0 0 8 161 255 121 49 18 6 2 1 0 0 0 0 0 0 0 0 0 0 0 0 0 0 1 3 9 24 45 51 34 14 5 1 0 0 0 0 0 2 6 18 51 128 255 120 6 0 1 3 8 25 64 153 255 69 3 0 0 0 6 118 255 124 49 18 6 2 0 0 4 76 255 143 60 25 13 16 48 102 25 3 2 5 19 53 129 255 85 5 2 7 23 64 153 255 165 66 23 7 2 6 104 255 118 45 15 4 5 70 255 119 138 66 25 30 70 165 255 62 3 0 0 2 6 17 47 119 255 183 9 0 0 0 0 0 0 0 0 0 0 0 0 0 0 0 0 0 0 0 0 0 0 1 31 255 205 92 36 12 4 2 22 255 177 76 29 10 3 1 0 0 0 0 1 2 7 20 53 128 255 137 7 0 0 0 0 0 0 0 0 0 0 0 0 3 62 255 158 65 25 10 9 21 61 241 34 3 3 9 16 19 15 7 5 36 255 104 65 22 12 17 38 94 210 255 26 1 0 1 3 10 30 80 184 255 36 2 0 0 0 0 0 0 0 0 0 0 0 0 0 0 0 0 0 0 0 10 212 255 121 48 17 5 2 0 0 4 83 255 157 67 27 15 23 57 87 145 255 19 4 11 35 96 255 255 168 61 20 6 4 42 255 94 79 15 4 6 15 42 109 255 185 9 1 1 5 16 43 107 236 255 18 7 120 255 130 53 19 6 2 1 0 0 5 102 255 144 60 26 20 38 111 121 255 39 4 6 19 54 132 255 57 4 3 9 27 69 163 255 57 3 0 0 0 0 0 0 0 7 135 255 138 57 22 7 2 1 0 0 8 164 255 118 49 26 30 58 95 186 156 9 1 3 50 255 102 95 27 5 2 1 0 0 0 0 0 1 5 14 39 100 221 255 20 1 0 0 0 0 0 0 0 0 0 11 213 249 107 42 15 5 1 0 0 0 0 0 2 6 19 55 140 255 60 4 2 7 20 53 131 255 116 6 0 0 0 0 0 0 0 0 0 0 0 0 0 0 4 84 255 156 66 25 8 3 6 92 255 123 47 16 5 1 1 5 27 18 11 12 22 54 128 255 143 7 0 0 1 3 10 30 75 133 110 52 18 5 1 0 1 10 208 254 109 44 17 10 17 54 83 205 97 8 5 16 47 122 255 105
0 0 0 0 0 0 0 0 0 0 10 209 254 110 44 16 5 3 25 255 180 77 29 10 4 26 255 160 79 54 16 4 1 0 0 2 12 36 16 4 3 6 19 52 128 255 129 7 0 0 1 19 255 226 98 38 13 4 1 0 0 0 0 0 0 1 5 16 43 107 255 147 8 2 5 15 43 109 253 212 10 0 0 0 0 0 0 0 9 192 255 127 53 20 7 2 7 121 255 107 43 15 5 11 176 198 80 46 15 7 8 18 47 114 255 219 11 0 0 0 3 67 255 157 66 25 9 3 1 0 0 0 0 0 0 0 0 0 0 0 0 0 0 0 0 1 4 9 15 17 12 6 2 1 0 0 0 0 0 1 2 9 27 71 165 255 52 3 0 1 4 12 33 85 197 255 34 2 0 3 51 255 160 68 25 8 2 1 0 2 33 255 182 79 31 12 7 13 66 90 32 4 1 3 9 28 73 171 255 38 3 3 11 32 70 104 75 34 11 3 3 46 255 162 68 25 7 3 25 255 154 117 121 89 20 16 37 92 203 255 28 1 0 1 2 8 24 63 148 255 77 4 0 0 0 0 0 0 0 0 0 0 0 0 0 0 0 0 0 0 0 0 1 12 255 255 115 48 18 6 2 8 135 255 106 40 14 4 1 0 0 0 0 0 0 1 3 9 27 70 166 255 63 3 0 0 0 0 0 0 0 0 0 0 1 28 255 200 90 35 12 5 5 19 114 176 129 8 2 3 5 6 5 3 11 164 196 84 56 16 6 8 19 49 119 255 201 10 1 0 1 5 15 42 105 238 255 15 1 0 0 0 0 0 0 0 0 0 0 0 0 0 0 0 0 0 4 91 255 155 65 25 8 2 1 0 2 41 255 193 86 35 13 8 17 57 81 103 255 90 7 6 19 56 125 162 91 35 11 4 13 207 179 94 104 16 3 3 7 22 60 145 255 75 4 1 2 7 21 56 133 255 161 70 255 165 70 27 9 3 1 0 0 2 49 255 179 79 31 13 12 39 111 106 202 204 12 3 9 29 77 184 255 23 2 4 13 36 91 207 255 27 1 0 0 0 0 0 3 61 255 168 74 29 10 3 1 0 0 3 68 255 151 63 26 14 22 57 89 120 255 52 4 16 255 163 93 79 22 4 1 0 0 0 0 0 0 1 2 6 19 52 124 255 172 8 0 0 0 0 0 0 0 0 4 86 255 139 57 21 7 2 1 0 0 0 0 0 1 3 10 30 81 186 255 23 2 3 9 27 72 169 255 53 3 0 0 0 0 0 0 0 0 0 0 0 0 2 40 255 188 85 34 12 4 3 38 255 165 70 26 8 2 1 1 3 14 9 5 5 11 27 68 156 255 59 3 0 0 1 5 14 32 49 43 24 8 2 1 0 4 85 255 142 59 22 8 5 12 50 79 123 255 35 4 8 26 71 175 255
0 0 0 0 0 0 0 0 0 4 82 255 143 59 22 7 3 9 151 255 108 42 15 5 10 162 255 105 56 37 10 2 0 0 0 1 6 18 8 2 1 3 9 27 70 160 255 55 3 0 8 169 255 131 53 19 6 2 0 0 0 0 0 0 0 1 2 7 22 58 140 255 56 4 2 7 22 59 142 255 84 4 0 0 0 0 0 4 76 255 154 67 26 9 3 3 48 255 147 60 23 8 6 64 255 123 59 35 9 3 3 8 23 61 145 255 87 4 0 1 30 255 195 88 35 12 4 1 0 0 0 0 0 0 0 0 0 0 0 0 0 0 0 0 0 0 1 3 5 5 4 2 1 0 0 0 0 0 0 0 1 4 13 37 93 207 255 21 1 0 2 5 16 45 114 250 255 14 2 24 255 210 92 36 12 4 1 0 1 12 238 239 105 42 15 6 4 15 120 80 43 5 1 1 4 14 40 101 231 255 15 2 5 14 28 37 29 15 5 2 19 255 217 95 38 13 4 8 129 249 109 105 103 139 23 9 19 48 115 255 210 10 1 0 1 4 12 33 82 191 255 39 2 0 0 0 0 0 0 0 0 0 0 0 0 0 0 0 0 0 0 0 5 109 255 143 60 24 8 3 4 55 255 146 60 21 7 2 1 0 0 0 0 0 0 0 1 4 13 37 93 207 255 31 1 0 0 0 0 0 0 0 0 0 10 213 255 114 48 18 6 2 4 34 212 136 255 46 3 1 1 2 2 4 58 255 120 65 48 11 3 3 9 25 63 147 255 77 4 0 1 2 7 21 56 136 255 118 6 0 0 0 0 0 0 0 0 0 0 0 0 0 0 0 0 2 45 255 189 85 34 12 4 1 0 1 18 255 236 108 45 17 6 4 13 62 78 75 149 255 36 5 10 28 52 62 42 18 6 5 69 255 120 100 145 24 3 1 3 11 32 82 188 255 35 2 1 3 10 28 71 170 255 255 226 95 37 13 4 1 0 0 1 23 255 223 101 41 16 7 9 46 101 87 125 255 69 5 5 15 43 112 255 162 9 2 6 18 49 119 255 238 11 0 0 0 0 1 31 255 207 93 38 14 4 1 0 0 1 32 255 194 85 33 13 7 17 63 83 88 179 255 24 92 255 113 81 64 18 3 0 0 0 0 0 0 0 0 1 3 9 26 67 159 255 75 4 0 0 0 0 0 0 2 42 255 183 78 30 10 3 1 0 0 0 0 0 0 0 1 5 16 44 109 255 155 8 2 4 13 38 96 213 255 24 1 0 0 0 0 0 0 0 0 0 0 1 17 255 235 106 44 17 5 2 14 248 223 97 39 13 4 1 0 0 2 5 3 2 2 5 13 35 88 198 255 26 1 0 1 2 6 12 16 15 9 3 1 0 2 41 255 184 79 31 11 4 3 10 51 77 93 215 200 12 4 14 40 107 250
0 0 0 0 0 0 0 0 2 37 255 181 80 31 11 3 4 56 255 142 60 23 7 5 62 255 144 65 39 23 6 1 0 0 0 1 3 6 3 1 1 1 4 13 36 91 204 255 25 5 78 255 165 72 28 9 3 1 0 0 0 0 0 0 0 0 1 3 11 31 82 191 255 23 2 3 11 31 80 182 255 39 2 0 0 0 2 34 255 186 84 34 13 4 2 18 255 202 88 33 11 5 27 255 179 81 43 24 6 2 1 4 11 31 80 181 255 40 2 11 217 250 112 46 17 6 2 0 0 0 0 0 0 0 0 0 0 0 0 0 0 0 0 0 0 0 0 1 1 1 1 1 0 0 0 0 0 0 0 0 0 2 6 19 49 119 255 156 8 1 1 2 8 23 60 139 255 112 16 206 255 123 50 18 6 2 0 0 5 91 255 135 56 21 7 3 3 32 212 97 75 7 1 1 2 7 21 55 133 255 105 6 2 5 10 12 10 6 2 8 141 255 126 52 20 6 4 51 255 140 76 91 100 172 39 7 9 24 61 143 255 86 4 0 0 2 5 16 44 110 243 255 18 1 0 0 0 0 0 0 0 0 0 0 0 0 0 0 0 0 0 2 53 255 179 78 31 11 4 2 23 255 198 86 33 11 3 1 0 0 0 0 0 0 0 0 0 2 6 18 49 117 255 253 12 1 0 0 0 0 0 0 0 4 86 255 145 61 24 8 3 1 8 105 186 129 198 255 17 1 0 1 1 24 255 180 80 49 40 8 2 2 4 12 32 81 182 255 34 2 0 1 3 10 29 74 169 255 52 3 0 0 0 0 0 0 0 0 0 0 0 0 0 0 1 22 255 231 106 44 17 5 2 0 0 7 143 255 133 57 22 8 3 3 13 81 82 57 97 224 238 14 5 12 19 21 16 8 4 27 255 168 89 120 157 43 4 1 1 5 16 44 109 242 255 13 1 1 4 14 38 99 227 255 131 52 19 6 2 0 0 0 9 197 255 128 53 21 7 3 9 65 87 73 82 169 255 28 3 7 23 63 151 255 66 4 3 8 25 64 150 255 93 5 0 0 1 13 255 255 119 49 19 6 2 1 0 1 13 255 252 112 45 17 6 4 15 82 80 63 112 255 255 255 162 79 70 50 13 2 0 0 0 0 0 0 0 0 0 1 4 13 35 89 196 255 36 2 0 0 0 0 1 19 255 233 105 42 15 5 1 0 0 0 0 0 0 0 0 1 2 8 23 61 147 255 62 4 2 6 19 51 121 255 205 10 0 0 0 0 0 0 0 0 0 0 7 150 255 134 56 22 8 3 6 92 255 127 53 20 6 2 0 0 0 1 1 1 1 1 2 6 17 46 115 255 204 10 1 0 1 2 4 5 5 3 1 0 1 18 255 234 106 42 15 5 2 2 9 59 79 69 130 255 73 6 7 22 57 107
0 0 0 0 0 0 0 1 15 255 234 104 42 15 5 2 22 255 187 82 32 11 5 25 255 187 85 39 24 12 3 1 0 0 0 0 1 2 1 0 0 1 2 6 18 48 118 255 210 57 255 199 90 37 14 4 1 0 0 0 0 0 0 0 0 0 0 1 5 16 45 113 255 163 9 2 5 15 42 104 232 255 15 1 0 1 14 255 240 106 43 16 6 2 7 121 255 118 48 18 6 10 161 255 109 50 29 14 3 1 1 2 5 16 42 103 230 255 22 88 255 139 59 23 8 2 1 0 0 0 0 0 0 0 0 0 0 0 0 0 0 0 0 0 0 0 0 0 0 0 0 0 0 0 0 0 0 0 0 0 0 1 3 9 25 64 153 255 65 3 0 1 3 11 31 75 172 255 255 255 154 66 26 9 3 1 0 2 42 255 174 75 29 10 3 1 7 103 179 173 239 20 1 0 1 3 10 29 73 165 255 44 3 2 3 3 3 2 4 57 255 158 69 28 10 4 22 255 198 87 54 79 106 136 84 9 5 12 31 79 184 255 42 2 0 1 2 8 22 59 137 255 145 7 0 0 0 0 0 0 0 0 0 0 0 0 0 0 0 0 1 25 255 218 100 41 15 5 2 9 163 255 116 48 17 5 1 0 0 0 0 0 0 0 0 0 0 1 3 9 25 62 142 255 105 5 0 0 0 0 0 0 2 41 255 183 80 32 12 4 1 2 37 255 136 108 127 255 111 6 0 1 8 150 255 112 51 36 29 6 1 1 2 5 16 42 105 238 250 13 1 0 1 5 14 39 95 211 255 23 1 0 0 0 0 0 0 0 0 0 0 0 0 0 9 186 255 131 55 22 8 2 1 0 3 63 255 162 71 29 11 3 1 2 18 136 103 49 60 131 255 86 6 4 6 7 5 3 10 170 248 105 70 138 130 113 9 1 1 2 8 23 58 136 255 103 5 1 2 6 19 51 99 114 66 27 9 3 1 0 0 4 83 255 154 68 27 10 3 2 14 137 81 61 53 104 249 185 10 4 12 35 86 192 255 29 2 4 12 33 81 179 255 42 2 0 5 112 255 145 63 25 9 3 1 0 0 6 114 255 142 60 23 8 3 3 19 132 87 49 72 178 255 255 105 55 59 38 9 1 0 0 0 0 0 0 0 0 0 0 2 6 17 46 110 243 255 16 1 0 0 0 7 152 255 131 56 22 7 2 1 0 0 0 0 0 0 0 0 0 1 3 11 33 85 191 255 26 2 3 9 26 65 153 255 86 4 0 0 0 0 0 0 0 0 3 68 255 165 72 28 10 3 3 41 255 168 72 28 10 3 1 0 0 0 0 0 0 0 0 1 3 8 24 62 147 255 83 4 0 0 1 1 1 1 1 0 0 7 153 255 132 56 22 7 2 1 1 11 90 92 55 81 176 255 32 5 11 26 40
0 0 0 0 0 0 0 6 111 255 132 55 21 7 2 8 129 255 110 44 17 6 10 153 255 109 46 22 12 5 1 0 0 0 0 0 0 0 0 0 0 0 1 3 9 25 64 152 255 255 255 112 47 18 6 2 1 0 0 0 0 0 0 0 0 0 0 1 2 8 24 63 150 255 64 4 2 7 21 55 131 255 120 6 1 6 115 255 137 56 22 8 2 3 53 255 158 66 26 9 6 60 255 141 62 29 16 7 2 0 0 1 2 7 21 55 131 255 255 255 181 77 30 11 4 1 0 0 0 0 0 0 0 0 0 0 0 0 0 0 0 0 0 0 0 0 0 0 0 0 0 0 0 0 0 0 0 0 0 0 0 0 1 4 12 34 86 195 255 30 1 0 1 5 15 39 100 251 255 212 87 35 13 4 1 0 1 18 255 226 100 40 14 5 1 2 37 255 148 235 255 84 5 0 0 1 5 14 38 94 212 255 17 1 1 1 1 2 23 255 195 88 36 14 5 9 142 255 120 52 40 74 109 106 255 24 3 5 15 42 105 231 255 17 1 0 1 3 11 30 72 162 255 63 3 0 0 0 0 0 0 0 0 0 0 0 0 0 0 0 9 190 255 123 52 20 7 2 4 64 255 149 64 25 8 2 1 0 0 0 0 0 0 0 0 0 0 0 1 4 12 31 77 177 255 51 2 0 0 0 0 1 17 255 230 104 42 16 5 2 1 12 228 210 111 85 81 161 255 47 3 3 57 255 146 65 32 24 17 4 1 0 1 2 7 21 56 134 255 100 5 0 1 2 7 19 50 120 255 187 9 0 0 0 0 0 0 0 0 0 0 0 0 4 78 255 157 69 28 10 3 1 0 1 31 255 202 89 36 14 5 1 1 3 37 197 157 53 38 76 168 255 36 3 2 2 2 5 69 255 141 65 62 129 124 255 36 2 0 1 3 11 30 74 171 255 47 3 1 3 9 22 37 41 28 13 4 1 0 0 2 40 255 188 84 34 13 4 2 3 38 239 110 56 35 60 142 255 75 6 6 18 46 110 252 194 10 2 5 16 42 100 225 255 19 3 50 255 174 77 32 12 4 1 0 0 3 52 255 173 77 31 11 4 1 4 36 184 121 45 46 98 173 131 63 39 48 26 6 1 0 0 0 0 0 0 0 0 0 0 1 2 8 23 58 138 255 139 7 0 0 3 64 255 161 70 29 10 3 1 0 0 0 0 0 0 0 0 0 0 0 1 5 17 46 111 255 168 9 2 4 12 33 84 187 255 42 2 0 0 0 0 0 0 1 33 255 201 91 37 14 5 2 15 255 223 99 39 14 4 1 0 0 0 0 0 0 0 0 0 0 1 4 11 32 81 184 255 39 2 0 0 0 0 0 0 0 3 71 255 165 71 29 10 3 1 0 2 22 184 129 50 50 105 243 213 13 5 10 14
0 0 0 0 0 0 2 48 255 165 72 28 10 3 4 51 255 145 61 23 8 6 61 255 142 59 24 11 5 2 1 0 0 0 0 0 0 0 0 0 0 0 0 1 4 12 34 88 210 255 145 60 23 8 3 1 0 0 0 0 0 0 0 0 0 0 0 0 1 4 12 34 84 188 255 26 2 3 10 28 71 165 255 56 5 52 255 172 75 29 10 3 2 23 255 206 91 36 13 5 25 255 183 80 33 15 7 3 1 0 0 0 1 3 10 28 73 180 255 255 108 41 15 5 1 0 0 0 0 0 0 0 0 0 0 0 0 0 0 0 0 0 0 0 0 0 0 0 0 0 0 0 0 0 0 0 0 0 0 0 0 0 0 2 6 17 45 112 253 247 12 1 1 2 7 20 55 123 177 107 46 17 6 2 0 0 7 148 255 128 53 20 7 2 1 12 220 214 139 171 169 255 34 2 0 1 2 7 19 50 122 255 122 6 1 0 1 8 143 255 112 46 18 6 5 56 255 150 67 31 32 77 107 111 225 101 7 3 7 21 55 128 255 125 6 0 0 1 5 14 37 89 199 255 29 1 0 0 0 0 0 0 0 0 0 0 0 0 0 4 75 255 148 64 26 9 3 2 27 255 188 83 33 12 4 1 0 0 0 0 0 0 0 0 0 0 0 0 0 2 5 15 40 99 220 255 25 1 0 0 0 7 135 255 129 54 21 7 2 1 5 82 255 131 82 64 51 95 208 255 19 23 255 189 83 36 18 13 8 2 0 0 0 1 3 10 29 74 173 255 47 2 0 1 3 9 25 64 151 255 79 4 0 0 0 0 0 0 0 0 0 0 2 37 255 189 85 35 13 4 1 0 1 13 255 255 115 47 18 6 2 1 1 8 121 167 186 86 27 42 98 227 240 13 1 1 2 31 255 188 83 41 58 104 134 202 218 12 1 0 1 5 14 39 97 217 255 21 1 1 3 8 13 13 10 5 2 0 0 1 18 255 235 106 43 17 6 2 1 10 155 175 174 70 25 35 81 185 255 34 4 8 23 59 139 255 74 5 2 7 20 52 129 255 165 32 255 212 96 39 15 5 2 0 0 1 23 255 211 96 39 15 5 2 1 7 97 158 167 56 29 46 66 55 34 26 35 16 3 1 0 0 0 0 0 0 0 0 0 0 0 1 3 11 29 73 167 255 61 3 1 28 255 195 88 36 14 5 1 0 0 0 0 0 0 0 0 0 0 0 0 1 2 8 23 60 141 255 66 4 2 6 16 43 105 231 255 18 1 0 0 0 0 1 13 255 249 113 47 18 6 2 6 97 255 126 53 20 7 2 1 0 0 0 0 0 0 0 0 0 0 0 2 5 16 42 104 232 255 15 1 0 0 0 0 0 2 35 255 202 91 36 14 5 1 0 0 4 64 216 186 64 32 58 137 255 78 6 3 4
0 0 0 0 0 1 20 255 210 93 37 14 5 2 21 255 198 84 32 11 5 27 255 190 82 32 12 5 2 1 0 0 0 0 0 0 0 0 0 0 0 0 0 0 2 5 17 46 93 117 70 30 11 4 1 0 0 0 0 0 0 0 0 0 0 0 0 0 0 2 5 17 44 108 254 179 9 2 4 13 37 93 212 255 62 255 211 96 39 14 5 2 9 162 255 118 49 18 6 10 148 255 108 43 17 7 3 1 0 0 0 0 0 1 4 14 39 94 169 128 59 21 7 2 1 0 0 0 0 0 0 0 0 0 0 0 0 0 0 0 0 0 0 0 0 0 0 0 0 0 0 0 0 0 0 0 0 0 0 0 0 0 0 1 2 8 23 59 142 255 96 5 0 1 3 9 26 51 66 46 22 8 2 1 0 3 67 255 164 69 27 10 3 1 5 80 255 135 108 102 118 233 255 13 1 0 1 3 9 26 67 159 255 51 3 0 3 55 255 146 60 23 8 4 22 255 192 85 36 18 28 91 106 112 142 255 41 3 3 10 28 68 160 255 53 3 0 1 2 6 18 46 114 255 233 11 1 0 0 0 0 0 0 0 0 0 0 0 2 34 255 184 81 32 12 4 2 9 177 255 108 44 17 6 2 0 0 0 0 0 0 0 0 0 0 0 0 0 0 1 2 7 20 52 125 255 211 10 0 0 3 63 255 164 69 27 10 3 1 2 35 255 171 81 57 46 32 52 120 255 170 175 255 111 45 18 9 5 3 1 0 0 0 0 1 4 14 39 99 222 255 21 1 0 1 4 12 33 83 189 255 38 2 0 0 0 0 0 0 0 0 1 17 255 240 107 43 17 6 2 1 0 5 106 255 143 61 23 8 3 1 0 2 43 255 141 150 197 32 23 53 130 255 86 5 1 11 210 248 110 46 28 56 83 121 138 255 87 4 0 1 2 7 19 51 124 255 155 8 1 1 3 4 4 3 2 1 0 0 7 153 255 133 55 21 7 2 1 3 57 255 140 180 132 25 20 44 107 240 230 13 4 11 30 77 180 255 34 3 3 9 27 70 163 255 255 255 121 50 19 7 2 1 0 0 8 170 255 120 50 19 7 2 1 2 32 255 135 158 107 23 19 23 20 16 15 20 8 2 0 0 0 0 0 0 0 0 0 0 0 0 0 1 5 14 37 91 203 255 29 12 227 255 111 45 17 6 2 1 0 0 0 0 0 0 0 0 0 0 0 0 0 1 4 11 31 80 187 255 30 2 2 7 21 54 130 255 144 7 0 0 0 0 5 101 255 138 59 23 8 3 3 40 255 159 69 27 10 3 1 0 0 0 0 0 0 0 0 0 0 0 0 1 2 7 21 55 130 255 114 6 0 0 0 0 1 15 255 247 113 47 18 6 2 1 0 1 23 255 162 173 120 27 32 77 174 255 32 2 1
0 0 0 0 0 7 147 255 121 49 18 6 2 8 138 255 117 46 17 6 11 179 255 112 44 16 5 2 1 0 0 0 0 0 0 0 0 0 0 0 0 0 0 0 1 2 8 20 36 42 29 13 5 1 0 0 0 0 0 0 0 0 0 0 0 0 0 0 0 1 2 8 22 58 142 255 69 4 2 6 18 50 123 255 255 255 122 50 19 6 2 4 67 255 151 64 25 9 6 60 255 145 60 23 8 3 1 0 0 0 0 0 0 1 2 6 19 42 64 52 28 10 3 1 0 0 0 0 0 0 0 0 0 0 0 0 0 0 0 0 0 0 0 0 0 0 0 0 0 0 0 0 0 0 0 0 0 0 0 0 0 0 0 0 1 3 11 31 77 176 255 44 2 0 1 4 10 19 22 17 9 3 1 0 1 32 255 202 91 36 13 4 1 2 36 255 174 86 73 58 74 140 255 104 5 0 0 1 4 13 36 91 206 255 21 2 21 255 192 84 32 11 4 8 133 255 112 45 18 11 31 121 111 109 106 216 255 16 2 4 13 35 91 205 255 23 1 0 1 3 8 23 60 143 255 94 5 0 0 0 0 0 0 0 0 0 0 1 15 255 243 106 42 16 5 2 4 68 255 142 59 22 8 2 1 0 0 0 0 0 0 0 0 0 0 0 0 0 0 0 1 3 9 26 66 152 255 87 4 2 32 255 208 93 36 13 4 1 1 13 255 232 102 48 37 30 19 28 67 167 255 255 155 62 23 9 4 2 1 0 0 0 0 0 1 2 6 20 52 127 255 161 8 1 0 2 5 16 43 108 237 255 16 1 0 0 0 0 0 0 0 7 142 255 137 56 21 7 2 1 0 2 49 255 176 77 31 11 4 1 0 1 16 255 203 127 124 221 65 16 29 74 170 255 36 6 73 255 137 59 25 20 57 69 95 95 181 255 41 2 0 1 3 9 26 66 155 255 64 3 1 1 1 1 1 1 0 0 3 65 255 162 71 28 10 3 1 1 26 255 192 120 144 225 44 12 23 57 134 255 87 6 5 15 41 106 243 255 14 2 4 13 36 94 229 255 174 68 25 9 3 1 0 0 3 67 255 150 64 25 9 3 1 1 10 173 218 133 130 231 33 9 7 7 6 6 8 3 1 0 0 0 0 0 0 0 0 0 0 0 0 0 1 2 6 18 47 116 255 255 137 255 144 59 23 8 3 1 0 0 0 0 0 0 0 0 0 0 0 0 0 0 0 1 5 15 43 110 255 241 12 2 3 10 27 70 161 255 62 3 0 0 2 45 255 171 75 30 11 4 2 15 255 218 93 36 13 4 1 0 0 0 0 0 0 0 0 0 0 0 0 0 0 1 3 10 28 70 164 255 49 2 0 0 0 6 112 255 138 59 23 8 3 1 0 0 8 165 255 138 133 220 39 19 41 101 236 204 11 1
0 0 0 0 3 64 255 155 66 25 9 3 4 55 255 152 65 25 8 6 69 255 146 62 23 8 2 1 0 0 0 0 0 0 0 0 0 0 0 0 0 0 0 0 0 1 3 8 12 14 10 5 2 1 0 0 0 0 0 0 0 0 0 0 0 0 0 0 0 0 1 3 11 31 81 185 255 29 2 3 9 26 69 163 255 170 69 26 9 3 2 32 255 194 85 34 12 5 26 255 194 85 32 11 4 1 0 0 0 0 0 0 0 0 1 3 8 16 21 19 11 4 1 0 0 0 0 0 0 0 0 0 0 0 0 0 0 0 0 0 0 0 0 0 0 0 0 0 0 0 0 0 0 0 0 0 0 0 0 0 0 0 0 0 0 1 5 15 40 100 224 255 20 1 1 1 4 6 7 6 3 1 0 1 13 255 253 114 48 18 6 2 1 15 255 236 105 52 44 33 44 81 175 255 47 2 0 0 2 6 18 49 119 255 160 15 128 255 112 45 16 5 4 54 255 147 62 24 9 8 48 155 126 103 77 131 255 106 6 2 6 18 48 118 255 180 9 0 0 1 3 11 31 78 179 255 44 2 0 0 0 0 0 0 0 0 0 6 119 255 140 57 21 7 2 2 31 255 185 81 31 11 3 1 0 0 0 0 0 0 0 0 0 0 0 0 0 0 0 0 0 1 4 12 33 82 185 255 42 17 255 255 118 49 18 6 2 1 5 95 255 133 57 28 21 17 10 15 37 98 214 211 93 34 12 4 1 1 0 0 0 0 0 0 0 1 3 9 27 67 154 255 65 3 0 1 2 7 22 57 133 255 125 6 0 0 0 0 0 0 3 61 255 166 74 29 10 3 1 0 1 22 255 218 99 40 15 5 1 0 0 6 128 255 133 101 101 138 190 21 16 40 100 229 253 51 255 173 76 31 13 15 61 62 70 63 108 231 255 17 1 0 1 4 12 35 87 195 255 29 1 0 0 0 0 0 0 1 30 255 198 89 36 13 4 1 1 10 212 255 124 94 112 175 136 14 12 30 74 173 255 39 4 7 21 58 138 255 99 6 2 6 18 50 106 142 87 36 12 4 1 0 0 1 29 255 189 84 33 12 4 1 1 4 68 255 139 114 119 198 80 8 3 2 2 2 3 1 0 0 0 0 0 0 0 0 0 0 0 0 0 0 0 1 3 8 24 62 150 255 255 196 81 31 11 3 1 0 0 0 0 0 0 0 0 0 0 0 0 0 0 0 0 1 2 7 22 60 143 255 91 5 2 4 13 36 89 201 255 29 1 1 18 255 218 98 39 14 5 2 6 114 255 128 51 18 6 2 1 0 0 0 0 0 0 0 0 0 0 0 0 0 0 0 1 4 13 37 94 210 255 20 1 0 2 48 255 167 74 30 11 4 1 0 0 4 69 255 158 105 108 179 85 15 22 55 134 255 73 4
0 0 0 1 32 255 203 89 35 12 4 2 23 255 198 88 35 12 5 29 255 185 83 33 12 3 1 0 0 0 0 0 0 0 0 0 0 0 0 0 0 0 0 0 0 0 1 2 4 4 3 2 1 0 0 0 0 0 0 0 0 0 0 0 0 0 0 0 0 0 0 1 5 16 44 109 250 197 10 2 4 13 35 75 110 79 36 13 4 2 13 255 255 113 46 17 6 10 154 255 115 47 17 5 2 0 0 0 0 0 0 0 0 0 0 1 3 5 7 6 4 2 1 0 0 0 0 0 0 0 0 0 0 0 0 0 0 0 0 0 0 0 0 0 0 0 0 0 0 0 0 0 0 0 0 0 0 0 0 0 0 0 0 0 0 1 2 7 20 54 130 255 170 8 1 1 1 2 2 2 1 0 0 5 102 255 143 61 24 8 3 1 6 113 255 138 59 30 24 17 25 45 100 219 255 19 1 0 1 3 9 25 66 157 255 244 255 148 63 24 8 3 24 255 200 87 34 12 5 12 132 156 142 101 59 78 166 255 46 3 3 8 25 65 154 255 76 4 0 0 1 5 15 41 103 227 255 19 1 0 0 0 0 0 0 0 3 53 255 171 77 30 10 3 1 12 250 253 110 44 16 5 1 0 0 0 0 0 0 0 0 0 0 0 0 0 0 0 0 0 0 0 2 5 16 43 106 234 255 202 255 146 63 25 9 3 1 2 41 255 170 75 31 14 10 7 5 7 20 50 89 89 48 18 6 2 1 0 0 0 0 0 0 0 0 0 1 4 13 35 86 193 255 29 1 0 1 3 10 29 72 169 255 58 3 0 0 0 0 1 28 255 203 92 38 14 5 1 0 0 8 163 255 126 52 20 7 2 1 0 3 58 255 170 86 77 79 101 255 58 11 21 55 133 255 255 255 104 41 16 7 14 75 62 50 41 61 132 255 129 6 0 0 2 6 17 46 114 255 249 12 1 0 0 0 0 1 12 255 255 114 47 18 6 2 1 4 85 255 154 77 72 84 126 255 46 8 15 40 102 230 250 15 4 11 31 77 171 255 42 3 3 9 23 43 52 37 17 6 2 0 0 1 12 255 254 110 45 16 5 2 1 2 33 255 191 95 94 102 124 255 22 2 1 1 1 1 0 0 0 0 0 0 0 0 0 0 0 0 0 0 0 0 0 1 4 11 33 87 195 226 112 44 16 5 1 0 0 0 0 0 0 0 0 0 0 0 0 0 0 0 0 0 0 1 3 11 32 79 176 255 39 2 2 6 18 47 117 255 255 13 7 134 255 126 52 19 6 2 3 52 255 169 73 27 9 3 1 0 0 0 0 0 0 0 0 0 0 0 0 0 0 0 0 1 2 6 19 50 122 255 149 7 1 19 255 212 95 38 14 5 1 0 0 1 32 255 196 98 77 84 114 243 27 12 30 77 178 255 33
0 0 1 14 255 255 120 49 18 6 2 8 150 255 118 48 18 6 12 188 254 110 45 17 5 2 0 0 0 0 0 0 0 0 0 0 0 0 0 0 0 0 0 0 0 0 0 1 1 1 1 1 0 0 0 0 0 0 0 0 0 0 0 0 0 0 0 0 0 0 0 1 2 8 23 60 142 255 73 4 2 6 16 31 40 32 17 6 2 6 108 255 147 63 24 8 6 58 255 146 64 25 8 2 1 0 0 0 0 0 0 0 0 0 0 0 1 2 2 2 1 1 0 0 0 0 0 0 0 0 0 0 0 0 0 0 0 0 0 0 0 0 0 0 0 0 0 0 0 0 0 0 0 0 0 0 0 0 0 0 0 0 0 0 0 0 1 3 10 28 72 164 255 72 4 0 0 0 1 0 0 0 2 45 255 176 79 32 12 4 1 3 50 255 172 78 33 16 11 8 12 24 55 127 255 155 7 0 0 1 4 13 36 94 230 255 244 93 35 12 4 10 175 255 121 49 18 6 4 43 255 159 144 106 50 48 99 220 255 20 2 4 12 35 88 195 255 36 2 0 1 2 7 21 56 132 255 145 7 0 0 0 0 0 0 1 25 255 215 97 41 15 5 2 5 100 255 147 61 23 8 2 1 0 0 0 0 0 0 0 0 0 0 0 0 0 0 0 0 0 0 0 1 2 8 22 57 139 255 255 189 81 33 12 4 1 1 16 255 224 100 41 16 7 4 3 2 3 9 22 33 33 22 9 3 1 0 0 0 0 0 0 0 0 0 0 0 2 6 17 46 115 255 210 10 1 0 1 5 14 39 98 214 255 28 1 0 0 0 11 228 255 118 49 19 6 2 1 0 3 67 255 156 69 27 9 3 1 0 1 27 255 212 100 55 58 64 81 153 234 20 11 30 82 202 255 160 63 22 8 4 17 115 80 39 26 34 73 167 255 56 3 0 1 2 8 24 63 148 255 104 5 0 0 0 0 5 105 255 149 63 24 8 3 1 2 39 255 188 88 48 54 65 101 190 211 16 8 21 56 132 255 94 6 5 15 41 99 222 255 17 2 4 9 15 18 14 7 2 1 0 0 5 113 255 149 61 23 8 2 1 1 13 255 255 118 65 76 86 101 239 73 5 0 0 0 0 0 0 0 0 0 0 0 0 0 0 0 0 0 0 0 0 0 0 2 5 17 45 84 93 55 23 7 2 1 0 0 0 0 0 0 0 0 0 0 0 0 0 0 0 0 0 0 0 1 5 16 43 103 229 255 15 1 3 8 25 64 151 255 118 73 255 164 70 27 9 3 2 24 255 217 99 40 14 4 1 0 0 0 0 0 0 0 0 0 0 0 0 0 0 0 0 0 0 1 3 9 26 68 158 255 64 10 137 255 125 51 19 7 2 1 0 1 13 255 253 116 59 55 66 94 230 84 11 16 43 108 251 255
0 0 6 116 255 149 66 26 9 3 4 59 255 154 68 26 9 7 71 255 146 63 24 8 2 1 0 0 0 0 0 0 0 0 0 0 0 0 0 0 0 0 0 0 0 0 0 0 0 0 0 0 0 0 0 0 0 0 0 0 0 0 0 0 0 0 0 0 0 0 0 0 1 3 12 33 83 185 255 32 2 2 6 11 13 11 6 2 3 50 255 181 83 34 12 5 24 255 194 87 35 13 4 1 0 0 0 0 0 0 0 0 0 0 0 0 0 0 1 0 0 0 0 0 0 0 0 0 0 0 0 0 0 0 0 0 0 0 0 0 0 0 0 0 0 0 0 0 0 0 0 0 0 0 0 0 0 0 0 0 0 0 0 0 0 0 0 1 4 14 39 94 200 255 34 2 0 0 0 0 0 1 18 255 223 103 43 16 5 2 1 21 255 217 100 43 18 8 4 3 5 12 29 72 165 255 71 3 0 0 2 6 20 54 121 191 129 56 19 6 5 75 255 159 70 27 9 3 14 232 203 160 136 118 50 31 57 133 255 152 8 2 6 18 49 115 248 255 15 1 0 1 3 10 30 74 165 255 62 3 0 0 0 0 0 10 210 255 128 53 21 7 2 3 46 255 184 84 34 12 3 1 0 0 0 0 0 0 0 0 0 0 0 0 0 0 0 0 0 0 0 0 0 1 3 11 31 82 176 206 107 45 17 5 2 1 6 123 255 133 56 22 8 3 1 1 1 1 4 8 11 11 8 3 1 0 0 0 0 0 0 0 0 0 0 0 0 1 3 8 25 64 148 255 84 4 0 1 2 7 20 54 126 255 255 12 1 0 5 91 255 151 66 26 9 3 1 0 1 31 255 199 90 37 14 4 1 0 1 11 233 255 124 57 36 45 55 66 109 255 81 10 17 47 97 127 82 36 12 4 4 31 194 161 41 16 19 41 98 210 255 24 1 0 1 4 12 34 85 186 255 50 2 0 0 2 47 255 181 84 34 12 4 1 1 17 255 240 110 50 30 41 54 77 123 255 70 8 11 31 77 175 255 43 4 7 22 55 132 255 126 7 2 3 5 5 4 2 1 0 0 3 56 255 188 85 34 12 3 1 1 5 107 255 148 70 47 65 75 85 135 255 22 1 0 0 0 0 0 0 0 0 0 0 0 0 0 0 0 0 0 0 0 0 0 1 2 8 20 32 34 24 11 3 1 0 0 0 0 0 0 0 0 0 0 0 0 0 0 0 0 0 0 0 0 1 2 8 22 57 135 255 114 6 1 4 12 35 85 187 255 255 223 97 39 14 4 2 9 182 255 129 55 21 7 2 0 0 0 0 0 0 0 0 0 0 0 0 0 0 0 0 0 0 0 0 1 4 13 38 93 205 255 146 255 162 71 28 9 3 1 0 0 5 103 255 147 66 36 40 55 80 140 255 31 10 24 63 153 255
0 3 55 255 183 85 37 13 4 2 25 255 202 93 39 14 6 31 255 190 88 36 13 4 1 0 0 0 0 0 0 0 0 0 0 0 0 0 0 0 0 0 0 0 0 0 0 0 0 0 0 0 0 0 0 0 0 0 0 0 0 0 0 0 0 0 0 0 0 0 0 0 0 2 6 18 48 114 253 230 12 1 2 3 4 3 2 2 22 255 225 107 46 18 6 10 149 255 121 50 19 6 2 0 0 0 0 0 0 0 0 0 0 0 0 0 0 0 0 0 0 0 0 0 0 0 0 0 0 0 0 0 0 0 0 0 0 0 0 0 0 0 0 0 0 0 0 0 0 0 0 0 0 0 0 0 0 0 0 0 0 0 0 0 0 0 0 1 2 7 21 52 119 254 255 14 1 0 0 0 0 7 134 255 134 58 23 8 2 1 8 158 255 131 57 23 9 3 2 1 2 5 15 41 98 211 255 37 2 0 1 3 10 29 56 77 60 31 10 4 37 255 202 94 40 15 4 6 81 255 144 136 128 133 66 23 34 77 166 255 62 4 3 9 27 65 145 255 121 6 0 0 1 5 15 41 97 210 255 30 1 0 0 0 4 85 255 161 73 30 10 3 2 20 255 230 109 48 18 6 2 0 0 0 0 0 0 0 0 0 0 0 0 0 0 0 0 0 0 0 0 0 0 0 1 5 17 43 77 85 54 24 8 2 1 3 57 255 177 78 32 11 3 1 0 0 0 0 1 3 3 3 3 1 0 0 0 0 0 0 0 0 0 0 0 0 0 0 1 4 13 36 87 191 255 40 2 0 1 3 10 29 71 158 255 106 5 2 43 255 189 88 37 13 4 1 0 1 13 255 255 121 51 20 6 2 1 0 5 104 255 159 71 33 23 35 53 61 84 164 255 34 10 24 41 49 37 19 6 2 7 96 209 255 93 13 10 22 55 126 255 186 9 1 0 2 6 18 48 110 229 255 23 1 1 21 255 227 106 47 18 6 2 1 7 150 255 144 63 28 19 32 49 62 86 172 255 28 7 16 44 108 234 255 19 4 11 31 78 173 255 57 3 1 1 2 1 1 0 0 1 27 255 227 110 48 18 6 2 1 2 48 255 181 85 42 35 60 74 75 102 254 109 6 0 0 0 0 0 0 0 0 0 0 0 0 0 0 0 0 0 0 0 0 0 0 1 3 7 11 12 9 4 1 0 0 0 0 0 0 0 0 0 0 0 0 0 0 0 0 0 0 0 0 0 0 1 3 11 32 79 177 255 52 3 2 6 18 48 114 255 255 136 57 21 7 2 4 75 255 161 73 31 11 3 1 0 0 0 0 0 0 0 0 0 0 0 0 0 0 0 0 0 0 0 0 0 2 6 20 53 127 255 255 241 100 40 14 4 1 0 0 2 47 255 184 86 38 22 30 52 73 107 241 149 13 13 38 93 188
1 26 255 227 109 48 19 6 2 10 186 255 125 55 22 8 12 193 255 118 52 20 6 2 0 0 0 0 0 0 0 0 0 0 0 0 0 0 0 0 0 0 0 0 0 0 0 0 0 0 0 0 0 0 0 0 0 0 0 0 0 0 0 0 0 0 0 0 0 0 0 0 0 1 3 9 28 68 150 255 91 5 1 1 1 1 1 8 155 255 136 61 26 9 6 63 255 159 73 30 10 3 1 0 0 0 0 0 0 0 0 0 0 0 0 0 0 0 0 0 0 0 0 0 0 0 0 0 0 0 0 0 0 0 0 0 0 0 0 0 0 0 0 0 0 0 0 0 0 0 0 0 0 0 0 0 0 0 0 0 0 0 0 0 0 0 0 0 1 3 10 29 68 151 255 119 6 0 0 0 3 57 255 171 79 33 12 4 1 4 65 255 166 77 33 12 4 1 1 0 1 2 8 23 57 127 255 255 17 1 0 1 5 13 23 29 25 15 6 17 255 255 123 55 23 7 4 35 255 181 107 112 125 147 138 24 21 45 99 206 255 28 2 4 14 37 85 183 255 56 3 0 1 2 7 23 57 128 255 236 12 1 0 2 40 255 196 94 42 16 5 2 8 168 255 139 63 27 9 3 1 0 0 0 0 0 0 0 0 0 0 0 0 0 0 0 0 0 0 0 0 0 0 0 1 2 8 20 31 33 24 11 4 1 1 26 255 222 108 47 17 5 2 0 0 0 0 0 0 1 1 1 1 0 0 0 0 0 0 0 0 0 0 0 0 0 0 0 0 2 6 20 51 117 246 255 17 1 0 1 5 15 40 92 190 255 51 24 255 242 114 51 20 6 2 1 0 6 122 255 156 71 29 10 3 1 0 3 54 255 198 94 41 19 14 29 61 67 68 114 248 188 15 11 16 18 15 8 3 3 37 255 186 206 255 35 6 12 31 74 162 255 79 4 0 1 3 9 26 63 137 255 202 10 9 171 255 138 61 25 9 3 1 4 69 255 179 84 37 16 11 25 50 55 63 115 255 173 12 9 26 65 143 255 146 9 6 17 46 105 221 255 27 1 0 0 0 0 0 1 12 255 255 135 62 27 9 3 1 1 21 255 228 109 50 26 29 68 89 80 82 153 255 45 2 0 0 0 0 0 0 0 0 0 0 0 0 0 0 0 0 0 0 0 0 0 0 1 2 3 4 3 1 1 0 0 0 0 0 0 0 0 0 0 0 0 0 0 0 0 0 0 0 0 0 0 0 1 5 18 47 108 225 255 23 2 3 9 27 65 119 128 76 33 11 3 3 36 255 202 96 42 17 5 1 0 0 0 0 0 0 0 0 0 0 0 0 0 0 0 0 0 0 0 0 0 0 1 3 10 31 78 165 228 138 62 23 7 2 1 0 1 21 255 231 111 50 22 13 23 57 76 85 148 255 61 10 22 51 81
12 251 255 138 64 28 10 3 5 76 255 162 77 33 12 8 75 255 153 72 32 11 3 1 0 0 0 0 0 0 0 0 0 0 0 0 0 0 0 0 0 0 0 0 0 0 0 0 0 0 0 0 0 0 0 0 0 0 0 0 0 0 0 0 0 0 0 0 0 0 0 0 0 0 1 4 15 41 92 193 255 42 2 0 0 0 3 64 255 167 80 36 14 6 31 255 210 100 45 17 5 1 0 0 0 0 0 0 0 0 0 0 0 0 0 0 0 0 0 0 0 0 0 0 0 0 0 0 0 0 0 0 0 0 0 0 0 0 0 0 0 0 0 0 0 0 0 0 0 0 0 0 0 0 0 0 0 0 0 0 0 0 0 0 0 0 0 0 0 1 5 16 40 90 191 255 58 3 0 1 26 255 216 105 47 18 6 2 2 29 255 208 101 46 18 6 2 1 0 0 0 1 4 12 33 74 155 255 169 8 0 1 2 5 9 10 9 6 8 118 255 153 73 33 12 4 15 255 250 121 84 100 132 171 255 56 15 27 59 128 255 240 12 2 7 21 51 111 225 255 26 1 0 1 3 12 33 76 158 255 103 5 1 16 255 246 120 55 23 8 2 4 75 255 176 83 37 14 4 1 0 0 0 0 0 0 0 0 0 0 0 0 0 0 0 0 0 0 0 0 0 0 0 0 0 1 3 8 11 11 9 4 2 1 10 216 255 134 64 28 9 2 1 0 0 0 0 0 0 0 0 0 0 0 0 0 0 0 0 0 0 0 0 0 0 0 0 0 0 1 3 10 30 70 148 255 144 7 0 1 2 8 23 53 114 234 255 255 255 148 68 29 10 3 1 0 3 61 255 194 93 42 16 5 1 0 1 28 255 239 119 56 24 10 9 28 107 110 68 81 150 255 77 8 6 6 5 3 2 13 246 241 168 161 247 185 13 6 17 44 99 205 255 39 2 0 1 4 14 36 81 171 255 100 86 255 171 82 36 13 4 1 2 36 255 218 107 50 21 8 7 19 62 59 51 78 160 255 75 8 15 39 86 177 255 64 6 9 27 63 136 255 206 10 1 0 0 0 0 6 115 255 167 79 36 14 4 1 1 9 181 255 140 65 30 16 29 118 152 123 79 110 227 255 19 1 0 0 0 0 0 0 0 0 0 0 0 0 0 0 0 0 0 0 0 0 0 0 1 1 1 1 0 0 0 0 0 0 0 0 0 0 0 0 0 0 0 0 0 0 0 0 0 0 0 0 0 1 3 9 28 65 137 255 200 10 2 4 14 33 50 53 38 18 6 2 16 255 255 124 57 24 8 2 1 0 0 0 0 0 0 0 0 0 0 0 0 0 0 0 0 0 0 0 0 0 0 0 1 5 18 45 78 97 70 37 13 3 1 0 0 8 173 255 141 65 29 12 8 21 89 105 77 104 206 255 29 13 25 33
134 255 168 81 38 15 5 3 35 255 202 100 47 20 8 36 255 195 96 45 18 6 1 0 0 0 0 0 0 0 0 0 0 0 0 0 0 0 0 0 0 0 0 0 0 0 0 0 0 0 0 0 0 0 0 0 0 0 0 0 0 0 0 0 0 0 0 0 0 0 0 0 0 0 1 2 8 25 57 119 241 255 17 1 0 1 31 255 210 102 48 21 8 14 245 255 133 63 28 9 2 1 0 0 0 0 0 0 0 0 0 0 0 0 0 0 0 0 0 0 0 0 0 0 0 0 0 0 0 0 0 0 0 0 0 0 0 0 0 0 0 0 0 0 0 0 0 0 0 0 0 0 0 0 0 0 0 0 0 0 0 0 0 0 0 0 0 0 0 1 2 8 23 55 115 228 255 27 2 11 228 255 133 64 28 10 3 1 12 238 255 128 61 27 10 3 1 0 0 0 0 0 2 6 19 44 91 184 255 81 4 0 1 2 3 3 3 5 52 255 182 91 44 19 6 8 117 255 156 82 74 106 150 183 210 255 25 16 36 78 164 255 97 6 3 11 30 66 136 255 242 11 1 0 2 6 19 45 95 198 255 54 9 140 255 148 71 33 12 4 3 37 255 212 106 50 21 7 2 1 0 0 0 0 0 0 0 0 0 0 0 0 0 0 0 0 0 0 0 0 0 0 0 0 0 0 1 3 3 4 3 2 1 5 92 255 165 80 38 15 4 1 0 0 0 0 0 0 0 0 0 0 0 0 0 0 0 0 0 0 0 0 0 0 0 0 0 0 0 0 1 5 17 42 88 181 255 65 3 0 1 4 12 31 68 148 255 255 190 90 41 16 5 1 0 1 31 255 230 116 56 25 8 2 1 1 12 255 255 143 70 33 13 5 7 54 255 255 110 65 99 197 255 35 3 2 1 1 5 99 255 158 131 120 162 255 75 7 9 26 60 126 254 255 18 1 1 2 7 21 48 103 212 255 255 218 104 49 21 7 2 1 16 255 255 132 63 29 11 4 4 20 121 91 51 57 104 206 255 38 10 23 52 107 214 255 31 6 15 38 80 162 255 84 4 0 0 0 3 56 255 195 98 47 20 7 2 1 4 81 255 173 84 39 17 12 56 255 253 234 111 83 145 255 168 8 0 0 0 0 0 0 0 0 0 0 0 0 0 0 0 0 0 0 0 0 0 0 0 0 0 0 0 0 0 0 0 0 0 0 0 0 0 0 0 0 0 0 0 0 0 0 0 0 0 0 0 0 1 5 15 39 82 170 255 87 5 2 6 15 19 20 16 8 3 7 140 255 154 75 34 13 4 1 0 0 0 0 0 0 0 0 0 0 0 0 0 0 0 0 0 0 0 0 0 0 0 0 1 2 9 23 34 38 32 19 6 2 0 0 4 78 255 172 84 39 16 6 5 33 230 198 96 77 133 255 183 15 11 12
255 204 98 48 22 8 3 15 255 252 123 60 29 11 17 255 253 121 59 28 10 3 1 0 0 0 0 0 0 0 0 0 0 0 0 0 0 0 0 0 0 0 0 0 0 0 0 0 0 0 0 0 0 0 0 0 0 0 0 0 0 0 0 0 0 0 0 0 0 0 0 0 0 0 0 1 4 14 35 70 143 255 138 7 1 13 255 255 129 61 29 11 9 104 255 160 80 40 16 5 1 0 0 0 0 0 0 0 0 0 0 0 0 0 0 0 0 0 0 0 0 0 0 0 0 0 0 0 0 0 0 0 0 0 0 0 0 0 0 0 0 0 0 0 0 0 0 0 0 0 0 0 0 0 0 0 0 0 0 0 0 0 0 0 0 0 0 0 0 0 1 4 13 32 67 135 255 233 17 100 255 165 79 38 16 5 1 5 98 255 158 76 37 15 5 1 0 0 0 0 0 0 1 3 9 25 53 107 214 255 43 2 0 0 1 1 2 23 255 221 109 53 26 10 6 53 255 184 95 60 82 135 158 156 164 255 134 16 22 47 98 192 255 45 4 5 17 39 79 166 255 109 5 0 1 3 10 26 57 118 238 255 136 255 180 87 42 18 6 2 16 255 253 126 62 30 12 3 1 0 0 0 0 0 0 0 0 0 0 0 0 0 0 0 0 0 0 0 0 0 0 0 0 0 0 0 0 1 1 1 1 1 2 45 255 198 97 47 22 8 2 1 0 0 0 0 0 0 0 0 0 0 0 0 0 0 0 0 0 0 0 0 0 0 0 0 0 0 0 0 1 2 9 24 52 107 215 255 31 1 0 2 6 17 41 89 168 187 108 54 24 8 2 1 1 14 255 255 135 67 33 13 4 1 0 5 108 255 164 81 41 18 7 3 19 255 255 255 253 80 68 124 252 245 13 1 1 3 48 255 189 106 96 89 110 198 255 37 6 15 36 74 151 255 157 8 1 1 3 11 29 61 129 255 255 135 62 29 11 3 1 7 140 255 154 76 37 16 5 2 4 47 255 248 87 47 66 126 255 255 20 13 31 63 129 255 247 15 8 22 48 96 197 255 41 2 0 1 29 255 229 114 57 27 10 3 1 2 41 255 207 103 50 23 10 22 255 237 230 235 211 82 92 176 255 73 4 0 0 0 0 0 0 0 0 0 0 0 0 0 0 0 0 0 0 0 0 0 0 0 0 0 0 0 0 0 0 0 0 0 0 0 0 0 0 0 0 0 0 0 0 0 0 0 0 0 0 0 1 2 8 23 49 101 202 255 43 3 3 5 7 7 6 3 4 64 255 183 90 45 20 7 2 0 0 0 0 0 0 0 0 0 0 0 0 0 0 0 0 0 0 0 0 0 0 0 0 0 0 1 4 10 13 14 13 8 3 1 0 2 40 255 209 102 50 23 8 3 10 143 255 249 182 73 85 162 255 78 8 4
244 121 57 27 11 4 7 107 255 147 71 35 16 12 113 255 150 71 35 15 5 1 0 0 0 0 0 0 0 0 0 0 0 0 0 0 0 0 0 0 0 0 0 0 0 0 0 0 0 0 0 0 0 0 0 0 0 0 0 0 0 0 0 0 0 0 0 0 0 0 0 0 0 0 0 0 2 7 19 41 83 173 255 63 8 102 255 155 74 36 16 8 52 255 188 92 47 23 8 2 1 0 0 0 0 0 0 0 0 0 0 0 0 0 0 0 0 0 0 0 0 0 0 0 0 0 0 0 0 0 0 0 0 0 0 0 0 0 0 0 0 0 0 0 0 0 0 0 0 0 0 0 0 0 0 0 0 0 0 0 0 0 0 0 0 0 0 0 0 0 0 2 6 18 38 76 159 255 255 255 196 96 46 22 8 2 3 48 255 190 92 44 21 7 2 1 0 0 0 0 0 0 0 1 4 13 29 60 124 247 255 19 1 0 0 1 8 153 255 133 62 31 14 6 24 255 219 108 58 52 124 170 146 120 119 179 255 65 15 28 56 112 231 255 20 3 8 22 46 96 195 255 53 3 0 1 5 14 33 67 141 255 255 239 107 51 24 9 3 7 117 255 146 71 36 16 6 2 0 0 0 0 0 0 0 0 0 0 0 0 0 0 0 0 0 0 0 0 0 0 0 0 0 0 0 0 0 0 0 0 0 1 20 255 236 117 56 27 11 3 1 0 0 0 0 0 0 0 0 0 0 0 0 0 0 0 0 0 0 0 0 0 0 0 0 0 0 0 0 0 0 1 4 13 30 61 127 255 255 13 1 1 3 9 24 48 73 77 54 30 13 4 1 1 6 131 255 158 76 38 18 6 2 1 3 52 255 189 93 46 22 9 3 7 116 255 187 178 231 165 58 75 148 255 87 5 1 23 255 234 116 70 68 67 74 124 254 255 18 8 20 42 85 174 255 69 3 1 1 5 16 35 71 121 124 74 37 16 5 2 4 66 255 180 87 43 21 8 2 2 16 255 238 255 255 64 45 74 147 255 126 13 18 37 74 156 255 112 9 12 27 55 118 243 255 18 1 13 255 255 135 64 32 14 5 1 1 19 255 247 122 59 29 13 11 107 255 175 154 166 215 115 64 103 205 255 35 2 0 0 0 0 0 0 0 0 0 0 0 0 0 0 0 0 0 0 0 0 0 0 0 0 0 0 0 0 0 0 0 0 0 0 0 0 0 0 0 0 0 0 0 0 0 0 0 0 0 0 0 1 4 12 28 58 118 241 255 20 2 2 2 2 2 2 30 255 213 106 52 25 10 3 1 0 0 0 0 0 0 0 0 0 0 0 0 0 0 0 0 0 0 0 0 0 0 0 0 0 0 0 1 3 4 5 4 3 1 0 1 18 255 250 123 59 28 12 4 4 61 255 194 188 229 106 60 97 195 255 34 3
106 64 31 14 5 4 48 255 178 85 40 19 11 55 255 181 87 41 20 8 2 1 0 0 0 0 0 0 0 0 0 0 0 0 0 0 0 0 0 0 0 0 0 0 0 0 0 0 0 0 0 0 0 0 0 0 0 0 0 0 0 0 0 0 0 0 0 0 0 0 0 0 0 0 0 0 1 3 9 22 47 102 215 255 115 255 182 88 42 20 9 27 255 230 110 52 26 12 4 1 0 0 0 0 0 0 0 0 0 0 0 0 0 0 0 0 0 0 0 0 0 0 0 0 0 0 0 0 0 0 0 0 0 0 0 0 0 0 0 0 0 0 0 0 0 0 0 0 0 0 0 0 0 0 0 0 0 0 0 0 0 0 0 0 0 0 0 0 0 0 0 1 3 8 20 42 94 214 255 255 118 54 26 11 4 2 24 255 234 111 52 25 10 3 1 0 0 0 0 0 0 0 0 1 2 6 15 32 67 142 255 161 8 0 0 3 58 255 159 76 35 16 7 11 171 255 130 61 38 66 202 173 126 92 84 112 212 255 35 16 31 63 137 255 145 8 4 11 25 53 112 227 255 25 1 1 2 7 18 38 81 166 228 133 62 28 12 4 4 54 255 176 83 39 19 8 2 1 0 0 0 0 0 0 0 0 0 0 0 0 0 0 0 0 0 0 0 0 0 0 0 0 0 0 0 0 0 0 0 0 0 8 171 255 137 65 31 14 5 1 0 0 0 0 0 0 0 0 0 0 0 0 0 0 0 0 0 0 0 0 0 0 0 0 0 0 0 0 0 0 0 0 2 6 16 34 71 152 255 108 5 1 1 4 12 22 28 29 24 14 6 2 1 3 60 255 182 88 42 20 8 3 1 1 26 255 228 109 51 24 11 4 4 52 255 179 121 112 149 234 81 49 87 179 255 38 11 197 255 139 68 46 49 51 50 74 150 255 126 10 10 23 47 99 208 255 34 2 1 2 7 19 35 49 50 36 20 8 2 2 34 255 216 104 48 23 10 3 1 6 114 255 182 189 255 195 41 43 85 180 255 62 12 20 42 90 190 255 56 8 14 31 67 142 255 164 14 114 255 158 75 35 16 7 2 1 8 155 255 144 68 33 15 8 50 255 177 116 95 106 143 167 57 60 121 254 255 16 1 0 0 0 0 0 0 0 0 0 0 0 0 0 0 0 0 0 0 0 0 0 0 0 0 0 0 0 0 0 0 0 0 0 0 0 0 0 0 0 0 0 0 0 0 0 0 0 0 0 0 0 2 5 15 32 66 141 255 156 8 1 1 1 1 12 230 255 125 59 28 13 5 1 0 0 0 0 0 0 0 0 0 0 0 0 0 0 0 0 0 0 0 0 0 0 0 0 0 0 0 0 0 1 1 1 1 1 0 0 8 173 255 145 69 33 15 6 3 29 255 214 137 127 165 183 56 58 118 247 228 13
42 30 16 6 3 22 255 225 106 48 22 11 28 255 224 107 50 23 10 3 1 0 0 0 0 0 0 0 0 0 0 0 0 0 0 0 0 0 0 0 0 0 0 0 0 0 0 0 0 0 0 0 0 0 0 0 0 0 0 0 0 0 0 0 0 0 0 0 0 0 0 0 0 0 0 0 0 1 4 11 26 58 131 255 255 255 110 49 23 10 15 224 255 137 63 29 13 5 2 0 0 0 0 0 0 0 0 0 0 0 0 0 0 0 0 0 0 0 0 0 0 0 0 0 0 0 0 0 0 0 0 0 0 0 0 0 0 0 0 0 0 0 0 0 0 0 0 0 0 0 0 0 0 0 0 0 0 0 0 0 0 0 0 0 0 0 0 0 0 0 0 0 1 4 10 23 54 116 187 137 68 30 13 5 2 10 209 255 140 63 29 13 5 1 0 0 0 0 0 0 0 0 0 0 1 2 7 17 36 79 171 255 72 4 1 23 255 199 95 43 19 8 7 77 255 162 75 36 32 139 195 151 109 74 60 69 129 255 223 20 17 35 79 169 255 64 5 5 13 29 62 133 255 212 10 1 1 3 8 20 43 76 94 65 34 15 6 3 27 255 223 105 47 21 9 3 1 0 0 0 0 0 0 0 0 0 0 0 0 0 0 0 0 0 0 0 0 0 0 0 0 0 0 0 0 0 0 0 0 0 4 80 255 172 78 36 16 6 2 1 0 0 0 0 0 0 0 0 0 0 0 0 0 0 0 0 0 0 0 0 0 0 0 0 0 0 0 0 0 0 0 0 1 2 7 18 39 87 186 255 52 3 1 2 5 8 10 10 9 6 2 1 1 30 255 218 105 48 22 9 4 1 1 11 236 255 136 61 27 12 5 3 25 255 223 114 75 69 97 167 163 43 52 110 241 255 132 255 165 79 40 30 34 39 35 45 87 178 255 58 7 11 25 56 124 255 255 15 1 1 3 8 15 18 18 15 9 3 2 15 255 255 127 58 26 11 4 2 3 53 255 185 125 118 164 255 86 30 49 107 218 255 32 11 23 51 111 226 255 27 8 17 37 81 175 255 252 255 188 89 41 18 8 3 1 4 67 255 172 81 37 17 8 25 255 228 114 74 58 66 95 168 70 39 69 151 255 135 7 0 0 0 0 0 0 0 0 0 0 0 0 0 0 0 0 0 0 0 0 0 0 0 0 0 0 0 0 0 0 0 0 0 0 0 0 0 0 0 0 0 0 0 0 0 0 0 0 0 0 0 1 2 7 16 36 80 170 255 67 3 0 0 5 87 255 153 70 32 14 6 2 1 0 0 0 0 0 0 0 0 0 0 0 0 0 0 0 0 0 0 0 0 0 0 0 0 0 0 0 0 0 0 0 0 0 0 0 4 82 255 177 82 38 17 7 3 13 255 255 136 90 83 113 197 80 40 69 146 255 98
15 12 7 3 10 185 255 138 62 27 11 14 174 255 136 63 28 12 4 1 0 0 0 0 0 0 0 0 0 0 0 0 0 0 0 0 0 0 0 0 0 0 0 0 0 0 0 0 0 0 0 0 0 0 0 0 0 0 0 0 0 0 0 0 0 0 0 0 0 0 0 0 0 0 0 0 0 1 2 5 14 34 80 167 243 150 68 28 12 10 102 255 170 80 36 15 6 2 1 0 0 0 0 0 0 0 0 0 0 0 0 0 0 0 0 0 0 0 0 0 0 0 0 0 0 0 0 0 0 0 0 0 0 0 0 0 0 0 0 0 0 0 0 0 0 0 0 0 0 0 0 0 0 0 0 0 0 0 0 0 0 0 0 0 0 0 0 0 0 0 0 0 0 1 4 12 30 56 77 63 36 16 6 2 5 90 255 170 81 36 15 6 2 1 0 0 0 0 0 0 0 0 0 0 0 1 3 8 19 45 102 213 255 37 10 166 255 125 56 24 9 5 41 255 208 98 44 24 55 255 155 125 100 68 46 45 78 163 255 96 13 20 46 102 214 255 32 3 6 15 34 77 166 255 89 4 1 1 4 9 21 31 36 29 17 7 3 11 217 255 137 62 26 10 4 1 0 0 0 0 0 0 0 0 0 0 0 0 0 0 0 0 0 0 0 0 0 0 0 0 0 0 0 0 0 0 0 0 0 2 42 255 213 103 45 19 7 3 1 0 0 0 0 0 0 0 0 0 0 0 0 0 0 0 0 0 0 0 0 0 0 0 0 0 0 0 0 0 0 0 0 0 0 1 3 8 21 50 112 233 255 26 1 1 2 3 3 3 3 2 1 1 13 255 255 132 60 26 11 4 1 1 5 101 255 167 79 35 14 5 2 11 224 255 139 71 48 44 64 115 233 67 36 68 152 255 255 219 98 46 24 19 23 28 23 27 51 107 220 255 28 6 13 31 72 154 255 130 6 1 1 3 5 6 6 5 3 1 6 123 255 155 73 33 13 5 2 2 27 255 231 119 83 74 104 177 255 40 30 62 131 255 214 16 12 29 64 135 255 194 13 9 20 47 107 240 255 255 116 51 22 9 3 1 2 31 255 211 102 46 20 8 12 183 255 144 73 47 36 42 68 126 117 33 41 88 182 255 59 3 0 0 0 0 0 0 0 0 0 0 0 0 0 0 0 0 0 0 0 0 0 0 0 0 0 0 0 0 0 0 0 0 0 0 0 0 0 0 0 0 0 0 0 0 0 0 0 0 0 0 0 1 3 8 20 46 101 211 255 32 2 2 39 255 190 91 40 17 7 2 1 0 0 0 0 0 0 0 0 0 0 0 0 0 0 0 0 0 0 0 0 0 0 0 0 0 0 0 0 0 0 0 0 0 0 0 2 43 255 214 104 47 20 8 3 6 111 255 164 85 60 57 83 142 162 39 43 90 196 255
5 4 2 5 84 255 179 85 38 15 9 74 255 168 83 38 15 5 2 1 0 0 0 0 0 0 0 0 0 0 0 0 0 0 0 0 0 0 0 0 0 0 0 0 0 0 0 0 0 0 0 0 0 0 0 0 0 0 0 0 0 0 0 0 0 0 0 0 0 0 0 0 0 0 0 0 0 0 1 2 7 19 47 82 105 77 41 16 8 51 255 203 102 48 20 7 2 1 0 0 0 0 0 0 0 0 0 0 0 0 0 0 0 0 0 0 0 0 0 0 0 0 0 0 0 0 0 0 0 0 0 0 0 0 0 0 0 0 0 0 0 0 0 0 0 0 0 0 0 0 0 0 0 0 0 0 0 0 0 0 0 0 0 0 0 0 0 0 0 0 0 0 0 1 2 5 14 25 30 26 17 7 3 3 45 255 206 102 48 20 7 2 1 0 0 0 0 0 0 0 0 0 0 0 0 0 1 3 10 26 61 131 255 255 126 255 167 78 34 13 5 21 255 255 130 61 27 26 180 200 132 109 105 77 40 31 50 101 196 255 45 12 27 62 134 255 255 14 3 7 19 46 101 204 255 43 2 1 1 4 8 12 13 11 7 3 6 93 255 167 83 37 14 5 2 0 0 0 0 0 0 0 0 0 0 0 0 0 0 0 0 0 0 0 0 0 0 0 0 0 0 0 0 0 0 0 0 0 1 21 255 255 130 62 27 10 3 1 0 0 0 0 0 0 0 0 0 0 0 0 0 0 0 0 0 0 0 0 0 0 0 0 0 0 0 0 0 0 0 0 0 0 0 0 1 4 11 30 68 144 255 217 10 1 0 1 1 1 1 1 1 6 124 255 167 79 35 14 5 2 1 2 50 255 202 100 47 19 7 2 6 96 255 174 86 47 31 29 46 91 173 175 37 46 99 198 242 133 61 27 13 10 13 17 14 16 30 65 138 255 191 12 7 17 43 93 189 255 61 3 1 1 2 2 2 2 1 3 59 255 189 92 43 18 6 2 1 12 255 255 145 77 57 49 67 121 249 124 26 38 80 167 255 98 11 16 38 81 169 255 85 8 11 28 66 133 203 143 71 30 11 4 1 1 12 248 255 131 61 26 10 8 78 255 175 90 49 31 22 29 54 103 218 48 27 53 110 220 255 27 1 0 0 0 0 0 0 0 0 0 0 0 0 0 0 0 0 0 0 0 0 0 0 0 0 0 0 0 0 0 0 0 0 0 0 0 0 0 0 0 0 0 0 0 0 0 0 0 0 0 0 0 1 3 10 26 61 132 255 255 15 17 255 246 119 55 23 8 3 1 0 0 0 0 0 0 0 0 0 0 0 0 0 0 0 0 0 0 0 0 0 0 0 0 0 0 0 0 0 0 0 0 0 0 0 1 20 255 255 130 62 27 10 4 4 53 255 196 100 56 43 43 66 113 239 72 31 59 130 255
2 1 3 42 255 217 113 55 23 9 36 255 211 108 53 23 8 2 1 0 0 0 0 0 0 0 0 0 0 0 0 0 0 0 0 0 0 0 0 0 0 0 0 0 0 0 0 0 0 0 0 0 0 0 0 0 0 0 0 0 0 0 0 0 0 0 0 0 0 0 0 0 0 0 0 0 0 0 0 1 3 10 26 38 44 37 23 9 25 255 245 127 64 30 11 3 1 0 0 0 0 0 0 0 0 0 0 0 0 0 0 0 0 0 0 0 0 0 0 0 0 0 0 0 0 0 0 0 0 0 0 0 0 0 0 0 0 0 0 0 0 0 0 0 0 0 0 0 0 0 0 0 0 0 0 0 0 0 0 0 0 0 0 0 0 0 0 0 0 0 0 0 0 0 1 2 6 9 11 10 7 3 2 20 255 251 129 64 29 11 3 1 0 0 0 0 0 0 0 0 0 0 0 0 0 0 0 1 5 15 39 82 167 255 255 241 112 53 21 7 11 192 255 162 82 40 21 84 255 153 120 117 141 132 46 24 34 65 126 246 255 22 16 40 85 168 255 114 7 3 10 28 63 128 253 255 20 1 1 1 3 4 4 4 2 3 47 255 208 104 52 22 7 2 1 0 0 0 0 0 0 0 0 0 0 0 0 0 0 0 0 0 0 0 0 0 0 0 0 0 0 0 0 0 0 0 0 0 9 186 255 160 80 39 15 5 1 0 0 0 0 0 0 0 0 0 0 0 0 0 0 0 0 0 0 0 0 0 0 0 0 0 0 0 0 0 0 0 0 0 0 0 0 0 0 2 5 17 43 89 174 255 94 5 0 0 0 0 0 0 3 59 255 200 103 50 21 7 2 1 1 24 255 246 126 62 28 10 3 3 47 255 208 109 57 32 20 20 38 82 135 255 93 38 64 97 110 76 39 16 6 4 5 7 7 8 18 42 87 171 255 80 7 9 26 58 118 232 255 30 1 0 0 1 1 1 2 31 255 236 119 58 26 9 3 1 6 115 255 177 92 54 42 36 49 90 167 255 63 27 52 107 208 255 52 10 22 52 108 211 255 44 7 17 40 69 89 72 43 18 5 2 1 5 110 255 165 82 38 15 7 37 255 212 111 59 33 19 13 21 54 116 211 146 27 34 69 140 255 219 10 0 0 0 0 0 0 0 0 0 0 0 0 0 0 0 0 0 0 0 0 0 0 0 0 0 0 0 0 0 0 0 0 0 0 0 0 0 0 0 0 0 0 0 0 0 0 0 0 0 0 0 0 1 5 15 39 83 168 255 157 168 255 156 76 35 13 4 1 0 0 0 0 0 0 0 0 0 0 0 0 0 0 0 0 0 0 0 0 0 0 0 0 0 0 0 0 0 0 0 0 0 0 0 0 8 172 255 157 79 38 15 5 3 26 255 239 123 64 39 32 37 66 113 187 255 42 43 83 133
0 1 19 255 255 138 74 38 15 19 255 255 139 73 36 13 4 1 0 0 0 0 0 0 0 0 0 0 0 0 0 0 0 0 0 0 0 0 0 0 0 0 0 0 0 0 0 0 0 0 0 0 0 0 0 0 0 0 0 0 0 0 0 0 0 0 0 0 0 0 0 0 0 0 0 0 0 0 0 0 1 5 12 16 17 16 11 14 178 255 156 82 43 18 6 2 0 0 0 0 0 0 0 0 0 0 0 0 0 0 0 0 0 0 0 0 0 0 0 0 0 0 0 0 0 0 0 0 0 0 0 0 0 0 0 0 0 0 0 0 0 0 0 0 0 0 0 0 0 0 0 0 0 0 0 0 0 0 0 0 0 0 0 0 0 0 0 0 0 0 0 0 0 0 0 1 2 3 3 3 2 1 8 160 255 158 83 43 18 5 1 0 0 0 0 0 0 0 0 0 0 0 0 0 0 0 0 1 2 8 25 56 111 208 255 152 80 39 13 8 93 255 195 103 56 29 50 255 210 135 134 173 223 255 111 24 25 46 84 158 255 142 17 27 58 108 202 255 55 4 5 17 43 84 161 255 183 9 1 0 1 1 1 1 2 22 255 254 135 70 35 13 4 1 0 0 0 0 0 0 0 0 0 0 0 0 0 0 0 0 0 0 0 0 0 0 0 0 0 0 0 0 0 0 0 0 0 4 79 255 187 100 54 25 8 2 1 0 0 0 0 0 0 0 0 0 0 0 0 0 0 0 0 0 0 0 0 0 0 0 0 0 0 0 0 0 0 0 0 0 0 0 0 0 0 1 3 9 28 59 111 214 255 49 2 0 0 0 0 1 29 255 237 126 67 33 12 3 1 1 10 209 255 156 81 42 17 5 2 24 255 253 133 72 40 21 12 14 38 94 127 205 255 73 44 47 49 41 25 8 3 2 2 2 3 4 10 28 59 112 213 255 40 6 15 39 77 148 255 255 14 1 0 0 0 1 13 255 255 151 78 39 15 4 1 3 57 255 207 112 64 43 35 28 42 76 129 234 255 42 39 73 135 253 255 28 14 36 72 138 255 255 23 10 23 34 38 35 25 9 3 1 3 58 255 208 107 55 25 9 18 255 255 138 74 42 23 11 7 18 84 160 179 255 78 26 47 91 176 255 98 5 0 0 0 0 0 0 0 0 0 0 0 0 0 0 0 0 0 0 0 0 0 0 0 0 0 0 0 0 0 0 0 0 0 0 0 0 0 0 0 0 0 0 0 0 0 0 0 0 0 0 0 1 2 8 25 57 108 208 255 255 204 104 53 22 7 2 0 0 0 0 0 0 0 0 0 0 0 0 0 0 0 0 0 0 0 0 0 0 0 0 0 0 0 0 0 0 0 0 0 0 0 0 4 74 255 187 99 52 24 8 3 11 217 255 153 80 45 29 26 39 97 136 160 255 162 44 54 63
0 8 173 255 164 90 53 27 15 127 255 171 94 55 25 7 2 0 0 0 0 0 0 0 0 0 0 0 0 0 0 0 0 0 0 0 0 0 0 0 0 0 0 0 0 0 0 0 0 0 0 0 0 0 0 0 0 0 0 0 0 0 0 0 0 0 0 0 0 0 0 0 0 0 0 0 0 0 0 0 1 2 4 6 6 6 9 84 255 183 101 59 31 10 3 1 0 0 0 0 0 0 0 0 0 0 0 0 0 0 0 0 0 0 0 0 0 0 0 0 0 0 0 0 0 0 0 0 0 0 0 0 0 0 0 0 0 0 0 0 0 0 0 0 0 0 0 0 0 0 0 0 0 0 0 0 0 0 0 0 0 0 0 0 0 0 0 0 0 0 0 0 0 0 0 0 1 1 1 1 1 4 69 255 187 102 58 30 10 3 1 0 0 0 0 0 0 0 0 0 0 0 0 0 0 0 0 0 1 4 15 41 74 105 118 91 62 30 10 50 255 223 123 71 43 42 255 255 156 135 184 238 244 255 255 66 20 36 63 107 199 255 80 22 43 74 130 242 255 28 4 10 30 59 104 190 255 80 4 0 0 0 0 1 9 187 255 160 89 51 23 7 2 0 0 0 0 0 0 0 0 0 0 0 0 0 0 0 0 0 0 0 0 0 0 0 0 0 0 0 0 0 0 0 0 0 2 38 255 217 118 67 38 15 4 1 0 0 0 0 0 0 0 0 0 0 0 0 0 0 0 0 0 0 0 0 0 0 0 0 0 0 0 0 0 0 0 0 0 0 0 0 0 0 0 0 1 5 18 42 75 137 255 255 25 1 0 0 1 12 255 255 151 83 48 22 6 2 1 4 89 255 182 100 57 29 9 3 12 246 255 161 88 52 30 13 7 10 53 153 139 158 255 255 56 24 21 21 13 4 1 1 1 1 1 2 5 19 44 78 140 255 255 20 9 27 55 96 178 255 143 7 0 0 0 5 112 255 175 97 56 28 8 2 2 30 255 244 131 75 50 38 30 24 45 80 105 161 255 219 45 55 90 160 255 210 19 26 53 92 166 255 179 14 12 15 16 15 12 4 1 2 32 255 249 135 75 41 16 11 135 255 168 92 55 31 14 5 5 30 246 211 170 231 255 54 38 65 115 215 255 52 2 0 0 0 0 0 0 0 0 0 0 0 0 0 0 0 0 0 0 0 0 0 0 0 0 0 0 0 0 0 0 0 0 0 0 0 0 0 0 0 0 0 0 0 0 0 0 0 0 0 0 0 1 4 16 42 75 135 249 246 135 74 40 14 3 1 0 0 0 0 0 0 0 0 0 0 0 0 0 0 0 0 0 0 0 0 0 0 0 0 0 0 0 0 0 0 0 0 0 0 0 2 35 255 220 119 67 37 14 4 6 93 255 181 100 58 35 22 23 75 229 191 150 197 255 136 41 30
4 79 255 190 104 63 41 22 74 255 201 111 69 44 17 4 1 0 0 0 0 0 0 0 0 0 0 0 0 0 0 0 0 0 0 0 0 0 0 0 0 0 0 0 0 0 0 0 0 0 0 0 0 0 0 0 0 0 0 0 0 0 0 0 0 0 0 0 0 0 0 0 0 0 0 0 0 0 0 0 0 1 1 2 2 4 44 255 218 117 70 45 22 6 1 0 0 0 0 0 0 0 0 0 0 0 0 0 0 0 0 0 0 0 0 0 0 0 0 0 0 0 0 0 0 0 0 0 0 0 0 0 0 0 0 0 0 0 0 0 0 0 0 0 0 0 0 0 0 0 0 0 0 0 0 0 0 0 0 0 0 0 0 0 0 0 0 0 0 0 0 0 0 0 0 0 0 0 0 0 2 33 255 220 119 70 44 21 5 1 0 0 0 0 0 0 0 0 0 0 0 0 0 0 0 0 0 0 0 2 9 31 49 52 54 53 50 24 30 255 253 138 80 54 50 228 255 171 121 156 212 210 192 197 255 255 50 31 54 78 129 232 255 60 36 55 85 153 255 237 13 6 20 45 70 119 218 255 39 2 0 0 0 4 78 255 183 101 63 41 15 4 1 0 0 0 0 0 0 0 0 0 0 0 0 0 0 0 0 0 0 0 0 0 0 0 0 0 0 0 0 0 0 0 0 1 17 255 255 138 77 49 28 8 2 0 0 0 0 0 0 0 0 0 0 0 0 0 0 0 0 0 0 0 0 0 0 0 0 0 0 0 0 0 0 0 0 0 0 0 0 0 0 0 0 0 1 2 10 31 56 89 158 255 249 11 0 0 5 109 255 175 96 59 35 14 3 1 2 45 255 212 114 68 43 20 5 7 117 255 186 102 63 42 21 7 4 15 171 232 175 129 175 255 213 23 9 8 5 2 1 0 0 0 0 1 3 12 34 59 93 166 255 176 14 19 42 67 111 204 255 70 3 0 3 54 255 202 109 66 43 19 5 2 14 255 255 153 85 56 44 38 27 23 68 114 100 114 185 255 195 58 66 102 183 255 121 25 43 66 105 187 255 88 9 6 6 6 4 2 1 15 255 255 154 88 56 31 13 73 255 199 109 67 46 23 7 3 9 146 255 217 161 164 255 255 57 52 78 136 251 255 26 1 0 0 0 0 0 0 0 0 0 0 0 0 0 0 0 0 0 0 0 0 0 0 0 0 0 0 0 0 0 0 0 0 0 0 0 0 0 0 0 0 0 0 0 0 0 0 0 0 0 0 0 2 10 32 56 85 119 118 86 58 32 8 2 0 0 0 0 0 0 0 0 0 0 0 0 0 0 0 0 0 0 0 0 0 0 0 0 0 0 0 0 0 0 0 0 0 0 0 1 15 255 255 140 79 49 26 8 4 47 255 210 114 69 47 28 17 46 255 255 225 154 143 230 255 87 18
44 255 219 117 68 48 35 59 255 235 125 74 54 37 11 2 0 0 0 0 0 0 0 0 0 0 0 0 0 0 0 0 0 0 0 0 0 0 0 0 0 0 0 0 0 0 0 0 0 0 0 0 0 0 0 0 0 0 0 0 0 0 0 0 0 0 0 0 0 0 0 0 0 0 0 0 0 0 0 0 0 0 0 1 1 20 255 255 137 77 52 37 14 3 1 0 0 0 0 0 0 0 0 0 0 0 0 0 0 0 0 0 0 0 0 0 0 0 0 0 0 0 0 0 0 0 0 0 0 0 0 0 0 0 0 0 0 0 0 0 0 0 0 0 0 0 0 0 0 0 0 0 0 0 0 0 0 0 0 0 0 0 0 0 0 0 0 0 0 0 0 0 0 0 0 0 0 0 0 1 13 255 255 138 77 51 34 13 3 1 0 0 0 0 0 0 0 0 0 0 0 0 0 0 0 0 0 0 0 1 5 20 31 25 25 31 40 32 255 255 153 85 56 58 197 255 192 112 106 169 176 152 134 135 174 255 255 57 56 62 84 142 255 255 64 46 60 95 172 255 111 9 13 36 51 75 135 255 255 18 1 0 2 37 255 210 113 66 47 33 9 2 0 0 0 0 0 0 0 0 0 0 0 0 0 0 0 0 0 0 0 0 0 0 0 0 0 0 0 0 0 0 0 0 0 7 156 255 161 86 54 38 19 5 1 0 0 0 0 0 0 0 0 0 0 0 0 0 0 0 0 0 0 0 0 0 0 0 0 0 0 0 0 0 0 0 0 0 0 0 0 0 0 0 0 0 0 1 6 22 44 60 97 180 255 105 5 3 53 255 200 107 64 44 26 8 2 1 22 255 251 132 74 49 33 12 6 62 255 210 113 67 49 34 13 4 5 71 255 229 193 119 113 174 255 73 7 3 2 1 0 0 0 0 0 0 1 7 26 48 65 103 192 255 94 17 33 49 71 123 228 255 36 3 25 255 236 126 71 48 33 11 3 7 138 255 173 94 59 47 44 41 24 37 225 211 124 89 119 212 255 175 63 69 114 214 255 106 41 51 69 115 217 255 47 4 2 2 1 1 7 148 255 171 94 60 45 25 50 255 233 124 73 53 42 15 4 4 64 255 201 170 145 119 172 255 255 67 58 85 153 255 253 11 0 0 0 0 0 0 0 0 0 0 0 0 0 0 0 0 0 0 0 0 0 0 0 0 0 0 0 0 0 0 0 0 0 0 0 0 0 0 0 0 0 0 0 0 0 0 0 0 0 0 0 1 6 23 44 52 55 55 53 47 24 5 1 0 0 0 0 0 0 0 0 0 0 0 0 0 0 0 0 0 0 0 0 0 0 0 0 0 0 0 0 0 0 0 0 0 0 0 6 132 255 161 87 55 38 18 5 23 255 247 131 74 51 41 23 30 255 255 212 187 155 111 143 229 255 36
255 255 133 72 47 41 63 255 255 141 77 52 45 30 7 1 0 0 0 0 0 0 0 0 0 0 0 0 0 0 0 0 0 0 0 0 0 0 0 0 0 0 0 0 0 0 0 0 0 0 0 0 0 0 0 0 0 0 0 0 0 0 0 0 0 0 0 0 0 0 0 0 0 0 0 0 0 0 0 0 0 0 0 0 7 143 255 155 83 52 41 30 8 2 0 0 0 0 0 0 0 0 0 0 0 0 0 0 0 0 0 0 0 0 0 0 0 0 0 0 0 0 0 0 0 0 0 0 0 0 0 0 0 0 0 0 0 0 0 0 0 0 0 0 0 0 0 0 0 0 0 0 0 0 0 0 0 0 0 0 0 0 0 0 0 0 0 0 0 0 0 0 0 0 0 0 0 0 0 6 115 255 159 84 51 38 24 7 2 0 0 0 0 0 0 0 0 0 0 0 0 0 0 0 0 0 0 0 0 1 3 10 16 11 11 17 40 206 255 178 92 55 51 171 255 205 115 79 106 148 127 104 91 90 109 175 255 255 111 59 57 86 159 255 255 72 46 60 104 203 255 64 11 27 37 50 81 156 255 145 7 1 16 255 255 129 69 46 36 24 5 1 0 0 0 0 0 0 0 0 0 0 0 0 0 0 0 0 0 0 0 0 0 0 0 0 0 0 0 0 0 0 0 0 3 73 255 185 97 56 39 28 11 2 1 0 0 0 0 0 0 0 0 0 0 0 0 0 0 0 0 0 0 0 0 0 0 0 0 0 0 0 0 0 0 0 0 0 0 0 0 0 0 0 0 0 0 1 3 14 34 42 60 106 200 255 52 31 255 237 121 66 44 34 16 4 1 10 220 255 152 80 49 36 24 9 34 255 235 124 69 46 40 26 7 3 35 255 217 176 164 119 80 107 182 255 26 2 1 0 0 0 0 0 0 0 1 4 17 41 47 66 115 217 255 66 28 37 47 74 136 255 255 30 223 255 143 76 48 35 23 7 5 68 255 196 102 59 44 46 55 54 35 201 255 255 191 89 79 125 212 255 135 56 71 128 245 255 120 47 48 71 132 250 255 22 1 1 1 4 71 255 194 101 58 42 38 49 255 255 140 76 51 47 40 10 3 30 255 221 142 121 120 91 108 188 255 237 61 56 90 173 255 108 5 0 0 0 0 0 0 0 0 0 0 0 0 0 0 0 0 0 0 0 0 0 0 0 0 0 0 0 0 0 0 0 0 0 0 0 0 0 0 0 0 0 0 0 0 0 0 0 0 0 0 1 3 14 33 30 24 25 32 37 16 3 1 0 0 0 0 0 0 0 0 0 0 0 0 0 0 0 0 0 0 0 0 0 0 0 0 0 0 0 0 0 0 0 0 0 0 3 64 255 191 98 56 39 28 11 13 214 255 150 79 50 40 38 30 236 255 188 140 133 137 94 89 141 252 176
255 161 79 45 34 64 255 255 158 82 48 37 37 22 4 1 0 0 0 0 0 0 0 0 0 0 0 0 0 0 0 0 0 0 0 0 0 0 0 0 0 0 0 0 0 0 0 0 0 0 0 0 0 0 0 0 0 0 0 0 0 0 0 0 0 0 0 0 0 0 0 0 0 0 0 0 0 0 0 0 0 0 0 3 60 255 173 90 51 36 32 21 5 1 0 0 0 0 0 0 0 0 0 0 0 0 0 0 0 0 0 0 0 0 0 0 0 0 0 0 0 0 0 0 0 0 0 0 0 0 0 0 0 0 0 0 0 0 0 0 0 0 0 0 0 0 0 0 0 0 0 0 0 0 0 0 0 0 0 0 0 0 0 0 0 0 0 0 0 0 0 0 0 0 0 0 0 0 3 56 255 191 95 52 34 27 15 4 1 0 0 0 0 0 0 0 0 0 0 0 0 0 0 0 0 0 0 0 0 0 1 4 6 4 5 16 155 255 202 104 56 41 111 255 206 117 69 63 111 114 89 71 62 60 68 101 182 255 255 111 45 53 91 170 255 255 58 40 62 121 238 255 42 18 26 33 50 91 178 255 66 10 134 255 153 77 44 31 25 15 3 1 0 0 0 0 0 0 0 0 0 0 0 0 0 0 0 0 0 0 0 0 0 0 0 0 0 0 0 0 0 0 0 2 38 255 217 109 58 36 28 18 6 1 0 0 0 0 0 0 0 0 0 0 0 0 0 0 0 0 0 0 0 0 0 0 0 0 0 0 0 0 0 0 0 0 0 0 0 0 0 0 0 0 0 0 0 0 2 8 24 29 38 62 118 236 255 255 255 143 72 41 30 23 9 2 5 100 255 177 89 49 33 25 15 20 255 255 139 72 42 32 32 17 5 17 255 255 148 120 121 119 65 68 122 255 133 8 1 0 0 0 0 0 0 0 0 2 10 33 35 42 67 127 252 255 64 29 31 45 79 158 255 255 255 168 84 47 32 24 13 5 36 255 223 115 60 38 36 59 113 148 255 255 217 193 204 124 60 72 120 204 255 84 49 75 140 253 255 110 39 45 77 148 255 178 9 1 2 36 255 220 113 59 37 31 55 255 255 157 82 48 38 44 41 8 14 255 255 139 95 85 94 73 69 107 182 255 146 46 55 100 196 255 51 2 0 0 0 0 0 0 0 0 0 0 0 0 0 0 0 0 0 0 0 0 0 0 0 0 0 0 0 0 0 0 0 0 0 0 0 0 0 0 0 0 0 0 0 0 0 0 0 0 0 0 2 7 19 15 10 11 17 24 9 2 0 0 0 0 0 0 0 0 0 0 0 0 0 0 0 0 0 0 0 0 0 0 0 0 0 0 0 0 0 0 0 0 0 0 1 32 255 224 114 59 36 27 19 11 105 255 177 88 49 34 33 49 212 255 193 114 89 92 109 85 60 85 161 255
164 93 47 29 45 255 255 169 89 48 30 26 27 13 3 0 0 0 0 0 0 0 0 0 0 0 0 0 0 0 0 0 0 0 0 0 0 0 0 0 0 0 0 0 0 0 0 0 0 0 0 0 0 0 0 0 0 0 0 0 0 0 0 0 0 0 0 0 0 0 0 0 0 0 0 0 0 0 0 0 0 0 1 28 255 212 104 53 31 24 22 12 3 1 0 0 0 0 0 0 0 0 0 0 0 0 0 0 0 0 0 0 0 0 0 0 0 0 0 0 0 0 0 0 0 0 0 0 0 0 0 0 0 0 0 0 0 0 0 0 0 0 0 0 0 0 0 0 0 0 0 0 0 0 0 0 0 0 0 0 0 0 0 0 0 0 0 0 0 0 0 0 0 0 0 0 0 1 27 255 229 114 56 31 21 16 7 2 0 0 0 0 0 0 0 0 0 0 0 0 0 0 0 0 0 0 0 0 0 0 0 1 2 2 5 61 255 207 112 59 36 62 255 203 118 66 43 61 117 88 65 51 43 40 41 58 99 174 253 255 66 35 52 94 171 255 198 38 38 70 139 255 255 31 16 20 30 53 106 217 255 159 255 181 90 46 27 20 14 7 2 0 0 0 0 0 0 0 0 0 0 0 0 0 0 0 0 0 0 0 0 0 0 0 0 0 0 0 0 0 0 0 1 18 255 255 130 64 34 22 17 9 3 1 0 0 0 0 0 0 0 0 0 0 0 0 0 0 0 0 0 0 0 0 0 0 0 0 0 0 0 0 0 0 0 0 0 0 0 0 0 0 0 0 0 0 0 0 1 4 13 17 23 36 68 147 255 255 177 84 43 25 18 13 4 3 52 255 203 102 52 29 20 15 16 171 255 160 79 41 25 20 21 10 10 150 255 161 96 81 90 113 63 47 80 155 255 52 3 0 0 0 0 0 0 0 0 1 6 23 24 27 40 73 147 255 255 52 21 27 46 95 202 255 226 104 50 28 20 13 7 19 255 255 132 66 36 25 40 185 255 255 255 228 141 128 155 184 63 44 67 122 210 213 49 45 77 139 239 255 71 31 45 86 173 255 74 4 17 255 255 129 65 35 23 39 255 255 174 89 47 30 29 46 45 13 115 255 161 85 63 62 74 63 46 60 102 176 255 73 36 58 115 231 255 24 1 0 0 0 0 0 0 0 0 0 0 0 0 0 0 0 0 0 0 0 0 0 0 0 0 0 0 0 0 0 0 0 0 0 0 0 0 0 0 0 0 0 0 0 0 0 0 0 0 0 1 3 8 6 4 4 7 11 4 1 0 0 0 0 0 0 0 0 0 0 0 0 0 0 0 0 0 0 0 0 0 0 0 0 0 0 0 0 0 0 0 0 0 1 13 255 255 133 66 36 22 16 13 63 255 205 103 52 30 24 41 255 255 211 112 68 57 65 85 84 45 55 111 220
71 49 28 29 190 255 176 95 50 27 17 16 15 6 1 0 0 0 0 0 0 0 0 0 0 0 0 0 0 0 0 0 0 0 0 0 0 0 0 0 0 0 0 0 0 0 0 0 0 0 0 0 0 0 0 0 0 0 0 0 0 0 0 0 0 0 0 0 0 0 0 0 0 0 0 0 0 0 0 0 0 1 12 255 255 133 62 31 18 13 11 5 1 0 0 0 0 0 0 0 0 0 0 0 0 0 0 0 0 0 0 0 0 0 0 0 0 0 0 0 0 0 0 0 0 0 0 0 0 0 0 0 0 0 0 0 0 0 0 0 0 0 0 0 0 0 0 0 0 0 0 0 0 0 0 0 0 0 0 0 0 0 0 0 0 0 0 0 0 0 0 0 0 0 0 0 0 11 238 255 138 67 34 18 11 7 3 1 0 0 0 0 0 0 0 0 0 0 0 0 0 0 0 0 0 0 0 0 0 0 0 0 1 2 23 255 207 117 62 34 36 204 230 126 67 37 31 77 122 78 52 38 30 25 24 32 53 91 149 234 204 36 30 51 96 172 255 97 29 41 80 160 255 234 20 11 17 31 63 137 255 255 252 111 53 27 15 10 6 3 1 0 0 0 0 0 0 0 0 0 0 0 0 0 0 0 0 0 0 0 0 0 0 0 0 0 0 0 0 0 0 0 8 165 255 155 75 37 19 12 8 4 1 0 0 0 0 0 0 0 0 0 0 0 0 0 0 0 0 0 0 0 0 0 0 0 0 0 0 0 0 0 0 0 0 0 0 0 0 0 0 0 0 0 0 0 0 0 0 2 5 8 12 20 41 88 166 178 102 50 25 14 9 5 3 28 255 242 121 59 30 16 10 11 98 255 192 93 45 23 14 11 11 8 75 255 189 97 63 57 73 107 79 40 56 104 213 255 22 1 0 0 0 0 0 0 0 1 3 11 14 15 23 42 83 162 255 255 31 16 27 56 106 155 115 62 30 16 10 6 11 177 255 158 76 38 21 22 143 255 255 255 214 132 90 85 116 184 104 32 39 72 136 252 102 32 42 75 140 239 255 41 28 50 103 206 255 46 169 255 157 75 37 20 23 166 255 181 97 50 27 18 23 59 68 79 255 194 97 54 44 49 64 61 33 34 57 108 197 206 39 35 67 140 255 208 10 0 0 0 0 0 0 0 0 0 0 0 0 0 0 0 0 0 0 0 0 0 0 0 0 0 0 0 0 0 0 0 0 0 0 0 0 0 0 0 0 0 0 0 0 0 0 0 0 0 0 1 2 2 1 2 3 3 2 0 0 0 0 0 0 0 0 0 0 0 0 0 0 0 0 0 0 0 0 0 0 0 0 0 0 0 0 0 0 0 0 0 0 5 110 255 159 77 39 21 12 9 42 255 244 121 60 31 18 25 206 255 220 120 65 41 37 49 72 94 40 39 71 104
29 24 21 96 255 184 104 55 28 14 9 7 6 2 1 0 0 0 0 0 0 0 0 0 0 0 0 0 0 0 0 0 0 0 0 0 0 0 0 0 0 0 0 0 0 0 0 0 0 0 0 0 0 0 0 0 0 0 0 0 0 0 0 0 0 0 0 0 0 0 0 0 0 0 0 0 0 0 0 0 0 6 120 255 172 84 39 18 9 6 4 2 1 0 0 0 0 0 0 0 0 0 0 0 0 0 0 0 0 0 0 0 0 0 0 0 0 0 0 0 0 0 0 0 0 0 0 0 0 0 0 0 0 0 0 0 0 0 0 0 0 0 0 0 0 0 0 0 0 0 0 0 0 0 0 0 0 0 0 0 0 0 0 0 0 0 0 0 0 0 0 0 0 0 0 0 5 101 255 171 84 41 19 9 5 2 1 0 0 0 0 0 0 0 0 0 0 0 0 0 0 0 0 0 0 0 0 0 0 0 0 0 1 8 172 255 139 68 35 25 97 255 155 82 40 22 32 161 141 91 51 31 20 14 13 17 28 49 89 156 255 101 22 29 56 109 195 255 51 26 48 96 191 255 119 11 8 18 40 88 171 234 148 72 33 15 7 4 2 1 0 0 0 0 0 0 0 0 0 0 0 0 0 0 0 0 0 0 0 0 0 0 0 0 0 0 0 0 0 0 0 4 75 255 186 94 46 22 10 5 3 1 0 0 0 0 0 0 0 0 0 0 0 0 0 0 0 0 0 0 0 0 0 0 0 0 0 0 0 0 0 0 0 0 0 0 0 0 0 0 0 0 0 0 0 0 0 0 0 1 2 3 5 11 25 51 75 78 55 30 14 6 3 2 13 255 255 151 73 35 17 8 7 56 255 227 117 57 27 12 6 5 6 42 255 227 117 62 44 47 75 119 154 48 44 74 142 255 205 9 0 0 0 0 0 0 0 0 1 4 6 7 12 24 49 93 175 255 172 17 16 32 52 66 55 36 17 8 4 6 88 255 195 97 46 22 15 73 255 235 179 145 109 75 59 63 96 152 235 43 25 46 95 173 255 47 25 42 83 155 255 165 25 31 64 131 255 255 255 194 96 46 21 15 85 255 190 105 55 28 15 11 24 149 255 255 249 122 61 36 33 44 68 75 27 20 34 69 136 255 101 27 41 86 176 255 88 4 0 0 0 0 0 0 0 0 0 0 0 0 0 0 0 0 0 0 0 0 0 0 0 0 0 0 0 0 0 0 0 0 0 0 0 0 0 0 0 0 0 0 0 0 0 0 0 0 0 0 1 1 0 1 1 1 0 0 0 0 0 0 0 0 0 0 0 0 0 0 0 0 0 0 0 0 0 0 0 0 0 0 0 0 0 0 0 0 0 0 2 51 255 195 98 47 22 11 6 24 255 255 150 73 36 18 15 113 255 208 123 69 38 25 25 43 81 133 49 30 44 48
11 13 52 255 217 124 67 33 15 7 4 3 2 1 0 0 0 0 0 0 0 0 0 0 0 0 0 0 0 0 0 0 0 0 0 0 0 0 0 0 0 0 0 0 0 0 0 0 0 0 0 0 0 0 0 0 0 0 0 0 0 0 0 0 0 0 0 0 0 0 0 0 0 0 0 0 0 0 0 0 3 59 255 213 113 59 26 10 4 2 1 1 0 0 0 0 0 0 0 0 0 0 0 0 0 0 0 0 0 0 0 0 0 0 0 0 0 0 0 0 0 0 0 0 0 0 0 0 0 0 0 0 0 0 0 0 0 0 0 0 0 0 0 0 0 0 0 0 0 0 0 0 0 0 0 0 0 0 0 0 0 0 0 0 0 0 0 0 0 0 0 0 0 0 0 2 50 255 213 112 57 26 10 4 2 1 0 0 0 0 0 0 0 0 0 0 0 0 0 0 0 0 0 0 0 0 0 0 0 0 0 0 4 77 255 186 98 45 23 49 255 203 117 61 27 17 76 255 206 173 84 28 11 7 6 8 14 28 59 115 202 255 49 19 36 75 140 255 248 31 32 63 120 218 255 61 7 10 27 58 90 108 83 49 21 8 3 1 1 0 0 0 0 0 0 0 0 0 0 0 0 0 0 0 0 0 0 0 0 0 0 0 0 0 0 0 0 0 0 0 2 40 255 230 121 62 30 12 4 2 1 0 0 0 0 0 0 0 0 0 0 0 0 0 0 0 0 0 0 0 0 0 0 0 0 0 0 0 0 0 0 0 0 0 0 0 0 0 0 0 0 0 0 0 0 0 0 0 0 0 1 1 2 5 14 28 34 34 29 16 7 3 1 6 121 255 184 97 49 22 9 5 30 255 255 144 76 38 16 6 3 2 22 255 255 147 78 45 36 54 130 196 255 148 51 63 102 191 255 96 4 0 0 0 0 0 0 0 0 1 2 3 6 13 30 59 110 199 255 88 12 17 25 27 25 19 9 3 4 46 255 230 125 65 30 14 40 255 240 157 110 81 58 45 44 57 100 153 247 130 24 34 76 137 250 167 24 26 54 107 190 255 83 24 44 92 186 255 255 131 65 30 14 48 255 227 126 66 33 16 7 9 83 255 255 255 161 83 43 26 27 53 121 156 31 12 21 51 108 195 255 56 30 59 116 218 255 44 2 0 0 0 0 0 0 0 0 0 0 0 0 0 0 0 0 0 0 0 0 0 0 0 0 0 0 0 0 0 0 0 0 0 0 0 0 0 0 0 0 0 0 0 0 0 0 0 0 0 0 0 0 0 0 0 0 0 0 0 0 0 0 0 0 0 0 0 0 0 0 0 0 0 0 0 0 0 0 0 0 0 0 0 0 0 0 0 0 1 24 255 246 129 66 31 12 5 12 210 255 179 96 49 22 12 60 255 222 130 74 42 23 15 18 56 164 216 120 31 27 22
5 24 255 255 152 91 49 21 8 3 1 1 1 0 0 0 0 0 0 0 0 0 0 0 0 0 0 0 0 0 0 0 0 0 0 0 0 0 0 0 0 0 0 0 0 0 0 0 0 0 0 0 0 0 0 0 0 0 0 0 0 0 0 0 0 0 0 0 0 0 0 0 0 0 0 0 0 0 0 1 29 255 247 140 83 47 18 5 2 1 0 0 0 0 0 0 0 0 0 0 0 0 0 0 0 0 0 0 0 0 0 0 0 0 0 0 0 0 0 0 0 0 0 0 0 0 0 0 0 0 0 0 0 0 0 0 0 0 0 0 0 0 0 0 0 0 0 0 0 0 0 0 0 0 0 0 0 0 0 0 0 0 0 0 0 0 0 0 0 0 0 0 0 0 1 24 255 255 142 81 44 17 5 2 1 0 0 0 0 0 0 0 0 0 0 0 0 0 0 0 0 0 0 0 0 0 0 0 0 0 0 2 39 255 231 133 80 35 30 252 255 153 101 57 21 37 255 236 252 255 255 52 8 3 2 3 7 17 47 96 154 255 255 27 26 63 110 181 255 136 31 47 83 143 250 255 33 6 17 39 48 51 48 35 13 4 1 0 0 0 0 0 0 0 0 0 0 0 0 0 0 0 0 0 0 0 0 0 0 0 0 0 0 0 0 0 0 0 0 1 21 255 255 153 86 47 19 6 2 1 0 0 0 0 0 0 0 0 0 0 0 0 0 0 0 0 0 0 0 0 0 0 0 0 0 0 0 0 0 0 0 0 0 0 0 0 0 0 0 0 0 0 0 0 0 0 0 0 0 0 0 0 1 2 6 13 14 14 13 7 3 1 3 63 255 217 122 71 37 13 5 14 255 255 168 96 56 26 9 3 1 10 222 255 178 101 61 39 41 147 255 255 255 255 191 82 86 131 228 255 50 2 0 0 0 0 0 0 0 0 1 1 2 7 18 41 78 135 233 255 51 10 10 11 11 8 4 2 23 255 255 149 87 49 22 25 255 255 164 108 73 49 33 29 40 80 149 170 194 255 73 33 81 123 180 255 82 21 41 84 138 228 255 56 38 74 118 165 140 92 51 22 30 255 255 158 92 48 21 8 5 41 255 255 222 168 107 65 34 20 30 152 255 255 92 12 15 47 101 155 255 255 45 48 84 145 255 255 21 1 0 0 0 0 0 0 0 0 0 0 0 0 0 0 0 0 0 0 0 0 0 0 0 0 0 0 0 0 0 0 0 0 0 0 0 0 0 0 0 0 0 0 0 0 0 0 0 0 0 0 0 0 0 0 0 0 0 0 0 0 0 0 0 0 0 0 0 0 0 0 0 0 0 0 0 0 0 0 0 0 0 0 0 0 0 0 0 10 211 255 163 92 51 21 7 7 95 255 201 116 69 37 15 33 255 253 150 89 49 27 13 8 22 203 255 255 255 85 19 10
9 150 255 172 109 78 41 13 4 1 0 0 0 0 0 0 0 0 0 0 0 0 0 0 0 0 0 0 0 0 0 0 0 0 0 0 0 0 0 0 0 0 0 0 0 0 0 0 0 0 0 0 0 0 0 0 0 0 0 0 0 0 0 0 0 0 0 0 0 0 0 0 0 0 0 0 0 0 1 13 255 255 157 96 70 42 12 3 1 0 0 0 0 0 0 0 0 0 0 0 0 0 0 0 0 0 0 0 0 0 0 0 0 0 0 0 0 0 0 0 0 0 0 0 0 0 0 0 0 0 0 0 0 0 0 0 0 0 0 0 0 0 0 0 0 0 0 0 0 0 0 0 0 0 0 0 0 0 0 0 0 0 0 0 0 0 0 0 0 0 0 0 0 0 11 246 255 163 98 68 39 11 3 1 0 0 0 0 0 0 0 0 0 0 0 0 0 0 0 0 0 0 0 0 0 0 0 0 0 0 1 19 255 255 151 100 76 40 149 255 174 120 107 77 32 236 255 194 211 248 255 255 22 2 1 1 3 11 46 95 120 173 255 148 30 66 98 130 208 255 107 47 65 97 161 255 255 17 10 24 26 25 27 23 7 2 0 0 0 0 0 0 0 0 0 0 0 0 0 0 0 0 0 0 0 0 0 0 0 0 0 0 0 0 0 0 0 0 0 9 199 255 175 103 70 41 12 3 1 0 0 0 0 0 0 0 0 0 0 0 0 0 0 0 0 0 0 0 0 0 0 0 0 0 0 0 0 0 0 0 0 0 0 0 0 0 0 0 0 0 0 0 0 0 0 0 0 0 0 0 0 0 0 1 2 5 5 5 5 3 1 2 34 255 247 139 86 59 30 8 8 118 255 187 110 72 47 18 5 1 5 100 255 199 116 78 59 48 144 255 255 227 203 255 255 255 110 98 146 255 255 23 1 0 0 0 0 0 0 0 0 0 1 3 10 32 63 96 153 255 255 28 5 4 4 3 2 11 225 255 168 100 68 43 25 183 255 184 114 82 55 32 19 21 61 219 234 189 168 245 255 92 132 130 143 223 255 56 39 78 105 155 255 255 71 71 75 79 75 69 46 30 240 255 177 110 75 39 13 5 20 255 255 175 126 93 74 60 30 20 114 255 255 255 255 46 14 57 115 127 178 255 255 64 71 100 169 255 197 9 0 0 0 0 0 0 0 0 0 0 0 0 0 0 0 0 0 0 0 0 0 0 0 0 0 0 0 0 0 0 0 0 0 0 0 0 0 0 0 0 0 0 0 0 0 0 0 0 0 0 0 0 0 0 0 0 0 0 0 0 0 0 0 0 0 0 0 0 0 0 0 0 0 0 0 0 0 0 0 0 0 0 0 0 0 0 4 93 255 187 110 74 45 14 6 48 255 220 128 81 56 30 23 255 255 164 102 67 37 17 7 9 103 255 255 232 255 255 50 6
70 255 185 110 83 77 38 8 2 0 0 0 0 0 0 0 0 0 0 0 0 0 0 0 0 0 0 0 0 0 0 0 0 0 0 0 0 0 0 0 0 0 0 0 0 0 0 0 0 0 0 0 0 0 0 0 0 0 0 0 0 0 0 0 0 0 0 0 0 0 0 0 0 0 0 0 0 0 5 113 255 173 98 71 68 41 8 2 0 0 0 0 0 0 0 0 0 0 0 0 0 0 0 0 0 0 0 0 0 0 0 0 0 0 0 0 0 0 0 0 0 0 0 0 0 0 0 0 0 0 0 0 0 0 0 0 0 0 0 0 0 0 0 0 0 0 0 0 0 0 0 0 0 0 0 0 0 0 0 0 0 0 0 0 0 0 0 0 0 0 0 0 0 5 108 255 182 102 72 65 37 7 1 0 0 0 0 0 0 0 0 0 0 0 0 0 0 0 0 0 0 0 0 0 0 0 0 0 0 0 8 181 255 165 98 82 97 165 255 198 118 105 145 196 237 255 183 143 146 162 203 255 177 9 1 0 2 9 63 111 99 117 195 255 136 108 102 97 133 238 255 131 62 70 100 173 255 132 12 12 12 11 13 11 3 1 0 0 0 0 0 0 0 0 0 0 0 0 0 0 0 0 0 0 0 0 0 0 0 0 0 0 0 0 0 0 0 0 4 86 255 186 106 73 65 40 8 2 0 0 0 0 0 0 0 0 0 0 0 0 0 0 0 0 0 0 0 0 0 0 0 0 0 0 0 0 0 0 0 0 0 0 0 0 0 0 0 0 0 0 0 0 0 0 0 0 0 0 0 0 0 0 0 0 1 1 2 2 1 1 1 16 255 255 151 89 67 57 25 8 58 255 200 114 74 60 41 12 3 3 50 255 211 120 78 69 86 209 255 247 183 153 140 159 231 255 228 94 94 154 255 202 9 0 0 0 0 0 0 0 0 0 0 1 6 25 56 72 97 162 255 218 12 2 1 1 5 97 255 185 104 70 60 50 147 255 199 116 82 69 45 21 12 29 255 255 229 181 142 166 255 255 255 165 119 150 255 255 81 90 87 105 172 255 255 120 52 39 40 55 60 207 255 188 110 80 68 34 8 10 164 255 168 107 71 53 55 64 31 82 255 243 187 187 255 255 40 115 149 113 121 194 255 255 88 75 105 184 255 90 4 0 0 0 0 0 0 0 0 0 0 0 0 0 0 0 0 0 0 0 0 0 0 0 0 0 0 0 0 0 0 0 0 0 0 0 0 0 0 0 0 0 0 0 0 0 0 0 0 0 0 0 0 0 0 0 0 0 0 0 0 0 0 0 0 0 0 0 0 0 0 0 0 0 0 0 0 0 0 0 0 0 0 0 0 2 47 255 210 116 77 67 45 11 24 255 246 135 82 62 52 35 157 255 178 103 73 56 29 10 6 49 255 218 170 161 177 255 255 23
255 217 113 71 68 88 40 6 1 0 0 0 0 0 0 0 0 0 0 0 0 0 0 0 0 0 0 0 0 0 0 0 0 0 0 0 0 0 0 0 0 0 0 0 0 0 0 0 0 0 0 0 0 0 0 0 0 0 0 0 0 0 0 0 0 0 0 0 0 0 0 0 0 0 0 0 0 3 52 255 191 101 62 57 77 44 7 1 0 0 0 0 0 0 0 0 0 0 0 0 0 0 0 0 0 0 0 0 0 0 0 0 0 0 0 0 0 0 0 0 0 0 0 0 0 0 0 0 0 0 0 0 0 0 0 0 0 0 0 0 0 0 0 0 0 0 0 0 0 0 0 0 0 0 0 0 0 0 0 0 0 0 0 0 0 0 0 0 0 0 0 0 2 51 255 198 105 64 57 72 39 6 1 0 0 0 0 0 0 0 0 0 0 0 0 0 0 0 0 0 0 0 0 0 0 0 0 0 0 4 78 255 179 96 66 87 225 255 229 122 83 111 216 255 255 209 117 98 92 97 120 184 255 74 4 0 1 14 150 145 92 80 119 229 255 255 140 79 84 140 252 255 130 58 62 100 189 255 68 8 5 4 5 4 1 0 0 0 0 0 0 0 0 0 0 0 0 0 0 0 0 0 0 0 0 0 0 0 0 0 0 0 0 0 0 0 0 2 43 255 204 107 64 55 68 43 7 1 0 0 0 0 0 0 0 0 0 0 0 0 0 0 0 0 0 0 0 0 0 0 0 0 0 0 0 0 0 0 0 0 0 0 0 0 0 0 0 0 0 0 0 0 0 0 0 0 0 0 0 0 0 0 0 0 0 0 0 0 0 1 7 134 255 159 86 57 56 61 22 34 255 226 117 68 52 53 37 8 3 25 255 237 123 70 55 91 255 255 241 149 109 93 88 91 124 177 229 127 67 90 170 255 85 4 0 0 0 0 0 0 0 0 0 1 4 19 55 57 62 93 170 255 88 5 1 2 46 255 199 107 64 53 71 203 255 219 115 71 61 62 38 14 13 141 255 206 163 143 116 108 168 255 255 197 111 99 161 255 255 169 86 72 102 178 255 255 62 21 23 60 255 255 207 109 68 60 67 31 10 80 255 181 98 63 40 31 44 87 104 255 245 148 112 118 161 255 255 255 187 112 83 114 197 255 217 72 66 107 207 255 47 2 0 0 0 0 0 0 0 0 0 0 0 0 0 0 0 0 0 0 0 0 0 0 0 0 0 0 0 0 0 0 0 0 0 0 0 0 0 0 0 0 0 0 0 0 0 0 0 0 0 0 0 0 0 0 0 0 0 0 0 0 0 0 0 0 0 0 0 0 0 0 0 0 0 0 0 0 0 0 0 0 0 0 1 22 255 240 124 71 56 68 52 20 184 255 145 78 53 51 62 175 255 196 104 65 53 50 22 6 23 255 236 137 103 99 107 160 255 202
255 134 67 47 64 118 52 6 1 0 0 0 0 0 0 0 0 0 0 0 0 0 0 0 0 0 0 0 0 0 0 0 0 0 0 0 0 0 0 0 0 0 0 0 0 0 0 0 0 0 0 0 0 0 0 0 0 0 0 0 0 0 0 0 0 0 0 0 0 0 0 0 0 0 0 0 1 23 255 221 109 57 40 54 108 59 7 1 0 0 0 0 0 0 0 0 0 0 0 0 0 0 0 0 0 0 0 0 0 0 0 0 0 0 0 0 0 0 0 0 0 0 0 0 0 0 0 0 0 0 0 0 0 0 0 0 0 0 0 0 0 0 0 0 0 0 0 0 0 0 0 0 0 0 0 0 0 0 0 0 0 0 0 0 0 0 0 0 0 0 0 1 23 255 225 112 59 40 51 97 52 6 1 0 0 0 0 0 0 0 0 0 0 0 0 0 0 0 0 0 0 0 0 0 0 0 0 0 2 38 255 201 101 55 52 145 255 214 126 72 66 139 202 215 199 117 71 62 55 54 67 107 201 255 34 2 3 47 255 190 103 59 71 129 233 255 210 84 55 78 137 226 255 83 41 56 108 217 255 34 3 1 1 1 0 0 0 0 0 0 0 0 0 0 0 0 0 0 0 0 0 0 0 0 0 0 0 0 0 0 0 0 0 0 0 0 1 20 255 240 118 59 39 45 86 57 7 1 0 0 0 0 0 0 0 0 0 0 0 0 0 0 0 0 0 0 0 0 0 0 0 0 0 0 0 0 0 0 0 0 0 0 0 0 0 0 0 0 0 0 0 0 0 0 0 0 0 0 0 0 0 0 0 0 0 0 0 0 0 3 60 255 178 88 48 37 52 78 43 255 255 132 65 40 36 49 32 6 13 251 255 138 68 42 54 215 255 209 132 82 61 53 51 49 62 94 142 162 60 53 97 196 255 41 2 0 0 0 0 0 0 0 0 0 2 14 57 47 39 52 95 191 255 41 3 20 255 231 114 59 39 53 205 255 230 122 64 43 47 59 33 12 66 255 184 124 102 99 88 69 88 130 152 160 111 68 93 169 255 255 128 56 58 93 155 217 129 19 22 179 255 210 114 61 42 48 71 32 51 255 209 104 55 34 21 18 51 228 255 255 142 84 64 69 97 189 255 255 192 123 63 65 105 174 248 117 46 61 119 240 255 23 1 0 0 0 0 0 0 0 0 0 0 0 0 0 0 0 0 0 0 0 0 0 0 0 0 0 0 0 0 0 0 0 0 0 0 0 0 0 0 0 0 0 0 0 0 0 0 0 0 0 0 0 0 0 0 0 0 0 0 0 0 0 0 0 0 0 0 0 0 0 0 0 0 0 0 0 0 0 0 0 0 0 9 182 255 139 69 43 45 82 92 145 255 166 81 45 35 57 219 255 225 111 59 40 39 44 16 13 191 255 141 80 59 57 61 91 177 255
136 76 40 35 84 169 123 11 1 0 0 0 0 0 0 0 0 0 0 0 0 0 0 0 0 0 0 0 0 0 0 0 0 0 0 0 0 0 0 0 0 0 0 0 0 0 0 0 0 0 0 0 0 0 0 0 0 0 0 0 0 0 0 0 0 0 0 0 0 0 0 0 0 0 0 0 9 176 255 130 60 32 28 75 181 141 13 1 0 0 0 0 0 0 0 0 0 0 0 0 0 0 0 0 0 0 0 0 0 0 0 0 0 0 0 0 0 0 0 0 0 0 0 0 0 0 0 0 0 0 0 0 0 0 0 0 0 0 0 0 0 0 0 0 0 0 0 0 0 0 0 0 0 0 0 0 0 0 0 0 0 0 0 0 0 0 0 0 0 0 0 9 203 255 132 61 32 27 62 165 122 10 1 0 0 0 0 0 0 0 0 0 0 0 0 0 0 0 0 0 0 0 0 0 0 0 0 1 18 255 249 118 55 34 64 209 163 109 65 44 66 157 139 115 91 60 41 38 31 29 36 59 119 250 255 14 17 255 200 187 140 53 42 68 114 154 186 120 42 42 70 125 209 197 40 32 59 127 255 241 13 1 0 0 0 0 0 0 0 0 0 0 0 0 0 0 0 0 0 0 0 0 0 0 0 0 0 0 0 0 0 0 0 0 0 0 8 176 255 141 65 33 24 48 149 136 12 1 0 0 0 0 0 0 0 0 0 0 0 0 0 0 0 0 0 0 0 0 0 0 0 0 0 0 0 0 0 0 0 0 0 0 0 0 0 0 0 0 0 0 0 0 0 0 0 0 0 0 0 0 0 0 0 0 0 0 0 0 1 28 255 214 102 48 27 26 67 172 255 255 162 75 36 23 26 47 27 11 121 255 165 77 38 29 99 241 165 108 67 43 32 28 27 25 30 48 84 147 71 35 54 115 243 255 19 1 0 0 0 0 0 0 0 0 2 12 66 41 25 29 53 113 239 255 27 165 255 137 63 32 29 120 255 204 120 64 35 26 38 64 31 43 255 215 113 71 61 65 65 43 43 59 81 107 108 53 52 87 144 195 205 63 34 46 77 127 238 41 63 255 180 107 59 33 26 43 89 79 255 255 122 57 30 17 11 18 143 255 255 148 78 46 35 39 56 100 160 160 150 134 57 37 53 93 156 203 49 36 66 140 255 200 9 0 0 0 0 0 0 0 0 0 0 0 0 0 0 0 0 0 0 0 0 0 0 0 0 0 0 0 0 0 0 0 0 0 0 0 0 0 0 0 0 0 0 0 0 0 0 0 0 0 0 0 0 0 0 0 0 0 0 0 0 0 0 0 0 0 0 0 0 0 0 0 0 0 0 0 0 0 0 0 0 4 75 255 165 77 38 27 46 164 255 255 215 97 45 26 32 170 255 219 122 61 32 24 28 37 16 98 255 168 81 45 33 31 34 52 106 214
57 40 25 38 179 219 255 40 2 0 0 0 0 0 0 0 0 0 0 0 0 0 0 0 0 0 0 0 0 0 0 0 0 0 0 0 0 0 0 0 0 0 0 0 0 0 0 0 0 0 0 0 0 0 0 0 0 0 0 0 0 0 0 0 0 0 0 0 0 0 0 0 0 0 0 4 73 255 166 77 34 18 32 206 241 255 48 3 0 0 0 0 0 0 0 0 0 0 0 0 0 0 0 0 0 0 0 0 0 0 0 0 0 0 0 0 0 0 0 0 0 0 0 0 0 0 0 0 0 0 0 0 0 0 0 0 0 0 0 0 0 0 0 0 0 0 0 0 0 0 0 0 0 0 0 0 0 0 0 0 0 0 0 0 0 0 0 0 0 0 4 91 255 170 78 34 18 25 147 246 255 42 3 0 0 0 0 0 0 0 0 0 0 0 0 0 0 0 0 0 0 0 0 0 0 0 0 8 173 255 153 69 32 28 130 175 101 55 33 31 90 145 94 60 41 29 22 21 16 14 19 33 69 151 255 138 140 255 159 152 181 74 28 35 54 85 132 184 49 24 37 70 134 249 79 22 34 73 155 255 100 5 0 0 0 0 0 0 0 0 0 0 0 0 0 0 0 0 0 0 0 0 0 0 0 0 0 0 0 0 0 0 0 0 0 4 75 255 177 83 37 18 19 98 255 255 46 3 0 0 0 0 0 0 0 0 0 0 0 0 0 0 0 0 0 0 0 0 0 0 0 0 0 0 0 0 0 0 0 0 0 0 0 0 0 0 0 0 0 0 0 0 0 0 0 0 0 0 0 0 0 0 0 0 0 0 0 1 11 233 255 132 59 26 15 29 210 255 255 203 96 43 20 12 19 47 25 76 255 202 97 44 22 39 238 161 96 55 33 21 16 13 13 11 14 25 53 111 113 29 32 67 149 255 190 8 0 0 0 0 0 0 0 0 2 14 102 44 16 16 30 67 146 255 255 255 174 81 36 20 51 255 190 113 62 33 18 16 37 91 65 255 255 137 69 42 37 44 47 27 21 26 43 71 106 48 31 44 74 124 193 118 26 23 40 86 193 188 255 189 105 55 30 17 18 54 202 255 255 154 71 32 15 8 7 51 255 192 133 78 42 24 18 21 31 49 71 86 109 137 68 24 27 50 101 195 86 26 37 80 169 255 88 4 0 0 0 0 0 0 0 0 0 0 0 0 0 0 0 0 0 0 0 0 0 0 0 0 0 0 0 0 0 0 0 0 0 0 0 0 0 0 0 0 0 0 0 0 0 0 0 0 0 0 0 0 0 0 0 0 0 0 0 0 0 0 0 0 0 0 0 0 0 0 0 0 0 0 0 0 0 0 2 35 255 205 99 44 21 21 103 255 255 243 128 57 25 18 82 255 200 119 65 33 17 13 18 32 74 255 212 102 48 25 17 15 18 30 59 96
23 20 19 95 255 228 236 252 13 1 0 0 0 0 0 0 0 0 0 0 0 0 0 0 0 0 0 0 0 0 0 0 0 0 0 0 0 0 0 0 0 0 0 0 0 0 0 0 0 0 0 0 0 0 0 0 0 0 0 0 0 0 0 0 0 0 0 0 0 0 0 0 0 0 2 35 255 212 105 48 20 15 100 255 229 230 255 19 1 0 0 0 0 0 0 0 0 0 0 0 0 0 0 0 0 0 0 0 0 0 0 0 0 0 0 0 0 0 0 0 0 0 0 0 0 0 0 0 0 0 0 0 0 0 0 0 0 0 0 0 0 0 0 0 0 0 0 0 0 0 0 0 0 0 0 0 0 0 0 0 0 0 0 0 0 0 0 0 0 2 47 255 213 107 48 20 13 63 255 239 242 255 15 1 0 0 0 0 0 0 0 0 0 0 0 0 0 0 0 0 0 0 0 0 0 0 4 83 255 191 95 43 21 51 255 136 68 30 18 33 176 128 70 33 18 13 10 9 7 6 9 19 43 97 208 255 255 204 131 132 180 185 29 18 26 50 104 190 99 19 20 42 92 171 255 33 21 44 97 200 255 50 2 0 0 0 0 0 0 0 0 0 0 0 0 0 0 0 0 0 0 0 0 0 0 0 0 0 0 0 0 0 0 0 2 36 255 215 110 51 21 11 41 255 243 237 255 17 1 0 0 0 0 0 0 0 0 0 0 0 0 0 0 0 0 0 0 0 0 0 0 0 0 0 0 0 0 0 0 0 0 0 0 0 0 0 0 0 0 0 0 0 0 0 0 0 0 0 0 0 0 0 0 0 0 0 0 5 104 255 169 82 36 15 13 101 255 245 188 114 58 25 10 7 14 57 84 255 245 124 59 26 19 113 235 119 59 29 16 9 6 5 5 5 6 13 38 99 220 44 21 42 93 189 255 86 4 0 0 0 0 0 0 0 2 28 213 83 14 8 17 42 96 209 255 251 115 51 21 23 193 226 128 66 33 16 9 11 59 246 255 255 173 88 46 25 22 29 34 16 10 12 23 55 109 55 20 23 40 82 149 255 41 13 23 66 160 255 255 142 64 29 14 9 21 185 255 255 183 94 43 18 7 4 18 255 212 129 71 41 22 12 9 10 16 23 32 47 85 135 129 23 15 29 72 141 225 34 23 49 105 213 255 46 2 0 0 0 0 0 0 0 0 0 0 0 0 0 0 0 0 0 0 0 0 0 0 0 0 0 0 0 0 0 0 0 0 0 0 0 0 0 0 0 0 0 0 0 0 0 0 0 0 0 0 0 0 0 0 0 0 0 0 0 0 0 0 0 0 0 0 0 0 0 0 0 0 0 0 0 0 1 15 255 255 130 61 26 13 44 255 226 177 126 74 35 16 38 255 211 125 67 35 17 8 6 13 84 255 255 132 64 29 14 8 7 8 16 31 41
9 10 43 255 212 182 179 255 100 5 0 0 0 0 0 0 0 0 0 0 0 0 0 0 0 0 0 0 0 0 0 0 0 0 0 0 0 0 0 0 0 0 0 0 0 0 0 0 0 0 0 0 0 0 0 0 0 0 0 0 0 0 0 0 0 0 0 0 0 0 0 0 0 1 15 255 255 136 69 31 13 45 255 208 175 180 255 159 7 0 0 0 0 0 0 0 0 0 0 0 0 0 0 0 0 0 0 0 0 0 0 0 0 0 0 0 0 0 0 0 0 0 0 0 0 0 0 0 0 0 0 0 0 0 0 0 0 0 0 0 0 0 0 0 0 0 0 0 0 0 0 0 0 0 0 0 0 0 0 0 0 0 0 0 0 0 0 0 1 23 255 252 133 69 31 12 28 255 225 183 180 255 112 6 0 0 0 0 0 0 0 0 0 0 0 0 0 0 0 0 0 0 0 0 0 2 45 255 224 118 61 28 25 190 213 124 52 18 13 70 239 140 65 20 8 5 4 3 2 2 4 10 28 66 135 255 255 143 116 127 173 255 74 12 13 34 93 159 255 36 12 27 69 132 255 119 19 29 64 129 248 255 25 1 0 0 0 0 0 0 0 0 0 0 0 0 0 0 0 0 0 0 0 0 0 0 0 0 0 0 0 0 0 1 16 255 255 135 70 33 13 18 225 255 187 182 255 144 7 0 0 0 0 0 0 0 0 0 0 0 0 0 0 0 0 0 0 0 0 0 0 0 0 0 0 0 0 0 0 0 0 0 0 0 0 0 0 0 0 0 0 0 0 0 0 0 0 0 0 0 0 0 0 0 0 0 2 55 255 208 107 54 22 10 46 255 210 150 99 63 36 14 5 4 18 198 255 255 148 77 38 18 51 255 165 95 40 15 7 4 2 2 2 2 3 8 35 127 218 142 21 28 60 116 217 255 42 2 0 0 0 0 0 0 7 107 241 255 32 5 9 28 66 119 173 134 76 34 17 79 255 155 88 41 17 8 5 23 255 255 255 199 108 60 31 15 12 18 21 8 4 5 15 56 125 95 18 12 23 62 129 220 128 14 16 63 140 218 189 110 45 16 7 8 83 255 222 158 101 58 27 9 3 7 112 255 150 86 41 21 11 5 3 4 7 10 14 29 79 153 255 46 10 19 58 124 252 106 20 32 67 134 253 255 21 1 0 0 0 0 0 0 0 0 0 0 0 0 0 0 0 0 0 0 0 0 0 0 0 0 0 0 0 0 0 0 0 0 0 0 0 0 0 0 0 0 0 0 0 0 0 0 0 0 0 0 0 0 0 0 0 0 0 0 0 0 0 0 0 0 0 0 0 0 0 0 0 0 0 0 0 7 146 255 163 83 40 16 20 226 246 158 100 65 42 21 20 200 255 145 79 39 18 8 4 4 45 255 255 157 83 42 17 7 3 3 4 7 14 16
4 17 247 251 161 134 134 199 255 47 2 0 0 0 0 0 0 0 0 0 0 0 0 0 0 0 0 0 0 0 0 0 0 0 0 0 0 0 0 0 0 0 0 0 0 0 0 0 0 0 0 0 0 0 0 0 0 0 0 0 0 0 0 0 0 0 0 0 0 0 0 0 0 6 127 255 163 86 47 21 23 255 245 151 125 132 192 255 71 3 0 0 0 0 0 0 0 0 0 0 0 0 0 0 0 0 0 0 0 0 0 0 0 0 0 0 0 0 0 0 0 0 0 0 0 0 0 0 0 0 0 0 0 0 0 0 0 0 0 0 0 0 0 0 0 0 0 0 0 0 0 0 0 0 0 0 0 0 0 0 0 0 0 0 0 0 0 0 10 211 255 154 82 46 20 15 154 255 163 129 131 195 255 51 2 0 0 0 0 0 0 0 0 0 0 0 0 0 0 0 0 0 0 0 1 23 255 255 136 74 41 24 93 255 158 115 49 13 25 255 184 162 87 16 4 2 1 1 1 1 2 5 18 47 82 120 121 98 115 136 158 195 255 28 9 28 99 149 241 147 15 19 58 107 175 255 59 21 45 83 153 255 225 11 0 0 0 0 0 0 0 0 0 0 0 0 0 0 0 0 0 0 0 0 0 0 0 0 0 0 0 0 0 7 145 255 162 84 46 21 12 103 255 176 133 133 194 255 65 3 0 0 0 0 0 0 0 0 0 0 0 0 0 0 0 0 0 0 0 0 0 0 0 0 0 0 0 0 0 0 0 0 0 0 0 0 0 0 0 0 0 0 0 0 0 0 0 0 0 0 0 0 0 0 0 1 29 255 246 129 69 36 14 22 255 243 141 89 53 34 20 7 2 6 96 255 255 164 89 50 26 29 255 233 130 83 31 8 3 1 1 1 0 1 1 6 49 175 178 255 66 22 41 72 132 254 255 20 1 0 0 0 0 2 46 255 219 255 192 12 5 18 45 64 76 67 49 25 43 255 196 112 64 26 9 4 9 137 255 220 168 109 68 43 21 8 6 8 10 4 2 3 13 87 169 254 32 7 15 55 113 155 255 50 17 80 111 109 98 83 35 9 5 40 255 214 141 85 55 35 16 5 4 54 255 191 107 61 24 10 4 2 1 1 2 4 7 22 101 181 218 205 17 14 58 119 176 255 53 23 46 83 154 255 205 9 0 0 0 0 0 0 0 0 0 0 0 0 0 0 0 0 0 0 0 0 0 0 0 0 0 0 0 0 0 0 0 0 0 0 0 0 0 0 0 0 0 0 0 0 0 0 0 0 0 0 0 0 0 0 0 0 0 0 0 0 0 0 0 0 0 0 0 0 0 0 0 0 0 0 3 71 255 196 102 55 27 15 95 255 164 103 59 34 22 16 89 255 167 97 53 23 9 3 2 20 255 255 163 92 54 28 9 3 1 1 1 3 5 6
6 95 255 164 115 98 99 129 239 255 21 1 0 0 0 0 0 0 0 0 0 0 0 0 0 0 0 0 0 0 0 0 0 0 0 0 0 0 0 0 0 0 0 0 0 0 0 0 0 0 0 0 0 0 0 0 0 0 0 0 0 0 0 0 0 0 0 0 0 0 0 0 3 58 255 187 99 56 32 20 132 255 157 105 91 95 122 217 255 33 1 0 0 0 0 0 0 0 0 0 0 0 0 0 0 0 0 0 0 0 0 0 0 0 0 0 0 0 0 0 0 0 0 0 0 0 0 0 0 0 0 0 0 0 0 0 0 0 0 0 0 0 0 0 0 0 0 0 0 0 0 0 0 0 0 0 0 0 0 0 0 0 0 0 0 0 0 4 93 255 177 92 52 30 16 77 255 176 112 91 94 126 231 255 22 1 0 0 0 0 0 0 0 0 0 0 0 0 0 0 0 0 0 0 10 234 255 156 81 47 30 61 255 201 125 112 58 17 114 255 157 168 182 23 3 1 0 0 0 0 1 3 11 32 46 53 57 71 126 148 135 148 255 135 13 31 126 135 164 255 66 18 57 91 126 228 255 38 33 54 92 173 255 96 5 0 0 0 0 0 0 0 0 0 0 0 0 0 0 0 0 0 0 0 0 0 0 0 0 0 0 0 3 66 255 190 98 54 31 15 56 255 202 120 95 96 124 221 255 31 1 0 0 0 0 0 0 0 0 0 0 0 0 0 0 0 0 0 0 0 0 0 0 0 0 0 0 0 0 0 0 0 0 0 0 0 0 0 0 0 0 0 0 0 0 0 0 0 0 0 0 0 0 0 1 13 255 255 148 79 46 24 16 159 255 155 91 53 28 17 9 3 3 47 255 220 152 91 54 33 25 156 255 156 103 82 27 5 1 0 0 0 0 0 1 11 127 182 157 219 255 42 29 46 80 155 255 199 9 0 0 0 1 20 255 241 179 186 255 85 7 10 28 32 32 31 30 33 255 255 133 83 51 17 5 4 61 255 191 131 86 58 43 30 12 4 2 3 3 1 1 2 25 243 223 251 142 11 12 60 104 126 217 255 46 141 89 56 51 60 27 7 19 255 255 142 85 47 29 19 8 3 26 255 234 125 78 46 15 5 2 1 0 0 1 1 4 27 169 172 171 255 88 18 79 119 136 237 255 36 32 52 92 180 255 92 4 0 0 0 0 0 0 0 0 0 0 0 0 0 0 0 0 0 0 0 0 0 0 0 0 0 0 0 0 0 0 0 0 0 0 0 0 0 0 0 0 0 0 0 0 0 0 0 0 0 0 0 0 0 0 0 0 0 0 0 0 0 0 0 0 0 0 0 0 0 0 0 0 2 36 255 224 119 65 38 19 51 255 193 110 68 35 18 13 46 255 199 109 67 37 14 4 2 8 157 255 160 90 54 34 16 5 1 0 0 0 1 2 2
45 255 186 106 81 74 73 82 145 255 174 8 0 0 0 0 0 0 0 0 0 0 0 0 0 0 0 0 0 0 0 0 0 0 0 0 0 0 0 0 0 0 0 0 0 0 0 0 0 0 0 0 0 0 0 0 0 0 0 0 0 0 0 0 0 0 0 0 0 0 0 1 28 255 222 112 59 36 25 79 255 185 100 74 68 68 76 130 255 255 14 1 0 0 0 0 0 0 0 0 0 0 0 0 0 0 0 0 0 0 0 0 0 0 0 0 0 0 0 0 0 0 0 0 0 0 0 0 0 0 0 0 0 0 0 0 0 0 0 0 0 0 0 0 0 0 0 0 0 0 0 0 0 0 0 0 0 0 0 0 0 0 0 0 0 0 2 46 255 203 104 55 33 20 50 255 215 113 77 67 68 79 140 255 173 8 0 0 0 0 0 0 0 0 0 0 0 0 0 0 0 0 0 5 97 255 174 89 49 32 46 255 249 134 101 114 103 78 255 174 133 165 240 65 5 0 0 0 0 0 0 1 6 18 23 23 27 59 142 148 116 110 164 255 67 55 159 124 122 212 255 55 69 84 90 144 255 220 36 36 55 101 199 255 47 2 0 0 0 0 0 0 0 0 0 0 0 0 0 0 0 0 0 0 0 0 0 0 0 0 0 1 31 255 216 112 59 35 20 34 255 237 126 81 69 70 77 133 255 247 12 1 0 0 0 0 0 0 0 0 0 0 0 0 0 0 0 0 0 0 0 0 0 0 0 0 0 0 0 0 0 0 0 0 0 0 0 0 0 0 0 0 0 0 0 0 0 0 0 0 0 0 0 0 5 108 255 164 85 48 30 19 87 255 184 96 58 31 15 8 4 2 22 255 242 135 78 48 32 25 95 255 181 103 86 93 27 4 1 0 0 0 0 0 3 43 255 167 130 146 255 247 33 30 48 90 179 255 86 4 0 0 8 176 255 155 125 127 207 255 45 7 14 14 13 14 25 169 255 161 89 64 42 11 4 31 255 219 119 73 43 30 25 18 6 2 1 1 1 0 1 6 105 255 208 187 255 64 16 86 103 102 148 255 255 247 94 32 27 40 20 12 149 255 156 88 51 25 14 9 4 11 200 255 142 80 57 34 9 2 1 0 0 0 0 1 5 55 202 148 135 198 255 85 164 128 106 151 255 206 33 33 56 106 206 255 46 2 0 0 0 0 0 0 0 0 0 0 0 0 0 0 0 0 0 0 0 0 0 0 0 0 0 0 0 0 0 0 0 0 0 0 0 0 0 0 0 0 0 0 0 0 0 0 0 0 0 0 0 0 0 0 0 0 0 0 0 0 0 0 0 0 0 0 0 0 0 0 1 15 255 255 132 70 41 25 35 255 241 122 72 45 21 9 21 255 243 124 71 47 25 7 2 4 68 255 178 93 50 31 20 8 2 1 0 0 0 0 0 1
255 236 115 67 57 57 54 53 84 168 255 73 4 0 0 0 0 0 0 0 0 0 0 0 0 0 0 0 0 0 0 0 0 0 0 0 0 0 0 0 0 0 0 0 0 0 0 0 0 0 0 0 0 0 0 0 0 0 0 0 0 0 0 0 0 0 0 0 0 0 1 12 252 255 132 64 35 23 54 255 220 111 64 52 52 48 48 75 151 255 120 6 0 0 0 0 0 0 0 0 0 0 0 0 0 0 0 0 0 0 0 0 0 0 0 0 0 0 0 0 0 0 0 0 0 0 0 0 0 0 0 0 0 0 0 0 0 0 0 0 0 0 0 0 0 0 0 0 0 0 0 0 0 0 0 0 0 0 0 0 0 0 0 0 0 1 21 255 237 118 59 32 20 33 255 255 129 70 52 50 50 50 81 163 255 72 4 0 0 0 0 0 0 0 0 0 0 0 0 0 0 0 2 45 255 193 97 50 29 33 220 255 147 86 88 138 255 255 235 121 111 143 174 255 23 1 0 0 0 0 0 1 3 8 10 9 16 61 139 131 102 84 109 215 255 255 164 117 92 136 255 255 161 91 67 88 167 255 143 29 33 57 116 233 255 21 1 0 0 0 0 0 0 0 0 0 0 0 0 0 0 0 0 0 0 0 0 0 0 0 1 14 255 255 126 63 35 21 24 235 255 139 75 54 51 51 49 76 153 255 104 5 0 0 0 0 0 0 0 0 0 0 0 0 0 0 0 0 0 0 0 0 0 0 0 0 0 0 0 0 0 0 0 0 0 0 0 0 0 0 0 0 0 0 0 0 0 0 0 0 0 0 0 2 50 255 185 92 48 28 19 55 255 212 108 58 36 17 7 3 2 9 183 255 143 76 39 24 19 61 255 211 108 69 80 117 33 4 1 0 0 0 0 1 16 255 210 147 106 97 164 255 140 26 29 52 101 200 255 41 2 4 78 255 173 95 82 83 126 246 255 25 6 5 5 9 77 255 181 96 59 50 34 8 14 255 255 132 70 40 21 14 12 8 3 1 0 0 0 0 2 44 255 177 147 139 216 255 68 180 120 89 101 190 255 239 137 26 14 22 16 79 255 177 91 52 29 13 6 3 6 83 255 161 81 50 41 24 5 1 0 0 0 0 0 1 14 196 152 120 102 129 255 255 255 159 89 96 178 255 129 27 33 60 118 239 255 23 1 0 0 0 0 0 0 0 0 0 0 0 0 0 0 0 0 0 0 0 0 0 0 0 0 0 0 0 0 0 0 0 0 0 0 0 0 0 0 0 0 0 0 0 0 0 0 0 0 0 0 0 0 0 0 0 0 0 0 0 0 0 0 0 0 0 0 0 0 0 6 120 255 149 73 40 25 28 223 255 144 74 46 28 11 10 106 255 143 74 45 32 14 4 2 32 255 206 104 52 27 16 9 4 1 0 0 0 0 0 0 0
255 145 68 42 40 44 39 33 47 95 197 255 34 2 0 0 0 0 0 0 0 0 0 0 0 0 0 0 0 0 0 0 0 0 0 0 0 0 0 0 0 0 0 0 0 0 0 0 0 0 0 0 0 0 0 0 0 0 0 0 0 0 0 0 0 0 0 0 0 0 5 98 255 154 73 35 20 31 255 249 125 63 39 36 38 33 29 42 85 180 255 58 3 0 0 0 0 0 0 0 0 0 0 0 0 0 0 0 0 0 0 0 0 0 0 0 0 0 0 0 0 0 0 0 0 0 0 0 0 0 0 0 0 0 0 0 0 0 0 0 0 0 0 0 0 0 0 0 0 0 0 0 0 0 0 0 0 0 0 0 0 0 0 0 0 8 166 255 136 64 32 17 20 181 255 144 72 42 35 36 35 31 46 93 197 255 35 2 0 0 0 0 0 0 0 0 0 0 0 0 0 1 20 255 228 109 52 27 22 107 255 158 83 57 92 187 255 255 140 82 90 109 138 255 144 8 0 0 0 0 0 0 1 2 3 4 12 74 115 106 89 66 70 132 255 255 181 114 72 84 160 255 255 159 59 54 95 188 255 72 22 32 63 133 255 159 8 0 0 0 0 0 0 0 0 0 0 0 0 0 0 0 0 0 0 0 0 0 0 0 6 132 255 151 69 34 19 17 121 255 160 77 43 35 37 36 30 43 86 184 255 52 2 0 0 0 0 0 0 0 0 0 0 0 0 0 0 0 0 0 0 0 0 0 0 0 0 0 0 0 0 0 0 0 0 0 0 0 0 0 0 0 0 0 0 0 0 0 0 0 0 0 1 24 255 223 105 49 25 15 32 255 241 120 60 33 20 8 3 1 4 75 255 164 79 40 19 12 30 255 236 121 63 49 89 143 58 6 1 0 0 0 0 6 125 255 145 110 85 64 95 181 255 72 19 28 54 113 236 255 19 40 255 201 99 57 50 51 72 142 255 196 11 2 3 28 255 192 100 54 38 38 25 12 119 255 153 74 39 20 9 6 4 3 1 0 0 0 0 1 17 255 221 124 94 93 134 255 255 255 167 89 68 99 152 154 173 34 9 12 53 255 212 101 50 29 15 6 2 3 39 255 190 91 46 30 26 14 3 1 0 0 0 0 0 4 67 255 126 91 75 81 149 255 227 175 87 63 101 194 255 65 21 32 64 137 255 203 9 0 0 0 0 0 0 0 0 0 0 0 0 0 0 0 0 0 0 0 0 0 0 0 0 0 0 0 0 0 0 0 0 0 0 0 0 0 0 0 0 0 0 0 0 0 0 0 0 0 0 0 0 0 0 0 0 0 0 0 0 0 0 0 0 0 0 0 0 3 53 255 173 82 40 21 19 116 255 165 81 43 27 15 8 45 255 165 81 42 27 19 7 2 13 252 254 120 57 28 13 7 4 1 0 0 0 0 0 0 0 0
161 83 40 25 26 32 26 19 26 51 114 247 255 13 1 0 0 0 0 0 0 0 0 0 0 0 0 0 0 0 0 0 0 0 0 0 0 0 0 0 0 0 0 0 0 0 0 0 0 0 0 0 0 0 0 0 0 0 0 0 0 0 0 0 0 0 0 0 0 2 44 255 180 85 39 19 17 122 255 140 67 34 23 23 25 20 16 23 46 102 219 255 30 1 0 0 0 0 0 0 0 0 0 0 0 0 0 0 0 0 0 0 0 0 0 0 0 0 0 0 0 0 0 0 0 0 0 0 0 0 0 0 0 0 0 0 0 0 0 0 0 0 0 0 0 0 0 0 0 0 0 0 0 0 0 0 0 0 0 0 0 0 0 0 3 68 255 159 73 33 16 12 79 255 161 78 39 24 21 23 22 17 25 51 115 249 255 15 1 0 0 0 0 0 0 0 0 0 0 0 0 8 170 255 132 58 27 15 48 255 175 87 46 44 117 171 155 128 77 55 71 80 99 157 255 58 3 0 0 0 0 0 0 1 1 2 14 110 91 83 78 55 46 76 144 177 155 113 62 51 85 153 210 228 80 35 52 104 199 255 33 17 33 72 159 255 66 3 0 0 0 0 0 0 0 0 0 0 0 0 0 0 0 0 0 0 0 0 0 3 62 255 181 83 37 17 12 59 255 184 88 42 24 20 24 22 17 23 47 106 227 255 27 1 0 0 0 0 0 0 0 0 0 0 0 0 0 0 0 0 0 0 0 0 0 0 0 0 0 0 0 0 0 0 0 0 0 0 0 0 0 0 0 0 0 0 0 0 0 0 0 0 10 212 255 130 57 25 13 16 165 255 136 64 31 17 9 3 1 2 34 255 193 91 42 20 9 12 132 255 135 65 36 42 118 151 207 15 1 0 0 0 3 58 255 173 94 77 66 43 53 102 203 255 35 15 28 60 136 255 215 255 245 115 54 32 29 30 40 77 163 255 82 5 8 116 242 112 53 29 23 26 19 70 255 184 85 40 20 9 4 2 1 1 0 0 0 0 0 6 132 255 133 78 58 58 80 159 255 219 189 112 48 48 65 89 139 52 9 28 255 249 121 55 27 14 6 2 2 17 255 238 110 49 24 16 13 6 2 0 0 0 0 0 1 29 255 173 105 70 55 49 75 117 130 140 96 44 56 108 206 255 30 17 34 74 161 255 85 4 0 0 0 0 0 0 0 0 0 0 0 0 0 0 0 0 0 0 0 0 0 0 0 0 0 0 0 0 0 0 0 0 0 0 0 0 0 0 0 0 0 0 0 0 0 0 0 0 0 0 0 0 0 0 0 0 0 0 0 0 0 0 0 0 0 0 1 24 255 213 98 43 20 13 53 255 184 90 44 23 13 7 20 255 216 98 44 23 14 9 3 6 100 255 145 65 30 14 6 3 1 0 0 0 0 0 0 0 0 0
66 42 22 14 15 20 15 10 13 27 63 143 255 102 5 0 0 0 0 0 0 0 0 0 0 0 0 0 0 0 0 0 0 0 0 0 0 0 0 0 0 0 0 0 0 0 0 0 0 0 0 0 0 0 0 0 0 0 0 0 0 0 0 0 0 0 0 0 1 18 255 227 105 45 20 11 49 255 161 77 35 18 12 12 13 10 8 11 24 56 129 255 255 13 1 0 0 0 0 0 0 0 0 0 0 0 0 0 0 0 0 0 0 0 0 0 0 0 0 0 0 0 0 0 0 0 0 0 0 0 0 0 0 0 0 0 0 0 0 0 0 0 0 0 0 0 0 0 0 0 0 0 0 0 0 0 0 0 0 0 0 0 0 1 32 255 200 91 39 17 9 36 255 191 91 41 20 12 10 12 11 9 13 27 64 145 255 132 6 0 0 0 0 0 0 0 0 0 0 0 4 73 255 168 74 31 14 20 211 220 106 47 27 44 152 122 80 57 39 37 56 61 69 100 204 255 25 1 0 0 0 0 0 0 0 2 25 175 88 70 72 50 31 41 64 83 108 111 63 33 43 72 115 172 157 33 28 56 118 255 120 15 17 39 92 202 255 31 1 0 0 0 0 0 0 0 0 0 0 0 0 0 0 0 0 0 0 0 1 29 255 216 103 45 19 9 26 255 217 106 47 22 12 10 12 11 8 12 25 58 133 255 255 12 1 0 0 0 0 0 0 0 0 0 0 0 0 0 0 0 0 0 0 0 0 0 0 0 0 0 0 0 0 0 0 0 0 0 0 0 0 0 0 0 0 0 0 0 0 0 0 4 92 255 161 72 30 13 9 65 255 159 75 33 15 8 4 1 1 14 255 249 114 49 21 9 6 49 255 155 74 35 22 49 168 182 255 76 4 0 0 1 29 255 219 104 60 53 51 29 29 56 122 255 158 16 14 32 78 182 255 255 147 63 29 17 14 15 21 41 91 195 255 42 44 255 137 63 28 15 12 16 52 255 227 106 46 20 9 4 1 1 0 0 0 0 0 0 3 60 255 172 80 48 35 35 46 80 126 137 156 155 44 23 28 50 90 109 22 195 255 142 65 29 13 6 2 1 7 138 255 141 61 26 12 7 5 2 1 0 0 0 0 0 11 215 255 123 84 57 41 29 35 50 68 96 111 38 31 58 122 255 111 14 17 39 90 195 255 41 2 0 0 0 0 0 0 0 0 0 0 0 0 0 0 0 0 0 0 0 0 0 0 0 0 0 0 0 0 0 0 0 0 0 0 0 0 0 0 0 0 0 0 0 0 0 0 0 0 0 0 0 0 0 0 0 0 0 0 0 0 0 0 0 0 0 10 221 255 127 54 22 10 21 255 215 106 48 22 11 6 9 127 255 132 56 24 11 6 3 4 48 255 182 83 35 15 6 2 1 0 0 0 0 0 0 0 0 0 0
25 19 10 6 7 9 6 4 6 14 35 85 186 255 47 2 0 0 0 0 0 0 0 0 0 0 0 0 0 0 0 0 0 0 0 0 0 0 0 0 0 0 0 0 0 0 0 0 0 0 0 0 0 0 0 0 0 0 0 0 0 0 0 0 0 0 0 0 7 151 255 139 60 24 10 20 249 212 101 43 18 8 5 5 5 4 3 5 12 31 74 163 255 130 6 0 0 0 0 0 0 0 0 0 0 0 0 0 0 0 0 0 0 0 0 0 0 0 0 0 0 0 0 0 0 0 0 0 0 0 0 0 0 0 0 0 0 0 0 0 0 0 0 0 0 0 0 0 0 0 0 0 0 0 0 0 0 0 0 0 0 0 1 14 255 255 124 52 21 8 15 218 254 120 52 22 9 5 4 4 4 4 6 14 36 86 187 255 64 3 0 0 0 0 0 0 0 0 0 2 35 255 208 100 42 16 11 77 255 138 63 27 18 64 159 89 43 25 19 24 46 49 51 64 129 255 189 9 0 0 0 0 0 0 0 5 57 186 123 76 78 54 21 20 27 39 73 109 81 24 21 33 63 120 231 57 18 31 72 156 255 49 11 21 53 125 255 255 13 1 0 0 0 0 0 0 0 0 0 0 0 0 0 0 0 0 0 1 12 250 255 129 58 24 10 11 136 255 133 60 25 11 5 4 5 4 3 5 13 32 77 167 255 110 5 0 0 0 0 0 0 0 0 0 0 0 0 0 0 0 0 0 0 0 0 0 0 0 0 0 0 0 0 0 0 0 0 0 0 0 0 0 0 0 0 0 0 0 0 0 2 46 255 202 95 41 16 7 27 255 198 96 42 17 7 3 1 1 6 114 255 150 66 27 10 5 18 255 208 99 42 19 18 99 191 190 199 255 36 2 1 13 255 255 134 63 40 38 39 19 16 31 73 157 255 61 10 17 45 109 209 183 89 36 15 8 6 7 10 22 52 119 254 255 255 219 93 36 14 7 6 32 255 255 134 61 25 10 4 1 1 0 0 0 0 0 0 1 28 255 219 106 49 29 20 20 25 38 56 80 120 174 58 14 13 29 77 255 236 255 168 80 36 15 6 2 1 3 64 255 180 83 35 13 5 3 2 1 0 0 0 0 0 4 89 255 158 86 72 52 31 16 15 21 35 70 128 41 19 32 74 161 255 45 10 21 51 118 247 255 18 1 0 0 0 0 0 0 0 0 0 0 0 0 0 0 0 0 0 0 0 0 0 0 0 0 0 0 0 0 0 0 0 0 0 0 0 0 0 0 0 0 0 0 0 0 0 0 0 0 0 0 0 0 0 0 0 0 0 0 0 0 0 0 0 5 96 255 168 75 30 12 10 95 255 132 60 26 11 5 5 58 255 177 82 33 12 5 2 2 24 255 237 111 47 19 7 2 1 0 0 0 0 0 0 0 0 0 0 0
9 7 4 2 2 3 2 2 3 7 20 52 117 238 255 21 1 0 0 0 0 0 0 0 0 0 0 0 0 0 0 0 0 0 0 0 0 0 0 0 0 0 0 0 0 0 0 0 0 0 0 0 0 0 0 0 0 0 0 0 0 0 0 0 0 0 0 3 71 255 182 86 36 13 10 94 255 138 64 25 9 3 2 2 2 1 1 2 6 17 44 97 196 255 63 3 0 0 0 0 0 0 0 0 0 0 0 0 0 0 0 0 0 0 0 0 0 0 0 0 0 0 0 0 0 0 0 0 0 0 0 0 0 0 0 0 0 0 0 0 0 0 0 0 0 0 0 0 0 0 0 0 0 0 0 0 0 0 0 0 0 0 6 121 255 161 76 31 11 8 85 255 157 75 31 11 4 2 1 1 1 1 2 7 20 52 115 228 255 32 1 0 0 0 0 0 0 0 1 15 255 255 128 60 24 10 34 255 186 93 40 16 21 155 138 74 25 11 9 15 39 45 41 45 82 166 255 82 4 0 0 0 0 0 1 17 255 160 203 143 126 87 17 9 11 20 56 120 157 26 11 16 37 93 175 181 21 18 46 109 222 255 21 12 32 77 163 255 116 6 0 0 0 0 0 0 0 0 0 0 0 0 0 0 0 0 0 5 111 255 164 77 34 13 7 55 255 166 82 36 13 5 2 1 1 1 1 2 6 18 46 99 198 255 53 2 0 0 0 0 0 0 0 0 0 0 0 0 0 0 0 0 0 0 0 0 0 0 0 0 0 0 0 0 0 0 0 0 0 0 0 0 0 0 0 0 0 0 0 1 21 255 246 124 57 23 8 12 171 255 129 59 24 8 3 1 1 3 56 255 193 93 40 15 5 7 101 255 136 63 25 12 37 255 180 163 153 255 255 15 6 116 255 169 82 40 26 26 29 12 9 18 46 104 203 255 25 10 27 60 92 84 51 21 7 3 2 3 4 11 30 73 161 255 255 153 66 22 7 3 14 247 255 161 79 36 13 4 1 1 0 0 0 0 0 0 1 12 255 255 136 66 31 17 10 10 12 17 25 49 97 147 117 14 7 22 117 255 255 230 106 47 19 7 2 1 2 31 255 224 111 51 19 6 2 1 0 0 0 0 0 0 2 45 255 202 102 66 70 55 24 9 6 9 20 62 138 64 14 19 48 111 226 229 18 11 30 71 151 255 158 7 0 0 0 0 0 0 0 0 0 0 0 0 0 0 0 0 0 0 0 0 0 0 0 0 0 0 0 0 0 0 0 0 0 0 0 0 0 0 0 0 0 0 0 0 0 0 0 0 0 0 0 0 0 0 0 0 0 0 0 0 0 0 2 48 255 206 103 46 17 8 42 255 175 85 36 13 5 3 26 255 224 112 52 20 6 2 1 10 216 255 148 68 28 9 3 1 0 0 0 0 0 0 0 0 0 0 0 0
3 2 1 1 1 1 1 1 1 3 11 33 73 148 255 190 9 0 0 0 0 0 0 0 0 0 0 0 0 0 0 0 0 0 0 0 0 0 0 0 0 0 0 0 0 0 0 0 0 0 0 0 0 0 0 0 0 0 0 0 0 0 0 0 0 0 2 37 255 223 114 55 22 9 42 255 183 94 43 15 4 1 1 1 0 0 0 1 3 9 26 59 119 230 255 32 1 0 0 0 0 0 0 0 0 0 0 0 0 0 0 0 0 0 0 0 0 0 0 0 0 0 0 0 0 0 0 0 0 0 0 0 0 0 0 0 0 0 0 0 0 0 0 0 0 0 0 0 0 0 0 0 0 0 0 0 0 0 0 0 0 3 56 255 194 99 48 19 7 39 255 196 102 50 18 6 2 1 0 0 0 0 1 3 11 33 71 140 255 255 14 1 0 0 0 0 0 0 6 130 255 161 79 37 14 16 220 255 127 65 27 12 58 255 141 74 17 5 4 9 35 48 37 35 55 105 211 255 42 2 0 0 0 0 6 110 255 187 233 255 255 255 30 5 5 12 58 166 247 56 8 8 25 79 139 255 68 14 32 76 145 255 113 12 19 49 100 194 255 55 3 0 0 0 0 0 0 0 0 0 0 0 0 0 0 0 3 57 255 202 101 48 19 7 25 255 216 108 53 21 7 2 1 0 0 0 0 1 3 9 27 60 120 237 255 26 1 0 0 0 0 0 0 0 0 0 0 0 0 0 0 0 0 0 0 0 0 0 0 0 0 0 0 0 0 0 0 0 0 0 0 0 0 0 0 0 0 0 0 9 189 255 149 75 35 13 8 76 255 170 85 38 13 4 1 0 1 30 255 237 121 59 25 8 4 45 255 180 92 44 16 16 176 246 170 133 116 164 255 139 69 255 197 102 52 26 16 16 17 6 4 10 30 69 133 255 144 13 15 30 38 36 26 11 3 1 1 1 2 6 18 48 101 180 183 106 51 14 4 6 104 255 180 94 48 21 7 2 1 0 0 0 0 0 0 0 5 118 255 170 84 42 19 9 4 4 5 7 12 33 87 132 255 34 7 33 200 183 208 133 68 29 10 3 1 1 13 255 255 139 69 31 11 3 1 0 0 0 0 0 0 1 22 255 251 128 70 60 86 78 20 5 3 4 14 75 142 187 20 12 33 76 144 255 92 11 17 44 93 185 255 73 3 0 0 0 0 0 0 0 0 0 0 0 0 0 0 0 0 0 0 0 0 0 0 0 0 0 0 0 0 0 0 0 0 0 0 0 0 0 0 0 0 0 0 0 0 0 0 0 0 0 0 0 0 0 0 0 0 0 0 0 0 1 25 255 247 126 64 28 10 19 255 242 119 57 22 7 3 10 194 255 141 72 34 11 3 1 5 99 255 177 91 44 16 5 1 0 0 0 0 0 0 0 0 0 0 0 0 0
1 1 0 0 0 0 0 0 0 1 6 20 47 90 178 255 82 4 0 0 0 0 0 0 0 0 0 0 0 0 0 0 0 0 0 0 0 0 0 0 0 0 0 0 0 0 0 0 0 0 0 0 0 0 0 0 0 0 0 0 0 0 0 0 0 1 16 255 255 136 71 36 14 19 255 239 121 65 30 8 2 1 0 0 0 0 0 0 1 4 15 37 71 140 255 255 15 1 0 0 0 0 0 0 0 0 0 0 0 0 0 0 0 0 0 0 0 0 0 0 0 0 0 0 0 0 0 0 0 0 0 0 0 0 0 0 0 0 0 0 0 0 0 0 0 0 0 0 0 0 0 0 0 0 0 0 0 0 0 0 1 26 255 228 118 61 30 11 19 255 249 125 67 33 11 3 1 0 0 0 0 0 0 1 6 19 44 83 164 255 121 6 0 0 0 0 0 3 58 255 189 98 50 23 13 97 255 162 86 49 19 27 255 201 159 103 16 3 2 6 32 64 40 29 39 68 131 253 255 19 1 0 0 2 51 255 197 186 195 245 255 255 133 9 3 12 101 198 197 239 18 5 19 77 120 191 255 33 24 56 97 179 255 53 14 31 62 118 233 255 28 1 0 0 0 0 0 0 0 0 0 0 0 0 0 1 30 255 239 123 63 30 11 12 176 255 139 71 35 12 3 1 0 0 0 0 0 0 1 5 16 37 73 145 255 238 11 0 0 0 0 0 0 0 0 0 0 0 0 0 0 0 0 0 0 0 0 0 0 0 0 0 0 0 0 0 0 0 0 0 0 0 0 0 0 0 0 0 4 85 255 179 90 47 21 8 39 255 212 110 58 25 7 2 1 1 13 255 255 145 74 38 14 5 21 255 237 119 65 32 14 75 255 172 141 111 92 106 195 255 255 246 120 62 33 16 8 7 7 3 2 5 19 48 88 170 255 67 10 13 15 14 11 5 1 0 0 0 1 3 10 31 58 81 84 68 41 10 4 49 255 198 107 56 29 11 3 1 0 0 0 0 0 0 0 3 58 255 201 103 54 27 11 4 2 1 2 3 6 26 93 144 213 143 17 84 195 118 96 70 43 17 5 1 1 5 108 255 163 84 44 19 5 1 0 0 0 0 0 0 0 9 200 255 153 80 54 75 162 185 28 4 1 2 17 136 176 255 71 11 23 55 97 189 255 46 12 28 58 113 218 255 37 2 0 0 0 0 0 0 0 0 0 0 0 0 0 0 0 0 0 0 0 0 0 0 0 0 0 0 0 0 0 0 0 0 0 0 0 0 0 0 0 0 0 0 0 0 0 0 0 0 0 0 0 0 0 0 0 0 0 0 0 10 222 255 151 76 40 17 12 130 255 153 80 40 13 4 5 78 255 167 87 47 22 6 2 3 52 255 208 106 56 28 9 2 1 0 0 0 0 0 0 0 0 0 0 0 0 0
0 0 0 0 0 0 0 0 0 1 3 11 29 55 105 205 255 39 2 0 0 0 0 0 0 0 0 0 0 0 0 0 0 0 0 0 0 0 0 0 0 0 0 0 0 0 0 0 0 0 0 0 0 0 0 0 0 0 0 0 0 0 0 0 0 6 128 255 154 79 43 22 14 117 255 145 77 46 19 5 1 0 0 0 0 0 0 0 1 2 8 22 43 81 163 255 140 7 0 0 0 0 0 0 0 0 0 0 0 0 0 0 0 0 0 0 0 0 0 0 0 0 0 0 0 0 0 0 0 0 0 0 0 0 0 0 0 0 0 0 0 0 0 0 0 0 0 0 0 0 0 0 0 0 0 0 0 0 0 0 10 212 255 137 69 38 18 13 128 255 151 77 44 21 6 1 0 0 0 0 0 0 0 1 3 10 26 50 95 186 255 54 3 0 0 0 1 27 255 220 112 59 31 16 52 255 196 102 60 38 22 162 255 155 161 183 25 3 1 5 38 142 61 26 28 44 78 148 255 145 7 0 1 23 255 231 138 146 139 151 171 190 255 52 5 27 244 173 164 255 93 8 18 89 103 134 255 188 29 42 65 113 226 255 30 20 38 70 141 255 250 12 1 0 0 0 0 0 0 0 0 0 0 0 1 14 255 255 142 73 39 18 10 76 255 170 87 47 22 6 2 0 0 0 0 0 0 0 1 2 8 22 44 85 167 255 97 5 0 0 0 0 0 0 0 0 0 0 0 0 0 0 0 0 0 0 0 0 0 0 0 0 0 0 0 0 0 0 0 0 0 0 0 0 0 0 0 2 42 255 208 107 55 28 13 20 255 255 130 69 39 15 4 1 0 6 130 255 165 85 46 23 8 10 172 255 147 76 47 24 42 255 203 123 109 96 78 72 123 251 255 150 73 38 20 8 4 3 2 1 1 3 11 34 60 109 215 255 34 6 5 5 4 2 1 0 0 0 0 1 5 17 30 35 37 40 31 8 23 255 233 119 62 33 16 5 1 0 0 0 0 0 0 0 1 27 255 228 119 62 34 16 5 2 1 0 1 1 4 27 125 147 156 255 142 255 145 76 45 35 24 9 2 1 3 49 255 189 96 51 27 10 3 1 0 0 0 0 0 0 4 83 255 175 90 53 57 174 255 255 96 6 1 3 39 246 198 197 255 35 17 40 67 122 242 255 25 17 36 67 131 255 255 15 1 0 0 0 0 0 0 0 0 0 0 0 0 0 0 0 0 0 0 0 0 0 0 0 0 0 0 0 0 0 0 0 0 0 0 0 0 0 0 0 0 0 0 0 0 0 0 0 0 0 0 0 0 0 0 0 0 0 5 92 255 170 87 47 24 12 63 255 182 95 54 27 8 3 37 255 200 101 54 31 12 3 2 27 255 242 124 63 35 16 4 1 0 0 0 0 0 0 0 0 0 0 0 0 0 0
0 0 0 0 0 0 0 0 0 0 1 5 16 33 60 121 244 255 16 1 0 0 0 0 0 0 0 0 0 0 0 0 0 0 0 0 0 0 0 0 0 0 0 0 0 0 0 0 0 0 0 0 0 0 0 0 0 0 0 0 0 0 0 0 3 57 255 177 88 46 25 15 63 255 181 88 49 30 11 2 1 0 0 0 0 0 0 0 0 1 4 11 25 47 92 182 255 63 3 0 0 0 0 0 0 0 0 0 0 0 0 0 0 0 0 0 0 0 0 0 0 0 0 0 0 0 0 0 0 0 0 0 0 0 0 0 0 0 0 0 0 0 0 0 0 0 0 0 0 0 0 0 0 0 0 0 0 0 0 4 91 255 161 78 41 22 13 65 255 181 90 48 28 11 3 1 0 0 0 0 0 0 0 0 1 5 14 29 54 108 219 255 24 1 0 0 11 229 255 131 64 34 19 29 255 235 118 63 43 34 100 255 176 119 152 205 60 5 1 8 107 255 242 38 19 28 45 84 171 255 63 4 9 170 255 140 92 99 90 86 97 127 213 255 30 101 224 147 131 183 255 48 24 123 96 94 162 255 129 38 45 70 138 255 189 21 23 41 80 161 255 99 5 0 0 0 0 0 0 0 0 0 0 0 6 136 255 161 80 42 22 11 39 255 201 101 53 30 13 3 1 0 0 0 0 0 0 0 0 1 4 12 26 49 96 192 255 46 2 0 0 0 0 0 0 0 0 0 0 0 0 0 0 0 0 0 0 0 0 0 0 0 0 0 0 0 0 0 0 0 0 0 0 0 0 0 1 19 255 244 122 61 32 16 13 127 255 149 76 43 25 8 2 1 3 63 255 190 94 49 27 13 8 79 255 173 87 49 34 37 255 255 128 85 84 87 73 52 72 116 128 81 43 23 10 4 1 1 1 0 0 1 6 22 41 67 130 255 225 13 2 2 1 1 0 0 0 0 0 1 2 8 13 14 15 21 20 15 201 255 139 68 35 18 7 2 1 0 0 0 0 0 0 0 10 214 255 133 67 36 20 8 2 1 0 0 0 1 4 42 169 142 130 238 255 255 129 52 22 16 11 4 1 1 21 255 225 112 56 30 15 5 1 0 0 0 0 0 0 2 39 255 199 100 53 41 122 255 219 211 255 41 3 10 155 197 171 148 255 255 25 29 46 75 144 255 166 18 21 39 74 149 255 127 6 0 0 0 0 0 0 0 0 0 0 0 0 0 0 0 0 0 0 0 0 0 0 0 0 0 0 0 0 0 0 0 0 0 0 0 0 0 0 0 0 0 0 0 0 0 0 0 0 0 0 0 0 0 0 0 0 2 44 255 195 97 50 27 14 34 255 217 108 58 36 17 5 16 255 248 120 60 33 18 6 2 12 243 255 141 70 37 19 8 2 1 0 0 0 0 0 0 0 0 0 0 0 0 0 0
0 0 0 0 0 0 0 0 0 0 1 2 8 17 34 67 142 255 121 6 0 0 0 0 0 0 0 0 0 0 0 0 0 0 0 0 0 0 0 0 0 0 0 0 0 0 0 0 0 0 0 0 0 0 0 0 0 0 0 0 0 0 0 1 27 255 215 103 49 25 14 36 255 223 108 53 30 17 6 1 0 0 0 0 0 0 0 0 0 0 2 5 13 26 50 103 212 255 30 1 0 0 0 0 0 0 0 0 0 0 0 0 0 0 0 0 0 0 0 0 0 0 0 0 0 0 0 0 0 0 0 0 0 0 0 0 0 0 0 0 0 0 0 0 0 0 0 0 0 0 0 0 0 0 0 0 0 0 2 46 255 195 93 44 22 13 36 255 218 106 52 28 15 5 1 0 0 0 0 0 0 0 0 0 1 2 6 15 30 61 130 255 193 9 1 5 92 255 158 74 36 19 19 172 255 137 68 39 34 92 255 211 110 92 128 151 248 17 3 41 255 246 255 208 22 16 25 47 100 209 255 37 75 255 161 82 60 63 55 47 53 78 134 255 255 255 154 114 100 123 240 255 82 166 105 70 101 203 255 101 35 43 80 164 255 90 17 23 45 90 186 255 46 2 0 0 0 0 0 0 0 0 0 3 64 255 187 90 44 23 12 22 255 251 119 58 32 17 6 2 0 0 0 0 0 0 0 0 0 0 2 5 13 27 53 112 233 255 22 1 0 0 0 0 0 0 0 0 0 0 0 0 0 0 0 0 0 0 0 0 0 0 0 0 0 0 0 0 0 0 0 0 0 0 0 0 7 156 255 142 67 34 17 11 63 255 175 85 43 25 13 4 1 2 31 255 219 108 52 27 14 8 41 255 204 100 51 32 37 243 255 154 78 60 67 86 78 41 39 49 51 39 23 12 5 2 1 0 0 0 0 1 3 12 26 41 75 150 255 80 5 1 0 0 0 0 0 0 0 0 1 3 5 5 6 9 14 101 255 168 79 39 19 8 3 1 0 0 0 0 0 0 0 4 89 255 155 74 37 19 10 3 1 0 0 0 0 1 8 110 166 133 106 141 224 168 106 40 12 6 4 2 1 9 185 255 133 63 31 16 7 2 1 0 0 0 0 0 1 17 255 242 116 56 33 61 255 196 148 154 239 255 21 58 255 149 122 107 164 255 171 28 31 45 84 174 255 85 15 21 41 84 177 255 58 3 0 0 0 0 0 0 0 0 0 0 0 0 0 0 0 0 0 0 0 0 0 0 0 0 0 0 0 0 0 0 0 0 0 0 0 0 0 0 0 0 0 0 0 0 0 0 0 0 0 0 0 0 0 0 1 20 255 236 114 54 27 15 19 218 255 128 62 35 21 9 8 119 255 144 68 34 18 9 3 6 97 255 160 78 39 20 9 3 1 0 0 0 0 0 0 0 0 0 0 0 0 0 0 0
0 0 0 0 0 0 0 0 0 0 0 1 3 8 17 37 80 172 255 54 3 0 0 0 0 0 0 0 0 0 0 0 0 0 0 0 0 0 0 0 0 0 0 0 0 0 0 0 0 0 0 0 0 0 0 0 0 0 0 0 0 0 0 11 231 255 128 57 26 13 19 218 255 130 62 31 16 8 2 1 0 0 0 0 0 0 0 0 0 0 1 2 5 13 26 56 124 255 240 12 1 0 0 0 0 0 0 0 0 0 0 0 0 0 0 0 0 0 0 0 0 0 0 0 0 0 0 0 0 0 0 0 0 0 0 0 0 0 0 0 0 0 0 0 0 0 0 0 0 0 0 0 0 0 0 0 0 1 22 255 238 114 52 24 12 18 228 255 127 60 29 15 7 2 1 0 0 0 0 0 0 0 0 0 0 1 3 7 15 33 73 158 255 78 6 42 255 188 90 41 19 13 82 255 165 77 38 25 65 255 244 122 68 72 99 131 255 88 22 255 232 177 205 255 105 13 13 26 56 125 255 255 255 203 94 47 37 37 31 24 28 46 82 179 255 255 125 87 76 79 145 255 255 202 135 61 62 116 222 255 63 28 46 94 192 255 45 14 23 49 108 228 255 20 1 0 0 0 0 0 0 0 1 29 255 214 105 49 23 11 13 152 255 148 67 32 17 8 3 1 0 0 0 0 0 0 0 0 0 0 1 2 6 13 28 62 138 255 184 9 0 0 0 0 0 0 0 0 0 0 0 0 0 0 0 0 0 0 0 0 0 0 0 0 0 0 0 0 0 0 0 0 0 0 0 3 68 255 169 79 37 17 10 33 255 215 102 47 24 13 6 2 1 13 255 255 126 59 28 13 7 21 255 247 119 56 29 27 159 255 180 89 48 43 60 96 101 37 20 19 19 16 10 5 2 1 0 0 0 0 0 0 2 6 14 23 42 86 178 255 33 2 0 0 0 0 0 0 0 0 0 1 1 2 2 5 55 255 199 96 44 20 9 3 1 0 0 0 0 0 0 0 2 44 255 191 89 40 19 9 4 1 0 0 0 0 0 2 36 255 151 118 86 77 95 85 77 32 7 2 1 1 4 85 255 166 75 34 16 7 3 1 0 0 0 0 0 0 7 147 255 142 64 31 30 162 208 127 93 100 148 255 255 255 198 115 83 75 99 192 255 111 24 27 48 100 204 255 45 12 22 46 103 215 255 28 1 0 0 0 0 0 0 0 0 0 0 0 0 0 0 0 0 0 0 0 0 0 0 0 0 0 0 0 0 0 0 0 0 0 0 0 0 0 0 0 0 0 0 0 0 0 0 0 0 0 0 0 0 0 8 166 255 138 63 29 14 12 94 255 153 72 35 19 10 7 58 255 178 82 38 18 9 4 3 45 255 186 89 42 20 9 4 1 0 0 0 0 0 0 0 0 0 0 0 0 0 0 0 0
0 0 0 0 0 0 0 0 0 0 0 0 1 3 8 19 44 100 216 255 25 1 0 0 0 0 0 0 0 0 0 0 0 0 0 0 0 0 0 0 0 0 0 0 0 0 0 0 0 0 0 0 0 0 0 0 0 0 0 0 0 0 5 94 255 154 71 31 13 11 84 255 151 72 34 16 8 3 1 0 0 0 0 0 0 0 0 0 0 0 0 1 2 5 13 30 68 149 255 99 5 0 0 0 0 0 0 0 0 0 0 0 0 0 0 0 0 0 0 0 0 0 0 0 0 0 0 0 0 0 0 0 0 0 0 0 0 0 0 0 0 0 0 0 0 0 0 0 0 0 0 0 0 0 0 0 0 9 188 255 138 63 28 12 10 92 255 149 70 32 15 7 3 1 0 0 0 0 0 0 0 0 0 0 0 0 1 3 7 17 40 90 193 255 70 255 233 109 49 22 11 39 255 197 95 43 22 35 255 245 136 68 44 58 79 109 167 255 255 255 147 110 123 198 255 49 8 13 30 71 164 255 255 125 54 27 21 19 15 11 14 26 49 98 167 139 93 68 58 52 85 174 255 204 170 70 41 64 123 231 253 33 26 52 112 234 246 20 12 26 59 134 255 186 9 0 0 0 0 0 0 1 11 227 255 122 56 25 11 8 69 255 178 84 38 17 8 3 1 0 0 0 0 0 0 0 0 0 0 0 0 1 2 6 14 34 76 162 255 73 4 0 0 0 0 0 0 0 0 0 0 0 0 0 0 0 0 0 0 0 0 0 0 0 0 0 0 0 0 0 0 0 0 0 1 33 255 204 96 43 19 9 16 230 255 127 57 25 12 5 2 1 6 118 255 151 69 31 14 6 10 137 255 143 65 30 19 76 255 189 98 49 29 33 67 131 155 45 11 7 6 6 4 2 1 0 0 0 0 0 0 0 1 2 6 11 22 48 108 240 202 11 1 0 0 0 0 0 0 0 0 0 0 1 2 24 255 230 112 52 23 10 4 1 0 0 0 0 0 0 0 1 21 255 237 112 49 21 9 4 1 1 0 0 0 0 1 11 206 216 144 104 69 40 38 40 49 24 5 1 1 2 44 255 203 95 42 18 7 3 1 0 0 0 0 0 0 3 66 255 174 80 35 20 59 255 128 77 57 62 90 189 255 255 133 83 57 51 59 107 207 255 64 17 26 55 117 240 255 21 11 25 57 126 255 255 12 1 0 0 0 0 0 0 0 0 0 0 0 0 0 0 0 0 0 0 0 0 0 0 0 0 0 0 0 0 0 0 0 0 0 0 0 0 0 0 0 0 0 0 0 0 0 0 0 0 0 0 0 4 71 255 166 77 34 15 8 44 255 184 87 40 18 9 5 30 255 219 104 46 20 9 4 2 19 255 227 107 48 21 9 4 1 0 0 0 0 0 0 0 0 0 0 0 0 0 0 0 0 0
0 0 0 0 0 0 0 0 0 0 0 0 0 1 3 9 23 56 129 255 210 10 0 0 0 0 0 0 0 0 0 0 0 0 0 0 0 0 0 0 0 0 0 0 0 0 0 0 0 0 0 0 0 0 0 0 0 0 0 0 0 2 45 255 189 88 39 16 8 36 255 180 86 39 17 7 3 1 0 0 0 0 0 0 0 0 0 0 0 0 0 0 1 2 6 15 37 85 187 255 49 2 0 0 0 0 0 0 0 0 0 0 0 0 0 0 0 0 0 0 0 0 0 0 0 0 0 0 0 0 0 0 0 0 0 0 0 0 0 0 0 0 0 0 0 0 0 0 0 0 0 0 0 0 0 0 4 80 255 164 76 34 14 7 42 255 181 85 38 16 7 3 1 0 0 0 0 0 0 0 0 0 0 0 0 0 0 1 3 8 21 50 116 255 255 255 140 61 26 11 17 211 244 117 53 24 19 129 255 142 72 37 28 48 68 89 120 255 255 198 94 67 71 117 226 255 20 7 16 40 89 157 139 72 31 14 10 8 6 5 6 13 27 48 68 65 64 55 45 34 48 84 124 149 164 115 32 35 67 139 255 107 20 28 63 138 255 96 11 13 32 76 169 255 82 4 0 0 0 0 0 5 93 255 151 67 30 12 6 31 255 206 102 46 20 8 3 1 0 0 0 0 0 0 0 0 0 0 0 0 0 0 1 2 7 17 41 92 195 255 33 2 0 0 0 0 0 0 0 0 0 0 0 0 0 0 0 0 0 0 0 0 0 0 0 0 0 0 0 0 0 0 0 1 13 255 255 121 53 22 9 9 95 255 154 71 31 13 5 2 1 3 58 255 187 86 37 15 6 5 58 255 169 80 36 17 34 255 200 105 52 26 18 31 113 191 199 100 11 3 2 2 1 1 0 0 0 0 0 0 0 0 0 1 2 5 11 26 62 139 255 75 4 0 0 0 0 0 0 0 0 0 0 1 8 155 255 134 61 27 11 4 1 0 0 0 0 0 0 0 0 9 196 255 139 63 26 10 4 1 1 0 0 0 0 0 4 82 255 146 121 97 59 22 15 17 26 14 3 1 1 21 255 244 118 53 22 8 3 1 0 0 0 0 0 0 1 31 255 210 101 44 19 23 194 171 85 46 34 37 54 107 191 164 87 59 40 34 34 58 116 227 255 31 15 30 65 140 255 101 11 13 31 71 157 255 105 5 0 0 0 0 0 0 0 0 0 0 0 0 0 0 0 0 0 0 0 0 0 0 0 0 0 0 0 0 0 0 0 0 0 0 0 0 0 0 0 0 0 0 0 0 0 0 0 0 0 0 2 34 255 203 95 42 17 8 20 255 233 110 48 21 9 4 13 232 255 129 58 25 10 4 2 8 139 255 134 59 25 10 4 1 1 0 0 0 0 0 0 0 0 0 0 0 0 0 0 0 0 0
0 0 0 0 0 0 0 0 0 0 0 0 0 0 1 4 12 32 75 164 255 91 4 0 0 0 0 0 0 0 0 0 0 0 0 0 0 0 0 0 0 0 0 0 0 0 0 0 0 0 0 0 0 0 0 0 0 0 0 0 1 22 255 241 115 50 21 8 15 230 245 112 49 21 8 3 1 0 0 0 0 0 0 0 0 0 0 0 0 0 0 0 0 1 2 7 20 49 114 238 255 24 1 0 0 0 0 0 0 0 0 0 0 0 0 0 0 0 0 0 0 0 0 0 0 0 0 0 0 0 0 0 0 0 0 0 0 0 0 0 0 0 0 0 0 0 0 0 0 0 0 0 0 0 0 2 40 255 204 96 42 18 7 18 255 239 113 49 20 8 3 1 0 0 0 0 0 0 0 0 0 0 0 0 0 0 0 0 1 3 10 28 71 162 255 193 87 35 14 10 81 255 145 68 30 15 55 255 163 82 39 20 19 44 69 78 88 150 189 114 61 41 42 68 138 255 115 9 8 21 44 64 59 37 16 7 4 3 2 2 2 6 12 21 26 29 42 47 36 22 26 39 58 98 140 218 44 20 37 84 168 255 46 17 36 84 179 255 42 8 17 44 100 207 255 41 2 0 0 0 2 46 255 194 90 38 15 6 13 198 255 124 57 25 10 3 1 0 0 0 0 0 0 0 0 0 0 0 0 0 0 0 0 1 3 8 22 52 120 255 255 13 1 0 0 0 0 0 0 0 0 0 0 0 0 0 0 0 0 0 0 0 0 0 0 0 0 0 0 0 0 0 0 6 115 255 153 70 29 11 6 44 255 191 91 40 16 6 2 1 1 28 255 228 111 49 20 7 4 26 255 213 102 45 19 17 140 255 123 58 27 13 12 53 248 210 199 255 32 3 1 0 0 0 0 0 0 0 0 0 0 0 0 0 1 2 5 14 36 87 190 255 34 2 0 0 0 0 0 0 0 0 0 3 61 255 162 77 33 14 5 2 1 0 0 0 0 0 0 0 4 91 255 175 81 35 14 5 2 1 0 0 0 0 0 2 41 255 196 107 102 99 57 14 6 7 11 6 2 1 9 197 255 145 67 29 11 4 1 0 0 0 0 0 0 1 13 255 255 126 57 24 14 70 255 118 57 28 19 21 32 55 80 74 54 42 27 21 19 31 65 139 255 149 16 16 36 83 175 255 44 8 16 40 92 191 255 49 2 0 0 0 0 0 0 0 0 0 0 0 0 0 0 0 0 0 0 0 0 0 0 0 0 0 0 0 0 0 0 0 0 0 0 0 0 0 0 0 0 0 0 0 0 0 0 0 0 1 14 255 255 124 55 23 9 10 121 255 144 65 27 10 4 6 93 255 161 74 32 13 4 2 4 62 255 171 79 33 13 4 2 1 0 0 0 0 0 0 0 0 0 0 0 0 0 0 0 0 0 0
0 0 0 0 0 0 0 0 0 0 0 0 0 0 1 2 6 18 46 101 208 255 47 2 0 0 0 0 0 0 0 0 0 0 0 0 0 0 0 0 0 0 0 0 0 0 0 0 0 0 0 0 0 0 0 0 0 0 0 0 9 196 255 150 70 30 11 9 95 255 155 72 29 11 4 1 0 0 0 0 0 0 0 0 0 0 0 0 0 0 0 0 0 0 1 3 10 29 70 148 255 207 10 0 0 0 0 0 0 0 0 0 0 0 0 0 0 0 0 0 0 0 0 0 0 0 0 0 0 0 0 0 0 0 0 0 0 0 0 0 0 0 0 0 0 0 0 0 0 0 0 0 0 0 1 19 255 255 128 58 24 9 9 113 255 151 71 29 10 3 1 0 0 0 0 0 0 0 0 0 0 0 0 0 0 0 0 0 0 1 5 16 44 87 123 97 53 21 9 38 255 193 93 42 17 26 255 219 109 50 21 11 14 49 94 84 66 74 82 62 40 26 25 42 87 176 255 51 6 10 19 25 24 17 8 3 1 1 1 1 1 2 5 8 10 13 27 40 29 14 13 17 29 68 133 213 114 18 22 53 115 231 208 22 22 53 118 241 255 18 10 25 60 128 255 255 19 1 0 1 22 255 248 122 55 22 8 7 83 255 161 76 34 13 4 1 0 0 0 0 0 0 0 0 0 0 0 0 0 0 0 0 0 0 1 4 11 31 73 158 255 111 5 0 0 0 0 0 0 0 0 0 0 0 0 0 0 0 0 0 0 0 0 0 0 0 0 0 0 0 0 0 3 55 255 194 94 42 16 6 19 255 243 121 56 23 8 3 1 1 11 242 255 140 67 28 10 4 11 204 255 136 62 26 13 59 255 158 78 34 14 7 20 244 239 191 190 247 164 9 1 0 0 0 0 0 0 0 0 0 0 0 0 0 0 1 2 7 22 56 125 255 255 14 1 0 0 0 0 0 0 0 1 28 255 212 103 46 18 6 2 1 0 0 0 0 0 0 0 2 47 255 215 107 49 20 7 2 1 0 0 0 0 0 1 20 255 255 131 85 100 123 73 11 3 3 3 2 1 4 89 255 182 87 39 16 5 2 0 0 0 0 0 0 0 5 111 255 163 76 34 14 31 255 183 94 43 17 10 11 17 26 32 32 32 29 17 11 10 17 38 85 167 255 64 11 21 51 114 237 255 19 9 23 55 118 237 255 22 1 0 0 0 0 0 0 0 0 0 0 0 0 0 0 0 0 0 0 0 0 0 0 0 0 0 0 0 0 0 0 0 0 0 0 0 0 0 0 0 0 0 0 0 0 0 0 0 6 133 255 159 75 32 12 7 55 255 182 90 40 15 5 4 43 255 198 98 45 18 6 2 2 31 255 223 108 48 19 6 2 1 0 0 0 0 0 0 0 0 0 0 0 0 0 0 0 0 0 0 0
0 0 0 0 0 0 0 0 0 0 0 0 0 0 0 1 3 9 29 65 132 255 255 24 1 0 0 0 0 0 0 0 0 0 0 0 0 0 0 0 0 0 0 0 0 0 0 0 0 0 0 0 0 0 0 0 0 0 0 4 85 255 184 94 45 18 8 47 255 202 105 49 18 5 2 0 0 0 0 0 0 0 0 0 0 0 0 0 0 0 0 0 0 0 0 1 5 17 45 92 179 255 87 4 0 0 0 0 0 0 0 0 0 0 0 0 0 0 0 0 0 0 0 0 0 0 0 0 0 0 0 0 0 0 0 0 0 0 0 0 0 0 0 0 0 0 0 0 0 0 0 0 0 0 8 164 255 162 81 37 14 7 52 255 191 99 48 18 5 1 0 0 0 0 0 0 0 0 0 0 0 0 0 0 0 0 0 0 0 1 2 8 25 44 52 46 31 12 17 253 255 130 64 27 17 143 255 148 76 33 11 6 13 96 205 139 61 38 35 31 24 15 15 27 59 118 235 255 25 5 7 9 8 6 3 1 0 0 0 0 0 1 2 3 3 6 16 33 21 8 5 7 16 59 131 168 255 46 15 36 82 152 255 90 18 37 80 153 255 112 10 15 38 80 160 255 190 8 1 9 208 255 156 79 36 12 5 42 255 209 106 50 20 6 2 1 0 0 0 0 0 0 0 0 0 0 0 0 0 0 0 0 0 0 0 2 5 18 48 101 197 255 52 2 0 0 0 0 0 0 0 0 0 0 0 0 0 0 0 0 0 0 0 0 0 0 0 0 0 0 0 1 25 255 237 124 61 26 9 9 131 255 153 78 36 13 4 1 1 5 102 255 173 87 42 16 5 6 92 255 176 89 41 16 30 255 219 112 54 20 7 8 109 255 192 159 159 175 255 63 3 0 0 0 0 0 0 0 0 0 0 0 0 0 0 0 1 3 13 39 84 165 255 136 6 0 0 0 0 0 0 1 11 238 255 140 68 29 10 3 1 0 0 0 0 0 0 0 1 23 255 254 134 68 31 10 3 1 0 0 0 0 0 0 8 181 255 163 92 85 133 183 162 17 2 1 1 1 2 46 255 217 114 56 24 8 2 1 0 0 0 0 0 0 2 52 255 200 103 50 21 17 169 255 137 82 37 11 5 5 7 11 12 13 16 17 9 5 4 9 23 55 112 218 255 32 13 34 77 154 255 127 11 13 35 74 150 255 176 8 0 0 0 0 0 0 0 0 0 0 0 0 0 0 0 0 0 0 0 0 0 0 0 0 0 0 0 0 0 0 0 0 0 0 0 0 0 0 0 0 0 0 0 0 0 0 3 66 255 200 101 49 19 7 28 255 233 119 60 25 8 3 19 255 249 127 63 28 9 3 1 14 255 255 144 71 31 10 3 1 0 0 0 0 0 0 0 0 0 0 0 0 0 0 0 0 0 0 0 0
0 0 0 0 0 0 0 0 0 0 0 0 0 0 0 0 1 5 18 45 84 158 255 228 10 0 0 0 0 0 0 0 0 0 0 0 0 0 0 0 0 0 0 0 0 0 0 0 0 0 0 0 0 0 0 0 0 0 2 42 255 214 114 62 30 11 23 255 247 131 73 36 11 3 1 0 0 0 0 0 0 0 0 0 0 0 0 0 0 0 0 0 0 0 0 1 2 10 30 60 111 210 255 42 2 0 0 0 0 0 0 0 0 0 0 0 0 0 0 0 0 0 0 0 0 0 0 0 0 0 0 0 0 0 0 0 0 0 0 0 0 0 0 0 0 0 0 0 0 0 0 0 0 4 73 255 186 100 54 24 8 24 255 234 124 68 33 10 3 1 0 0 0 0 0 0 0 0 0 0 0 0 0 0 0 0 0 0 0 0 1 4 12 20 21 20 15 12 106 255 162 89 48 22 72 255 185 103 59 22 6 4 36 255 255 255 96 23 15 14 12 8 8 18 43 81 152 255 186 11 3 3 3 2 1 0 0 0 0 0 0 0 0 1 1 3 9 23 13 4 2 3 12 66 132 150 232 239 23 27 64 108 199 255 52 28 58 103 196 255 57 11 25 54 100 191 255 90 9 90 255 184 98 53 23 8 21 255 255 135 73 36 12 3 1 0 0 0 0 0 0 0 0 0 0 0 0 0 0 0 0 0 0 0 0 1 3 11 33 67 125 238 255 25 1 0 0 0 0 0 0 0 0 0 0 0 0 0 0 0 0 0 0 0 0 0 0 0 0 0 0 10 215 255 148 79 41 16 8 63 255 190 100 54 24 7 2 1 2 49 255 205 108 58 27 9 5 48 255 213 113 61 29 20 189 255 147 81 40 12 6 52 255 204 145 129 128 135 214 255 29 1 0 0 0 0 0 0 0 0 0 0 0 0 0 0 0 2 7 28 60 106 199 255 65 3 0 0 0 0 0 5 105 255 173 92 49 18 5 1 0 0 0 0 0 0 0 0 10 233 255 156 83 45 19 5 1 0 0 0 0 0 0 4 81 255 187 103 76 126 212 236 255 54 4 0 0 1 23 255 255 134 72 37 14 4 1 0 0 0 0 0 0 1 24 255 237 125 68 34 16 77 255 174 107 84 38 7 2 2 3 4 4 5 7 7 4 2 2 4 14 38 78 145 255 224 20 24 56 102 190 255 61 10 22 50 95 180 255 75 4 0 0 0 0 0 0 0 0 0 0 0 0 0 0 0 0 0 0 0 0 0 0 0 0 0 0 0 0 0 0 0 0 0 0 0 0 0 0 0 0 0 0 0 0 1 35 255 234 125 67 33 12 14 213 255 150 80 43 15 4 9 175 255 157 82 43 17 5 1 6 122 255 171 92 49 20 5 1 0 0 0 0 0 0 0 0 0 0 0 0 0 0 0 0 0 0 0 0 0
0 0 0 0 0 0 0 0 0 0 0 0 0 0 0 0 1 2 10 31 55 95 177 255 94 5 0 0 0 0 0 0 0 0 0 0 0 0 0 0 0 0 0 0 0 0 0 0 0 0 0 0 0 0 0 0 0 1 18 255 250 130 71 42 20 14 155 255 151 84 53 26 6 1 0 0 0 0 0 0 0 0 0 0 0 0 0 0 0 0 0 0 0 0 0 0 1 5 18 41 70 129 249 255 19 1 0 0 0 0 0 0 0 0 0 0 0 0 0 0 0 0 0 0 0 0 0 0 0 0 0 0 0 0 0 0 0 0 0 0 0 0 0 0 0 0 0 0 0 0 0 0 2 37 255 216 113 63 37 15 13 173 255 145 79 49 23 6 1 0 0 0 0 0 0 0 0 0 0 0 0 0 0 0 0 0 0 0 0 0 0 2 5 8 8 8 9 53 255 192 103 63 40 50 255 220 119 74 49 16 4 14 250 255 225 232 243 31 7 5 5 3 4 11 31 58 96 174 255 74 5 1 1 1 0 0 0 0 0 0 0 0 0 0 0 1 4 10 6 2 1 2 14 112 136 131 159 255 122 28 56 80 131 251 255 44 46 71 125 235 255 31 16 37 64 115 216 255 143 255 208 110 62 36 14 13 179 255 158 86 52 25 7 2 0 0 0 0 0 0 0 0 0 0 0 0 0 0 0 0 0 0 0 0 0 0 1 6 21 46 78 146 255 228 10 0 0 0 0 0 0 0 0 0 0 0 0 0 0 0 0 0 0 0 0 0 0 0 0 0 4 87 255 171 90 52 28 10 34 255 226 120 67 39 15 4 1 1 23 255 239 125 68 39 17 6 25 255 249 131 73 44 25 101 255 175 98 63 32 9 25 255 236 136 106 105 104 103 142 255 247 12 1 0 0 0 0 0 0 0 0 0 0 0 0 0 0 1 4 19 44 69 121 226 255 32 1 0 0 0 2 53 255 203 107 62 35 11 3 1 0 0 0 0 0 0 0 5 107 255 180 94 54 30 11 3 1 0 0 0 0 0 2 41 255 214 113 71 90 225 224 207 211 255 21 1 1 10 229 255 155 82 47 25 8 2 0 0 0 0 0 0 0 11 236 255 145 78 45 25 45 255 209 117 92 106 49 6 1 1 1 1 1 2 2 2 1 1 1 2 8 27 57 94 169 255 118 23 43 70 120 225 255 32 14 35 61 110 211 255 37 2 0 0 0 0 0 0 0 0 0 0 0 0 0 0 0 0 0 0 0 0 0 0 0 0 0 0 0 0 0 0 0 0 0 0 0 0 0 0 0 0 0 0 1 15 255 255 141 77 45 21 11 94 255 172 94 56 30 9 6 82 255 186 97 55 29 9 2 3 56 255 194 103 60 34 12 3 1 0 0 0 0 0 0 0 0 0 0 0 0 0 0 0 0 0 0 0 0 0
0 0 0 0 0 0 0 0 0 0 0 0 0 0 0 0 0 1 5 19 35 56 102 197 255 45 2 0 0 0 0 0 0 0 0 0 0 0 0 0 0 0 0 0 0 0 0 0 0 0 0 0 0 0 0 0 0 7 144 255 148 76 44 27 15 78 255 173 90 54 38 16 4 1 0 0 0 0 0 0 0 0 0 0 0 0 0 0 0 0 0 0 0 0 0 0 1 2 10 26 44 76 149 255 179 8 0 0 0 0 0 0 0 0 0 0 0 0 0 0 0 0 0 0 0 0 0 0 0 0 0 0 0 0 0 0 0 0 0 0 0 0 0 0 0 0 0 0 0 0 0 1 18 255 255 130 67 40 23 13 85 255 170 87 52 34 14 3 1 0 0 0 0 0 0 0 0 0 0 0 0 0 0 0 0 0 0 0 0 0 0 1 2 2 3 4 25 255 232 117 65 47 59 255 255 133 75 55 42 11 8 106 255 177 145 163 235 77 7 2 2 1 2 6 21 41 60 103 199 255 32 2 0 0 0 0 0 0 0 0 0 0 0 0 0 0 1 3 2 1 0 2 29 229 148 115 112 192 255 101 60 63 84 151 255 241 54 52 77 140 255 219 21 24 40 68 129 255 255 255 126 65 40 23 12 92 255 180 93 55 36 16 4 1 0 0 0 0 0 0 0 0 0 0 0 0 0 0 0 0 0 0 0 0 0 0 1 3 12 30 49 86 170 255 98 5 0 0 0 0 0 0 0 0 0 0 0 0 0 0 0 0 0 0 0 0 0 0 0 2 40 255 197 101 55 34 18 20 255 255 136 73 45 26 8 2 1 10 217 255 142 74 43 25 10 13 229 255 147 77 47 34 74 255 206 107 66 51 25 16 207 255 144 87 79 88 88 82 91 164 255 100 5 0 0 0 0 0 0 0 0 0 0 0 0 0 0 0 2 11 30 45 71 134 255 255 14 1 0 1 26 255 235 121 65 42 24 6 1 0 0 0 0 0 0 0 3 54 255 203 105 56 34 18 5 1 0 0 0 0 0 1 20 255 252 128 69 60 158 212 171 148 163 255 155 8 5 98 255 174 90 50 30 14 4 1 0 0 0 0 0 0 5 103 255 171 86 48 31 36 255 255 129 80 94 157 114 10 1 0 0 0 0 0 1 1 0 0 0 1 4 17 43 61 102 200 255 87 38 48 73 136 255 238 21 23 39 67 128 255 255 16 1 0 0 0 0 0 0 0 0 0 0 0 0 0 0 0 0 0 0 0 0 0 0 0 0 0 0 0 0 0 0 0 0 0 0 0 0 0 0 0 0 0 6 135 255 157 81 47 30 15 52 255 198 102 58 40 20 7 42 255 211 110 60 37 18 5 2 26 255 223 115 62 38 22 6 1 0 0 0 0 0 0 0 0 0 0 0 0 0 0 0 0 0 0 0 0 0 0
0 0 0 0 0 0 0 0 0 0 0 0 0 0 0 0 0 1 3 10 20 33 58 116 237 255 21 1 0 0 0 0 0 0 0 0 0 0 0 0 0 0 0 0 0 0 0 0 0 0 0 0 0 0 0 0 3 64 255 173 85 44 26 17 48 255 211 103 53 34 24 9 2 0 0 0 0 0 0 0 0 0 0 0 0 0 0 0 0 0 0 0 0 0 0 0 0 1 5 14 26 44 86 175 255 78 4 0 0 0 0 0 0 0 0 0 0 0 0 0 0 0 0 0 0 0 0 0 0 0 0 0 0 0 0 0 0 0 0 0 0 0 0 0 0 0 0 0 0 0 0 8 162 255 152 74 39 23 15 52 255 207 101 52 33 21 7 2 0 0 0 0 0 0 0 0 0 0 0 0 0 0 0 0 0 0 0 0 0 0 0 0 0 1 1 9 162 255 139 69 43 53 255 255 158 79 48 42 36 10 53 255 192 113 90 104 144 255 22 2 1 0 1 3 12 27 37 60 120 252 250 12 1 0 0 0 0 0 0 0 0 0 0 0 0 0 0 1 1 0 1 6 94 208 162 108 81 119 233 255 156 59 55 90 175 255 192 49 48 81 162 255 116 20 24 39 75 149 227 150 74 39 24 15 55 255 210 104 54 34 22 9 2 0 0 0 0 0 0 0 0 0 0 0 0 0 0 0 0 0 0 0 0 0 0 0 0 1 6 17 30 50 98 196 255 49 2 0 0 0 0 0 0 0 0 0 0 0 0 0 0 0 0 0 0 0 0 0 1 18 255 241 117 58 33 20 16 132 255 157 78 44 29 15 4 1 5 100 255 169 82 43 25 14 10 106 255 170 83 45 32 59 255 242 122 64 45 41 26 120 255 169 85 57 62 78 81 68 61 97 190 255 47 2 0 0 0 0 0 0 0 0 0 0 0 0 0 0 1 6 18 28 42 76 156 255 127 6 1 11 242 255 137 69 39 26 13 3 1 0 0 0 0 0 0 1 26 255 230 117 59 33 20 9 3 1 0 0 0 0 0 9 202 255 149 73 45 79 212 148 115 99 113 174 255 75 53 255 196 98 51 29 17 7 2 0 0 0 0 0 0 2 49 255 197 99 50 30 30 206 255 153 79 62 127 212 255 38 2 0 0 0 0 0 0 0 0 0 0 0 2 10 30 39 61 118 234 255 84 36 45 79 161 255 125 20 24 39 73 149 255 135 7 0 0 0 0 0 0 0 0 0 0 0 0 0 0 0 0 0 0 0 0 0 0 0 0 0 0 0 0 0 0 0 0 0 0 0 0 0 0 0 0 3 63 255 184 89 46 28 18 33 255 240 118 59 36 26 12 22 255 247 123 63 36 22 9 3 11 206 255 132 65 36 23 11 3 1 0 0 0 0 0 0 0 0 0 0 0 0 0 0 0 0 0 0 0 0 0 0
0 0 0 0 0 0 0 0 0 0 0 0 0 0 0 0 0 0 1 4 10 17 32 65 141 255 194 9 0 0 0 0 0 0 0 0 0 0 0 0 0 0 0 0 0 0 0 0 0 0 0 0 0 0 0 1 32 255 212 101 48 24 15 29 255 254 125 59 31 20 12 4 1 0 0 0 0 0 0 0 0 0 0 0 0 0 0 0 0 0 0 0 0 0 0 0 0 1 2 6 14 25 48 100 203 255 37 2 0 0 0 0 0 0 0 0 0 0 0 0 0 0 0 0 0 0 0 0 0 0 0 0 0 0 0 0 0 0 0 0 0 0 0 0 0 0 0 0 0 0 4 74 255 177 86 42 22 13 32 255 249 122 58 31 19 11 3 1 0 0 0 0 0 0 0 0 0 0 0 0 0 0 0 0 0 0 0 0 0 0 0 0 0 0 3 61 255 160 79 41 37 165 255 176 90 46 31 31 29 34 255 230 115 69 55 65 107 248 93 6 0 0 0 1 6 14 21 35 69 149 255 104 5 0 0 0 0 0 0 0 0 0 0 0 0 0 0 0 0 0 2 35 255 153 147 111 65 73 134 253 255 122 42 53 99 189 255 116 35 47 94 194 255 71 16 22 41 70 93 71 41 22 13 32 255 241 121 58 31 19 11 4 1 0 0 0 0 0 0 0 0 0 0 0 0 0 0 0 0 0 0 0 0 0 0 0 0 1 3 8 16 28 55 114 236 255 24 1 0 0 0 0 0 0 0 0 0 0 0 0 0 0 0 0 0 0 0 0 8 165 255 144 66 33 18 14 73 255 186 90 44 25 16 7 2 3 51 255 201 97 46 24 13 9 56 255 196 96 47 27 38 255 255 139 69 39 30 37 112 255 205 99 50 38 52 77 83 64 42 57 112 232 255 22 1 0 0 0 0 0 0 0 0 0 0 0 0 0 1 3 8 15 23 43 89 184 255 60 8 108 255 163 77 39 22 14 6 2 0 0 0 0 0 0 0 11 237 255 134 64 32 18 9 4 1 0 0 0 0 0 4 86 255 174 84 43 40 150 162 101 74 66 75 108 216 255 255 241 114 54 28 16 8 3 1 0 0 0 0 0 1 22 255 230 113 55 29 23 110 255 180 89 50 66 184 203 228 228 12 1 0 0 0 0 0 0 0 0 0 0 1 5 17 24 36 67 133 255 255 58 29 46 93 192 255 76 16 22 41 85 177 255 59 3 0 0 0 0 0 0 0 0 0 0 0 0 0 0 0 0 0 0 0 0 0 0 0 0 0 0 0 0 0 0 0 0 0 0 0 0 0 0 1 29 255 216 107 50 26 15 22 232 255 141 67 34 21 15 14 160 255 144 68 35 20 11 4 5 84 255 159 75 36 20 11 5 1 0 0 0 0 0 0 0 0 0 0 0 0 0 0 0 0 0 0 0 0 0 0 0
0 0 0 0 0 0 0 0 0 0 0 0 0 0 0 0 0 0 0 2 4 8 17 36 80 171 255 84 4 0 0 0 0 0 0 0 0 0 0 0 0 0 0 0 0 0 0 0 0 0 0 0 0 0 1 13 255 255 127 58 26 13 16 175 255 147 71 34 17 10 5 2 0 0 0 0 0 0 0 0 0 0 0 0 0 0 0 0 0 0 0 0 0 0 0 0 0 0 1 2 6 12 26 56 119 249 255 15 1 0 0 0 0 0 0 0 0 0 0 0 0 0 0 0 0 0 0 0 0 0 0 0 0 0 0 0 0 0 0 0 0 0 0 0 0 0 0 0 0 2 38 255 210 101 47 22 11 17 214 255 145 69 33 16 9 4 1 0 0 0 0 0 0 0 0 0 0 0 0 0 0 0 0 0 0 0 0 0 0 0 0 0 0 1 26 255 198 95 45 28 77 255 171 95 50 27 19 22 41 255 255 137 67 41 34 43 79 150 255 36 2 0 0 1 2 6 10 19 40 88 188 255 51 2 0 0 0 0 0 0 0 0 0 0 0 0 0 0 0 1 13 255 234 132 120 117 60 46 74 136 214 255 61 33 54 105 190 255 54 29 53 114 229 255 39 12 20 30 35 30 20 11 17 204 255 139 67 32 16 9 5 2 0 0 0 0 0 0 0 0 0 0 0 0 0 0 0 0 0 0 0 0 0 0 0 0 0 0 1 3 7 14 30 64 140 255 224 10 0 0 0 0 0 0 0 0 0 0 0 0 0 0 0 0 0 0 0 4 73 255 176 83 38 17 10 39 255 220 108 51 24 13 7 3 2 24 255 235 116 54 25 12 7 30 255 232 113 53 26 22 130 255 151 77 39 23 23 107 255 240 118 57 30 27 50 93 107 73 32 34 64 139 255 210 10 0 0 0 0 0 0 0 0 0 0 0 0 0 0 1 3 6 11 23 50 107 220 255 122 255 195 93 43 21 11 6 2 1 0 0 0 0 0 0 5 103 255 163 75 35 17 8 4 1 0 0 0 0 0 2 41 255 200 98 47 27 61 224 115 69 48 44 49 66 134 255 255 147 65 30 14 7 3 1 0 0 0 0 0 0 8 177 255 135 63 30 18 55 255 195 102 52 38 103 182 151 159 255 84 4 0 0 0 0 0 0 0 0 0 0 1 2 8 12 20 37 73 143 254 232 32 27 53 112 225 255 42 13 22 48 103 213 255 27 1 0 0 0 0 0 0 0 0 0 0 0 0 0 0 0 0 0 0 0 0 0 0 0 0 0 0 0 0 0 0 0 0 0 0 0 0 1 11 230 255 127 59 27 13 13 111 255 167 80 38 19 10 11 80 255 173 82 38 18 9 5 4 40 255 194 93 42 19 9 5 2 1 0 0 0 0 0 0 0 0 0 0 0 0 0 0 0 0 0 0 0 0 0 0 0
0 0 0 0 0 0 0 0 0 0 0 0 0 0 0 0 0 0 0 1 1 3 8 20 46 99 204 255 42 2 0 0 0 0 0 0 0 0 0 0 0 0 0 0 0 0 0 0 0 0 0 0 0 0 5 106 255 154 73 33 14 10 78 255 172 84 40 18 8 4 2 1 0 0 0 0 0 0 0 0 0 0 0 0 0 0 0 0 0 0 0 0 0 0 0 0 0 0 0 1 2 5 13 31 68 148 255 128 6 0 0 0 0 0 0 0 0 0 0 0 0 0 0 0 0 0 0 0 0 0 0 0 0 0 0 0 0 0 0 0 0 0 0 0 0 0 0 0 1 17 255 255 125 57 26 11 10 93 255 166 82 39 18 8 4 2 1 0 0 0 0 0 0 0 0 0 0 0 0 0 0 0 0 0 0 0 0 0 0 0 0 0 0 10 201 255 123 55 27 36 255 190 100 51 26 14 11 28 255 255 172 80 39 24 20 29 59 109 233 242 13 1 0 0 1 2 4 10 23 52 114 233 255 24 1 0 0 0 0 0 0 0 0 0 0 0 0 0 0 6 116 255 154 110 104 126 70 32 40 71 126 214 166 30 30 57 115 216 159 27 31 65 136 255 239 18 9 11 12 11 8 9 88 255 163 78 37 17 8 4 2 1 0 0 0 0 0 0 0 0 0 0 0 0 0 0 0 0 0 0 0 0 0 0 0 0 0 0 0 1 3 6 16 36 80 167 255 92 5 0 0 0 0 0 0 0 0 0 0 0 0 0 0 0 0 0 2 35 255 209 103 47 21 9 18 255 255 130 61 28 12 5 3 2 10 193 255 138 65 30 13 6 15 254 255 138 64 29 17 56 255 168 85 42 21 14 59 255 245 134 66 32 18 21 68 157 176 128 31 20 37 81 171 255 93 4 0 0 0 0 0 0 0 0 0 0 0 0 0 0 1 2 5 12 27 61 134 255 255 255 117 53 23 10 5 2 1 0 0 0 0 0 0 2 52 255 197 95 43 18 8 3 1 1 0 0 0 0 1 19 255 245 118 55 27 26 160 172 92 50 32 29 31 42 78 137 147 83 37 15 6 3 1 0 0 0 0 0 0 4 76 255 167 78 35 17 26 255 225 115 57 31 45 203 142 108 113 188 255 37 2 0 0 0 0 0 0 0 0 0 0 1 3 5 10 19 39 78 150 255 100 20 30 63 133 255 255 20 12 26 59 128 255 248 11 0 0 0 0 0 0 0 0 0 0 0 0 0 0 0 0 0 0 0 0 0 0 0 0 0 0 0 0 0 0 0 0 0 0 0 0 5 95 255 155 72 33 14 9 52 255 192 95 45 20 9 6 43 255 211 102 46 20 9 4 2 18 255 246 117 53 23 9 4 2 1 0 0 0 0 0 0 0 0 0 0 0 0 0 0 0 0 0 0 0 0 0 0 0 0
0 0 0 0 0 0 0 0 0 0 0 0 0 0 0 0 0 0 0 0 0 1 3 10 26 58 123 250 255 19 1 0 0 0 0 0 0 0 0 0 0 0 0 0 0 0 0 0 0 0 0 0 0 2 49 255 190 91 42 18 8 38 255 206 103 48 22 9 3 1 1 0 0 0 0 0 0 0 0 0 0 0 0 0 0 0 0 0 0 0 0 0 0 0 0 0 0 0 0 0 1 2 6 16 39 88 185 255 59 3 0 0 0 0 0 0 0 0 0 0 0 0 0 0 0 0 0 0 0 0 0 0 0 0 0 0 0 0 0 0 0 0 0 0 0 0 0 0 7 157 255 154 73 33 13 7 45 255 196 97 46 21 9 3 1 1 0 0 0 0 0 0 0 0 0 0 0 0 0 0 0 0 0 0 0 0 0 0 0 0 0 0 4 84 255 164 76 34 22 112 255 125 59 27 13 7 13 172 255 194 99 48 23 13 11 19 47 78 146 255 97 5 0 0 0 1 2 4 12 30 67 141 255 195 9 0 0 0 0 0 0 0 0 0 0 0 0 0 3 57 255 196 106 96 104 137 120 28 22 37 74 138 255 65 19 32 69 136 255 65 21 38 78 157 255 95 8 4 4 4 5 42 255 198 97 45 20 8 3 1 1 0 0 0 0 0 0 0 0 0 0 0 0 0 0 0 0 0 0 0 0 0 0 0 0 0 0 0 0 0 1 3 7 20 46 98 198 255 43 2 0 0 0 0 0 0 0 0 0 0 0 0 0 0 0 1 14 255 255 126 60 27 11 10 110 255 155 75 35 15 6 2 1 5 85 255 167 80 37 16 6 8 108 255 168 80 37 17 26 255 212 106 49 23 11 28 255 239 138 73 37 17 10 25 185 243 246 255 59 14 21 47 101 205 255 48 2 0 0 0 0 0 0 0 0 0 0 0 0 0 0 1 2 5 14 36 83 172 242 147 70 30 12 4 2 1 0 0 0 0 0 0 1 26 255 239 118 55 24 9 3 1 0 0 0 0 0 0 8 164 255 149 69 31 18 62 255 131 78 40 21 17 18 25 42 59 62 43 20 7 3 1 0 0 0 0 0 0 2 39 255 209 101 46 20 14 108 255 141 67 32 24 99 217 122 82 81 122 246 255 15 1 0 0 0 0 0 0 0 0 0 0 1 2 4 9 20 43 90 176 255 46 18 36 76 153 255 101 11 14 34 76 166 255 102 5 0 0 0 0 0 0 0 0 0 0 0 0 0 0 0 0 0 0 0 0 0 0 0 0 0 0 0 0 0 0 0 0 0 0 2 48 255 196 93 42 18 8 23 255 229 116 55 25 10 5 21 255 255 128 60 26 10 4 2 8 153 255 150 69 31 12 4 2 1 0 0 0 0 0 0 0 0 0 0 0 0 0 0 0 0 0 0 0 0 0 0 0 0 0
0 0 0 0 0 0 0 0 0 0 0 0 0 0 0 0 0 0 0 0 0 0 1 5 14 34 73 153 255 171 8 0 0 0 0 0 0 0 0 0 0 0 0 0 0 0 0 0 0 0 0 0 1 21 255 234 117 55 24 10 18 255 255 129 62 28 11 4 1 0 0 0 0 0 0 0 0 0 0 0 0 0 0 0 0 0 0 0 0 0 0 0 0 0 0 0 0 0 0 0 0 1 3 8 23 54 114 226 255 28 1 0 0 0 0 0 0 0 0 0 0 0 0 0 0 0 0 0 0 0 0 0 0 0 0 0 0 0 0 0 0 0 0 0 0 0 0 3 71 255 186 92 43 18 7 21 255 245 123 58 27 11 4 1 0 0 0 0 0 0 0 0 0 0 0 0 0 0 0 0 0 0 0 0 0 0 0 0 0 0 0 2 40 255 205 103 49 23 51 255 162 84 37 14 6 7 81 255 198 108 57 28 12 6 5 13 39 60 97 193 255 48 2 0 0 0 1 2 6 17 41 84 170 255 78 4 0 0 0 0 0 0 0 0 0 0 0 1 27 255 233 123 78 99 130 167 237 47 14 20 45 97 187 255 28 19 44 96 194 255 32 23 47 96 190 255 42 3 1 2 17 255 248 124 59 26 10 3 1 0 0 0 0 0 0 0 0 0 0 0 0 0 0 0 0 0 0 0 0 0 0 0 0 0 0 0 0 0 0 0 0 1 3 10 26 58 121 245 255 20 1 0 0 0 0 0 0 0 0 0 0 0 0 0 0 6 115 255 156 75 35 14 8 51 255 189 95 45 19 7 2 1 2 44 255 208 102 48 21 8 5 51 255 197 101 48 21 15 120 255 139 68 29 12 14 160 255 149 77 40 20 9 10 87 255 232 219 233 255 24 13 28 60 125 248 255 24 1 0 0 0 0 0 0 0 0 0 0 0 0 0 0 1 2 7 21 49 84 105 76 41 17 6 2 1 0 0 0 0 0 0 0 11 248 255 146 70 32 13 4 1 0 0 0 0 0 0 4 73 255 179 89 42 19 27 255 192 116 77 36 14 9 9 13 20 24 24 19 10 3 1 0 0 0 0 0 0 1 18 255 255 129 61 27 13 47 255 175 89 42 20 42 255 162 113 72 63 80 153 255 135 6 0 0 0 0 0 0 0 0 0 0 0 1 2 4 10 24 56 118 237 227 23 21 45 93 185 255 46 9 20 47 101 198 255 48 2 0 0 0 0 0 0 0 0 0 0 0 0 0 0 0 0 0 0 0 0 0 0 0 0 0 0 0 0 0 0 0 0 1 24 255 245 122 57 24 9 11 157 255 143 70 32 13 5 10 161 255 157 77 36 14 5 2 4 69 255 183 91 43 17 6 2 1 0 0 0 0 0 0 0 0 0 0 0 0 0 0 0 0 0 0 0 0 0 0 0 0 0 0
0 0 0 0 0 0 0 0 0 0 0 0 0 0 0 0 0 0 0 0 0 0 1 2 7 20 45 92 181 255 78 4 0 0 0 0 0 0 0 0 0 0 0 0 0 0 0 0 0 0 0 0 8 172 255 144 72 34 14 10 111 255 157 80 39 16 5 2 1 0 0 0 0 0 0 0 0 0 0 0 0 0 0 0 0 0 0 0 0 0 0 0 0 0 0 0 0 0 0 0 0 0 1 4 13 33 69 139 255 255 12 1 0 0 0 0 0 0 0 0 0 0 0 0 0 0 0 0 0 0 0 0 0 0 0 0 0 0 0 0 0 0 0 0 0 0 2 35 255 218 113 56 26 10 11 139 255 152 76 36 15 5 2 0 0 0 0 0 0 0 0 0 0 0 0 0 0 0 0 0 0 0 0 0 0 0 0 0 0 0 1 17 255 251 127 65 33 30 240 225 114 59 24 7 4 42 255 218 118 61 33 15 6 3 3 8 31 50 68 124 245 255 25 1 0 0 0 1 3 9 24 52 104 204 255 37 2 0 0 0 0 0 0 0 0 0 0 11 245 255 142 78 69 133 186 199 221 164 16 11 30 71 134 255 103 17 30 71 137 255 135 20 29 60 122 242 255 17 1 7 124 255 153 77 37 14 5 1 0 0 0 0 0 0 0 0 0 0 0 0 0 0 0 0 0 0 0 0 0 0 0 0 0 0 0 0 0 0 0 0 0 0 1 5 14 35 74 151 255 163 8 0 0 0 0 0 0 0 0 0 0 0 0 0 3 53 255 189 95 46 20 8 23 255 232 119 59 27 10 3 1 1 21 255 253 129 63 29 11 4 23 255 235 120 61 29 15 58 255 181 94 45 18 10 72 255 177 92 45 21 10 6 40 255 212 172 158 181 255 116 13 16 37 75 151 255 227 10 0 0 0 0 0 0 0 0 0 0 0 0 0 0 0 1 3 11 26 38 43 36 22 9 3 1 0 0 0 0 0 0 0 5 109 255 172 87 43 18 6 2 1 0 0 0 0 0 2 38 255 217 109 55 26 17 114 255 141 110 97 37 9 4 4 6 8 9 9 7 4 1 0 0 0 0 0 0 0 8 169 255 158 79 38 16 23 255 229 115 58 27 22 162 239 139 115 80 59 57 97 191 255 65 3 0 0 0 0 0 0 0 0 0 0 0 1 1 4 13 36 79 152 255 95 17 27 58 118 235 255 21 11 29 61 121 239 255 23 1 0 0 0 0 0 0 0 0 0 0 0 0 0 0 0 0 0 0 0 0 0 0 0 0 0 0 0 0 0 0 0 11 244 255 150 75 36 14 8 72 255 179 89 43 18 6 6 74 255 182 94 47 21 7 2 2 33 255 218 112 56 26 9 3 1 0 0 0 0 0 0 0 0 0 0 0 0 0 0 0 0 0 0 0 0 0 0 0 0 0 0 0
0 0 0 0 0 0 0 0 0 0 0 0 0 0 0 0 0 0 0 0 0 0 0 1 3 10 28 56 109 215 255 42 2 0 0 0 0 0 0 0 0 0 0 0 0 0 0 0 0 0 0 4 77 255 173 87 45 21 10 53 255 188 97 51 24 8 2 1 0 0 0 0 0 0 0 0 0 0 0 0 0 0 0 0 0 0 0 0 0 0 0 0 0 0 0 0 0 0 0 0 0 0 0 2 6 19 43 84 168 255 123 6 0 0 0 0 0 0 0 0 0 0 0 0 0 0 0 0 0 0 0 0 0 0 0 0 0 0 0 0 0 0 0 0 0 1 16 255 255 132 67 34 15 8 62 255 178 93 48 22 7 2 1 0 0 0 0 0 0 0 0 0 0 0 0 0 0 0 0 0 0 0 0 0 0 0 0 0 0 0 7 142 255 152 77 42 29 128 255 146 81 44 15 5 20 255 255 134 69 35 17 7 2 1 1 5 23 44 51 79 150 255 255 12 0 0 0 0 1 4 14 32 63 126 255 255 17 1 0 0 0 0 0 0 0 0 5 102 255 169 86 56 88 197 207 185 177 255 63 9 20 57 98 171 255 49 24 57 97 171 255 64 20 39 76 150 255 124 9 54 255 182 94 49 22 7 2 1 0 0 0 0 0 0 0 0 0 0 0 0 0 0 0 0 0 0 0 0 0 0 0 0 0 0 0 0 0 0 0 0 0 0 1 2 7 21 46 91 177 255 71 3 0 0 0 0 0 0 0 0 0 0 0 1 26 255 230 116 59 29 11 12 156 255 142 73 37 15 5 1 1 9 200 255 152 78 39 17 6 10 177 255 144 73 37 18 32 255 227 118 64 31 12 37 255 212 112 58 26 11 5 19 255 253 150 116 109 130 188 255 57 11 22 46 89 173 255 94 5 0 0 0 0 0 0 0 0 0 0 0 0 0 0 0 1 5 12 16 16 15 10 4 1 0 0 0 0 0 0 0 3 55 255 200 102 53 26 10 3 1 0 0 0 0 0 1 18 255 255 133 66 34 18 58 255 178 111 123 157 57 8 2 1 2 3 3 3 2 1 0 0 0 0 0 0 0 4 75 255 184 94 49 24 16 131 255 144 75 40 21 74 255 159 121 132 126 74 46 63 117 226 255 33 1 0 0 0 0 0 0 0 0 0 0 0 1 2 7 24 55 100 187 255 47 18 38 74 145 255 127 13 17 38 73 147 255 201 9 0 0 0 0 0 0 0 0 0 0 0 0 0 0 0 0 0 0 0 0 0 0 0 0 0 0 0 0 0 0 5 106 255 175 89 47 22 9 37 255 216 112 57 27 10 5 39 255 216 110 57 29 11 3 2 14 255 255 133 68 35 15 4 1 0 0 0 0 0 0 0 0 0 0 0 0 0 0 0 0 0 0 0 0 0 0 0 0 0 0 0 0
0 0 0 0 0 0 0 0 0 0 0 0 0 0 0 0 0 0 0 0 0 0 0 0 1 5 15 33 64 129 255 255 21 1 0 0 0 0 0 0 0 0 0 0 0 0 0 0 0 0 2 40 255 210 104 53 27 12 26 255 227 115 59 32 13 4 1 0 0 0 0 0 0 0 0 0 0 0 0 0 0 0 0 0 0 0 0 0 0 0 0 0 0 0 0 0 0 0 0 0 0 0 0 1 3 10 26 51 99 195 255 62 3 0 0 0 0 0 0 0 0 0 0 0 0 0 0 0 0 0 0 0 0 0 0 0 0 0 0 0 0 0 0 0 0 7 149 255 158 77 40 20 9 32 255 215 108 56 30 12 4 1 0 0 0 0 0 0 0 0 0 0 0 0 0 0 0 0 0 0 0 0 0 0 0 0 0 0 0 3 62 255 179 90 48 31 79 255 185 96 59 32 9 10 149 255 152 78 41 19 8 3 1 0 1 3 15 38 40 51 88 173 255 122 6 0 0 0 0 2 7 19 39 75 154 255 157 7 0 0 0 0 0 0 0 2 48 255 195 100 54 53 166 197 170 146 142 202 255 29 16 48 72 116 230 255 38 50 69 111 213 255 37 26 49 92 179 255 107 255 220 111 58 30 12 4 1 0 0 0 0 0 0 0 0 0 0 0 0 0 0 0 0 0 0 0 0 0 0 0 0 0 0 0 0 0 0 0 0 0 0 0 0 1 3 11 28 54 105 211 255 35 2 0 0 0 0 0 0 0 0 0 0 11 246 255 140 69 36 17 9 69 255 171 86 45 22 8 2 1 4 85 255 176 88 47 24 9 7 76 255 170 85 44 23 21 212 255 140 75 45 21 21 255 255 131 69 36 15 5 9 136 255 158 99 78 76 90 124 228 255 30 13 28 52 100 198 255 46 2 0 0 0 0 0 0 0 0 0 0 0 0 0 0 1 2 4 5 6 5 4 1 0 0 0 0 0 0 0 1 29 255 235 119 60 31 14 5 1 0 0 0 0 0 0 8 160 255 155 78 41 21 35 255 228 120 98 160 213 194 15 1 0 1 1 1 1 1 0 0 0 0 0 0 0 2 37 255 211 108 56 30 17 70 255 183 92 50 28 45 255 202 115 115 166 223 170 51 43 70 134 255 255 15 1 0 0 0 0 0 0 0 0 0 0 0 1 4 14 38 66 119 238 255 27 25 47 90 178 255 62 12 22 44 86 170 255 85 4 0 0 0 0 0 0 0 0 0 0 0 0 0 0 0 0 0 0 0 0 0 0 0 0 0 0 0 0 2 52 255 199 102 53 28 13 19 255 255 130 68 36 15 6 18 255 255 131 66 34 16 5 2 6 109 255 155 78 41 20 7 2 1 0 0 0 0 0 0 0 0 0 0 0 0 0 0 0 0 0 0 0 0 0 0 0 0 0 0 0 0
0 0 0 0 0 0 0 0 0 0 0 0 0 0 0 0 0 0 0 0 0 0 0 0 1 2 7 19 37 73 149 255 202 9 0 0 0 0 0 0 0 0 0 0 0 0 0 0 0 1 20 255 254 125 61 31 15 15 171 255 136 67 36 18 6 2 0 0 0 0 0 0 0 0 0 0 0 0 0 0 0 0 0 0 0 0 0 0 0 0 0 0 0 0 0 0 0 0 0 0 0 0 0 0 1 5 14 30 57 113 227 255 33 1 0 0 0 0 0 0 0 0 0 0 0 0 0 0 0 0 0 0 0 0 0 0 0 0 0 0 0 0 0 0 3 70 255 181 90 45 23 11 17 255 255 130 63 33 16 6 2 0 0 0 0 0 0 0 0 0 0 0 0 0 0 0 0 0 0 0 0 0 0 0 0 0 0 0 1 28 255 211 105 53 31 51 255 220 114 64 43 22 9 67 255 172 87 45 23 10 3 1 0 0 0 2 9 29 31 33 51 98 197 255 60 3 0 0 0 1 3 10 22 45 89 181 255 71 3 0 0 0 0 0 1 22 255 232 115 58 39 87 225 155 122 107 105 136 255 181 22 43 56 77 143 255 216 62 52 71 131 255 190 28 31 55 109 244 255 255 135 65 35 17 6 2 0 0 0 0 0 0 0 0 0 0 0 0 0 0 0 0 0 0 0 0 0 0 0 0 0 0 0 0 0 0 0 0 0 0 0 0 0 0 1 5 15 31 61 126 255 255 15 1 0 0 0 0 0 0 0 0 5 108 255 165 80 41 20 10 34 255 205 102 51 27 12 4 1 2 40 255 200 101 51 27 12 6 38 255 202 100 50 26 18 102 255 166 84 48 30 20 133 255 154 77 41 21 8 5 62 255 178 95 64 53 53 61 79 139 255 202 17 16 30 57 116 238 255 23 1 0 0 0 0 0 0 0 0 0 0 0 0 0 0 1 1 2 2 2 1 0 0 0 0 0 0 0 1 12 255 255 138 68 34 17 7 2 1 0 0 0 0 0 3 67 255 175 88 45 24 23 221 255 141 83 104 183 208 255 72 4 0 0 0 0 0 0 0 0 0 0 0 0 1 15 255 252 124 61 32 18 40 255 219 111 58 34 36 255 255 130 87 123 185 230 255 119 35 42 76 156 255 132 6 0 0 0 0 0 0 0 0 0 0 0 0 2 8 25 43 73 144 255 140 23 30 54 108 218 255 34 13 26 50 98 199 255 41 2 0 0 0 0 0 0 0 0 0 0 0 0 0 0 0 0 0 0 0 0 0 0 0 0 0 0 1 25 255 231 115 57 30 15 13 130 255 151 75 40 21 8 9 131 255 149 75 39 19 8 2 3 52 255 185 90 45 23 10 3 1 0 0 0 0 0 0 0 0 0 0 0 0 0 0 0 0 0 0 0 0 0 0 0 0 0 0 0 0 0
0 0 0 0 0 0 0 0 0 0 0 0 0 0 0 0 0 0 0 0 0 0 0 0 0 1 3 9 20 41 83 172 255 93 4 0 0 0 0 0 0 0 0 0 0 0 0 0 0 9 195 255 147 71 35 17 11 81 255 164 78 39 20 9 3 1 0 0 0 0 0 0 0 0 0 0 0 0 0 0 0 0 0 0 0 0 0 0 0 0 0 0 0 0 0 0 0 0 0 0 0 0 0 0 1 2 6 16 31 63 132 255 255 15 1 0 0 0 0 0 0 0 0 0 0 0 0 0 0 0 0 0 0 0 0 0 0 0 0 0 0 0 0 2 36 255 213 103 50 25 12 11 119 255 158 75 37 18 8 3 1 0 0 0 0 0 0 0 0 0 0 0 0 0 0 0 0 0 0 0 0 0 0 0 0 0 0 0 11 229 255 125 59 31 32 212 253 129 67 41 30 15 37 255 207 100 48 25 11 4 1 0 0 0 0 1 5 18 21 20 29 54 112 223 255 29 1 0 0 0 1 4 11 25 50 103 209 255 35 2 0 0 0 0 9 199 255 136 64 34 43 212 169 114 85 76 76 88 159 255 128 47 45 52 88 180 255 226 53 47 79 160 255 105 24 33 65 139 243 175 82 38 19 8 3 1 0 0 0 0 0 0 0 0 0 0 0 0 0 0 0 0 0 0 0 0 0 0 0 0 0 0 0 0 0 0 0 0 0 0 0 0 0 0 1 2 7 16 34 71 148 255 121 6 0 0 0 0 0 0 0 2 54 255 193 94 45 23 11 17 252 255 122 59 29 14 5 2 1 18 255 242 116 56 28 14 6 19 255 251 119 57 28 17 54 255 193 97 49 29 22 78 255 184 89 44 23 11 5 31 255 213 104 56 40 35 37 42 49 81 160 255 93 12 16 32 66 141 255 212 10 0 0 0 0 0 0 0 0 0 0 0 0 0 0 0 0 0 0 0 0 0 0 0 0 0 0 0 5 105 255 158 76 37 18 8 3 1 0 0 0 0 0 1 31 255 203 99 48 25 19 102 255 165 85 65 126 157 161 196 255 33 2 0 0 0 0 0 0 0 0 0 0 0 6 117 255 146 69 34 18 23 240 255 129 65 36 31 160 255 157 83 75 135 158 168 204 255 61 27 43 87 180 255 60 3 0 0 0 0 0 0 0 0 0 0 0 1 4 14 27 45 86 175 255 78 21 32 63 130 255 227 18 14 27 55 117 242 255 18 1 0 0 0 0 0 0 0 0 0 0 0 0 0 0 0 0 0 0 0 0 0 0 0 0 0 11 233 255 135 64 31 16 11 65 255 182 87 43 23 11 7 61 255 175 84 42 21 9 3 2 27 255 228 109 51 25 12 4 1 0 0 0 0 0 0 0 0 0 0 0 0 0 0 0 0 0 0 0 0 0 0 0 0 0 0 0 0 0 0
0 0 0 0 0 0 0 0 0 0 0 0 0 0 0 0 0 0 0 0 0 0 0 0 0 0 1 4 10 21 45 97 202 255 48 2 0 0 0 0 0 0 0 0 0 0 0 0 4 86 255 173 82 39 18 10 42 255 201 96 44 21 10 4 1 0 0 0 0 0 0 0 0 0 0 0 0 0 0 0 0 0 0 0 0 0 0 0 0 0 0 0 0 0 0 0 0 0 0 0 0 0 0 0 0 1 3 7 16 34 72 154 255 137 6 0 0 0 0 0 0 0 0 0 0 0 0 0 0 0 0 0 0 0 0 0 0 0 0 0 0 0 1 16 255 255 125 57 27 13 8 58 255 186 90 42 20 9 3 1 0 0 0 0 0 0 0 0 0 0 0 0 0 0 0 0 0 0 0 0 0 0 0 0 0 0 0 5 95 255 155 71 33 22 94 255 148 73 39 25 19 25 255 255 124 56 26 12 5 2 1 0 0 0 0 1 2 8 11 10 15 29 60 128 255 233 11 1 0 0 1 2 5 12 27 57 122 255 255 16 1 0 0 4 83 255 165 77 36 25 99 235 123 82 59 55 54 57 97 209 255 175 44 36 53 104 199 255 132 38 48 95 196 255 58 21 37 70 101 81 46 21 9 3 1 0 0 0 0 0 0 0 0 0 0 0 0 0 0 0 0 0 0 0 0 0 0 0 0 0 0 0 0 0 0 0 0 0 0 0 0 0 0 0 0 1 3 8 18 39 83 178 255 56 3 0 0 0 0 0 1 28 255 230 111 52 24 11 11 115 255 153 70 33 15 6 2 1 8 158 255 143 65 30 14 6 10 157 255 149 68 31 16 28 255 229 112 54 28 18 49 255 218 107 50 25 12 5 15 255 255 127 59 32 24 22 24 27 30 46 93 193 255 48 10 16 36 79 167 255 87 4 0 0 0 0 0 0 0 0 0 0 0 0 0 0 0 0 0 0 0 0 0 0 0 0 0 2 50 255 186 88 41 19 9 3 1 0 0 0 0 0 1 13 255 255 120 55 26 15 50 255 187 95 53 62 145 119 110 135 255 255 14 1 0 0 0 0 0 0 0 0 0 3 53 255 175 82 38 18 14 102 255 150 72 37 25 89 255 178 91 56 76 134 118 109 135 215 209 29 24 48 103 215 255 28 1 0 0 0 0 0 0 0 0 0 0 0 2 6 14 26 50 103 212 255 44 20 36 74 155 255 94 12 14 30 65 141 255 153 7 0 0 0 0 0 0 0 0 0 0 0 0 0 0 0 0 0 0 0 0 0 0 0 0 5 101 255 162 75 35 16 9 32 255 216 106 49 23 11 6 31 255 215 102 47 22 10 4 2 11 233 255 135 62 28 13 5 2 1 0 0 0 0 0 0 0 0 0 0 0 0 0 0 0 0 0 0 0 0 0 0 0 0 0 0 0 0 0 0
0 0 0 0 0 0 0 0 0 0 0 0 0 0 0 0 0 0 0 0 0 0 0 0 0 0 0 1 4 10 24 53 117 238 255 22 1 0 0 0 0 0 0 0 0 0 0 2 42 255 202 98 45 20 9 19 255 248 121 55 24 10 4 1 0 0 0 0 0 0 0 0 0 0 0 0 0 0 0 0 0 0 0 0 0 0 0 0 0 0 0 0 0 0 0 0 0 0 0 0 0 0 0 0 0 0 1 3 7 17 39 86 183 255 64 3 0 0 0 0 0 0 0 0 0 0 0 0 0 0 0 0 0 0 0 0 0 0 0 0 0 0 6 129 255 148 69 31 13 7 29 255 223 108 50 23 10 4 1 0 0 0 0 0 0 0 0 0 0 0 0 0 0 0 0 0 0 0 0 0 0 0 0 0 0 0 2 46 255 192 90 40 20 42 255 177 87 41 21 14 18 173 255 156 71 31 13 5 2 1 0 0 0 0 0 0 1 3 4 4 7 15 32 71 154 255 90 5 0 0 0 1 2 5 13 31 68 152 255 141 7 0 2 39 255 198 95 43 21 41 255 156 92 61 43 40 38 38 59 122 239 255 132 30 32 57 106 181 255 65 31 56 117 229 255 31 20 31 39 34 23 11 4 1 0 0 0 0 0 0 0 0 0 0 0 0 0 0 0 0 0 0 0 0 0 0 0 0 0 0 0 0 0 0 0 0 0 0 0 0 0 0 0 0 0 0 1 3 8 20 47 105 220 255 27 1 0 0 0 1 13 255 255 136 62 28 12 8 55 255 188 89 40 17 7 3 1 4 70 255 174 82 36 15 6 6 73 255 180 85 38 17 16 150 255 136 63 30 16 27 255 254 126 60 28 12 5 8 124 255 157 73 34 17 12 11 13 15 16 26 53 116 238 255 23 9 19 43 94 195 255 40 2 0 0 0 0 0 0 0 0 0 0 0 0 0 0 0 0 0 0 0 0 0 0 0 1 24 255 230 109 49 22 9 4 1 0 0 0 0 0 0 6 117 255 153 69 30 14 23 255 228 110 54 36 75 137 93 75 88 155 255 112 6 0 0 0 0 0 0 0 0 1 27 255 223 104 46 20 11 46 255 179 86 40 22 46 255 203 103 53 42 94 118 87 71 86 137 255 79 17 26 57 127 255 239 11 1 0 0 0 0 0 0 0 0 0 0 1 2 6 14 28 60 127 254 229 24 20 41 90 185 255 44 9 16 36 80 173 255 66 3 0 0 0 0 0 0 0 0 0 0 0 0 0 0 0 0 0 0 0 0 0 0 2 49 255 195 92 42 18 8 14 198 255 127 59 27 12 5 14 241 255 128 58 25 11 4 2 5 95 255 161 76 34 14 6 2 1 0 0 0 0 0 0 0 0 0 0 0 0 0 0 0 0 0 0 0 0 0 0 0 0 0 0 0 0 0 0 0
0 0 0 0 0 0 0 0 0 0 0 0 0 0 0 0 0 0 0 0 0 0 0 0 0 0 0 1 2 4 12 29 65 140 255 189 9 0 0 0 0 0 0 0 0 0 1 19 255 245 119 55 24 10 10 110 255 146 69 31 12 5 2 1 0 0 0 0 0 0 0 0 0 0 0 0 0 0 0 0 0 0 0 0 0 0 0 0 0 0 0 0 0 0 0 0 0 0 0 0 0 0 0 0 0 0 0 1 3 8 21 48 106 218 255 31 1 0 0 0 0 0 0 0 0 0 0 0 0 0 0 0 0 0 0 0 0 0 0 0 0 3 58 255 179 85 38 16 7 13 210 255 134 61 28 11 4 1 0 0 0 0 0 0 0 0 0 0 0 0 0 0 0 0 0 0 0 0 0 0 0 0 0 0 0 1 23 255 239 115 52 23 20 170 235 113 52 23 11 11 89 255 182 89 41 17 6 2 1 0 0 0 0 0 0 0 0 1 1 2 3 7 17 40 90 189 255 42 2 0 0 0 1 2 6 16 39 87 181 255 62 4 17 255 245 118 54 24 19 130 229 115 70 48 32 28 26 24 36 68 127 214 255 71 21 30 56 108 204 219 34 33 67 138 255 127 16 12 14 13 9 4 2 1 0 0 0 0 0 0 0 0 0 0 0 0 0 0 0 0 0 0 0 0 0 0 0 0 0 0 0 0 0 0 0 0 0 0 0 0 0 0 0 0 0 0 0 1 4 10 26 60 132 255 255 11 0 0 0 6 131 255 164 77 34 14 7 25 255 224 112 51 22 8 3 1 2 34 255 210 102 46 19 7 4 35 255 211 105 49 21 12 66 255 170 80 36 16 15 131 255 150 72 33 14 6 5 61 255 190 91 42 18 8 5 5 5 6 8 14 30 67 143 255 145 11 10 23 53 115 242 255 17 1 0 0 0 0 0 0 0 0 0 0 0 0 0 0 0 0 0 0 0 0 0 0 10 203 255 139 63 27 11 4 1 0 0 0 0 0 0 3 58 255 189 90 39 16 13 107 255 140 65 32 32 121 117 79 54 58 93 184 255 51 2 0 0 0 0 0 0 1 12 255 255 136 60 25 11 20 255 229 110 50 23 23 190 243 123 59 32 41 139 106 68 48 55 90 169 255 33 15 32 73 159 255 96 5 0 0 0 0 0 0 0 0 0 0 0 1 3 6 15 34 73 149 255 92 15 23 51 112 236 255 20 8 19 46 102 210 255 31 1 0 0 0 0 0 0 0 0 0 0 0 0 0 0 0 0 0 0 0 0 1 22 255 234 115 52 22 9 8 80 255 153 72 33 14 5 7 100 255 158 74 33 13 5 2 3 44 255 192 93 43 18 7 2 1 0 0 0 0 0 0 0 0 0 0 0 0 0 0 0 0 0 0 0 0 0 0 0 0 0 0 0 0 0 0 0 0
0 0 0 0 0 0 0 0 0 0 0 0 0 0 0 0 0 0 0 0 0 0 0 0 0 0 0 0 1 2 5 15 37 81 171 255 84 4 0 0 0 0 0 0 0 0 8 166 255 147 68 30 12 7 49 255 179 87 40 17 6 2 1 0 0 0 0 0 0 0 0 0 0 0 0 0 0 0 0 0 0 0 0 0 0 0 0 0 0 0 0 0 0 0 0 0 0 0 0 0 0 0 0 0 0 0 0 0 1 4 10 27 61 130 255 255 13 1 0 0 0 0 0 0 0 0 0 0 0 0 0 0 0 0 0 0 0 0 0 0 1 28 255 221 107 49 21 8 7 88 255 163 78 35 14 5 2 1 0 0 0 0 0 0 0 0 0 0 0 0 0 0 0 0 0 0 0 0 0 0 0 0 0 0 0 10 213 255 145 67 30 16 67 255 143 71 31 12 7 44 255 210 105 51 22 8 3 1 0 0 0 0 0 0 0 0 0 0 0 1 1 3 8 22 52 115 243 255 20 1 0 0 0 1 3 8 21 50 107 216 255 40 137 255 148 68 31 15 52 255 144 86 59 40 23 18 15 14 21 37 67 125 220 255 35 17 30 65 135 255 93 25 40 83 168 255 52 7 5 4 3 2 1 0 0 0 0 0 0 0 0 0 0 0 0 0 0 0 0 0 0 0 0 0 0 0 0 0 0 0 0 0 0 0 0 0 0 0 0 0 0 0 0 0 0 0 0 0 1 4 14 35 78 166 255 106 5 0 3 65 255 195 95 44 18 7 11 160 255 135 65 29 11 4 1 1 14 255 255 127 59 26 10 4 14 252 255 126 60 27 12 31 255 208 104 48 20 11 60 255 178 88 41 18 7 4 30 255 226 113 53 23 9 4 2 2 2 2 3 6 16 39 85 173 255 65 8 12 30 67 147 255 142 7 0 0 0 0 0 0 0 0 0 0 0 0 0 0 0 0 0 0 0 0 0 4 84 255 166 80 36 14 5 2 1 0 0 0 0 0 1 30 255 231 113 52 22 10 46 255 171 85 39 21 48 207 115 77 44 40 57 111 229 255 25 1 0 0 0 0 0 6 117 255 168 80 35 14 11 113 255 141 66 29 16 74 255 147 73 35 23 63 187 114 62 35 37 60 116 254 143 15 18 42 94 193 255 45 2 0 0 0 0 0 0 0 0 0 0 0 1 3 7 19 42 90 181 255 41 14 30 67 146 255 122 10 10 26 59 127 255 248 12 1 0 0 0 0 0 0 0 0 0 0 0 0 0 0 0 0 0 0 0 9 182 255 140 66 29 11 6 38 255 195 93 42 18 7 5 47 255 192 93 43 18 6 2 1 19 255 237 116 53 23 9 3 1 0 0 0 0 0 0 0 0 0 0 0 0 0 0 0 0 0 0 0 0 0 0 0 0 0 0 0 0 0 0 0 0 0
0 0 0 0 0 0 0 0 0 0 0 0 0 0 0 0 0 0 0 0 0 0 0 0 0 0 0 0 0 1 2 7 20 47 102 208 255 44 2 0 0 0 0 0 0 4 72 255 178 86 40 16 7 21 255 226 112 52 23 8 3 1 0 0 0 0 0 0 0 0 0 0 0 0 0 0 0 0 0 0 0 0 0 0 0 0 0 0 0 0 0 0 0 0 0 0 0 0 0 0 0 0 0 0 0 0 0 0 0 1 5 14 35 76 160 255 113 5 0 0 0 0 0 0 0 0 0 0 0 0 0 0 0 0 0 0 0 0 0 1 11 247 255 135 63 28 11 6 42 255 198 98 46 20 7 2 1 0 0 0 0 0 0 0 0 0 0 0 0 0 0 0 0 0 0 0 0 0 0 0 0 0 0 0 4 92 255 173 85 40 18 31 255 192 95 45 18 7 19 255 246 127 61 29 11 4 1 0 0 0 0 0 0 0 0 0 0 0 0 0 0 1 4 11 31 69 149 255 167 8 0 0 0 0 1 3 11 28 62 132 255 255 255 182 88 41 18 24 255 208 106 70 55 36 16 9 7 7 10 19 35 71 140 255 146 16 16 41 92 173 255 44 26 51 107 215 255 19 2 1 1 0 0 0 0 0 0 0 0 0 0 0 0 0 0 0 0 0 0 0 0 0 0 0 0 0 0 0 0 0 0 0 0 0 0 0 0 0 0 0 0 0 0 0 0 0 0 0 1 2 7 19 46 98 195 255 49 4 33 255 226 115 55 25 9 7 65 255 165 80 38 16 5 2 1 6 122 255 156 75 34 14 5 7 105 255 153 74 35 15 15 174 255 129 63 29 12 30 255 219 110 52 23 9 3 13 241 255 136 66 31 12 4 1 1 1 1 1 1 3 8 22 51 106 215 255 33 7 16 40 87 180 255 65 3 0 0 0 0 0 0 0 0 0 0 0 0 0 0 0 0 0 0 0 2 41 255 201 98 47 20 7 2 1 0 0 0 0 0 1 14 255 255 139 66 30 13 21 255 227 109 53 24 21 138 197 143 101 42 28 36 67 141 255 235 11 0 0 0 0 3 58 255 196 98 47 20 10 52 255 179 88 41 18 34 255 185 94 45 21 26 174 175 148 78 29 26 43 81 158 255 61 13 24 55 117 239 255 21 1 0 0 0 0 0 0 0 0 0 0 0 1 3 9 24 55 115 239 215 19 17 41 89 176 255 54 7 14 34 75 157 255 97 5 0 0 0 0 0 0 0 0 0 0 0 0 0 0 0 0 0 0 4 75 255 170 82 38 16 6 17 255 253 123 57 24 9 4 21 255 235 117 55 25 9 3 1 8 149 255 144 68 31 12 4 1 0 0 0 0 0 0 0 0 0 0 0 0 0 0 0 0 0 0 0 0 0 0 0 0 0 0 0 0 0 0 0 0 0 0
0 0 0 0 0 0 0 0 0 0 0 0 0 0 0 0 0 0 0 0 0 0 0 0 0 0 0 0 0 0 1 3 10 28 60 125 250 255 21 1 0 0 0 0 2 34 255 210 106 51 23 9 10 126 255 138 68 32 12 4 1 0 0 0 0 0 0 0 0 0 0 0 0 0 0 0 0 0 0 0 0 0 0 0 0 0 0 0 0 0 0 0 0 0 0 0 0 0 0 0 0 0 0 0 0 0 0 0 0 1 2 7 20 45 95 191 255 54 3 0 0 0 0 0 0 0 0 0 0 0 0 0 0 0 0 0 0 0 0 5 103 255 164 80 38 15 6 18 255 243 121 59 27 10 3 1 0 0 0 0 0 0 0 0 0 0 0 0 0 0 0 0 0 0 0 0 0 0 0 0 0 0 0 2 45 255 202 101 50 24 18 149 255 126 63 30 10 10 121 255 147 73 35 15 5 2 0 0 0 0 0 0 0 0 0 0 0 0 0 0 0 0 2 6 17 42 88 175 255 69 3 0 0 0 0 1 5 15 37 81 177 255 255 115 53 24 15 106 255 138 80 65 60 33 10 4 3 3 4 9 18 42 86 160 255 57 12 26 62 117 238 178 26 33 67 136 255 102 6 1 0 0 0 0 0 0 0 0 0 0 0 0 0 0 0 0 0 0 0 0 0 0 0 0 0 0 0 0 0 0 0 0 0 0 0 0 0 0 0 0 0 0 0 0 0 0 0 0 0 1 3 10 27 57 116 232 255 42 255 255 134 66 32 13 6 30 255 205 101 49 22 8 2 1 3 57 255 187 92 44 19 7 4 51 255 190 92 44 20 11 74 255 160 79 39 17 17 200 255 137 67 31 12 4 6 104 255 161 79 39 17 6 2 1 0 0 0 0 0 1 4 12 30 64 133 255 235 15 9 23 52 108 219 255 34 1 0 0 0 0 0 0 0 0 0 0 0 0 0 0 0 0 0 1 18 255 247 122 58 27 10 3 1 0 0 0 0 0 0 6 131 255 164 81 39 17 13 131 255 143 69 33 18 61 255 166 179 182 61 21 22 41 84 169 255 105 5 0 0 1 30 255 232 116 57 27 12 26 255 226 113 56 26 20 180 255 121 60 28 16 72 255 165 180 156 34 19 31 58 107 209 255 30 15 33 69 145 255 181 9 0 0 0 0 0 0 0 0 0 0 0 0 1 4 13 34 72 145 255 88 14 25 54 108 220 255 26 8 19 45 94 190 255 45 2 0 0 0 0 0 0 0 0 0 0 0 0 0 0 0 0 2 35 255 203 102 48 22 8 9 132 255 153 75 35 13 4 10 173 255 142 69 33 13 4 1 4 68 255 176 86 40 17 6 2 0 0 0 0 0 0 0 0 0 0 0 0 0 0 0 0 0 0 0 0 0 0 0 0 0 0 0 0 0 0 0 0 0 0 0
0 0 0 0 0 0 0 0 0 0 0 0 0 0 0 0 0 0 0 0 0 0 0 0 0 0 0 0 0 0 0 1 5 15 35 72 148 255 194 9 0 0 0 1 14 255 255 125 61 29 12 7 57 255 171 83 41 18 6 2 0 0 0 0 0 0 0 0 0 0 0 0 0 0 0 0 0 0 0 0 0 0 0 0 0 0 0 0 0 0 0 0 0 0 0 0 0 0 0 0 0 0 0 0 0 0 0 0 0 0 1 3 10 26 55 114 228 255 26 1 0 0 0 0 0 0 0 0 0 0 0 0 0 0 0 0 0 0 2 49 255 194 96 47 21 8 9 136 255 145 71 35 15 5 1 0 0 0 0 0 0 0 0 0 0 0 0 0 0 0 0 0 0 0 0 0 0 0 0 0 0 0 1 20 255 239 120 58 29 16 66 255 160 81 43 18 8 55 255 175 87 43 19 7 2 1 0 0 0 0 0 0 0 0 0 0 0 0 0 0 0 0 1 3 9 24 51 102 205 255 32 1 0 0 0 1 2 7 21 49 96 150 124 69 32 16 50 255 175 94 67 77 87 34 6 2 1 1 2 4 9 24 52 102 200 255 25 18 43 79 147 255 83 26 44 85 167 255 40 2 0 0 0 0 0 0 0 0 0 0 0 0 0 0 0 0 0 0 0 0 0 0 0 0 0 0 0 0 0 0 0 0 0 0 0 0 0 0 0 0 0 0 0 0 0 0 0 0 0 0 1 5 14 33 67 140 255 255 255 159 76 38 17 7 13 218 255 126 61 29 11 4 1 1 27 255 223 111 54 26 10 4 25 255 233 115 55 26 12 36 255 199 99 49 23 14 93 255 164 82 41 17 6 4 52 255 194 95 46 22 8 3 1 0 0 0 0 0 0 0 2 6 17 39 78 157 255 94 9 13 31 64 132 255 255 16 1 0 0 0 0 0 0 0 0 0 0 0 0 0 0 0 0 7 150 255 146 71 34 14 5 1 0 0 0 0 0 0 3 62 255 188 94 47 23 12 62 255 179 89 44 21 34 255 213 152 188 230 186 26 14 25 49 99 199 255 52 2 1 13 255 255 138 67 33 15 14 163 255 138 69 35 20 86 255 160 79 39 18 34 255 193 157 186 253 83 17 22 43 71 132 255 180 17 19 41 85 172 255 81 4 0 0 0 0 0 0 0 0 0 0 0 1 2 7 20 45 92 185 255 44 16 32 65 136 255 174 13 10 26 55 115 236 255 21 1 0 0 0 0 0 0 0 0 0 0 0 0 0 0 1 14 255 254 123 59 28 11 7 62 255 184 91 46 20 7 6 79 255 174 84 41 18 6 2 2 35 255 216 106 51 23 9 3 1 0 0 0 0 0 0 0 0 0 0 0 0 0 0 0 0 0 0 0 0 0 0 0 0 0 0 0 0 0 0 0 0 0 0 0
0 0 0 0 0 0 0 0 0 0 0 0 0 0 0 0 0 0 0 0 0 0 0 0 0 0 0 0 0 0 0 1 2 7 19 41 84 171 255 81 4 0 0 6 122 255 152 72 35 16 7 29 255 218 105 50 24 9 3 1 0 0 0 0 0 0 0 0 0 0 0 0 0 0 0 0 0 0 0 0 0 0 0 0 0 0 0 0 0 0 0 0 0 0 0 0 0 0 0 0 0 0 0 0 0 0 0 0 0 0 0 1 5 14 32 65 136 255 206 10 0 0 0 0 0 0 0 0 0 0 0 0 0 0 0 0 0 1 22 255 231 114 55 27 11 7 65 255 179 85 42 20 7 2 1 0 0 0 0 0 0 0 0 0 0 0 0 0 0 0 0 0 0 0 0 0 0 0 0 0 0 0 7 152 255 141 68 33 17 33 255 203 101 53 29 12 29 255 220 106 51 24 10 3 1 0 0 0 0 0 0 0 0 0 0 0 0 0 0 0 0 0 0 1 4 13 29 59 124 255 255 13 1 0 0 0 1 3 11 27 47 61 54 37 19 27 255 226 111 66 72 141 184 51 6 1 0 0 1 1 4 13 31 63 127 255 132 18 29 54 96 191 255 50 30 53 106 224 255 14 1 0 0 0 0 0 0 0 0 0 0 0 0 0 0 0 0 0 0 0 0 0 0 0 0 0 0 0 0 0 0 0 0 0 0 0 0 0 0 0 0 0 0 0 0 0 0 0 0 0 1 2 7 18 39 85 185 255 207 96 44 20 9 8 94 255 157 75 36 16 5 2 1 11 233 255 133 64 31 13 5 11 211 255 139 67 33 15 18 227 255 123 60 30 15 51 255 199 98 49 24 9 4 25 255 233 116 55 26 11 4 1 0 0 0 0 0 0 0 0 1 3 9 23 46 92 187 255 46 8 17 37 76 157 255 144 7 0 0 0 0 0 0 0 0 0 0 0 0 0 0 0 3 67 255 176 85 41 19 7 2 1 0 0 0 0 0 1 33 255 223 109 53 26 13 31 255 216 109 55 29 23 204 255 148 131 159 196 255 88 12 14 28 57 117 232 255 24 7 125 255 159 78 38 18 11 72 255 167 82 42 23 49 255 199 101 51 25 21 198 255 142 137 162 202 255 41 15 31 48 82 163 255 81 14 24 49 100 207 255 43 2 0 0 0 0 0 0 0 0 0 0 0 1 3 11 28 57 116 242 255 24 19 40 81 164 255 75 9 14 32 67 142 255 170 8 0 0 0 0 0 0 0 0 0 0 0 0 0 0 6 124 255 151 71 34 15 7 31 255 218 109 54 27 11 5 40 255 208 103 50 23 9 3 1 16 255 255 129 62 29 12 4 1 0 0 0 0 0 0 0 0 0 0 0 0 0 0 0 0 0 0 0 0 0 0 0 0 0 0 0 0 0 0 0 0 0 0 0 0
