P3
320 240
255
60 52 52 40 33 33 25 25 25 26 26 27 31 31 44 36 36 62 41 41 80 53 53 103 77 77 137 97 97 167 114 114 193 129 129 216 140 140 235 149 149 251 154 154 255 156 156 255 153 153 255 144 144 255 128 128 249 111 111 236 106 95 194 60 52 59 47 49 63 77 61 84 73 55 74 46 53 73 42 50 66 43 49 68 34 42 46 31 41 41 31 41 41 31 41 41 31 41 41 31 41 41 31 41 41 31 41 41 31 41 41 31 41 41 31 41 41 31 41 41 31 41 41 31 41 41 31 41 41 31 41 41 31 41 41 34 39 47 64 56 71 60 61 100 53 59 97 56 60 98 25 25 25 25 25 25 25 25 25 25 25 25 25 25 25 25 25 25 25 25 25 25 25 25 25 25 25 46 42 42 81 67 67 115 91 91 149 114 114 182 135 135 213 155 155 241 172 172 255 186 186 255 196 196 255 199 199 255 193 193 255 175 175 255 141 141 186 81 82 158 86 87 168 94 102 200 113 122 217 126 141 199 108 115 200 105 112 179 96 111 145 68 71 123 54 54 107 50 50 85 46 46 230 135 135 255 221 221 255 200 200 255 169 169 255 131 131 210 85 85 159 53 53 128 48 48 81 43 43 32 43 43 32 43 43 32 43 43 32 43 43 32 43 43 32 43 43 32 43 43 32 43 43 32 43 43 32 43 43 32 43 43 32 43 43 32 43 43 32 43 43 32 43 43 32 43 43 32 43 43 32 43 43 32 43 43 32 43 43 32 43 43 32 43 43 32 43 43 32 43 43 32 43 43 32 43 43 32 43 43 32 43 43 32 43 43 32 43 43 32 43 43 32 43 43 32 43 43 32 43 43 32 43 43 32 43 43 32 43 43 32 43 43 32 43 43 32 43 43 32 43 43 32 43 43 32 43 43 32 43 43 32 43 43 32 43 43 32 43 43 32 43 43 32 43 43 32 43 43 32 43 43 32 43 43 32 43 43 32 43 43 32 43 43 32 43 43 32 43 43 32 43 43 32 43 43 32 43 43 32 43 43 32 43 43 32 43 43 32 43 43 32 43 43 32 43 43 32 43 43 32 43 43 32 43 43 32 43 43 32 43 43 32 43 43 32 43 43 32 43 43 32 43 43 32 43 43 32 42 42 32 42 42 32 42 42 32 42 42 32 42 42 32 42 42 32 42 42 32 42 42 32 42 42 32 42 42 32 42 42 32 42 42 32 42 42 32 42 42 32 42 42 32 42 42 32 42 42 32 42 42 32 42 42 32 42 42 32 42 42 32 42 42 32 42 42 32 42 42 32 42 42 32 42 42 32 42 42 32 42 42 32 42 42 32 42 42 32 42 42 32 41 41 32 41 41 32 41 41 32 41 41 32 41 41 32 41 41 32 41 41 31 41 41 31 41 41 31 41 41 31 41 41 31 41 41 31 41 41 31 41 41 31 41 41 31 41 41 31 41 41 31 41 41 31 41 41 31 41 41 31 41 41 31 41 41 31 41 41 31 41 41 31 41 41 31 41 41 31 40 40 31 40 40 31 40 40 31 40 40 31 40 40 31 40 40 31 40 40 31 40 40 31 40 40 31 40 40 31 40 40 31 40 40 31 40 40 31 40 40 31 40 40 31 40 40 31 40 40 31 40 40 31 40 40 31 40 40 31 40 40 31 40 40 31 40 40 31 40 40 31 39 39 31 39 39 31 39 39 31 39 39 31 39 39 31 39 39 31 39 39 31 39 39 31 39 39 31 39 39 31 39 39 31 39 39 31 39 39 31 39 39 31 39 39 31 39 39 31 39 39 31 39 39 30 39 39 30 39 39 30 39 39 30 39 39 30 39 39 30 39 39 30 38 38 30 38 38 30 38 38 30 38 38 30 38 38 30 38 38 30 38 38 30 38 38 30 38 38 30 38 38 30 38 38 30 38 38 30 38 38 30 38 38 30 38 38 30 38 38 30 38 38 30 38 38 30 38 38 30 38 38 30 38 38 30 38 38 30 38 38 30 38 38 30 38 38 30 37 37 30 37 37 30 37 37 30 37 37 30 37 37 30 37 37 30 37 37 30 37 37 30 37 37 30 37 37 30 37 37 30 37 37 30 37 37 30 37 37 30 37 37 30 37 37 30 37 37 30 37 37 30 37 37 30 37 37 30 37 37 
44 40 40 25 25 25 25 25 25 25 25 26 30 30 43 36 36 61 41 41 78 54 54 102 80 80 138 100 100 169 118 118 196 133 133 219 146 146 240 155 155 255 162 162 255 166 166 255 165 165 255 160 160 255 148 148 255 127 127 250 98 98 223 66 67 124 35 41 43 38 45 53 37 43 51 34 42 46 33 41 43 31 41 41 31 41 41 31 41 41 31 41 41 31 41 41 31 41 41 31 41 41 31 41 41 31 41 41 31 41 41 31 41 41 31 41 41 32 41 41 32 41 41 32 41 41 32 41 41 32 41 41 32 40 40 36 41 60 78 63 112 44 45 74 65 67 105 46 49 74 26 26 26 25 25 25 25 25 25 25 25 25 25 25 25 25 25 25 25 25 25 25 25 25 25 25 25 25 25 25 44 41 41 77 65 65 110 88 88 142 109 109 173 129 129 202 147 147 227 162 162 249 173 173 255 179 179 255 178 178 255 167 167 255 144 144 215 88 89 108 53 53 115 60 60 134 73 84 148 77 83 142 73 76 153 71 71 139 73 88 119 57 70 101 50 50 87 47 47 64 42 42 206 124 124 255 212 216 255 189 189 255 161 161 255 125 125 201 82 82 154 54 54 127 51 51 83 43 43 32 43 43 32 43 43 32 43 43 32 43 43 32 43 43 32 43 43 32 43 43 32 43 43 32 43 43 32 43 43 32 43 43 32 43 43 32 43 43 32 43 43 32 43 43 32 43 43 32 43 43 32 43 43 32 43 43 32 43 43 32 43 43 32 43 43 32 43 43 32 43 43 32 43 43 32 43 43 32 43 43 32 43 43 32 43 43 32 43 43 32 43 43 32 43 43 32 43 43 32 43 43 32 43 43 32 43 43 32 43 43 32 43 43 32 43 43 32 43 43 32 43 43 32 43 43 32 43 43 32 43 43 32 43 43 32 43 43 32 43 43 32 43 43 32 43 43 32 43 43 32 43 43 32 43 43 32 43 43 32 43 43 32 43 43 32 43 43 32 43 43 32 43 43 32 43 43 32 43 43 32 43 43 32 43 43 32 43 43 32 43 43 32 43 43 32 43 43 32 43 43 32 43 43 32 43 43 32 43 43 32 43 43 32 43 43 32 43 43 32 43 43 32 43 43 32 43 43 32 43 43 32 43 43 32 43 43 32 43 43 32 43 43 32 43 43 32 43 43 32 43 43 32 43 43 32 43 43 32 42 42 32 42 42 32 42 42 32 42 42 32 42 42 32 42 42 32 42 42 32 42 42 32 42 42 32 42 42 32 42 42 32 42 42 32 42 42 32 42 42 32 42 42 32 42 42 32 42 42 32 42 42 32 42 42 32 42 42 32 42 42 32 42 42 32 42 42 32 42 42 32 42 42 32 42 42 32 42 42 32 42 42 32 41 41 32 41 41 32 41 41 32 41 41 32 41 41 32 41 41 31 41 41 31 41 41 31 41 41 31 41 41 31 41 41 31 41 41 31 41 41 31 41 41 31 41 41 31 41 41 31 41 41 31 41 41 31 41 41 31 41 41 31 41 41 31 41 41 31 41 41 31 41 41 31 40 40 31 40 40 31 40 40 31 40 40 31 40 40 31 40 40 31 40 40 31 40 40 31 40 40 31 40 40 31 40 40 31 40 40 31 40 40 31 40 40 31 40 40 31 40 40 31 40 40 31 40 40 31 40 40 31 40 40 31 40 40 31 40 40 31 40 40 31 39 39 31 39 39 31 39 39 31 39 39 31 39 39 31 39 39 31 39 39 31 39 39 31 39 39 31 39 39 31 39 39 31 39 39 31 39 39 31 39 39 31 39 39 31 39 39 31 39 39 31 39 39 30 39 39 30 39 39 30 39 39 30 39 39 30 39 39 30 39 39 30 38 38 30 38 38 30 38 38 30 38 38 30 38 38 30 38 38 30 38 38 30 38 38 30 38 38 30 38 38 30 38 38 30 38 38 30 38 38 30 38 38 30 38 38 30 38 38 30 38 38 30 38 38 30 38 38 30 38 38 30 38 38 30 38 38 30 38 38 30 38 38 30 38 38 30 37 37 30 37 37 30 37 37 30 37 37 30 37 37 30 37 37 30 37 37 30 37 37 30 37 37 30 37 37 30 37 37 30 37 37 30 37 37 30 37 37 30 37 37 30 37 37 30 37 37 
32 36 36 25 25 25 25 25 25 25 25 25 29 29 40 35 35 58 40 40 74 52 52 98 79 79 135 100 100 166 118 118 194 134 134 218 148 148 240 158 158 255 166 166 255 171 171 255 172 172 255 169 169 255 160 160 255 145 145 255 118 118 240 87 89 211 31 41 41 31 41 41 31 41 41 31 41 41 31 41 41 31 41 41 31 41 41 31 41 41 31 41 41 31 41 41 31 41 41 32 41 41 32 41 41 32 41 41 32 41 41 32 41 41 32 41 41 32 42 42 32 42 42 32 42 42 32 42 42 32 42 42 33 38 44 39 39 72 121 89 149 74 66 142 80 80 156 50 49 72 32 32 35 25 25 25 25 25 25 25 25 25 25 25 25 25 25 25 25 25 25 25 25 25 25 25 25 25 25 25 25 25 25 37 36 36 71 61 61 102 82 82 132 102 102 161 120 120 186 136 136 209 148 148 226 156 156 239 159 159 242 153 153 232 136 136 193 92 92 107 53 53 83 46 46 100 53 57 117 61 66 127 62 66 117 56 56 96 49 53 102 59 71 80 47 47 65 43 43 47 39 39 197 122 129 255 202 212 255 182 192 255 146 146 238 114 114 185 75 75 148 55 55 119 51 51 78 43 43 32 43 43 32 43 43 32 43 43 32 43 43 32 43 43 32 43 43 32 43 43 32 44 44 32 44 44 32 44 44 32 44 44 32 44 44 32 44 44 32 44 44 32 44 44 32 44 44 32 44 44 32 44 44 32 44 44 32 44 44 32 44 44 32 44 44 32 44 44 32 44 44 32 44 44 32 44 44 32 44 44 32 44 44 32 44 44 32 44 44 32 44 44 32 44 44 32 44 44 32 44 44 32 44 44 32 44 44 32 44 44 32 44 44 32 44 44 32 44 44 32 44 44 32 44 44 32 44 44 32 44 44 32 44 44 32 44 44 32 44 44 32 44 44 32 44 44 32 44 44 32 44 44 32 44 44 32 44 44 32 44 44 32 44 44 32 44 44 32 44 44 32 44 44 32 43 43 32 43 43 32 43 43 32 43 43 32 43 43 32 43 43 32 43 43 32 43 43 32 43 43 32 43 43 32 43 43 32 43 43 32 43 43 32 43 43 32 43 43 32 43 43 32 43 43 32 43 43 32 43 43 32 43 43 32 43 43 32 43 43 32 43 43 32 43 43 32 43 43 32 43 43 32 43 43 32 43 43 32 43 43 32 43 43 32 43 43 32 43 43 32 43 43 32 43 43 32 43 43 32 43 43 32 43 43 32 42 42 32 42 42 32 42 42 32 42 42 32 42 42 32 42 42 32 42 42 32 42 42 32 42 42 32 42 42 32 42 42 32 42 42 32 42 42 32 42 42 32 42 42 32 42 42 32 42 42 32 42 42 32 42 42 32 42 42 32 42 42 32 42 42 32 42 42 32 42 42 32 42 42 32 41 41 32 41 41 32 41 41 32 41 41 32 41 41 32 41 41 31 41 41 31 41 41 31 41 41 31 41 41 31 41 41 31 41 41 31 41 41 31 41 41 31 41 41 31 41 41 31 41 41 31 41 41 31 41 41 31 41 41 31 41 41 31 41 41 31 41 41 31 40 40 31 40 40 31 40 40 31 40 40 31 40 40 31 40 40 31 40 40 31 40 40 31 40 40 31 40 40 31 40 40 31 40 40 31 40 40 31 40 40 31 40 40 31 40 40 31 40 40 31 40 40 31 40 40 31 40 40 31 40 40 31 40 40 31 40 40 31 39 39 31 39 39 31 39 39 31 39 39 31 39 39 31 39 39 31 39 39 31 39 39 31 39 39 31 39 39 31 39 39 31 39 39 31 39 39 31 39 39 31 39 39 31 39 39 31 39 39 30 39 39 30 39 39 30 39 39 30 39 39 30 39 39 30 39 39 30 38 38 30 38 38 30 38 38 30 38 38 30 38 38 30 38 38 30 38 38 30 38 38 30 38 38 30 38 38 30 38 38 30 38 38 30 38 38 30 38 38 30 38 38 30 38 38 30 38 38 30 38 38 30 38 38 30 38 38 30 38 38 30 38 38 30 38 38 30 38 38 30 38 38 30 37 37 30 37 37 30 37 37 30 37 37 30 37 37 30 37 37 30 37 37 30 37 37 30 37 37 30 37 37 30 37 37 30 37 37 30 37 37 
32 37 37 25 25 25 25 25 25 25 25 25 28 28 35 33 33 53 38 38 70 47 47 90 75 75 128 97 97 160 116 116 188 132 132 213 146 146 236 158 158 255 167 167 255 173 173 255 175 175 255 186 185 255 167 167 255 155 155 255 136 136 255 103 104 222 73 74 153 31 41 41 31 41 41 31 41 41 31 41 41 32 41 41 32 41 41 32 41 41 32 41 41 32 41 41 32 41 41 32 42 42 32 42 42 32 42 42 32 42 42 32 42 42 32 42 42 32 42 42 32 42 42 32 42 42 32 42 42 32 42 42 33 38 48 43 43 84 57 58 122 94 81 162 101 101 195 60 61 93 40 40 50 29 29 29 25 25 25 25 25 25 25 25 25 25 25 25 25 25 25 25 25 25 25 25 25 25 25 25 25 25 25 25 25 25 32 31 31 61 54 54 93 76 77 124 98 103 147 111 114 175 129 135 189 134 134 202 138 138 209 137 137 202 123 123 172 89 89 71 45 45 83 52 52 87 48 48 90 50 50 75 47 48 80 46 46 84 56 68 67 46 49 56 43 43 45 40 40 110 74 80 255 157 163 255 182 194 255 161 170 253 131 138 209 97 97 166 68 68 136 55 55 108 49 49 67 41 41 32 39 39 32 44 44 32 44 44 33 44 44 33 44 44 33 44 44 33 44 44 33 44 44 33 44 44 33 44 44 33 44 44 33 44 44 33 44 44 33 44 44 33 44 44 33 44 44 33 44 44 33 44 44 33 44 44 33 44 44 33 44 44 33 44 44 33 44 44 33 44 44 33 44 44 33 44 44 33 44 44 33 44 44 33 44 44 58 67 84 56 64 78 54 63 74 53 61 71 53 61 71 33 44 44 33 44 44 33 44 44 33 44 44 33 44 44 33 44 44 33 44 44 33 44 44 33 44 44 33 44 44 33 44 44 33 44 44 33 44 44 33 44 44 33 44 44 33 44 44 33 44 44 33 44 44 33 44 44 33 44 44 33 44 44 33 44 44 33 44 44 33 44 44 33 44 44 33 44 44 33 44 44 33 44 44 32 44 44 32 44 44 32 44 44 32 44 44 32 44 44 32 44 44 32 44 44 32 44 44 32 44 44 32 44 44 32 44 44 32 43 43 32 43 43 32 43 43 32 43 43 32 43 43 32 43 43 32 43 43 32 43 43 32 43 43 32 43 43 32 43 43 32 43 43 32 43 43 32 43 43 32 43 43 32 43 43 32 43 43 32 43 43 32 43 43 32 43 43 32 43 43 32 43 43 32 43 43 32 43 43 32 43 43 32 43 43 32 43 43 32 43 43 32 43 43 32 42 42 32 42 42 32 42 42 32 42 42 32 42 42 32 42 42 32 42 42 32 42 42 32 42 42 32 42 42 32 42 42 32 42 42 32 42 42 32 42 42 32 42 42 32 42 42 32 42 42 32 42 42 32 42 42 32 42 42 32 42 42 32 42 42 32 42 42 32 42 42 32 41 41 32 41 41 32 41 41 32 41 41 32 41 41 31 41 41 31 41 41 31 41 41 31 41 41 31 41 41 31 41 41 31 41 41 31 41 41 31 41 41 31 41 41 31 41 41 31 41 41 31 41 41 31 41 41 31 41 41 31 41 41 31 41 41 31 40 40 31 40 40 31 40 40 31 40 40 31 40 40 31 40 40 31 40 40 31 40 40 31 40 40 31 40 40 31 40 40 31 40 40 31 40 40 31 40 40 31 40 40 31 40 40 31 40 40 31 40 40 31 40 40 31 40 40 31 40 40 31 40 40 31 39 39 31 39 39 31 39 39 31 39 39 31 39 39 31 39 39 31 39 39 31 39 39 31 39 39 31 39 39 31 39 39 31 39 39 31 39 39 31 39 39 31 39 39 31 39 39 31 39 39 30 39 39 30 39 39 30 39 39 30 39 39 30 39 39 30 39 39 30 38 38 30 38 38 30 38 38 30 38 38 30 38 38 30 38 38 30 38 38 30 38 38 30 38 38 30 38 38 30 38 38 30 38 38 30 38 38 30 38 38 30 38 38 30 38 38 30 38 38 30 38 38 30 38 38 30 38 38 30 38 38 30 38 38 30 38 38 30 38 38 30 38 38 30 37 37 30 37 37 30 37 37 30 37 37 30 37 37 30 37 37 30 37 37 30 37 37 30 37 37 
32 37 37 25 25 25 25 25 25 25 25 25 26 26 29 32 32 47 37 37 64 42 42 80 68 68 117 91 91 150 110 110 179 128 128 205 142 142 228 155 155 248 164 164 255 173 173 255 176 176 255 178 178 255 172 172 255 164 164 255 146 147 255 120 122 240 92 94 215 32 41 41 32 41 41 32 41 41 32 41 41 32 42 42 32 42 42 32 42 42 32 42 42 32 42 42 32 42 42 32 42 42 32 42 42 32 42 42 32 42 42 32 42 42 32 42 42 32 42 42 32 42 42 32 42 42 32 42 42 32 42 42 34 37 48 44 44 88 56 56 122 108 92 174 109 109 204 135 135 240 47 47 63 31 31 31 29 29 29 26 26 26 26 26 26 25 25 25 34 28 28 37 29 29 36 28 28 25 25 25 25 25 25 25 25 25 25 25 25 37 36 42 54 49 53 98 85 101 107 85 89 150 119 138 156 116 126 166 118 123 172 116 116 168 106 106 145 79 79 83 46 46 47 41 41 64 50 50 53 42 42 51 43 43 51 43 43 54 45 53 53 47 57 40 40 40 34 38 38 139 85 85 255 153 158 255 144 152 255 131 137 220 111 124 174 77 77 143 58 58 121 53 53 93 47 47 53 39 39 33 44 44 33 44 44 33 44 44 33 44 44 33 44 44 33 44 44 33 44 44 33 44 44 33 44 44 33 44 44 33 44 44 33 44 44 33 44 44 33 44 44 33 44 44 33 44 44 33 44 44 33 44 44 33 44 44 33 44 44 33 44 44 33 44 44 33 44 44 33 44 44 33 44 44 33 44 44 60 69 89 88 94 131 85 91 120 108 111 154 102 105 140 97 100 128 92 95 118 87 89 109 83 87 104 64 70 77 48 57 59 33 44 44 33 44 44 33 44 44 33 44 44 33 44 44 33 44 44 33 44 44 33 44 44 33 44 44 33 44 44 33 44 44 33 44 44 33 44 44 33 44 44 33 44 44 33 44 44 33 44 44 33 44 44 33 44 44 33 44 44 33 44 44 33 44 44 33 44 44 33 44 44 33 44 44 33 44 44 33 44 44 33 44 44 33 44 44 33 44 44 33 44 44 33 44 44 33 44 44 33 44 44 33 44 44 33 44 44 33 44 44 33 44 44 32 44 44 32 44 44 32 44 44 32 44 44 32 44 44 32 44 44 32 44 44 32 44 44 32 43 43 32 43 43 32 43 43 32 43 43 32 43 43 32 43 43 32 43 43 32 43 43 32 43 43 32 43 43 32 43 43 32 43 43 32 43 43 32 43 43 32 43 43 32 43 43 32 43 43 32 43 43 32 43 43 32 43 43 32 43 43 32 43 43 32 43 43 32 43 43 32 43 43 32 43 43 32 42 42 32 42 42 32 42 42 32 42 42 32 42 42 32 42 42 32 42 42 32 42 42 32 42 42 32 42 42 32 42 42 32 42 42 32 42 42 32 42 42 32 42 42 32 42 42 32 42 42 32 42 42 32 42 42 32 42 42 32 42 42 32 42 42 32 41 41 32 41 41 32 41 41 32 41 41 32 41 41 31 41 41 31 41 41 31 41 41 31 41 41 31 41 41 31 41 41 31 41 41 31 41 41 31 41 41 31 41 41 31 41 41 31 41 41 31 41 41 31 41 41 31 41 41 31 41 41 31 40 40 31 40 40 31 40 40 31 40 40 31 40 40 31 40 40 31 40 40 31 40 40 31 40 40 31 40 40 31 40 40 31 40 40 31 40 40 31 40 40 31 40 40 31 40 40 31 40 40 31 40 40 31 40 40 31 40 40 31 40 40 31 40 40 31 39 39 31 39 39 31 39 39 31 39 39 31 39 39 31 39 39 31 39 39 31 39 39 31 39 39 31 39 39 31 39 39 31 39 39 31 39 39 31 39 39 31 39 39 31 39 39 31 39 39 30 39 39 30 39 39 30 39 39 30 39 39 30 39 39 30 39 39 30 38 38 30 38 38 30 38 38 30 38 38 30 38 38 30 38 38 30 38 38 30 38 38 30 38 38 30 38 38 30 38 38 30 38 38 30 38 38 30 38 38 30 38 38 30 38 38 30 38 38 30 38 38 30 38 38 30 38 38 30 38 38 30 38 38 30 38 38 30 38 38 30 38 38 30 37 37 30 37 37 30 37 37 30 37 37 30 37 37 
37 38 38 31 31 31 25 25 25 25 25 25 25 25 25 30 30 40 35 35 57 39 39 73 57 57 101 82 82 136 102 102 166 120 120 193 135 135 216 148 148 237 177 171 255 170 170 255 178 178 255 174 174 255 180 178 255 209 194 255 183 168 255 128 130 247 84 87 196 32 42 42 32 42 42 32 42 42 32 42 42 32 42 42 32 42 42 32 42 42 32 42 42 32 42 42 32 42 42 32 42 42 32 42 42 32 42 42 32 42 42 32 42 42 32 42 42 32 42 42 32 42 42 32 42 42 32 42 42 32 43 43 38 39 49 43 43 87 53 53 117 150 117 198 110 110 203 136 136 240 41 43 55 31 33 33 31 32 32 31 31 31 29 30 30 42 32 32 58 38 38 68 44 44 72 46 46 66 40 40 37 30 30 28 28 28 29 29 31 35 35 41 36 37 43 59 54 64 78 65 75 113 87 96 115 89 99 141 107 126 133 93 93 132 86 86 115 65 65 70 44 45 36 41 41 35 40 40 37 41 41 49 49 61 42 43 52 38 39 44 34 38 39 33 38 38 131 74 74 183 95 95 232 120 127 219 107 111 195 95 100 181 86 102 143 60 61 123 55 55 102 50 50 73 44 44 44 38 38 33 44 44 33 44 44 33 44 44 33 44 44 33 44 44 33 44 44 33 44 44 33 45 45 33 45 45 33 45 45 33 45 45 33 45 45 33 45 45 33 45 45 33 45 45 33 45 45 33 45 45 33 45 45 33 45 45 33 45 45 33 45 45 33 45 45 33 45 45 33 45 45 33 45 45 92 98 139 90 96 129 115 118 163 137 137 190 130 130 173 123 123 156 114 114 140 106 106 125 99 99 112 78 78 87 59 59 66 42 45 47 44 51 51 33 45 45 33 45 45 33 45 45 33 45 45 33 45 45 33 45 45 33 45 45 33 45 45 33 45 45 33 45 45 33 45 45 33 45 45 33 45 45 33 45 45 33 45 45 33 45 45 33 45 45 33 45 45 33 45 45 33 44 44 33 44 44 33 44 44 33 44 44 33 44 44 33 44 44 33 44 44 33 44 44 33 44 44 33 44 44 33 44 44 33 44 44 33 44 44 33 44 44 33 44 44 33 44 44 33 44 44 33 44 44 33 44 44 33 44 44 33 44 44 33 44 44 33 44 44 33 44 44 33 44 44 33 44 44 33 44 44 32 44 44 32 44 44 32 44 44 32 44 44 32 44 44 32 44 44 32 44 44 32 43 43 32 43 43 32 43 43 32 43 43 32 43 43 32 43 43 32 43 43 32 43 43 32 43 43 32 43 43 32 43 43 32 43 43 32 43 43 32 43 43 32 43 43 32 43 43 32 43 43 32 43 43 32 43 43 32 43 43 32 43 43 32 43 43 32 43 43 32 43 43 32 42 42 32 42 42 32 42 42 32 42 42 32 42 42 32 42 42 32 42 42 32 42 42 32 42 42 32 42 42 32 42 42 32 42 42 32 42 42 32 42 42 32 42 42 32 42 42 32 42 42 32 42 42 32 42 42 32 42 42 32 42 42 32 41 41 32 41 41 32 41 41 32 41 41 32 41 41 31 41 41 31 41 41 31 41 41 31 41 41 31 41 41 31 41 41 31 41 41 31 41 41 31 41 41 31 41 41 31 41 41 31 41 41 31 41 41 31 41 41 31 41 41 31 41 41 31 40 40 31 40 40 31 40 40 31 40 40 31 40 40 31 40 40 31 40 40 31 40 40 31 40 40 31 40 40 31 40 40 31 40 40 31 40 40 31 40 40 31 40 40 31 40 40 31 40 40 31 40 40 31 40 40 31 40 40 31 40 40 31 39 39 31 39 39 31 39 39 31 39 39 31 39 39 31 39 39 31 39 39 31 39 39 31 39 39 31 39 39 31 39 39 31 39 39 31 39 39 31 39 39 31 39 39 31 39 39 31 39 39 30 39 39 30 39 39 30 39 39 30 39 39 30 39 39 30 39 39 30 38 38 30 38 38 30 38 38 30 38 38 30 38 38 30 38 38 30 38 38 30 38 38 30 38 38 30 38 38 30 38 38 30 38 38 30 38 38 30 38 38 30 38 38 30 38 38 30 38 38 30 38 38 30 38 38 30 38 38 30 38 38 30 38 38 30 38 38 30 38 38 30 37 37 30 37 37 
46 42 42 34 35 35 31 31 31 27 27 27 25 25 25 27 27 32 32 32 49 37 37 65 44 44 82 70 70 119 92 92 150 110 110 177 126 126 202 139 139 223 155 155 246 187 182 255 185 176 255 179 178 255 174 175 255 186 180 255 185 172 255 129 132 245 90 93 201 60 64 115 32 42 42 32 42 42 32 42 42 32 42 42 32 42 42 32 42 42 32 42 42 32 42 42 32 42 42 32 42 42 32 42 42 32 42 42 32 43 43 32 43 43 32 43 43 32 43 43 32 43 43 32 43 43 32 43 43 32 43 43 37 39 45 48 48 87 51 51 112 115 89 151 134 109 177 160 133 209 92 62 67 94 60 68 31 33 33 31 33 33 31 32 32 49 34 34 72 45 45 91 59 59 101 66 66 99 63 63 72 45 45 31 32 32 31 32 32 42 43 57 40 41 48 40 35 37 41 41 49 79 54 54 74 62 62 101 81 99 95 71 76 95 65 65 86 53 53 61 42 46 38 41 48 41 45 54 36 42 42 36 40 45 50 50 62 34 40 40 34 39 39 59 43 44 87 48 48 173 76 76 177 83 83 177 83 83 173 79 88 142 64 79 118 55 55 102 52 52 80 47 47 53 41 41 96 44 44 87 46 46 33 45 45 33 45 45 33 45 45 33 45 45 33 45 45 33 45 45 33 45 45 33 45 45 33 45 45 33 45 45 33 45 45 33 45 45 33 45 45 33 45 45 33 45 45 33 45 45 33 45 45 33 45 45 33 45 45 33 45 45 33 45 45 33 45 45 63 72 97 93 99 138 121 124 176 147 147 207 140 140 188 132 132 169 123 123 150 113 113 133 104 104 116 80 80 87 60 60 64 42 42 43 40 40 40 25 25 25 25 25 25 29 32 32 33 43 43 33 45 45 33 45 45 33 45 45 33 45 45 33 45 45 33 45 45 33 45 45 33 45 45 33 45 45 33 45 45 33 45 45 33 45 45 33 45 45 33 45 45 33 45 45 33 45 45 33 45 45 33 45 45 33 45 45 33 45 45 33 45 45 33 45 45 33 45 45 33 45 45 33 45 45 33 45 45 33 45 45 33 45 45 33 45 45 33 45 45 33 45 45 33 44 44 33 44 44 33 44 44 33 44 44 33 44 44 33 44 44 33 44 44 33 44 44 33 44 44 33 44 44 33 44 44 33 44 44 33 44 44 33 44 44 33 44 44 33 44 44 33 44 44 33 44 44 33 44 44 33 44 44 33 44 44 32 44 44 32 44 44 32 44 44 32 44 44 32 44 44 32 44 44 32 43 43 32 43 43 32 43 43 32 43 43 32 43 43 32 43 43 32 43 43 32 43 43 32 43 43 32 43 43 32 43 43 32 43 43 32 43 43 32 43 43 32 43 43 32 43 43 32 43 43 32 43 43 32 43 43 32 43 43 32 43 43 32 43 43 32 42 42 32 42 42 32 42 42 32 42 42 32 42 42 32 42 42 32 42 42 32 42 42 32 42 42 32 42 42 32 42 42 32 42 42 32 42 42 32 42 42 32 42 42 32 42 42 32 42 42 32 42 42 32 42 42 32 42 42 32 42 42 32 41 41 32 41 41 32 41 41 32 41 41 32 41 41 31 41 41 31 41 41 31 41 41 31 41 41 31 41 41 31 41 41 31 41 41 31 41 41 31 41 41 31 41 41 31 41 41 31 41 41 31 41 41 31 41 41 31 41 41 31 40 40 31 40 40 31 40 40 31 40 40 31 40 40 31 40 40 31 40 40 31 40 40 31 40 40 31 40 40 31 40 40 31 40 40 31 40 40 31 40 40 31 40 40 31 40 40 31 40 40 31 40 40 31 40 40 31 40 40 31 40 40 31 39 39 31 39 39 31 39 39 31 39 39 31 39 39 31 39 39 31 39 39 31 39 39 31 39 39 31 39 39 31 39 39 31 39 39 31 39 39 31 39 39 31 39 39 31 39 39 31 39 39 30 39 39 30 39 39 30 39 39 30 39 39 30 39 39 30 38 38 30 38 38 30 38 38 30 38 38 30 38 38 30 38 38 30 38 38 30 38 38 30 38 38 30 38 38 30 38 38 30 38 38 30 38 38 30 38 38 30 38 38 30 38 38 30 38 38 30 38 38 30 38 38 30 38 38 30 38 38 30 38 38 30 38 38 
31 41 41 34 36 36 34 35 35 31 32 32 29 30 30 29 29 30 32 32 43 36 37 59 41 41 74 56 56 99 80 80 133 100 100 161 118 119 188 135 132 210 165 159 244 196 174 255 176 169 255 173 176 255 184 185 255 159 163 255 147 151 255 145 134 244 90 94 197 69 75 137 32 42 42 32 42 42 32 42 42 32 42 42 32 42 42 32 42 42 32 42 42 32 43 43 32 43 43 32 43 43 32 43 43 32 43 43 32 43 43 32 43 43 32 43 43 32 43 43 32 43 43 32 43 43 32 43 43 32 43 43 57 51 51 103 78 97 115 84 111 167 111 135 191 127 149 217 145 169 239 158 184 226 135 140 228 126 126 173 100 100 104 67 67 54 35 35 73 46 46 94 63 63 106 72 72 108 72 72 98 63 63 71 40 41 32 34 34 49 50 66 50 44 54 33 36 38 37 39 48 55 43 44 38 40 40 52 48 54 70 60 72 62 48 48 70 47 48 39 43 48 34 39 40 47 48 58 39 43 49 34 39 39 34 39 39 34 38 38 66 47 51 92 52 57 118 56 56 123 58 58 124 57 57 130 62 68 119 56 61 116 61 70 94 50 50 78 47 47 56 42 42 44 38 38 101 45 45 132 46 46 33 45 45 33 45 45 33 45 45 33 45 45 33 45 45 33 45 45 33 45 45 33 45 45 33 45 45 33 45 45 33 45 45 33 45 45 33 45 45 33 45 45 33 45 45 33 45 45 63 73 89 61 70 81 88 95 120 87 93 113 85 91 108 83 90 106 86 92 118 145 145 213 149 149 207 142 142 187 132 132 166 122 122 147 111 111 127 85 85 94 62 62 67 42 42 43 25 25 25 25 25 25 25 25 25 25 25 25 25 25 25 25 25 25 27 28 28 33 43 43 33 45 45 33 45 45 33 45 45 33 45 45 33 45 45 33 45 45 33 45 45 33 45 45 33 45 45 33 45 45 33 45 45 33 45 45 33 45 45 33 45 45 33 45 45 33 45 45 33 45 45 33 45 45 33 45 45 33 45 45 33 45 45 33 45 45 33 45 45 33 45 45 33 45 45 33 45 45 33 45 45 33 45 45 33 45 45 33 45 45 33 45 45 33 45 45 33 45 45 33 45 45 33 45 45 33 45 45 33 45 45 33 45 45 33 45 45 33 45 45 33 44 44 33 44 44 33 44 44 33 44 44 33 44 44 33 44 44 33 44 44 33 44 44 33 44 44 33 44 44 33 44 44 33 44 44 33 44 44 33 44 44 33 44 44 33 44 44 33 44 44 33 44 44 32 44 44 32 44 44 32 44 44 32 44 44 32 44 44 32 44 44 32 43 43 32 43 43 32 43 43 32 43 43 32 43 43 32 43 43 32 43 43 32 43 43 32 43 43 32 43 43 32 43 43 32 43 43 32 43 43 32 43 43 32 43 43 32 43 43 32 43 43 32 43 43 32 43 43 32 43 43 32 42 42 32 42 42 32 42 42 32 42 42 32 42 42 32 42 42 32 42 42 32 42 42 32 42 42 32 42 42 32 42 42 32 42 42 32 42 42 32 42 42 32 42 42 32 42 42 32 42 42 32 42 42 32 42 42 32 42 42 32 41 41 32 41 41 32 41 41 32 41 41 32 41 41 31 41 41 31 41 41 31 41 41 31 41 41 31 41 41 31 41 41 31 41 41 31 41 41 31 41 41 31 41 41 31 41 41 31 41 41 31 41 41 31 41 41 31 41 41 31 40 40 31 40 40 31 40 40 31 40 40 31 40 40 31 40 40 31 40 40 31 40 40 31 40 40 31 40 40 31 40 40 31 40 40 31 40 40 31 40 40 31 40 40 31 40 40 31 40 40 31 40 40 31 40 40 31 40 40 31 40 40 31 39 39 31 39 39 31 39 39 31 39 39 31 39 39 31 39 39 31 39 39 31 39 39 31 39 39 31 39 39 31 39 39 31 39 39 31 39 39 31 39 39 31 39 39 31 39 39 30 39 39 30 39 39 30 39 39 30 39 39 30 39 39 30 39 39 30 38 38 30 38 38 30 38 38 30 38 38 30 38 38 30 38 38 30 38 38 30 38 38 30 38 38 30 38 38 30 38 38 30 38 38 30 38 38 30 38 38 30 38 38 30 38 38 30 38 38 30 38 38 30 38 38 
31 41 41 96 65 65 34 37 37 34 36 36 34 36 36 34 35 35 35 36 40 38 39 54 43 44 70 47 48 84 67 69 114 89 90 145 108 110 173 123 125 196 180 162 242 165 166 255 190 177 255 178 169 255 172 171 255 150 156 255 138 144 248 155 133 236 86 91 187 54 61 109 32 42 42 32 43 43 32 43 43 32 43 43 32 43 43 32 43 43 32 43 43 32 43 43 32 43 43 32 43 43 32 43 43 32 43 43 32 43 43 32 43 43 32 43 43 32 43 43 32 43 43 32 43 43 48 54 60 62 58 58 100 78 80 137 95 95 164 114 114 190 131 131 216 147 147 242 162 162 255 175 175 255 186 186 255 194 194 255 194 194 255 158 158 255 133 133 135 72 72 87 57 58 101 68 68 104 71 71 98 64 64 81 48 50 32 36 36 32 36 36 41 41 48 40 43 52 62 47 49 46 40 40 33 38 38 38 41 46 41 42 49 39 39 39 41 39 39 38 43 44 42 40 40 46 43 44 36 39 40 51 42 42 36 39 39 48 40 40 64 44 44 95 57 68 94 52 58 107 61 72 97 52 54 108 59 68 96 56 61 80 48 48 67 46 46 52 42 42 40 39 39 138 70 70 181 57 57 148 50 50 98 45 45 33 45 45 33 45 45 33 46 46 33 46 46 33 46 46 33 46 46 33 46 46 33 46 46 33 46 46 33 46 46 33 46 46 33 46 46 33 46 46 64 73 88 91 97 123 87 93 111 114 117 143 108 111 131 133 133 162 129 129 152 125 125 145 102 102 121 105 105 131 106 106 129 129 129 155 124 125 147 110 110 124 84 84 90 61 61 64 41 41 41 25 25 25 25 25 25 25 25 25 25 25 25 25 25 25 25 25 25 25 25 25 25 25 25 27 28 28 33 46 46 33 46 46 33 46 46 33 46 46 33 46 46 33 46 46 33 46 46 33 46 46 33 46 46 33 46 46 33 46 46 33 46 46 33 46 46 33 46 46 33 46 46 33 46 46 33 46 46 33 45 45 33 45 45 33 45 45 33 45 45 33 45 45 33 45 45 33 45 45 33 45 45 33 45 45 33 45 45 33 45 45 33 45 45 33 45 45 33 45 45 33 45 45 33 45 45 33 45 45 33 45 45 33 45 45 33 45 45 33 45 45 33 45 45 33 45 45 33 45 45 33 45 45 33 45 45 33 45 45 33 45 45 33 45 45 33 45 45 33 45 45 33 44 44 33 44 44 33 44 44 33 44 44 33 44 44 33 44 44 33 44 44 33 44 44 33 44 44 33 44 44 33 44 44 33 44 44 33 44 44 33 44 44 33 44 44 33 44 44 32 44 44 32 44 44 32 44 44 32 44 44 32 44 44 32 43 43 32 43 43 32 43 43 32 43 43 32 43 43 32 43 43 32 43 43 32 43 43 32 43 43 32 43 43 32 43 43 32 43 43 32 43 43 32 43 43 32 43 43 32 43 43 32 43 43 32 43 43 32 43 43 32 43 43 32 42 42 32 42 42 32 42 42 32 42 42 32 42 42 32 42 42 32 42 42 32 42 42 32 42 42 32 42 42 32 42 42 32 42 42 32 42 42 32 42 42 32 42 42 32 42 42 32 42 42 32 42 42 32 42 42 32 41 41 32 41 41 32 41 41 32 41 41 32 41 41 31 41 41 31 41 41 31 41 41 31 41 41 31 41 41 31 41 41 31 41 41 31 41 41 31 41 41 31 41 41 31 41 41 31 41 41 31 41 41 31 41 41 31 41 41 31 40 40 31 40 40 31 40 40 31 40 40 31 40 40 31 40 40 31 40 40 31 40 40 31 40 40 31 40 40 31 40 40 31 40 40 31 40 40 31 40 40 31 40 40 31 40 40 31 40 40 31 40 40 31 40 40 31 40 40 31 39 39 31 39 39 31 39 39 31 39 39 31 39 39 31 39 39 31 39 39 31 39 39 31 39 39 31 39 39 31 39 39 31 39 39 31 39 39 31 39 39 31 39 39 31 39 39 31 39 39 30 39 39 30 39 39 30 39 39 30 39 39 30 39 39 30 38 38 30 38 38 30 38 38 30 38 38 30 38 38 30 38 38 30 38 38 30 38 38 30 38 38 30 38 38 30 38 38 30 38 38 30 38 38 30 38 38 30 38 38 30 38 38 
32 41 41 32 42 42 35 38 38 35 38 38 35 37 37 35 37 37 35 37 37 38 41 48 42 45 63 47 50 78 53 56 94 73 77 124 92 96 152 108 113 176 129 123 194 164 157 244 157 150 237 142 149 238 154 154 254 136 144 239 124 132 228 170 130 225 76 82 170 51 59 99 32 43 43 32 43 43 32 43 43 32 43 43 32 43 43 32 43 43 32 43 43 32 43 43 32 43 43 32 43 43 32 43 43 32 43 43 32 43 43 32 43 43 32 43 43 32 44 44 32 44 44 38 46 51 37 42 42 53 51 51 97 80 80 120 95 95 144 111 111 170 127 127 196 144 144 223 161 161 249 176 176 255 191 191 255 203 203 255 212 212 255 224 224 255 221 221 255 176 177 208 109 109 85 56 56 90 60 61 87 57 58 73 46 46 70 49 50 40 37 38 51 44 44 59 47 47 35 40 40 51 43 43 34 39 39 46 46 56 41 44 55 33 38 38 33 41 41 34 43 43 37 42 43 40 41 41 46 46 46 49 39 39 64 43 43 41 42 42 46 42 42 63 49 52 62 45 47 76 53 63 69 47 54 67 47 51 60 44 47 52 43 43 45 41 41 37 39 39 172 98 98 205 99 99 194 68 68 154 51 51 116 48 48 33 46 46 33 46 46 33 46 46 33 46 46 33 46 46 33 46 46 33 46 46 33 46 46 33 46 46 33 46 46 33 46 46 33 46 46 92 99 128 88 94 113 113 116 141 135 135 165 129 129 149 101 101 114 97 97 106 73 73 79 71 71 75 69 69 72 48 48 50 48 48 50 68 68 72 70 70 78 95 95 105 60 60 62 25 25 25 25 25 25 25 25 25 25 25 25 25 25 25 25 25 25 25 25 25 25 25 25 25 25 25 25 25 25 25 25 25 33 37 37 33 46 46 33 46 46 33 46 46 33 46 46 33 46 46 33 46 46 33 46 46 33 46 46 33 46 46 33 46 46 33 46 46 33 46 46 33 46 46 33 46 46 33 46 46 33 46 46 33 46 46 33 46 46 33 46 46 33 46 46 33 46 46 33 46 46 33 46 46 33 46 46 33 46 46 33 46 46 33 46 46 33 46 46 33 46 46 33 45 45 33 45 45 33 45 45 33 45 45 33 45 45 33 45 45 33 45 45 33 45 45 33 45 45 33 45 45 33 45 45 33 45 45 33 45 45 33 45 45 33 45 45 33 45 45 33 45 45 33 45 45 33 45 45 33 45 45 33 45 45 33 45 45 33 45 45 33 45 45 33 45 45 33 44 44 33 44 44 33 44 44 33 44 44 33 44 44 33 44 44 33 44 44 33 44 44 33 44 44 33 44 44 33 44 44 33 44 44 33 44 44 33 44 44 33 44 44 32 44 44 32 44 44 32 44 44 32 44 44 32 44 44 32 43 43 32 43 43 32 43 43 32 43 43 32 43 43 32 43 43 32 43 43 32 43 43 32 43 43 32 43 43 32 43 43 32 43 43 32 43 43 32 43 43 32 43 43 32 43 43 32 43 43 32 43 43 32 43 43 32 42 42 32 42 42 32 42 42 32 42 42 32 42 42 32 42 42 32 42 42 32 42 42 32 42 42 32 42 42 32 42 42 32 42 42 32 42 42 32 42 42 32 42 42 32 42 42 32 42 42 32 42 42 32 41 41 32 41 41 32 41 41 32 41 41 32 41 41 31 41 41 31 41 41 31 41 41 31 41 41 31 41 41 31 41 41 31 41 41 31 41 41 31 41 41 31 41 41 31 41 41 31 41 41 31 41 41 31 41 41 31 41 41 31 40 40 31 40 40 31 40 40 31 40 40 31 40 40 31 40 40 31 40 40 31 40 40 31 40 40 31 40 40 31 40 40 31 40 40 31 40 40 31 40 40 31 40 40 31 40 40 31 40 40 31 40 40 31 40 40 31 40 40 31 39 39 31 39 39 31 39 39 31 39 39 31 39 39 31 39 39 31 39 39 31 39 39 31 39 39 31 39 39 31 39 39 31 39 39 31 39 39 31 39 39 31 39 39 31 39 39 30 39 39 30 39 39 30 39 39 30 39 39 30 39 39 30 39 39 30 38 38 30 38 38 30 38 38 30 38 38 30 38 38 30 38 38 30 38 38 30 38 38 30 38 38 30 38 38 30 38 38 30 38 38 
32 42 42 32 42 42 66 49 51 35 39 39 35 39 39 35 39 39 35 39 39 36 40 40 39 42 52 45 47 72 56 58 96 68 70 120 86 89 151 98 103 166 103 110 172 129 127 196 125 129 204 132 136 226 127 132 221 119 127 214 106 114 201 95 93 178 69 75 151 59 65 107 32 43 43 32 43 43 32 43 43 32 43 43 32 43 43 32 43 43 32 43 43 32 43 43 32 43 43 32 44 44 32 44 44 32 44 44 32 44 44 32 44 44 33 44 44 33 44 44 37 45 50 29 34 34 34 34 39 35 35 35 52 49 49 92 82 82 116 98 98 141 114 114 167 131 131 194 149 149 222 166 166 249 182 182 255 198 198 255 211 211 255 221 221 255 227 227 255 233 233 255 225 225 255 148 148 70 46 46 70 46 47 55 40 40 55 40 40 55 42 42 61 46 47 41 37 37 46 42 42 34 39 39 35 40 44 36 39 46 35 39 43 35 39 39 39 44 45 33 45 45 33 45 45 33 46 46 33 46 46 67 40 40 81 49 49 66 46 46 57 50 50 36 40 40 39 41 41 43 43 43 46 45 45 42 42 42 39 41 41 36 40 40 49 45 45 191 115 115 245 133 133 255 126 126 200 76 76 155 52 52 121 50 50 51 44 44 33 46 46 33 46 46 34 46 46 34 46 46 34 46 46 34 46 46 34 46 46 34 46 46 34 46 46 34 46 46 92 98 123 117 120 151 138 138 170 130 130 150 101 101 113 74 74 81 71 71 74 47 47 48 25 25 25 25 25 25 25 25 25 25 25 25 25 25 25 25 25 25 25 25 25 45 45 45 29 29 29 27 27 27 25 25 25 25 25 25 25 25 25 25 25 25 25 25 25 25 25 25 25 25 25 25 25 25 25 25 25 25 25 25 25 25 25 34 44 44 34 46 46 34 46 46 34 46 46 34 46 46 34 46 46 34 46 46 34 46 46 34 46 46 34 46 46 34 46 46 34 46 46 34 46 46 34 46 46 33 46 46 33 46 46 33 46 46 33 46 46 33 46 46 33 46 46 33 46 46 33 46 46 33 46 46 33 46 46 33 46 46 33 46 46 33 46 46 33 46 46 33 46 46 33 46 46 33 46 46 33 46 46 33 46 46 33 46 46 33 46 46 33 46 46 33 46 46 33 46 46 33 45 45 33 45 45 33 45 45 33 45 45 33 45 45 33 45 45 33 45 45 33 45 45 33 45 45 33 45 45 33 45 45 33 45 45 33 45 45 33 45 45 33 45 45 33 45 45 33 45 45 33 45 45 33 45 45 33 45 45 33 45 45 33 45 45 33 44 44 33 44 44 33 44 44 33 44 44 33 44 44 33 44 44 33 44 44 33 44 44 33 44 44 33 44 44 33 44 44 33 44 44 33 44 44 33 44 44 32 44 44 32 44 44 32 44 44 32 44 44 32 44 44 32 43 43 32 43 43 32 43 43 32 43 43 32 43 43 32 43 43 32 43 43 32 43 43 32 43 43 32 43 43 32 43 43 32 43 43 32 43 43 32 43 43 32 43 43 32 43 43 32 43 43 32 43 43 32 42 42 32 42 42 32 42 42 32 42 42 32 42 42 32 42 42 32 42 42 32 42 42 32 42 42 32 42 42 32 42 42 32 42 42 32 42 42 32 42 42 32 42 42 32 42 42 32 42 42 32 42 42 32 41 41 32 41 41 32 41 41 32 41 41 32 41 41 31 41 41 31 41 41 31 41 41 31 41 41 31 41 41 31 41 41 31 41 41 31 41 41 31 41 41 31 41 41 31 41 41 31 41 41 31 41 41 31 41 41 31 40 40 31 40 40 31 40 40 31 40 40 31 40 40 31 40 40 31 40 40 31 40 40 31 40 40 31 40 40 31 40 40 31 40 40 31 40 40 31 40 40 31 40 40 31 40 40 31 40 40 31 40 40 31 40 40 31 40 40 31 39 39 31 39 39 31 39 39 31 39 39 31 39 39 31 39 39 31 39 39 31 39 39 31 39 39 31 39 39 31 39 39 31 39 39 31 39 39 31 39 39 31 39 39 31 39 39 31 39 39 30 39 39 30 39 39 30 39 39 30 39 39 30 39 39 30 38 38 30 38 38 30 38 38 30 38 38 30 38 38 30 38 38 30 38 38 30 38 38 30 38 38 
32 42 42 32 42 42 32 42 42 35 39 39 35 39 39 36 40 40 36 40 40 36 41 41 35 37 39 41 41 59 55 55 89 72 72 122 86 86 149 102 102 178 114 112 190 99 105 177 108 112 186 110 116 192 115 118 200 95 104 180 84 92 169 102 87 161 56 63 112 32 43 43 32 43 43 32 43 43 32 43 43 32 43 43 32 44 44 32 44 44 32 44 44 32 44 44 32 44 44 33 44 44 33 44 44 33 44 44 33 44 44 33 44 44 33 44 44 34 42 49 29 35 35 31 31 35 25 25 25 25 25 25 25 25 25 38 38 38 73 69 69 108 96 96 134 113 113 161 131 131 189 149 149 217 167 167 245 184 184 255 200 200 255 213 213 255 224 224 255 230 230 255 228 228 255 234 234 255 149 152 48 40 41 44 38 38 39 39 39 39 39 39 42 40 40 35 41 41 35 41 41 40 43 48 40 44 51 37 40 47 33 40 40 33 42 42 33 46 46 33 46 46 33 46 46 33 46 46 33 46 46 65 41 45 120 47 47 129 48 48 90 53 57 100 59 59 40 39 39 38 39 39 39 39 39 44 42 42 119 82 82 137 92 97 208 128 134 255 150 150 255 161 161 255 122 122 194 75 75 151 53 53 120 50 50 57 39 39 34 47 47 34 47 47 34 47 47 34 47 47 34 47 47 34 47 47 34 47 47 34 47 47 34 47 47 91 98 121 115 119 146 135 135 162 126 126 141 75 75 82 71 71 74 47 47 47 25 25 25 25 25 25 25 25 25 25 25 25 25 25 25 25 25 25 25 25 25 25 25 25 25 25 25 25 25 25 25 25 25 25 25 25 25 25 25 25 25 25 25 25 25 25 25 25 25 25 25 25 25 25 25 25 25 25 25 25 25 25 25 25 25 25 25 25 25 34 35 35 34 47 47 34 47 47 34 47 47 34 47 47 34 47 47 34 47 47 34 47 47 34 47 47 34 47 47 34 47 47 34 47 47 34 47 47 34 47 47 34 47 47 34 47 47 34 47 47 34 47 47 34 47 47 34 46 46 34 46 46 34 46 46 34 46 46 34 46 46 34 46 46 34 46 46 34 46 46 33 46 46 33 46 46 33 46 46 33 46 46 33 46 46 33 46 46 33 46 46 33 46 46 33 46 46 33 46 46 33 46 46 33 46 46 33 46 46 33 46 46 33 46 46 33 46 46 33 46 46 33 46 46 33 45 45 33 45 45 33 45 45 33 45 45 33 45 45 33 45 45 33 45 45 33 45 45 33 45 45 33 45 45 33 45 45 33 45 45 33 45 45 33 45 45 33 45 45 33 45 45 33 45 45 33 45 45 33 45 45 33 45 45 33 44 44 33 44 44 33 44 44 33 44 44 33 44 44 33 44 44 33 44 44 33 44 44 33 44 44 33 44 44 33 44 44 33 44 44 33 44 44 33 44 44 32 44 44 32 44 44 32 44 44 32 44 44 32 43 43 32 43 43 32 43 43 32 43 43 32 43 43 32 43 43 32 43 43 32 43 43 32 43 43 32 43 43 32 43 43 32 43 43 32 43 43 32 43 43 32 43 43 32 43 43 32 43 43 32 43 43 32 42 42 32 42 42 32 42 42 32 42 42 32 42 42 32 42 42 32 42 42 32 42 42 32 42 42 32 42 42 32 42 42 32 42 42 32 42 42 32 42 42 32 42 42 32 42 42 32 42 42 32 42 42 32 41 41 32 41 41 32 41 41 32 41 41 32 41 41 31 41 41 31 41 41 31 41 41 31 41 41 31 41 41 31 41 41 31 41 41 31 41 41 31 41 41 31 41 41 31 41 41 31 41 41 31 41 41 31 41 41 31 40 40 31 40 40 31 40 40 31 40 40 31 40 40 31 40 40 31 40 40 31 40 40 31 40 40 31 40 40 31 40 40 31 40 40 31 40 40 31 40 40 31 40 40 31 40 40 31 40 40 31 40 40 31 40 40 31 40 40 31 39 39 31 39 39 31 39 39 31 39 39 31 39 39 31 39 39 31 39 39 31 39 39 31 39 39 31 39 39 31 39 39 31 39 39 31 39 39 31 39 39 31 39 39 31 39 39 30 39 39 30 39 39 30 39 39 30 39 39 30 39 39 30 38 38 30 38 38 30 38 38 30 38 38 30 38 38 30 38 38 
32 42 42 32 42 42 32 42 42 32 42 42 40 43 50 36 40 40 36 41 41 36 41 41 33 33 33 36 36 43 45 45 67 67 67 104 80 80 129 86 86 146 104 100 170 91 94 167 83 90 153 87 91 160 79 88 151 74 83 148 108 90 155 80 69 126 47 55 85 32 44 44 32 44 44 32 44 44 32 44 44 32 44 44 33 44 44 33 44 44 33 44 44 33 44 44 33 44 44 33 44 44 33 44 44 33 44 44 33 44 44 33 44 44 34 43 45 34 40 45 48 39 39 25 25 25 25 25 25 25 25 25 25 25 25 25 25 25 25 25 25 42 40 40 85 78 78 126 109 109 153 128 128 182 146 146 210 165 165 239 182 182 255 198 198 255 212 212 255 223 223 255 228 228 255 226 226 255 227 227 253 136 136 34 39 39 35 41 41 35 41 41 34 40 40 35 40 44 36 41 45 35 38 41 44 47 57 34 41 41 33 42 42 33 46 46 33 46 46 33 46 46 33 46 46 34 46 46 34 46 46 48 38 40 106 47 47 139 51 51 170 63 64 190 90 95 213 111 111 173 100 100 203 121 121 196 118 119 255 173 182 255 181 187 255 211 218 255 186 193 255 148 148 238 112 112 182 72 72 146 56 56 113 50 50 56 39 39 34 47 47 34 47 47 34 47 47 34 47 47 34 47 47 34 47 47 34 47 47 34 47 47 129 113 139 115 118 146 133 133 158 102 102 113 73 73 78 48 48 48 25 25 25 25 25 25 25 25 25 25 25 25 25 25 25 25 25 25 25 25 25 25 25 25 25 25 25 25 25 25 25 25 25 25 25 25 25 25 25 25 25 25 31 31 31 25 25 25 25 25 25 25 25 25 25 25 25 25 25 25 25 25 25 25 25 25 25 25 25 25 25 25 25 25 25 31 32 32 34 44 44 34 47 47 34 47 47 34 47 47 34 47 47 34 47 47 34 47 47 34 47 47 34 47 47 34 47 47 34 47 47 34 47 47 34 47 47 34 47 47 34 47 47 34 47 47 34 47 47 34 47 47 34 47 47 34 47 47 34 47 47 34 47 47 34 47 47 34 47 47 34 47 47 34 47 47 34 47 47 34 47 47 34 46 46 34 46 46 34 46 46 34 46 46 34 46 46 34 46 46 34 46 46 33 46 46 33 46 46 33 46 46 33 46 46 33 46 46 33 46 46 33 46 46 33 46 46 33 46 46 33 46 46 33 46 46 33 46 46 33 46 46 33 46 46 33 46 46 33 46 46 33 45 45 33 45 45 33 45 45 33 45 45 33 45 45 33 45 45 33 45 45 33 45 45 33 45 45 33 45 45 33 45 45 33 45 45 33 45 45 33 45 45 33 45 45 33 45 45 33 45 45 33 45 45 33 44 44 33 44 44 33 44 44 33 44 44 33 44 44 33 44 44 33 44 44 33 44 44 33 44 44 33 44 44 33 44 44 33 44 44 33 44 44 33 44 44 32 44 44 32 44 44 32 44 44 32 44 44 32 43 43 32 43 43 32 43 43 32 43 43 32 43 43 32 43 43 32 43 43 32 43 43 32 43 43 32 43 43 32 43 43 32 43 43 32 43 43 32 43 43 32 43 43 32 43 43 32 43 43 32 42 42 32 42 42 32 42 42 32 42 42 32 42 42 32 42 42 32 42 42 32 42 42 32 42 42 32 42 42 32 42 42 32 42 42 32 42 42 32 42 42 32 42 42 32 42 42 32 42 42 32 42 42 32 41 41 32 41 41 32 41 41 32 41 41 31 41 41 31 41 41 31 41 41 31 41 41 31 41 41 31 41 41 31 41 41 31 41 41 31 41 41 31 41 41 31 41 41 31 41 41 31 41 41 31 41 41 31 40 40 31 40 40 31 40 40 31 40 40 31 40 40 31 40 40 31 40 40 31 40 40 31 40 40 31 40 40 31 40 40 31 40 40 31 40 40 31 40 40 31 40 40 31 40 40 31 40 40 31 40 40 31 40 40 31 40 40 31 39 39 31 39 39 31 39 39 31 39 39 31 39 39 31 39 39 31 39 39 31 39 39 31 39 39 31 39 39 31 39 39 31 39 39 31 39 39 31 39 39 31 39 39 31 39 39 30 39 39 30 39 39 30 39 39 30 39 39 30 39 39 30 39 39 30 38 38 30 38 38 
32 42 42 32 42 42 32 43 43 32 43 43 34 42 47 43 41 41 36 41 41 36 42 42 36 38 38 34 34 36 39 39 49 51 51 73 71 71 107 80 80 126 77 77 130 91 86 147 63 68 122 61 69 117 65 73 123 69 66 118 78 72 119 52 54 80 32 44 44 33 44 44 33 44 44 33 44 44 33 44 44 33 44 44 33 44 44 33 44 44 33 44 44 33 44 44 33 44 44 33 44 44 33 44 44 33 45 45 33 45 45 33 45 45 34 40 53 31 31 44 25 25 25 25 25 25 25 25 25 25 25 25 25 25 25 25 25 25 25 25 25 25 25 25 39 39 39 78 74 74 116 104 104 144 123 123 173 142 142 202 161 161 231 178 178 255 194 194 255 208 208 255 218 218 255 222 222 255 218 218 255 210 210 100 66 70 39 44 49 34 40 40 37 41 47 43 46 53 38 43 48 35 39 42 34 41 41 34 43 43 38 44 45 34 46 46 34 46 46 34 47 47 34 47 47 34 47 47 34 47 47 41 47 53 94 51 57 136 55 55 148 54 54 205 95 109 236 114 114 255 144 144 255 168 168 255 192 192 255 187 191 255 191 192 255 186 192 255 170 181 254 129 129 210 96 96 165 66 66 134 55 55 101 49 49 52 39 39 34 47 47 34 47 47 34 47 47 34 47 47 34 47 47 34 47 47 34 48 48 68 73 88 85 92 107 133 133 158 100 100 111 72 72 76 47 47 47 25 25 25 25 25 25 25 25 25 25 25 25 25 25 25 25 25 25 25 25 25 25 25 25 25 25 25 25 25 25 25 25 25 25 25 25 25 25 25 25 25 25 25 25 25 25 25 25 31 31 31 25 25 25 25 25 25 25 25 25 25 25 25 25 25 25 25 25 25 25 25 25 25 25 25 25 25 25 29 30 30 32 34 34 34 45 45 34 48 48 34 48 48 34 48 48 34 48 48 34 48 48 34 47 47 34 47 47 34 47 47 34 47 47 34 47 47 34 47 47 34 47 47 34 47 47 34 47 47 34 47 47 34 47 47 34 47 47 34 47 47 34 47 47 34 47 47 34 47 47 34 47 47 34 47 47 34 47 47 34 47 47 34 47 47 34 47 47 34 47 47 34 47 47 34 47 47 34 47 47 34 47 47 34 47 47 34 47 47 34 47 47 34 46 46 34 46 46 34 46 46 34 46 46 34 46 46 33 46 46 33 46 46 33 46 46 33 46 46 33 46 46 33 46 46 33 46 46 33 46 46 33 46 46 33 46 46 33 46 46 33 46 46 33 46 46 33 46 46 33 46 46 33 45 45 33 45 45 33 45 45 33 45 45 33 45 45 33 45 45 33 45 45 33 45 45 33 45 45 33 45 45 33 45 45 33 45 45 33 45 45 33 45 45 33 45 45 33 45 45 33 45 45 33 44 44 33 44 44 33 44 44 33 44 44 33 44 44 33 44 44 33 44 44 33 44 44 33 44 44 33 44 44 33 44 44 33 44 44 33 44 44 32 44 44 32 44 44 32 44 44 32 44 44 32 43 43 32 43 43 32 43 43 32 43 43 32 43 43 32 43 43 32 43 43 32 43 43 32 43 43 32 43 43 32 43 43 32 43 43 32 43 43 32 43 43 32 43 43 32 43 43 32 43 43 32 42 42 32 42 42 32 42 42 32 42 42 32 42 42 32 42 42 32 42 42 32 42 42 32 42 42 32 42 42 32 42 42 32 42 42 32 42 42 32 42 42 32 42 42 32 42 42 32 42 42 32 41 41 32 41 41 32 41 41 32 41 41 32 41 41 31 41 41 31 41 41 31 41 41 31 41 41 31 41 41 31 41 41 31 41 41 31 41 41 31 41 41 31 41 41 31 41 41 31 41 41 31 41 41 31 41 41 31 40 40 31 40 40 31 40 40 31 40 40 31 40 40 31 40 40 31 40 40 31 40 40 31 40 40 31 40 40 31 40 40 31 40 40 31 40 40 31 40 40 31 40 40 31 40 40 31 40 40 31 40 40 31 40 40 31 39 39 31 39 39 31 39 39 31 39 39 31 39 39 31 39 39 31 39 39 31 39 39 31 39 39 31 39 39 31 39 39 31 39 39 31 39 39 31 39 39 31 39 39 31 39 39 30 39 39 30 39 39 30 39 39 30 39 39 30 39 39 
32 43 43 32 43 43 32 43 43 32 43 43 32 43 43 32 43 43 68 60 68 63 54 54 36 42 42 35 37 37 46 42 45 41 40 49 48 48 66 58 58 86 61 61 96 64 64 102 58 62 101 53 61 94 78 71 106 57 63 101 50 52 72 37 47 56 33 44 44 33 44 44 33 44 44 33 44 44 33 44 44 33 44 44 33 44 44 33 44 44 33 45 45 33 45 45 33 45 45 33 45 45 33 45 45 33 45 45 33 45 45 33 45 45 35 39 48 35 36 41 25 25 25 25 25 25 25 25 25 25 25 25 25 25 25 25 25 25 25 25 25 25 25 25 25 25 25 25 25 25 44 42 42 106 98 98 135 117 117 164 137 137 193 155 155 221 173 173 249 189 189 255 202 202 255 210 210 255 213 213 255 204 204 255 177 177 44 47 58 36 41 46 35 40 42 58 51 57 36 42 46 34 43 43 36 42 43 34 47 47 34 47 47 34 47 47 34 47 47 34 47 47 34 47 47 34 47 47 34 47 47 34 47 47 69 46 55 146 66 66 130 54 54 154 60 61 198 91 103 229 114 114 255 134 134 255 159 160 255 159 159 255 168 182 255 164 170 255 140 151 214 104 104 176 77 77 142 58 58 118 53 53 84 46 46 46 44 44 34 48 48 34 48 48 34 48 48 34 48 48 34 48 48 34 48 48 34 48 48 111 107 128 160 144 174 122 122 134 72 72 75 25 25 25 25 25 25 25 25 25 25 25 25 25 25 25 25 25 25 25 25 25 25 25 25 25 25 25 25 25 25 25 25 25 25 25 25 25 25 25 25 25 25 25 25 25 25 25 25 25 25 25 25 25 25 25 25 25 27 27 27 25 25 25 25 25 25 25 25 25 25 25 25 25 25 25 25 25 25 25 25 25 25 25 25 31 32 32 34 37 37 27 28 28 34 48 48 34 48 48 34 48 48 34 48 48 34 48 48 34 48 48 34 48 48 34 48 48 34 48 48 34 48 48 34 48 48 34 48 48 34 48 48 34 48 48 34 48 48 34 48 48 34 48 48 34 48 48 34 47 47 34 47 47 34 47 47 34 47 47 34 47 47 34 47 47 34 47 47 34 47 47 34 47 47 34 47 47 34 47 47 34 47 47 34 47 47 34 47 47 34 47 47 34 47 47 34 47 47 34 47 47 34 47 47 34 47 47 34 47 47 34 47 47 34 47 47 34 47 47 34 46 46 34 46 46 34 46 46 34 46 46 33 46 46 33 46 46 33 46 46 33 46 46 33 46 46 33 46 46 33 46 46 33 46 46 33 46 46 33 46 46 33 46 46 33 46 46 33 46 46 33 46 46 33 45 45 33 45 45 33 45 45 33 45 45 33 45 45 33 45 45 33 45 45 33 45 45 33 45 45 33 45 45 33 45 45 33 45 45 33 45 45 33 45 45 33 45 45 33 45 45 33 45 45 33 44 44 33 44 44 33 44 44 33 44 44 33 44 44 33 44 44 33 44 44 33 44 44 33 44 44 33 44 44 33 44 44 33 44 44 32 44 44 32 44 44 32 44 44 32 44 44 32 43 43 32 43 43 32 43 43 32 43 43 32 43 43 32 43 43 32 43 43 32 43 43 32 43 43 32 43 43 32 43 43 32 43 43 32 43 43 32 43 43 32 43 43 32 43 43 32 43 43 32 42 42 32 42 42 32 42 42 32 42 42 32 42 42 32 42 42 32 42 42 32 42 42 32 42 42 32 42 42 32 42 42 32 42 42 32 42 42 32 42 42 32 42 42 32 42 42 32 42 42 32 41 41 32 41 41 32 41 41 32 41 41 31 41 41 31 41 41 31 41 41 31 41 41 31 41 41 31 41 41 31 41 41 31 41 41 31 41 41 31 41 41 31 41 41 31 41 41 31 41 41 31 41 41 31 40 40 31 40 40 31 40 40 31 40 40 31 40 40 31 40 40 31 40 40 31 40 40 31 40 40 31 40 40 31 40 40 31 40 40 31 40 40 31 40 40 31 40 40 31 40 40 31 40 40 31 40 40 31 40 40 31 39 39 31 39 39 31 39 39 31 39 39 31 39 39 31 39 39 31 39 39 31 39 39 31 39 39 31 39 39 31 39 39 31 39 39 31 39 39 31 39 39 31 39 39 31 39 39 30 39 39 30 39 39 
32 43 43 32 43 43 32 43 43 32 43 43 32 43 43 32 43 43 32 43 43 51 48 58 71 53 67 43 48 64 53 51 70 47 48 72 51 50 78 42 43 52 47 49 60 49 49 64 46 47 60 63 58 73 68 61 76 54 50 62 36 46 52 33 44 44 33 44 44 33 44 44 33 44 44 33 45 45 33 45 45 33 45 45 33 45 45 33 45 45 33 45 45 33 45 45 33 45 45 33 45 45 33 45 45 33 45 45 33 45 45 34 41 41 43 43 59 29 29 32 25 25 25 25 25 25 25 25 25 25 25 25 25 25 25 25 25 25 25 25 25 25 25 25 25 25 25 25 25 25 25 25 25 41 40 40 83 78 78 124 111 111 154 130 130 183 149 149 211 166 166 238 181 181 255 193 193 255 200 200 255 200 200 255 190 190 157 92 93 35 45 46 37 45 45 41 44 44 34 45 45 34 44 44 34 47 47 34 47 47 34 47 47 34 47 47 34 47 47 34 47 47 34 47 47 34 47 47 34 47 47 34 47 47 42 42 48 89 45 46 107 51 51 129 55 55 155 65 73 175 78 80 201 98 98 220 112 112 249 127 127 242 123 123 237 121 130 208 104 116 172 77 79 145 62 62 123 56 56 98 50 50 63 43 43 36 43 43 34 48 48 34 48 48 34 48 48 34 48 48 34 48 48 34 48 48 34 48 48 123 114 125 124 124 140 72 72 77 25 25 25 25 25 25 25 25 25 25 25 25 25 25 25 25 25 25 25 25 25 25 25 25 25 25 25 25 25 25 25 25 25 25 25 25 25 25 25 25 25 25 25 25 25 25 25 25 25 25 25 25 25 25 25 25 25 25 25 25 34 35 35 25 25 25 25 25 25 25 25 25 25 25 25 25 25 25 25 25 25 25 25 25 29 29 29 33 35 35 34 37 37 25 25 25 31 33 33 34 48 48 34 48 48 34 48 48 34 48 48 34 48 48 34 48 48 34 48 48 34 48 48 34 48 48 34 48 48 34 48 48 34 48 48 34 48 48 34 48 48 34 48 48 34 48 48 34 48 48 34 48 48 34 48 48 34 48 48 34 48 48 34 48 48 34 48 48 34 48 48 34 48 48 34 48 48 34 48 48 34 47 47 34 47 47 34 47 47 34 47 47 34 47 47 34 47 47 34 47 47 34 47 47 34 47 47 34 47 47 34 47 47 34 47 47 34 47 47 34 47 47 34 47 47 34 47 47 34 47 47 34 47 47 34 47 47 34 47 47 34 46 46 34 46 46 34 46 46 34 46 46 33 46 46 33 46 46 33 46 46 33 46 46 33 46 46 33 46 46 33 46 46 33 46 46 33 46 46 33 46 46 33 46 46 33 46 46 33 46 46 33 45 45 33 45 45 33 45 45 33 45 45 33 45 45 33 45 45 33 45 45 33 45 45 33 45 45 33 45 45 33 45 45 33 45 45 33 45 45 33 45 45 33 45 45 33 45 45 33 44 44 33 44 44 33 44 44 33 44 44 33 44 44 33 44 44 33 44 44 33 44 44 33 44 44 33 44 44 33 44 44 33 44 44 32 44 44 32 44 44 32 44 44 32 44 44 32 43 43 32 43 43 32 43 43 32 43 43 32 43 43 32 43 43 32 43 43 32 43 43 32 43 43 32 43 43 32 43 43 32 43 43 32 43 43 32 43 43 32 43 43 32 43 43 32 42 42 32 42 42 32 42 42 32 42 42 32 42 42 32 42 42 32 42 42 32 42 42 32 42 42 32 42 42 32 42 42 32 42 42 32 42 42 32 42 42 32 42 42 32 42 42 32 42 42 32 41 41 32 41 41 32 41 41 32 41 41 31 41 41 31 41 41 31 41 41 31 41 41 31 41 41 31 41 41 31 41 41 31 41 41 31 41 41 31 41 41 31 41 41 31 41 41 31 41 41 31 41 41 31 40 40 31 40 40 31 40 40 31 40 40 31 40 40 31 40 40 31 40 40 31 40 40 31 40 40 31 40 40 31 40 40 31 40 40 31 40 40 31 40 40 31 40 40 31 40 40 31 40 40 31 40 40 31 40 40 31 40 40 31 39 39 31 39 39 31 39 39 31 39 39 31 39 39 31 39 39 31 39 39 31 39 39 31 39 39 31 39 39 31 39 39 31 39 39 31 39 39 31 39 39 
32 43 43 32 43 43 32 43 43 32 43 43 33 42 43 35 41 52 39 44 64 48 51 85 52 55 98 68 62 114 70 72 133 79 81 150 88 86 162 86 87 167 70 71 126 56 59 86 37 44 45 53 50 53 36 47 49 33 44 44 33 44 44 33 45 45 33 45 45 33 45 45 33 45 45 33 45 45 33 45 45 33 45 45 33 45 45 33 45 45 33 45 45 33 45 45 33 45 45 33 45 45 33 45 45 33 45 45 33 46 46 34 42 42 34 34 47 28 28 28 25 25 25 25 25 25 25 25 25 25 25 25 25 25 25 25 25 25 25 25 25 25 25 25 25 25 25 25 25 25 25 25 25 25 25 25 25 25 25 61 59 59 114 104 104 144 123 123 173 142 142 200 158 158 226 173 173 249 183 183 255 187 187 255 187 187 255 160 160 34 47 47 34 47 47 34 47 47 34 47 47 34 47 47 34 47 47 34 47 47 34 48 48 34 48 48 34 48 48 34 48 48 34 48 48 34 48 48 34 48 48 87 49 49 105 48 48 45 39 39 106 52 52 103 51 51 121 55 55 142 64 71 158 71 83 165 76 80 179 85 95 173 79 83 173 81 90 155 71 75 135 60 60 119 56 56 100 52 52 73 46 46 47 40 40 33 42 42 34 49 49 34 49 49 34 49 49 34 49 49 34 49 49 34 49 49 108 105 126 136 134 160 74 74 81 47 47 47 25 25 25 25 25 25 25 25 25 25 25 25 25 25 25 25 25 25 25 25 25 25 25 25 25 25 25 25 25 25 25 25 25 25 25 25 25 25 25 25 25 25 25 25 25 25 25 25 25 25 25 25 25 25 25 25 25 25 25 25 31 31 31 27 27 27 25 25 25 25 25 25 25 25 25 25 25 25 27 27 27 29 29 29 31 32 32 34 36 36 35 38 38 25 25 25 25 25 25 34 43 43 34 49 49 34 49 49 34 49 49 34 49 49 34 49 49 34 49 49 34 49 49 34 49 49 34 49 49 34 48 48 34 48 48 34 48 48 34 48 48 34 48 48 34 48 48 34 48 48 34 48 48 34 48 48 34 48 48 34 48 48 34 48 48 34 48 48 34 48 48 34 48 48 34 48 48 34 48 48 34 48 48 34 48 48 34 48 48 34 48 48 34 48 48 34 48 48 34 48 48 34 47 47 34 47 47 34 47 47 34 47 47 34 47 47 34 47 47 34 47 47 34 47 47 34 47 47 34 47 47 34 47 47 34 47 47 34 47 47 34 47 47 34 47 47 34 47 47 34 47 47 34 47 47 34 46 46 34 46 46 34 46 46 34 46 46 33 46 46 33 46 46 33 46 46 33 46 46 33 46 46 33 46 46 33 46 46 33 46 46 33 46 46 33 46 46 33 46 46 33 46 46 33 45 45 33 45 45 33 45 45 33 45 45 33 45 45 33 45 45 33 45 45 33 45 45 33 45 45 33 45 45 33 45 45 33 45 45 33 45 45 33 45 45 33 45 45 33 45 45 33 44 44 33 44 44 33 44 44 33 44 44 33 44 44 33 44 44 33 44 44 33 44 44 33 44 44 33 44 44 33 44 44 33 44 44 32 44 44 32 44 44 32 44 44 32 43 43 32 43 43 32 43 43 32 43 43 32 43 43 32 43 43 32 43 43 32 43 43 32 43 43 32 43 43 32 43 43 32 43 43 32 43 43 32 43 43 32 43 43 32 43 43 32 42 42 32 42 42 32 42 42 32 42 42 32 42 42 32 42 42 32 42 42 32 42 42 32 42 42 32 42 42 32 42 42 32 42 42 32 42 42 32 42 42 32 42 42 32 42 42 32 42 42 32 41 41 32 41 41 32 41 41 32 41 41 32 41 41 31 41 41 31 41 41 31 41 41 31 41 41 31 41 41 31 41 41 31 41 41 31 41 41 31 41 41 31 41 41 31 41 41 31 41 41 31 41 41 31 40 40 31 40 40 31 40 40 31 40 40 31 40 40 31 40 40 31 40 40 31 40 40 31 40 40 31 40 40 31 40 40 31 40 40 31 40 40 31 40 40 31 40 40 31 40 40 31 40 40 31 40 40 31 40 40 31 40 40 31 39 39 31 39 39 31 39 39 31 39 39 31 39 39 31 39 39 31 39 39 31 39 39 31 39 39 31 39 39 31 39 39 
32 43 43 32 44 44 32 44 44 43 43 43 32 38 47 50 43 63 47 44 82 50 50 101 61 61 123 73 73 144 88 88 171 110 110 208 121 121 227 124 124 236 134 134 255 104 105 203 72 76 144 44 53 80 33 45 45 33 45 45 33 45 45 33 45 45 33 45 45 33 45 45 33 45 45 33 45 45 33 45 45 33 45 45 33 45 45 33 45 45 33 45 45 33 46 46 33 46 46 33 46 46 33 46 46 33 46 46 33 46 46 34 42 42 53 45 55 28 28 28 25 25 25 25 25 25 25 25 25 25 25 25 25 25 25 25 25 25 25 25 25 25 25 25 25 25 25 25 25 25 25 25 25 25 25 25 25 25 25 25 25 25 43 42 42 104 97 97 134 116 116 162 134 134 195 156 162 214 163 163 238 173 173 255 177 177 255 163 163 34 48 48 34 48 48 34 48 48 34 48 48 34 48 48 34 48 48 34 48 48 34 48 48 34 48 48 34 48 48 34 48 48 34 48 48 34 48 48 96 56 62 136 56 59 186 59 59 105 54 54 96 56 56 78 46 46 92 50 50 107 54 54 124 60 65 126 57 62 138 65 76 131 61 65 130 61 65 118 56 56 108 54 54 93 51 51 72 46 46 51 41 41 35 44 44 35 49 49 35 49 49 35 49 49 35 49 49 35 49 49 35 49 49 35 49 49 90 95 108 144 136 149 69 69 71 25 25 25 25 25 25 25 25 25 25 25 25 25 25 25 25 25 25 25 25 25 25 25 25 25 25 25 25 25 25 25 25 25 25 25 25 25 25 25 25 25 25 25 25 25 25 25 25 25 25 25 25 25 25 25 25 25 25 25 25 25 25 25 29 29 29 34 36 36 69 46 46 42 31 31 40 30 30 29 29 29 29 30 30 31 32 32 34 36 36 34 37 37 35 39 39 25 25 25 25 25 25 33 35 35 35 49 49 35 49 49 35 49 49 35 49 49 35 49 49 35 49 49 35 49 49 35 49 49 35 49 49 35 49 49 35 49 49 35 49 49 35 49 49 34 49 49 34 49 49 34 49 49 34 49 49 34 49 49 34 49 49 34 48 48 34 48 48 34 48 48 34 48 48 34 48 48 34 48 48 34 48 48 34 48 48 34 48 48 34 48 48 34 48 48 34 48 48 34 48 48 34 48 48 34 48 48 34 48 48 34 48 48 34 48 48 34 48 48 34 48 48 34 48 48 34 47 47 34 47 47 34 47 47 34 47 47 34 47 47 34 47 47 34 47 47 34 47 47 34 47 47 34 47 47 34 47 47 34 47 47 34 47 47 34 47 47 34 47 47 34 47 47 34 46 46 34 46 46 34 46 46 34 46 46 33 46 46 33 46 46 33 46 46 33 46 46 33 46 46 33 46 46 33 46 46 33 46 46 33 46 46 33 46 46 33 46 46 33 46 46 33 45 45 33 45 45 33 45 45 33 45 45 33 45 45 33 45 45 33 45 45 33 45 45 33 45 45 33 45 45 33 45 45 33 45 45 33 45 45 33 45 45 33 45 45 33 44 44 33 44 44 33 44 44 33 44 44 33 44 44 33 44 44 33 44 44 33 44 44 33 44 44 33 44 44 33 44 44 32 44 44 32 44 44 32 44 44 32 44 44 32 43 43 32 43 43 32 43 43 32 43 43 32 43 43 32 43 43 32 43 43 32 43 43 32 43 43 32 43 43 32 43 43 32 43 43 32 43 43 32 43 43 32 43 43 32 43 43 32 42 42 32 42 42 32 42 42 32 42 42 32 42 42 32 42 42 32 42 42 32 42 42 32 42 42 32 42 42 32 42 42 32 42 42 32 42 42 32 42 42 32 42 42 32 42 42 32 41 41 32 41 41 32 41 41 32 41 41 32 41 41 31 41 41 31 41 41 31 41 41 31 41 41 31 41 41 31 41 41 31 41 41 31 41 41 31 41 41 31 41 41 31 41 41 31 41 41 31 41 41 31 40 40 31 40 40 31 40 40 31 40 40 31 40 40 31 40 40 31 40 40 31 40 40 31 40 40 31 40 40 31 40 40 31 40 40 31 40 40 31 40 40 31 40 40 31 40 40 31 40 40 31 40 40 31 40 40 31 40 40 31 39 39 31 39 39 31 39 39 31 39 39 31 39 39 31 39 39 31 39 39 31 39 39 
32 44 44 33 44 44 31 37 37 31 34 37 62 50 64 38 38 67 43 43 85 54 54 108 69 69 133 87 87 161 102 102 184 120 120 215 131 131 234 136 136 246 146 146 255 143 143 255 125 126 255 99 98 199 45 54 83 33 45 45 33 45 45 33 45 45 33 45 45 33 45 45 33 45 45 33 45 45 33 45 45 33 46 46 33 46 46 33 46 46 36 46 57 37 47 61 38 47 62 39 48 62 33 46 46 33 46 46 33 46 46 33 46 46 42 43 59 30 31 31 25 25 25 25 25 25 25 25 25 25 25 25 25 25 25 25 25 25 25 25 25 25 25 25 25 25 25 25 25 25 25 25 25 25 25 25 25 25 25 25 25 25 25 25 25 41 40 40 94 89 99 124 109 109 165 140 148 179 142 142 209 160 166 224 163 163 233 157 157 145 92 93 34 48 48 34 48 48 34 48 48 34 48 48 34 48 48 34 48 48 34 48 48 34 48 48 34 48 48 34 48 48 34 48 48 83 52 57 133 57 61 198 73 84 227 82 82 255 109 109 138 75 75 83 50 50 59 44 44 75 47 47 90 53 54 95 53 53 100 53 54 98 52 52 96 53 53 89 51 51 78 48 48 62 45 45 48 41 41 36 41 41 34 46 46 35 49 49 35 49 49 35 49 49 35 49 49 35 49 49 35 49 49 35 50 50 84 92 101 76 76 82 25 25 25 25 25 25 25 25 25 25 25 25 25 25 25 25 25 25 25 25 25 25 25 25 25 25 25 25 25 25 25 25 25 25 25 25 25 25 25 25 25 25 25 25 25 25 25 25 25 25 25 25 25 25 25 25 25 25 25 25 25 25 25 25 25 25 29 30 30 34 36 36 83 55 55 74 46 46 96 57 57 51 39 39 34 35 35 34 36 36 34 37 37 35 38 38 35 39 39 25 25 25 25 25 25 29 30 30 35 47 47 35 50 50 35 49 49 35 49 49 35 49 49 35 49 49 35 49 49 35 49 49 35 49 49 35 49 49 35 49 49 35 49 49 35 49 49 35 49 49 35 49 49 35 49 49 35 49 49 35 49 49 35 49 49 35 49 49 35 49 49 35 49 49 34 49 49 34 49 49 34 49 49 34 49 49 34 49 49 34 49 49 34 48 48 34 48 48 34 48 48 34 48 48 34 48 48 34 48 48 34 48 48 34 48 48 34 48 48 34 48 48 34 48 48 34 48 48 34 48 48 34 48 48 34 48 48 34 48 48 34 48 48 34 47 47 34 47 47 34 47 47 34 47 47 34 47 47 34 47 47 34 47 47 34 47 47 34 47 47 34 47 47 34 47 47 34 47 47 34 47 47 34 47 47 34 47 47 34 47 47 34 46 46 34 46 46 34 46 46 34 46 46 33 46 46 33 46 46 33 46 46 33 46 46 33 46 46 33 46 46 33 46 46 33 46 46 33 46 46 33 46 46 33 46 46 33 45 45 33 45 45 33 45 45 33 45 45 33 45 45 33 45 45 33 45 45 33 45 45 33 45 45 33 45 45 33 45 45 33 45 45 33 45 45 33 45 45 33 44 44 33 44 44 33 44 44 33 44 44 33 44 44 33 44 44 33 44 44 33 44 44 33 44 44 33 44 44 33 44 44 33 44 44 32 44 44 32 44 44 32 44 44 32 43 43 32 43 43 32 43 43 32 43 43 32 43 43 32 43 43 32 43 43 32 43 43 32 43 43 32 43 43 32 43 43 32 43 43 32 43 43 32 43 43 32 43 43 32 43 43 32 42 42 32 42 42 32 42 42 32 42 42 32 42 42 32 42 42 32 42 42 32 42 42 32 42 42 32 42 42 32 42 42 32 42 42 32 42 42 32 42 42 32 42 42 32 42 42 32 41 41 32 41 41 32 41 41 32 41 41 32 41 41 31 41 41 31 41 41 31 41 41 31 41 41 31 41 41 31 41 41 31 41 41 31 41 41 31 41 41 31 41 41 31 41 41 31 41 41 31 41 41 31 40 40 31 40 40 31 40 40 31 40 40 31 40 40 31 40 40 31 40 40 31 40 40 31 40 40 31 40 40 31 40 40 31 40 40 31 40 40 31 40 40 31 40 40 31 40 40 31 40 40 31 40 40 31 40 40 31 39 39 31 39 39 31 39 39 31 39 39 31 39 39 31 39 39 
33 44 44 46 45 45 29 34 34 27 27 31 33 33 51 38 38 69 43 43 86 60 60 113 81 81 145 99 99 172 114 114 196 127 127 217 136 136 234 143 143 247 145 145 255 144 144 255 137 137 255 127 127 254 113 114 242 60 67 127 33 45 45 33 45 45 33 46 46 33 46 46 33 46 46 33 46 46 33 46 46 35 45 50 40 46 66 42 48 79 47 50 96 50 53 107 51 55 111 51 54 111 46 52 91 39 49 68 34 46 46 34 47 47 44 45 66 31 32 32 29 29 29 25 25 25 25 25 25 25 25 25 25 25 25 25 25 25 25 25 25 25 25 25 25 25 25 25 25 25 25 25 25 25 25 25 25 25 25 25 25 25 29 29 33 37 30 30 36 36 44 91 88 101 125 113 120 159 136 147 190 155 173 192 146 146 205 145 145 158 101 101 34 48 48 34 48 48 34 48 48 34 48 48 34 49 49 34 49 49 34 49 49 34 49 49 35 49 49 35 49 49 48 48 48 114 53 53 190 70 77 238 103 120 255 111 111 255 150 150 255 177 177 175 104 105 73 51 51 53 44 44 54 44 44 60 45 45 64 46 46 69 51 51 62 46 46 57 44 44 49 42 42 41 40 40 34 41 41 34 43 43 35 50 50 35 50 50 35 50 50 35 50 50 35 50 50 35 50 50 35 50 50 35 50 50 106 111 126 107 93 103 25 25 25 25 25 25 25 25 25 25 25 25 25 25 25 25 25 25 25 25 25 25 25 25 25 25 25 25 25 25 25 25 25 25 25 25 25 25 25 25 25 25 25 25 25 25 25 25 25 25 25 25 25 25 25 25 25 25 25 25 25 25 25 27 27 27 31 32 32 34 36 36 54 43 46 41 37 37 93 65 71 106 69 69 47 39 39 35 38 38 35 39 39 35 40 40 36 40 40 25 25 25 25 25 25 29 30 30 35 41 41 35 50 50 35 50 50 35 50 50 35 50 50 35 50 50 35 50 50 35 50 50 35 50 50 35 50 50 35 50 50 35 50 50 35 50 50 35 50 50 35 49 49 35 49 49 35 49 49 35 49 49 35 49 49 35 49 49 35 49 49 35 49 49 35 49 49 35 49 49 35 49 49 35 49 49 35 49 49 35 49 49 35 49 49 35 49 49 34 49 49 34 49 49 34 49 49 34 49 49 34 48 48 34 48 48 34 48 48 34 48 48 34 48 48 34 48 48 34 48 48 34 48 48 34 48 48 34 48 48 34 48 48 34 48 48 34 48 48 34 48 48 34 48 48 34 48 48 34 47 47 34 47 47 34 47 47 34 47 47 34 47 47 34 47 47 34 47 47 34 47 47 34 47 47 34 47 47 34 47 47 34 47 47 34 47 47 34 47 47 34 47 47 34 46 46 34 46 46 34 46 46 34 46 46 33 46 46 33 46 46 33 46 46 33 46 46 33 46 46 33 46 46 33 46 46 33 46 46 33 46 46 33 46 46 33 46 46 33 45 45 33 45 45 33 45 45 33 45 45 33 45 45 33 45 45 33 45 45 33 45 45 33 45 45 33 45 45 33 45 45 33 45 45 33 45 45 33 45 45 33 44 44 33 44 44 33 44 44 33 44 44 33 44 44 33 44 44 33 44 44 33 44 44 33 44 44 33 44 44 33 44 44 32 44 44 32 44 44 32 44 44 32 44 44 32 43 43 32 43 43 32 43 43 32 43 43 32 43 43 32 43 43 32 43 43 32 43 43 32 43 43 32 43 43 32 43 43 32 43 43 32 43 43 32 43 43 32 43 43 32 42 42 32 42 42 32 42 42 32 42 42 32 42 42 32 42 42 32 42 42 32 42 42 32 42 42 32 42 42 32 42 42 32 42 42 32 42 42 32 42 42 32 42 42 32 42 42 32 41 41 32 41 41 32 41 41 32 41 41 32 41 41 31 41 41 31 41 41 31 41 41 31 41 41 31 41 41 31 41 41 31 41 41 31 41 41 31 41 41 31 41 41 31 41 41 31 41 41 31 41 41 31 40 40 31 40 40 31 40 40 31 40 40 31 40 40 31 40 40 31 40 40 31 40 40 31 40 40 31 40 40 31 40 40 31 40 40 31 40 40 31 40 40 31 40 40 31 40 40 31 40 40 31 40 40 31 40 40 31 39 39 31 39 39 31 39 39 
33 44 44 29 35 35 25 25 25 27 27 31 33 33 50 38 38 68 44 44 86 65 65 117 87 87 149 105 105 176 121 121 201 134 134 222 145 145 241 153 153 255 158 158 255 159 159 255 156 156 255 148 148 255 130 130 254 109 109 239 65 72 136 33 46 46 33 46 46 33 46 46 33 46 46 33 46 46 33 43 47 39 45 68 45 48 91 53 53 119 84 78 156 74 72 159 75 75 167 74 74 168 69 69 161 61 61 144 53 57 114 41 51 67 35 42 48 31 33 33 31 31 31 29 29 29 26 26 26 25 25 25 25 25 25 25 25 25 25 25 25 25 25 25 25 25 25 25 25 25 25 25 25 25 25 25 25 25 25 25 25 25 34 34 41 44 44 61 39 40 49 67 53 62 63 62 63 114 106 109 143 122 129 174 139 149 176 131 131 198 120 121 34 49 49 35 49 49 35 49 49 35 49 49 35 49 49 35 49 49 35 49 49 35 49 49 35 49 49 35 49 49 74 52 56 158 62 68 183 60 60 238 98 103 255 137 137 255 175 175 255 203 203 255 227 228 255 194 194 167 99 99 63 50 51 50 44 46 48 42 42 43 40 40 39 41 41 39 39 39 34 42 42 34 44 44 35 47 47 35 50 50 35 50 50 35 50 50 35 50 50 35 50 50 35 50 50 35 50 50 35 50 50 35 50 50 133 128 144 80 62 62 27 27 27 25 25 25 25 25 25 25 25 25 25 25 25 25 25 25 25 25 25 25 25 25 25 25 25 25 25 25 25 25 25 25 25 25 25 25 25 25 25 25 25 25 25 25 25 25 25 25 25 25 25 25 25 25 25 25 25 25 27 27 27 29 30 30 33 35 35 34 37 37 50 41 46 59 48 55 51 40 42 97 62 63 75 46 46 35 39 39 36 40 40 36 41 41 30 33 33 25 25 25 27 27 27 31 32 32 35 38 38 35 50 50 35 50 50 35 50 50 35 50 50 35 50 50 35 50 50 35 50 50 35 50 50 35 50 50 35 50 50 35 50 50 35 50 50 35 50 50 35 50 50 35 50 50 35 50 50 35 50 50 35 50 50 35 50 50 35 50 50 35 50 50 35 49 49 35 49 49 35 49 49 35 49 49 35 49 49 35 49 49 35 49 49 35 49 49 35 49 49 35 49 49 35 49 49 35 49 49 35 49 49 35 49 49 34 49 49 34 49 49 34 49 49 34 49 49 34 48 48 34 48 48 34 48 48 34 48 48 34 48 48 34 48 48 34 48 48 34 48 48 34 48 48 34 48 48 34 48 48 34 48 48 34 48 48 34 48 48 34 48 48 34 47 47 34 47 47 34 47 47 34 47 47 34 47 47 34 47 47 34 47 47 34 47 47 34 47 47 34 47 47 34 47 47 34 47 47 34 47 47 34 47 47 34 46 46 34 46 46 34 46 46 34 46 46 33 46 46 33 46 46 33 46 46 33 46 46 33 46 46 33 46 46 33 46 46 33 46 46 33 46 46 33 46 46 33 45 45 33 45 45 33 45 45 33 45 45 33 45 45 33 45 45 33 45 45 33 45 45 33 45 45 33 45 45 33 45 45 33 45 45 33 45 45 33 45 45 33 44 44 33 44 44 33 44 44 33 44 44 33 44 44 33 44 44 33 44 44 33 44 44 33 44 44 33 44 44 33 44 44 32 44 44 32 44 44 32 44 44 32 44 44 32 43 43 32 43 43 32 43 43 32 43 43 32 43 43 32 43 43 32 43 43 32 43 43 32 43 43 32 43 43 32 43 43 32 43 43 32 43 43 32 43 43 32 43 43 32 42 42 32 42 42 32 42 42 32 42 42 32 42 42 32 42 42 32 42 42 32 42 42 32 42 42 32 42 42 32 42 42 32 42 42 32 42 42 32 42 42 32 42 42 32 42 42 32 41 41 32 41 41 32 41 41 32 41 41 32 41 41 31 41 41 31 41 41 31 41 41 31 41 41 31 41 41 31 41 41 31 41 41 31 41 41 31 41 41 31 41 41 31 41 41 31 41 41 31 41 41 31 40 40 31 40 40 31 40 40 31 40 40 31 40 40 31 40 40 31 40 40 31 40 40 31 40 40 31 40 40 31 40 40 31 40 40 31 40 40 31 40 40 31 40 40 31 40 40 31 40 40 31 40 40 31 40 40 
54 52 52 36 33 33 25 25 25 26 26 29 32 32 47 37 37 64 43 43 81 66 66 115 88 88 147 106 106 175 123 123 200 137 137 222 149 149 242 158 158 255 164 164 255 168 168 255 167 167 255 162 162 255 151 151 255 131 131 255 100 100 223 45 55 81 33 46 46 33 46 46 34 46 46 34 46 46 37 43 62 44 44 89 54 54 120 70 70 152 114 104 196 129 118 219 108 108 213 109 109 218 102 102 210 93 93 197 74 74 171 63 64 142 41 52 68 35 36 41 31 33 33 31 32 32 29 30 30 29 29 29 28 28 28 26 26 26 26 26 26 26 26 26 26 26 26 26 26 26 26 26 26 26 27 27 28 28 28 33 33 41 35 36 42 45 46 57 41 36 38 35 34 34 73 46 46 48 49 49 103 97 97 144 121 137 146 115 115 133 92 92 35 49 49 35 49 49 35 49 49 35 49 49 35 49 49 35 49 49 35 49 49 35 50 50 35 50 50 35 50 50 74 43 43 158 56 56 179 60 60 255 120 129 255 151 151 255 188 188 255 216 216 255 241 242 255 250 250 255 207 207 255 192 192 226 131 131 193 108 108 157 81 81 115 52 52 95 45 45 94 47 47 35 47 47 35 51 51 35 51 51 35 51 51 35 51 51 35 51 51 35 51 51 35 51 51 35 51 51 35 51 51 35 51 51 127 104 123 58 49 49 33 34 34 27 27 27 25 25 25 25 25 25 25 25 25 25 25 25 25 25 25 25 25 25 25 25 25 25 25 25 25 25 25 25 25 25 25 25 25 25 25 25 25 25 25 25 25 25 25 25 25 25 25 25 25 25 25 27 27 27 29 30 30 33 34 34 34 36 36 35 38 38 37 41 42 67 55 62 38 41 47 89 56 56 74 44 44 36 41 41 36 41 41 36 42 42 31 33 33 27 27 27 29 30 30 34 35 35 35 38 38 35 51 51 35 51 51 35 51 51 35 51 51 35 51 51 35 51 51 35 51 51 35 51 51 35 50 50 35 50 50 35 50 50 35 50 50 35 50 50 35 50 50 35 50 50 35 50 50 35 50 50 35 50 50 35 50 50 35 50 50 35 50 50 35 50 50 35 50 50 35 50 50 35 50 50 35 50 50 35 50 50 35 50 50 35 49 49 35 49 49 35 49 49 35 49 49 35 49 49 35 49 49 35 49 49 35 49 49 35 49 49 35 49 49 35 49 49 35 49 49 35 49 49 34 49 49 34 49 49 34 49 49 34 48 48 34 48 48 34 48 48 34 48 48 34 48 48 34 48 48 34 48 48 34 48 48 34 48 48 34 48 48 34 48 48 34 48 48 34 48 48 34 48 48 34 48 48 34 47 47 34 47 47 34 47 47 34 47 47 34 47 47 34 47 47 34 47 47 34 47 47 34 47 47 34 47 47 34 47 47 34 47 47 34 47 47 34 46 46 34 46 46 34 46 46 34 46 46 33 46 46 33 46 46 33 46 46 33 46 46 33 46 46 33 46 46 33 46 46 33 46 46 33 46 46 33 46 46 33 45 45 33 45 45 33 45 45 33 45 45 33 45 45 33 45 45 33 45 45 33 45 45 33 45 45 33 45 45 33 45 45 33 45 45 33 45 45 33 45 45 33 44 44 33 44 44 33 44 44 33 44 44 33 44 44 33 44 44 33 44 44 33 44 44 33 44 44 33 44 44 32 44 44 32 44 44 32 44 44 32 44 44 32 43 43 32 43 43 32 43 43 32 43 43 32 43 43 32 43 43 32 43 43 32 43 43 32 43 43 32 43 43 32 43 43 32 43 43 32 43 43 32 43 43 32 43 43 32 42 42 32 42 42 32 42 42 32 42 42 32 42 42 32 42 42 32 42 42 32 42 42 32 42 42 32 42 42 32 42 42 32 42 42 32 42 42 32 42 42 32 42 42 32 42 42 32 41 41 32 41 41 32 41 41 32 41 41 31 41 41 31 41 41 31 41 41 31 41 41 31 41 41 31 41 41 31 41 41 31 41 41 31 41 41 31 41 41 31 41 41 31 41 41 31 41 41 31 41 41 31 40 40 31 40 40 31 40 40 31 40 40 31 40 40 31 40 40 31 40 40 31 40 40 31 40 40 31 40 40 31 40 40 31 40 40 31 40 40 31 40 40 31 40 40 31 40 40 
40 43 64 25 25 25 25 25 25 25 25 26 30 30 43 35 35 59 40 40 75 62 62 108 85 85 140 104 104 168 121 121 194 136 136 217 148 148 238 159 159 255 166 166 255 171 171 255 173 173 255 172 172 255 163 163 255 148 148 255 123 123 245 94 95 222 34 46 46 34 47 47 34 47 47 34 41 48 41 41 73 50 50 109 62 62 139 87 87 177 123 121 221 128 128 236 138 138 252 142 142 255 140 140 255 135 135 250 115 115 229 82 82 185 65 65 146 47 47 65 32 34 34 31 33 33 31 32 32 31 32 32 31 32 32 31 31 31 29 30 30 29 30 30 29 30 30 29 30 30 29 30 30 29 30 30 31 32 32 37 38 45 63 53 68 37 35 36 52 40 46 37 38 47 77 49 49 32 35 35 47 49 49 110 101 117 116 99 99 86 76 76 35 49 49 35 50 50 35 50 50 35 50 50 35 50 50 35 50 50 35 50 50 35 50 50 35 50 50 35 50 50 96 48 54 155 57 57 175 59 59 251 115 116 255 152 152 255 190 190 255 218 218 255 240 240 255 252 253 255 253 255 255 241 241 255 219 219 255 184 184 255 140 140 220 86 86 166 54 54 129 52 52 35 51 51 35 51 51 35 51 51 35 51 51 35 51 51 35 51 51 35 51 51 35 51 51 35 51 51 35 51 51 35 51 51 95 86 104 46 40 40 34 35 35 33 34 34 29 29 29 27 27 27 25 25 25 30 30 39 38 38 53 37 37 50 33 33 44 29 29 33 25 25 25 25 25 25 25 25 25 25 25 25 35 29 29 30 30 36 79 53 53 30 30 37 69 46 46 45 34 34 33 35 35 34 36 36 34 37 37 35 39 39 39 42 48 42 45 56 48 52 62 84 55 55 89 66 66 36 42 42 37 42 42 34 38 38 30 31 31 29 30 30 34 35 35 34 37 37 35 39 39 35 51 51 35 51 51 35 51 51 35 51 51 35 51 51 35 51 51 35 51 51 35 51 51 35 51 51 35 51 51 35 51 51 35 51 51 35 51 51 35 51 51 35 51 51 35 51 51 35 51 51 35 50 50 35 50 50 35 50 50 35 50 50 35 50 50 35 50 50 35 50 50 35 50 50 35 50 50 35 50 50 35 50 50 35 50 50 35 50 50 35 50 50 35 50 50 35 50 50 35 50 50 35 49 49 35 49 49 35 49 49 35 49 49 35 49 49 35 49 49 35 49 49 35 49 49 35 49 49 35 49 49 35 49 49 35 49 49 34 49 49 34 49 49 34 49 49 34 48 48 34 48 48 34 48 48 34 48 48 34 48 48 34 48 48 34 48 48 34 48 48 34 48 48 34 48 48 34 48 48 34 48 48 34 48 48 34 48 48 34 47 47 34 47 47 34 47 47 34 47 47 34 47 47 34 47 47 34 47 47 34 47 47 34 47 47 34 47 47 34 47 47 34 47 47 34 47 47 34 46 46 34 46 46 34 46 46 33 46 46 33 46 46 33 46 46 33 46 46 33 46 46 33 46 46 33 46 46 33 46 46 33 46 46 33 46 46 33 45 45 33 45 45 33 45 45 33 45 45 33 45 45 33 45 45 33 45 45 33 45 45 33 45 45 33 45 45 33 45 45 33 45 45 33 45 45 33 45 45 33 44 44 33 44 44 33 44 44 33 44 44 33 44 44 33 44 44 33 44 44 33 44 44 33 44 44 33 44 44 32 44 44 32 44 44 32 44 44 32 44 44 32 43 43 32 43 43 32 43 43 32 43 43 32 43 43 32 43 43 32 43 43 32 43 43 32 43 43 32 43 43 32 43 43 32 43 43 32 43 43 32 43 43 32 43 43 32 42 42 32 42 42 32 42 42 32 42 42 32 42 42 32 42 42 32 42 42 32 42 42 32 42 42 32 42 42 32 42 42 32 42 42 32 42 42 32 42 42 32 42 42 32 42 42 32 41 41 32 41 41 32 41 41 32 41 41 31 41 41 31 41 41 31 41 41 31 41 41 31 41 41 31 41 41 31 41 41 31 41 41 31 41 41 31 41 41 31 41 41 31 41 41 31 41 41 31 40 40 31 40 40 31 40 40 31 40 40 31 40 40 31 40 40 31 40 40 31 40 40 31 40 40 31 40 40 31 40 40 31 40 40 31 40 40 31 40 40 
51 51 101 25 25 25 25 25 25 25 25 25 28 28 36 33 33 53 38 38 68 55 55 96 79 79 129 99 99 158 116 116 185 132 132 208 145 145 230 156 156 248 165 165 255 173 173 255 176 176 255 177 177 255 176 174 255 164 164 255 140 140 255 111 113 231 75 81 150 34 47 47 34 47 47 34 41 53 43 43 85 53 53 117 72 72 152 120 117 210 148 142 245 146 146 255 157 157 255 167 167 255 166 167 255 174 174 255 143 144 255 125 125 245 79 79 179 65 68 139 32 35 35 32 34 34 32 34 34 31 33 33 31 33 33 31 33 33 31 33 33 31 33 33 35 33 33 36 33 33 31 33 33 31 33 33 31 34 34 33 35 37 56 53 73 48 40 47 43 41 45 39 41 47 54 39 39 33 37 37 33 37 37 54 55 63 91 85 94 73 70 70 35 50 50 35 50 50 35 50 50 35 50 50 35 50 50 35 50 50 35 50 50 35 50 50 35 50 50 35 50 50 106 59 71 147 54 54 162 53 53 228 101 101 255 152 158 255 181 181 255 209 209 255 242 242 255 241 241 255 242 248 255 240 246 255 212 213 255 180 180 255 139 139 219 90 90 165 56 56 131 53 53 56 48 48 36 51 51 36 51 51 36 51 51 36 52 52 36 52 52 36 52 52 36 52 52 36 52 52 36 52 52 36 52 52 65 75 89 77 69 86 79 69 81 63 64 77 33 35 35 31 32 32 29 29 29 45 45 62 54 54 79 58 58 87 51 51 76 41 41 60 34 34 43 27 27 27 27 27 27 27 27 27 74 50 50 64 38 38 95 57 57 88 63 73 84 56 56 97 61 61 74 52 52 35 37 37 35 38 38 35 40 40 37 42 42 54 55 66 52 46 46 70 42 42 57 50 50 37 43 43 37 43 43 35 39 39 31 33 33 34 36 36 34 37 37 35 38 38 36 40 40 36 52 52 36 52 52 36 52 52 36 51 51 36 51 51 36 51 51 36 51 51 36 51 51 36 51 51 36 51 51 35 51 51 35 51 51 35 51 51 35 51 51 35 51 51 35 51 51 35 51 51 35 51 51 35 51 51 35 51 51 35 51 51 35 51 51 35 51 51 35 51 51 35 50 50 35 50 50 35 50 50 35 50 50 35 50 50 35 50 50 35 50 50 35 50 50 35 50 50 35 50 50 35 50 50 35 50 50 35 50 50 35 50 50 35 50 50 35 50 50 35 49 49 35 49 49 35 49 49 35 49 49 35 49 49 35 49 49 35 49 49 35 49 49 35 49 49 35 49 49 34 49 49 34 49 49 34 49 49 34 48 48 34 48 48 34 48 48 34 48 48 34 48 48 34 48 48 34 48 48 34 48 48 34 48 48 34 48 48 34 48 48 34 48 48 34 48 48 34 47 47 34 47 47 34 47 47 34 47 47 34 47 47 34 47 47 34 47 47 34 47 47 34 47 47 34 47 47 34 47 47 34 47 47 34 47 47 34 46 46 34 46 46 34 46 46 34 46 46 33 46 46 33 46 46 33 46 46 33 46 46 33 46 46 33 46 46 33 46 46 33 46 46 33 46 46 33 45 45 33 45 45 33 45 45 33 45 45 33 45 45 33 45 45 33 45 45 33 45 45 33 45 45 33 45 45 33 45 45 33 45 45 33 45 45 33 45 45 33 44 44 33 44 44 33 44 44 33 44 44 33 44 44 33 44 44 33 44 44 33 44 44 33 44 44 33 44 44 32 44 44 32 44 44 32 44 44 32 44 44 32 43 43 32 43 43 32 43 43 32 43 43 32 43 43 32 43 43 32 43 43 32 43 43 32 43 43 32 43 43 32 43 43 32 43 43 32 43 43 32 43 43 32 43 43 32 42 42 32 42 42 32 42 42 32 42 42 32 42 42 32 42 42 32 42 42 32 42 42 32 42 42 32 42 42 32 42 42 32 42 42 32 42 42 32 42 42 32 42 42 32 42 42 32 41 41 32 41 41 32 41 41 32 41 41 31 41 41 31 41 41 31 41 41 31 41 41 31 41 41 31 41 41 31 41 41 31 41 41 31 41 41 31 41 41 31 41 41 31 41 41 31 41 41 31 40 40 31 40 40 31 40 40 31 40 40 31 40 40 31 40 40 31 40 40 31 40 40 31 40 40 31 40 40 31 40 40 
133 54 54 25 25 25 25 25 25 25 25 25 26 26 29 31 31 45 36 36 61 43 43 78 70 70 114 90 90 144 109 109 171 125 125 196 139 139 218 150 150 237 160 160 253 169 169 255 180 180 255 176 176 255 177 177 255 193 186 255 180 168 255 127 129 245 81 85 193 34 47 47 34 47 47 39 40 59 44 44 90 53 53 119 77 77 159 131 128 222 137 137 241 155 155 255 172 172 255 175 175 255 180 180 255 188 188 255 167 168 255 143 144 255 104 105 214 72 74 161 50 43 46 32 35 35 32 35 35 32 35 35 32 34 34 32 34 34 36 34 34 43 34 34 46 35 35 53 37 37 50 37 37 48 36 36 40 36 36 32 35 35 39 41 50 43 44 53 40 43 53 33 36 36 54 40 40 33 38 38 33 38 38 35 38 40 44 48 48 60 62 62 35 50 50 35 50 50 35 50 50 35 50 50 35 51 51 35 51 51 35 51 51 35 51 51 35 51 51 35 51 51 89 53 71 130 50 50 148 50 50 199 82 82 255 147 162 255 163 163 255 190 190 255 225 225 255 222 223 255 224 226 255 228 240 255 200 203 255 166 166 255 131 131 208 86 86 159 57 57 126 53 53 61 49 49 36 52 52 36 52 52 36 52 52 36 52 52 36 52 52 36 52 52 36 52 52 63 75 87 92 100 123 89 97 116 117 122 154 139 127 154 146 135 162 113 114 139 115 115 142 86 86 102 88 88 108 80 80 116 72 72 105 70 70 101 62 62 89 49 49 72 40 40 57 33 33 38 31 32 32 66 45 45 56 46 55 88 63 63 52 40 40 95 53 53 62 45 53 91 61 61 106 68 69 50 41 41 35 40 40 36 41 41 37 43 43 60 46 47 93 63 63 63 49 49 37 44 44 37 44 44 51 43 43 51 40 40 34 37 37 35 38 38 35 39 39 35 40 40 36 41 41 36 52 52 36 52 52 36 52 52 36 52 52 36 52 52 36 52 52 36 52 52 36 52 52 36 52 52 36 52 52 36 52 52 36 52 52 36 52 52 36 51 51 36 51 51 36 51 51 36 51 51 36 51 51 35 51 51 35 51 51 35 51 51 35 51 51 35 51 51 35 51 51 35 51 51 35 51 51 35 51 51 35 51 51 35 51 51 35 51 51 35 50 50 35 50 50 35 50 50 35 50 50 35 50 50 35 50 50 35 50 50 35 50 50 35 50 50 35 50 50 35 50 50 35 50 50 35 50 50 35 50 50 35 49 49 35 49 49 35 49 49 35 49 49 35 49 49 35 49 49 35 49 49 35 49 49 35 49 49 35 49 49 34 49 49 34 49 49 34 49 49 34 49 49 34 48 48 34 48 48 34 48 48 34 48 48 34 48 48 34 48 48 34 48 48 34 48 48 34 48 48 34 48 48 34 48 48 34 48 48 34 47 47 34 47 47 34 47 47 34 47 47 34 47 47 34 47 47 34 47 47 34 47 47 34 47 47 34 47 47 34 47 47 34 47 47 34 47 47 34 46 46 34 46 46 34 46 46 33 46 46 33 46 46 33 46 46 33 46 46 33 46 46 33 46 46 33 46 46 33 46 46 33 46 46 33 45 45 33 45 45 33 45 45 33 45 45 33 45 45 33 45 45 33 45 45 33 45 45 33 45 45 33 45 45 33 45 45 33 45 45 33 45 45 33 45 45 33 44 44 33 44 44 33 44 44 33 44 44 33 44 44 33 44 44 33 44 44 33 44 44 33 44 44 33 44 44 32 44 44 32 44 44 32 44 44 32 43 43 32 43 43 32 43 43 32 43 43 32 43 43 32 43 43 32 43 43 32 43 43 32 43 43 32 43 43 32 43 43 32 43 43 32 43 43 32 43 43 32 43 43 32 42 42 32 42 42 32 42 42 32 42 42 32 42 42 32 42 42 32 42 42 32 42 42 32 42 42 32 42 42 32 42 42 32 42 42 32 42 42 32 42 42 32 42 42 32 42 42 32 41 41 32 41 41 32 41 41 32 41 41 31 41 41 31 41 41 31 41 41 31 41 41 31 41 41 31 41 41 31 41 41 31 41 41 31 41 41 31 41 41 31 41 41 31 41 41 31 41 41 31 41 41 31 40 40 31 40 40 31 40 40 31 40 40 31 40 40 31 40 40 31 40 40 31 40 40 
66 45 45 25 25 25 25 25 25 25 25 25 25 25 25 29 29 37 33 33 52 37 37 67 57 57 96 79 79 127 98 98 155 115 115 180 129 129 202 142 142 222 156 156 243 196 189 255 187 186 255 190 188 255 168 168 255 162 163 255 167 160 255 176 158 255 91 95 202 34 47 47 34 48 48 56 54 82 52 52 104 53 53 117 79 79 159 120 120 213 138 138 241 157 157 255 180 180 255 182 182 255 183 183 255 173 173 255 195 195 255 151 153 255 119 121 231 76 79 172 63 67 131 37 40 45 32 36 36 32 36 36 32 35 35 32 35 35 43 35 35 56 36 36 67 42 42 75 47 47 80 50 50 80 49 49 69 46 48 43 38 39 39 39 39 37 38 39 39 38 38 60 47 48 53 45 45 34 39 39 34 39 41 35 38 42 40 41 41 35 51 51 35 51 51 35 51 51 35 51 51 35 51 51 35 51 51 35 51 51 35 51 51 35 51 51 35 51 51 36 51 51 63 45 54 106 47 47 146 53 53 164 59 59 235 116 124 255 136 136 255 164 164 255 191 191 255 193 193 255 206 216 255 198 198 255 192 203 255 149 149 239 115 115 188 78 78 149 58 58 115 52 52 59 49 49 36 52 52 36 52 52 36 52 52 36 52 52 36 52 52 63 75 86 89 97 116 129 123 150 141 142 178 136 136 164 133 133 156 130 130 150 128 128 146 127 127 143 126 126 142 128 128 146 131 131 153 115 115 139 104 104 133 90 90 120 69 69 97 57 57 81 41 41 60 41 39 50 34 36 36 73 53 53 83 60 60 55 49 59 47 39 39 35 37 37 52 50 62 44 38 38 96 61 63 50 42 42 36 41 41 36 42 42 61 46 46 37 45 45 83 62 63 58 51 51 37 45 45 39 44 49 86 62 62 69 42 42 35 39 39 35 40 40 36 40 40 36 41 41 36 47 47 36 52 52 36 52 52 36 52 52 36 52 52 36 52 52 36 52 52 36 52 52 36 52 52 36 52 52 36 52 52 36 52 52 36 52 52 36 52 52 36 52 52 36 52 52 36 52 52 36 52 52 36 52 52 36 52 52 36 52 52 36 52 52 36 51 51 36 51 51 36 51 51 36 51 51 35 51 51 35 51 51 35 51 51 35 51 51 35 51 51 35 51 51 35 51 51 35 51 51 35 51 51 35 51 51 35 51 51 35 50 50 35 50 50 35 50 50 35 50 50 35 50 50 35 50 50 35 50 50 35 50 50 35 50 50 35 50 50 35 50 50 35 50 50 35 50 50 35 49 49 35 49 49 35 49 49 35 49 49 35 49 49 35 49 49 35 49 49 35 49 49 35 49 49 34 49 49 34 49 49 34 49 49 34 48 48 34 48 48 34 48 48 34 48 48 34 48 48 34 48 48 34 48 48 34 48 48 34 48 48 34 48 48 34 48 48 34 48 48 34 48 48 34 47 47 34 47 47 34 47 47 34 47 47 34 47 47 34 47 47 34 47 47 34 47 47 34 47 47 34 47 47 34 47 47 34 47 47 34 46 46 34 46 46 34 46 46 33 46 46 33 46 46 33 46 46 33 46 46 33 46 46 33 46 46 33 46 46 33 46 46 33 46 46 33 45 45 33 45 45 33 45 45 33 45 45 33 45 45 33 45 45 33 45 45 33 45 45 33 45 45 33 45 45 33 45 45 33 45 45 33 45 45 33 44 44 33 44 44 33 44 44 33 44 44 33 44 44 33 44 44 33 44 44 33 44 44 33 44 44 33 44 44 33 44 44 32 44 44 32 44 44 32 44 44 32 43 43 32 43 43 32 43 43 32 43 43 32 43 43 32 43 43 32 43 43 32 43 43 32 43 43 32 43 43 32 43 43 32 43 43 32 43 43 32 43 43 32 43 43 32 42 42 32 42 42 32 42 42 32 42 42 32 42 42 32 42 42 32 42 42 32 42 42 32 42 42 32 42 42 32 42 42 32 42 42 32 42 42 32 42 42 32 42 42 32 42 42 32 41 41 32 41 41 32 41 41 32 41 41 31 41 41 31 41 41 31 41 41 31 41 41 31 41 41 31 41 41 31 41 41 31 41 41 31 41 41 31 41 41 31 41 41 31 41 41 31 41 41 31 40 40 31 40 40 31 40 40 31 40 40 31 40 40 31 40 40 
184 98 98 33 34 34 25 25 25 25 25 25 25 25 25 26 26 28 30 30 43 35 35 57 41 41 73 65 65 106 85 85 135 103 103 161 118 118 184 131 131 204 169 161 241 173 164 252 200 187 255 165 165 255 174 174 255 159 161 255 151 154 255 161 147 254 101 101 204 57 65 115 34 48 48 57 57 90 72 72 144 51 51 111 71 71 147 107 107 196 198 181 255 153 153 255 194 194 255 179 179 255 192 192 255 181 181 255 161 161 255 150 152 255 124 127 235 81 85 179 66 71 141 36 44 50 37 39 44 33 36 36 33 36 36 33 36 36 53 35 35 64 39 39 78 50 50 91 59 59 98 65 65 100 65 65 95 61 61 83 49 49 53 39 39 62 50 50 53 43 45 60 49 49 34 40 40 34 40 40 39 42 49 44 46 57 34 45 45 35 51 51 35 51 51 35 51 51 35 51 51 36 51 51 36 51 51 36 51 51 36 52 52 36 52 52 36 52 52 36 52 52 43 37 38 85 46 46 142 62 62 143 55 55 176 73 73 242 127 144 255 133 133 255 153 153 255 174 174 255 169 169 255 178 187 255 159 167 245 125 125 203 93 93 164 68 68 133 57 57 99 50 50 53 48 48 36 53 53 36 53 53 36 53 53 86 88 102 115 113 133 115 120 146 149 142 172 131 131 152 126 126 141 101 101 111 98 98 105 74 74 79 73 73 77 72 72 75 72 72 75 72 72 75 72 72 76 75 75 81 101 101 110 112 112 128 104 104 131 62 62 86 45 45 65 47 44 58 42 41 43 48 40 40 114 69 69 82 62 71 63 54 63 76 56 65 43 44 54 36 40 40 90 58 58 55 45 45 36 42 42 37 42 42 70 56 57 40 44 44 38 45 45 38 45 45 39 43 43 42 45 48 74 51 59 88 65 65 36 41 41 36 41 41 36 42 42 36 42 42 36 48 48 36 53 53 36 53 53 36 53 53 36 53 53 36 53 53 36 53 53 36 53 53 36 53 53 36 53 53 36 53 53 36 52 52 36 52 52 36 52 52 36 52 52 36 52 52 36 52 52 36 52 52 36 52 52 36 52 52 36 52 52 36 52 52 36 52 52 36 52 52 36 52 52 36 52 52 36 52 52 36 52 52 36 51 51 36 51 51 36 51 51 35 51 51 35 51 51 35 51 51 35 51 51 35 51 51 35 51 51 35 51 51 35 51 51 35 51 51 35 51 51 35 50 50 35 50 50 35 50 50 35 50 50 35 50 50 35 50 50 35 50 50 35 50 50 35 50 50 35 50 50 35 50 50 35 50 50 35 50 50 35 49 49 35 49 49 35 49 49 35 49 49 35 49 49 35 49 49 35 49 49 35 49 49 35 49 49 34 49 49 34 49 49 34 49 49 34 48 48 34 48 48 34 48 48 34 48 48 34 48 48 34 48 48 34 48 48 34 48 48 34 48 48 34 48 48 34 48 48 34 48 48 34 47 47 34 47 47 34 47 47 34 47 47 34 47 47 34 47 47 34 47 47 34 47 47 34 47 47 34 47 47 34 47 47 34 47 47 34 46 46 34 46 46 34 46 46 33 46 46 33 46 46 33 46 46 33 46 46 33 46 46 33 46 46 33 46 46 33 46 46 33 46 46 33 45 45 33 45 45 33 45 45 33 45 45 33 45 45 33 45 45 33 45 45 33 45 45 33 45 45 33 45 45 33 45 45 33 45 45 33 45 45 33 44 44 33 44 44 33 44 44 33 44 44 33 44 44 33 44 44 33 44 44 33 44 44 33 44 44 33 44 44 32 44 44 32 44 44 32 44 44 32 44 44 32 43 43 32 43 43 32 43 43 32 43 43 32 43 43 32 43 43 32 43 43 32 43 43 32 43 43 32 43 43 32 43 43 32 43 43 32 43 43 32 43 43 32 43 43 32 42 42 32 42 42 32 42 42 32 42 42 32 42 42 32 42 42 32 42 42 32 42 42 32 42 42 32 42 42 32 42 42 32 42 42 32 42 42 32 42 42 32 42 42 32 41 41 32 41 41 32 41 41 32 41 41 32 41 41 31 41 41 31 41 41 31 41 41 31 41 41 31 41 41 31 41 41 31 41 41 31 41 41 31 41 41 31 41 41 31 41 41 31 41 41 31 41 41 31 40 40 31 40 40 31 40 40 
233 133 133 34 36 36 31 32 32 27 27 27 25 25 25 25 25 25 27 27 32 31 31 47 36 36 60 47 47 81 69 69 112 88 88 139 104 104 162 117 117 184 152 146 219 180 169 255 177 166 253 162 154 245 158 160 255 153 157 255 145 149 250 128 134 235 119 103 201 55 64 111 34 48 48 53 53 79 90 90 157 50 51 103 58 58 127 93 93 176 129 129 223 146 146 248 168 167 255 195 185 255 196 191 255 174 177 255 161 164 255 145 149 255 120 125 229 82 88 180 66 71 141 35 50 50 51 44 49 37 40 45 33 37 37 33 37 37 55 36 36 65 38 38 83 54 54 98 65 65 106 72 72 110 74 74 106 70 70 100 64 66 74 42 42 47 39 39 65 52 52 37 42 42 34 40 40 34 40 40 34 39 40 36 45 49 47 52 52 36 51 51 36 52 52 36 52 52 36 52 52 36 52 52 62 52 52 69 52 52 102 54 54 106 55 55 103 55 55 72 53 53 70 50 50 85 46 48 151 69 69 121 54 54 141 57 57 171 74 74 212 105 114 233 121 129 255 138 147 253 133 135 252 132 140 229 118 124 196 94 94 167 74 74 137 59 59 113 54 54 76 46 46 41 46 46 36 53 53 36 53 53 64 78 90 114 109 125 120 117 136 130 130 150 102 102 114 76 76 82 73 73 76 49 49 50 47 47 48 25 25 25 25 25 25 25 25 25 25 25 25 25 25 25 25 25 25 25 25 25 47 47 47 50 50 51 77 77 83 89 88 103 47 48 68 49 46 60 45 44 47 35 40 40 55 48 49 46 41 41 47 44 50 36 40 41 54 56 74 36 40 40 79 53 53 89 65 65 37 43 43 38 45 45 52 47 47 38 46 46 38 45 45 42 47 47 45 50 58 87 64 77 78 52 52 46 43 43 37 42 42 37 43 43 37 43 43 37 45 45 36 51 51 36 53 53 36 53 53 36 53 53 36 53 53 36 53 53 36 53 53 36 53 53 36 53 53 36 53 53 36 53 53 36 53 53 36 53 53 36 53 53 36 53 53 36 53 53 36 53 53 36 53 53 36 52 52 36 52 52 36 52 52 36 52 52 36 52 52 36 52 52 36 52 52 36 52 52 36 52 52 36 52 52 36 52 52 36 52 52 36 52 52 36 52 52 36 52 52 36 51 51 36 51 51 36 51 51 35 51 51 35 51 51 35 51 51 35 51 51 35 51 51 35 51 51 35 51 51 35 51 51 35 51 51 35 51 51 35 50 50 35 50 50 35 50 50 35 50 50 84 74 74 80 74 74 76 72 72 71 70 70 67 68 68 35 50 50 35 50 50 35 50 50 35 49 49 35 49 49 35 49 49 35 49 49 35 49 49 35 49 49 35 49 49 35 49 49 34 49 49 34 49 49 34 49 49 34 48 48 34 48 48 34 48 48 34 48 48 34 48 48 34 48 48 34 48 48 34 48 48 34 48 48 34 48 48 34 48 48 34 48 48 34 47 47 34 47 47 34 47 47 34 47 47 34 47 47 34 47 47 34 47 47 34 47 47 34 47 47 34 47 47 34 47 47 34 47 47 34 46 46 34 46 46 34 46 46 33 46 46 33 46 46 33 46 46 33 46 46 33 46 46 33 46 46 33 46 46 33 46 46 33 46 46 33 45 45 33 45 45 33 45 45 33 45 45 33 45 45 33 45 45 33 45 45 33 45 45 33 45 45 33 45 45 33 45 45 33 45 45 33 45 45 33 44 44 33 44 44 33 44 44 33 44 44 33 44 44 33 44 44 33 44 44 33 44 44 33 44 44 33 44 44 32 44 44 32 44 44 32 44 44 32 43 43 32 43 43 32 43 43 32 43 43 32 43 43 32 43 43 32 43 43 32 43 43 32 43 43 32 43 43 32 43 43 32 43 43 32 43 43 32 43 43 32 43 43 32 42 42 32 42 42 32 42 42 32 42 42 32 42 42 32 42 42 32 42 42 32 42 42 32 42 42 32 42 42 32 42 42 32 42 42 32 42 42 32 42 42 32 42 42 32 42 42 32 41 41 32 41 41 32 41 41 32 41 41 31 41 41 31 41 41 31 41 41 31 41 41 31 41 41 31 41 41 31 41 41 31 41 41 31 41 41 31 41 41 31 41 41 31 41 41 31 41 41 31 40 40 
255 242 244 35 37 37 34 36 36 31 33 33 31 32 32 29 29 29 27 27 28 30 30 38 34 34 51 38 38 64 51 52 86 72 73 116 91 92 143 106 106 165 128 124 190 172 155 236 164 158 248 186 163 246 145 150 237 164 164 255 135 141 234 119 126 219 96 94 184 59 67 122 34 49 49 39 44 53 87 87 140 64 65 124 58 61 121 78 80 154 108 110 195 135 137 231 174 169 255 166 168 255 191 180 255 175 177 255 153 160 255 136 143 248 107 114 211 77 83 168 63 68 131 35 50 50 35 50 50 45 42 46 35 38 42 33 38 38 37 37 37 62 38 39 78 48 48 94 61 61 105 70 70 108 72 72 105 69 69 97 61 64 69 46 46 40 41 42 35 40 40 34 40 40 42 46 53 36 41 46 44 44 46 47 49 49 36 52 52 36 52 52 36 52 52 36 52 52 52 51 51 100 60 66 119 65 75 153 60 63 164 62 62 203 67 67 204 67 67 166 61 61 153 57 57 90 55 55 127 67 69 94 49 49 116 54 54 132 58 58 149 65 65 177 84 91 182 86 87 195 97 106 186 89 92 172 80 80 152 69 69 132 59 59 114 55 55 87 49 49 55 42 42 36 49 49 36 54 54 36 54 54 102 106 120 163 152 181 124 124 138 75 75 82 71 71 74 47 47 48 25 25 25 25 25 25 25 25 25 25 25 25 25 25 25 25 25 25 25 25 25 25 25 25 25 25 25 25 25 25 25 25 25 25 25 25 25 25 25 49 49 50 81 81 89 46 44 56 44 44 61 45 48 58 38 42 45 54 56 72 47 50 58 53 52 64 36 42 42 39 41 41 55 45 46 37 43 43 42 43 43 43 44 44 55 49 49 46 44 44 38 44 44 59 51 51 56 50 53 69 51 51 92 65 65 37 43 43 37 43 43 37 44 44 37 43 43 37 49 49 37 54 54 37 54 54 37 54 54 36 54 54 36 54 54 36 54 54 36 54 54 36 54 54 36 53 53 36 53 53 36 53 53 36 53 53 36 53 53 36 53 53 36 53 53 36 53 53 36 53 53 36 53 53 36 53 53 36 53 53 36 53 53 36 53 53 36 53 53 36 53 53 36 53 53 36 52 52 36 52 52 36 52 52 36 52 52 36 52 52 36 52 52 36 52 52 36 52 52 36 52 52 36 52 52 36 52 52 36 52 52 36 52 52 36 51 51 36 51 51 36 51 51 35 51 51 35 51 51 35 51 51 35 51 51 35 51 51 35 51 51 96 80 80 148 107 107 140 107 107 130 105 105 166 124 124 151 118 118 136 111 111 122 104 104 109 97 97 73 77 77 32 44 44 35 50 50 35 50 50 35 50 50 35 49 49 35 49 49 35 49 49 35 49 49 35 49 49 35 49 49 35 49 49 35 49 49 35 49 49 34 49 49 34 49 49 34 49 49 34 48 48 34 48 48 34 48 48 34 48 48 34 48 48 34 48 48 34 48 48 34 48 48 34 48 48 34 48 48 34 48 48 34 47 47 34 47 47 34 47 47 34 47 47 34 47 47 34 47 47 34 47 47 34 47 47 34 47 47 34 47 47 34 47 47 34 47 47 34 46 46 34 46 46 34 46 46 33 46 46 33 46 46 33 46 46 33 46 46 33 46 46 33 46 46 33 46 46 33 46 46 33 46 46 33 45 45 33 45 45 33 45 45 33 45 45 33 45 45 33 45 45 33 45 45 33 45 45 33 45 45 33 45 45 33 45 45 33 45 45 33 44 44 33 44 44 33 44 44 33 44 44 33 44 44 33 44 44 33 44 44 33 44 44 33 44 44 33 44 44 32 44 44 32 44 44 32 44 44 32 44 44 32 43 43 32 43 43 32 43 43 32 43 43 32 43 43 32 43 43 32 43 43 32 43 43 32 43 43 32 43 43 32 43 43 32 43 43 32 43 43 32 43 43 32 43 43 32 42 42 32 42 42 32 42 42 32 42 42 32 42 42 32 42 42 32 42 42 32 42 42 32 42 42 32 42 42 32 42 42 32 42 42 32 42 42 32 42 42 32 42 42 32 41 41 32 41 41 32 41 41 32 41 41 31 41 41 31 41 41 31 41 41 31 41 41 31 41 41 31 41 41 31 41 41 31 41 41 31 41 41 31 41 41 31 41 41 31 41 41 
255 245 245 35 39 39 35 38 38 34 37 37 34 36 36 34 36 36 32 33 33 32 33 34 35 37 45 39 41 58 43 45 71 56 58 92 76 79 121 92 95 145 108 107 164 181 150 213 138 132 206 144 140 214 131 138 217 139 141 234 121 129 213 104 112 196 108 99 180 67 72 144 35 49 49 35 49 49 59 61 89 75 76 135 56 61 109 63 68 130 85 90 165 111 116 200 128 135 226 139 145 241 147 155 255 144 152 253 133 140 240 115 121 217 90 96 184 69 75 150 56 61 107 35 50 50 35 51 51 35 51 51 39 51 56 34 41 41 38 41 47 40 38 38 59 41 41 80 50 52 89 56 56 96 60 60 91 57 58 75 51 52 56 42 42 34 40 40 36 41 41 35 39 43 34 39 40 46 51 62 40 45 45 36 52 52 36 52 52 36 52 52 36 52 52 52 51 51 98 57 60 140 59 62 210 81 91 242 96 106 254 98 101 255 106 106 255 107 107 255 100 100 240 83 83 209 65 65 107 69 69 101 57 58 86 49 49 103 53 53 117 56 56 126 57 57 136 64 64 138 64 64 138 65 65 131 62 62 118 57 57 104 54 54 84 49 49 59 43 43 40 47 47 37 54 54 37 54 54 88 97 112 146 140 168 99 99 110 73 73 77 47 47 48 25 25 25 25 25 25 25 25 25 25 25 25 25 25 25 25 25 25 25 25 25 25 25 25 25 25 25 25 25 25 25 25 25 25 25 25 25 25 25 25 25 25 25 25 25 25 25 25 27 27 27 61 60 66 52 55 72 56 58 74 41 46 52 57 56 69 37 43 43 40 45 52 39 42 44 85 65 65 51 47 47 37 44 44 38 46 46 39 46 46 61 54 54 83 57 59 38 46 46 89 59 59 65 51 51 50 46 46 55 49 49 37 44 44 37 44 44 37 44 44 37 49 49 37 51 51 37 54 54 37 54 54 37 54 54 37 54 54 37 54 54 37 54 54 37 54 54 37 54 54 37 54 54 37 54 54 37 54 54 37 54 54 36 54 54 36 54 54 36 54 54 36 54 54 36 53 53 36 53 53 36 53 53 36 53 53 36 53 53 36 53 53 36 53 53 36 53 53 36 53 53 36 53 53 36 53 53 36 53 53 36 53 53 36 53 53 36 52 52 36 52 52 36 52 52 36 52 52 36 52 52 36 52 52 36 52 52 36 52 52 36 52 52 36 52 52 36 52 52 36 52 52 36 51 51 36 51 51 36 51 51 103 83 83 165 118 118 156 119 119 205 146 146 244 169 169 221 161 161 198 150 150 175 139 139 152 127 127 131 115 115 97 88 88 70 65 65 49 46 46 29 33 33 32 44 44 35 50 50 35 50 50 35 50 50 35 50 50 35 50 50 35 49 49 35 49 49 35 49 49 35 49 49 35 49 49 35 49 49 35 49 49 35 49 49 34 49 49 34 49 49 34 49 49 34 48 48 34 48 48 34 48 48 34 48 48 34 48 48 34 48 48 34 48 48 34 48 48 34 48 48 34 48 48 34 48 48 34 47 47 34 47 47 34 47 47 34 47 47 34 47 47 34 47 47 34 47 47 34 47 47 34 47 47 34 47 47 34 47 47 34 46 46 34 46 46 34 46 46 33 46 46 33 46 46 33 46 46 33 46 46 33 46 46 33 46 46 33 46 46 33 46 46 33 46 46 33 45 45 33 45 45 33 45 45 33 45 45 33 45 45 33 45 45 33 45 45 33 45 45 33 45 45 33 45 45 33 45 45 33 45 45 33 45 45 33 44 44 33 44 44 33 44 44 33 44 44 33 44 44 33 44 44 33 44 44 33 44 44 33 44 44 33 44 44 32 44 44 32 44 44 32 44 44 32 43 43 32 43 43 32 43 43 32 43 43 32 43 43 32 43 43 32 43 43 32 43 43 32 43 43 32 43 43 32 43 43 32 43 43 32 43 43 32 43 43 32 43 43 32 42 42 32 42 42 32 42 42 32 42 42 32 42 42 32 42 42 32 42 42 32 42 42 32 42 42 32 42 42 32 42 42 32 42 42 32 42 42 32 42 42 32 42 42 32 42 42 32 41 41 32 41 41 32 41 41 32 41 41 31 41 41 31 41 41 31 41 41 31 41 41 31 41 41 31 41 41 31 41 41 31 41 41 31 41 41 
255 253 255 255 237 237 35 39 39 35 39 39 35 38 38 35 38 38 35 38 38 35 38 38 35 39 40 39 42 51 43 46 64 46 50 76 55 60 93 71 76 117 86 92 139 98 103 157 137 125 186 132 128 193 124 129 210 119 122 203 102 111 185 86 94 168 103 88 158 66 71 139 35 49 49 35 49 49 38 44 48 56 57 88 50 55 87 57 62 111 63 69 130 79 85 156 96 102 181 109 115 200 114 121 209 113 119 208 102 109 197 88 95 178 72 78 154 62 68 128 47 58 84 35 51 51 74 64 64 83 72 72 140 96 96 157 102 102 161 104 104 172 109 111 179 112 112 193 110 110 135 82 82 133 75 75 58 44 45 47 42 45 41 45 51 36 40 44 34 40 40 36 43 45 40 49 54 35 49 49 36 52 52 36 53 53 36 53 53 36 53 53 36 53 53 82 49 49 166 62 63 195 64 64 236 92 92 255 130 135 255 145 145 255 161 161 255 164 164 255 159 159 255 141 142 255 109 110 200 76 76 106 69 70 80 47 47 69 46 46 85 50 50 95 52 52 101 54 54 103 54 54 103 55 56 96 53 53 86 50 50 71 47 47 54 43 43 41 44 44 36 50 50 37 55 55 63 77 88 110 115 137 97 97 107 71 71 73 25 25 25 25 25 25 25 25 25 25 25 25 25 25 25 25 25 25 25 25 25 25 25 25 25 25 25 25 25 25 25 25 25 25 25 25 25 25 25 25 25 25 25 25 25 25 25 25 25 25 25 25 25 25 25 25 25 27 27 27 59 62 68 47 53 62 41 47 53 40 46 52 39 46 46 38 44 45 59 47 47 60 52 53 58 50 50 39 47 47 38 46 46 39 48 48 39 47 47 75 59 59 45 45 45 71 54 54 68 54 54 38 46 46 38 45 45 38 45 45 38 45 45 36 41 41 37 52 52 37 55 55 37 55 55 37 55 55 37 55 55 37 55 55 37 55 55 37 55 55 37 54 54 37 54 54 37 54 54 37 54 54 37 54 54 37 54 54 37 54 54 37 54 54 37 54 54 37 54 54 37 54 54 37 54 54 36 54 54 36 54 54 36 54 54 36 54 54 36 53 53 36 53 53 36 53 53 36 53 53 36 53 53 36 53 53 36 53 53 36 53 53 36 53 53 36 53 53 36 53 53 36 53 53 36 53 53 36 52 52 36 52 52 36 52 52 36 52 52 36 52 52 36 52 52 36 52 52 36 52 52 36 52 52 174 115 115 172 126 126 229 159 159 255 182 182 252 179 179 230 171 171 208 160 160 186 148 148 151 129 129 107 96 96 74 69 69 46 45 45 25 25 25 25 25 25 25 25 25 26 27 27 30 35 35 35 50 50 35 50 50 35 50 50 35 50 50 35 50 50 35 50 50 35 50 50 35 49 49 35 49 49 35 49 49 35 49 49 35 49 49 35 49 49 35 49 49 35 49 49 34 49 49 34 49 49 34 49 49 34 48 48 34 48 48 34 48 48 34 48 48 34 48 48 34 48 48 34 48 48 34 48 48 34 48 48 34 48 48 34 48 48 34 47 47 34 47 47 34 47 47 34 47 47 34 47 47 34 47 47 34 47 47 34 47 47 34 47 47 34 47 47 34 47 47 34 46 46 34 46 46 34 46 46 33 46 46 33 46 46 33 46 46 33 46 46 33 46 46 33 46 46 33 46 46 33 46 46 33 46 46 33 45 45 33 45 45 33 45 45 33 45 45 33 45 45 33 45 45 33 45 45 33 45 45 33 45 45 33 45 45 33 45 45 33 45 45 33 44 44 33 44 44 33 44 44 33 44 44 33 44 44 33 44 44 33 44 44 33 44 44 33 44 44 33 44 44 32 44 44 32 44 44 32 44 44 32 44 44 32 43 43 32 43 43 32 43 43 32 43 43 32 43 43 32 43 43 32 43 43 32 43 43 32 43 43 32 43 43 32 43 43 32 43 43 32 43 43 32 43 43 32 42 42 32 42 42 32 42 42 32 42 42 32 42 42 32 42 42 32 42 42 32 42 42 32 42 42 32 42 42 32 42 42 32 42 42 32 42 42 32 42 42 32 42 42 32 42 42 32 41 41 32 41 41 32 41 41 32 41 41 31 41 41 31 41 41 31 41 41 31 41 41 31 41 41 31 41 41 31 41 41 
255 252 255 255 233 233 120 81 81 35 40 40 35 40 40 35 40 40 36 40 40 36 40 40 36 40 40 36 41 42 39 45 52 43 49 65 47 53 76 53 59 90 63 70 108 89 90 141 94 100 159 101 108 173 106 111 184 98 102 175 80 89 152 70 79 141 60 67 122 65 70 138 35 50 50 35 50 50 35 50 50 38 44 48 41 46 57 50 55 85 55 61 105 60 66 121 74 79 142 76 82 151 83 89 162 81 87 161 76 83 155 68 74 141 61 67 124 51 59 94 71 63 81 106 81 81 121 95 100 171 116 116 190 131 131 255 164 164 255 179 179 255 190 190 255 198 198 255 201 201 255 192 192 255 165 165 196 118 119 113 75 77 40 47 51 41 51 57 36 46 49 36 50 50 36 53 53 36 53 53 36 53 53 36 53 53 36 53 53 36 53 53 67 51 56 126 54 60 164 53 53 213 79 79 255 130 133 255 164 167 255 184 184 255 200 200 255 206 206 255 206 206 255 190 190 255 166 166 255 121 121 191 73 73 90 58 61 64 43 43 52 44 44 62 47 49 64 46 46 70 49 49 68 48 48 61 45 45 53 43 43 46 41 41 38 43 43 35 46 46 37 55 55 37 55 55 124 116 124 116 114 133 70 70 72 25 25 25 25 25 25 25 25 25 25 25 25 25 25 25 25 25 25 25 25 25 25 25 25 25 25 25 25 25 25 25 25 25 25 25 25 25 25 25 25 25 25 25 25 25 25 25 25 25 25 25 25 25 25 25 25 25 25 25 25 25 25 25 35 35 35 40 47 47 48 51 51 40 45 46 53 50 50 47 45 45 41 42 42 63 56 57 62 66 85 38 42 42 40 49 49 45 53 53 39 48 48 39 48 48 41 49 49 39 47 47 39 47 47 38 46 46 38 46 46 35 40 40 35 39 39 35 39 39 37 55 55 37 55 55 37 55 55 37 55 55 37 55 55 37 55 55 37 55 55 37 55 55 37 55 55 37 55 55 37 55 55 37 55 55 37 55 55 37 55 55 37 55 55 37 54 54 37 54 54 37 54 54 37 54 54 37 54 54 37 54 54 37 54 54 37 54 54 37 54 54 37 54 54 37 54 54 36 54 54 36 54 54 36 54 54 36 53 53 36 53 53 36 53 53 36 53 53 36 53 53 36 53 53 36 53 53 36 53 53 36 53 53 36 53 53 36 53 53 36 53 53 36 52 52 36 52 52 36 52 52 36 52 52 182 124 124 238 157 157 255 189 189 255 189 189 250 184 184 225 170 170 206 162 162 188 153 153 171 144 144 145 130 130 130 121 121 70 70 70 25 25 25 25 25 25 25 25 25 25 25 25 25 25 25 25 25 25 30 34 34 34 46 46 35 50 50 35 50 50 35 50 50 35 50 50 35 50 50 35 50 50 35 50 50 35 50 50 35 49 49 35 49 49 35 49 49 35 49 49 35 49 49 35 49 49 35 49 49 35 49 49 34 49 49 34 49 49 34 48 48 34 48 48 34 48 48 34 48 48 34 48 48 34 48 48 34 48 48 34 48 48 34 48 48 34 48 48 34 48 48 34 47 47 34 47 47 34 47 47 34 47 47 34 47 47 34 47 47 34 47 47 34 47 47 34 47 47 34 47 47 34 47 47 34 47 47 34 46 46 34 46 46 33 46 46 33 46 46 33 46 46 33 46 46 33 46 46 33 46 46 33 46 46 33 46 46 33 46 46 33 45 45 33 45 45 33 45 45 33 45 45 33 45 45 33 45 45 33 45 45 33 45 45 33 45 45 33 45 45 33 45 45 33 45 45 33 45 45 33 44 44 33 44 44 33 44 44 33 44 44 33 44 44 33 44 44 33 44 44 33 44 44 33 44 44 33 44 44 32 44 44 32 44 44 32 44 44 32 43 43 32 43 43 32 43 43 32 43 43 32 43 43 32 43 43 32 43 43 32 43 43 32 43 43 32 43 43 32 43 43 32 43 43 32 43 43 32 43 43 32 43 43 32 42 42 32 42 42 32 42 42 32 42 42 32 42 42 32 42 42 32 42 42 32 42 42 32 42 42 32 42 42 32 42 42 32 42 42 32 42 42 32 42 42 32 42 42 32 41 41 32 41 41 32 41 41 32 41 41 32 41 41 31 41 41 31 41 41 31 41 41 31 41 41 
255 238 248 255 230 236 255 209 209 118 79 80 36 41 41 36 41 41 36 41 41 36 41 41 36 42 42 36 42 42 37 43 44 39 46 51 43 50 63 47 51 77 57 61 97 73 75 126 92 92 151 99 99 164 101 101 179 91 91 168 64 73 123 58 66 114 75 71 138 66 71 140 35 50 50 35 50 50 35 50 50 35 50 50 36 43 43 39 45 52 48 53 76 52 58 92 59 65 111 59 65 115 62 68 122 61 67 122 60 66 118 56 62 107 49 57 87 69 68 88 93 82 87 132 100 106 184 127 129 202 140 140 224 156 156 245 170 170 255 183 183 255 197 197 255 207 207 255 217 217 255 222 222 255 224 224 255 220 220 255 172 173 193 119 119 105 68 68 36 53 53 36 53 53 36 53 53 36 53 53 36 53 53 36 53 53 36 54 54 36 54 54 70 47 47 134 47 47 193 70 70 233 97 97 255 158 163 255 180 180 255 207 207 255 225 225 255 233 233 255 251 251 255 220 221 255 197 197 255 160 160 255 104 104 166 60 60 92 49 49 46 43 43 38 41 42 39 40 40 43 42 42 41 41 41 38 40 40 37 43 43 35 47 47 36 51 51 37 55 55 37 56 56 61 76 82 89 92 105 70 70 73 25 25 25 25 25 25 25 25 25 25 25 25 25 25 25 25 25 25 25 25 25 25 25 25 25 25 25 25 25 25 25 25 25 25 25 25 25 25 25 25 25 25 25 25 25 25 25 25 25 25 25 25 25 25 25 25 25 25 25 25 25 25 25 25 25 25 31 31 31 36 38 38 38 46 46 54 51 51 67 53 53 61 52 52 65 68 83 79 83 111 98 100 140 87 80 109 54 58 70 40 45 45 39 46 46 39 48 48 39 48 48 39 47 47 38 45 45 35 41 41 34 38 38 33 37 37 33 35 35 35 37 37 37 48 48 37 56 56 37 56 56 37 56 56 37 56 56 37 56 56 37 55 55 37 55 55 37 55 55 37 55 55 37 55 55 37 55 55 37 55 55 37 55 55 37 55 55 37 55 55 37 55 55 37 55 55 37 55 55 37 55 55 37 55 55 37 55 55 37 54 54 37 54 54 37 54 54 37 54 54 37 54 54 37 54 54 37 54 54 37 54 54 37 54 54 36 54 54 36 54 54 36 54 54 36 53 53 36 53 53 36 53 53 36 53 53 36 53 53 36 53 53 36 53 53 36 53 53 36 53 53 36 53 53 176 125 125 232 158 158 255 192 192 255 191 191 234 178 178 213 169 169 193 160 160 175 150 150 157 141 141 120 109 109 88 80 80 84 79 79 50 49 49 52 51 51 25 25 25 25 25 25 25 25 25 25 25 25 25 25 25 25 25 25 29 30 30 35 51 51 35 50 50 35 50 50 35 50 50 35 50 50 35 50 50 35 50 50 35 50 50 35 50 50 35 50 50 35 50 50 35 49 49 35 49 49 35 49 49 35 49 49 35 49 49 35 49 49 35 49 49 35 49 49 34 49 49 34 49 49 34 48 48 34 48 48 34 48 48 34 48 48 34 48 48 34 48 48 34 48 48 34 48 48 34 48 48 34 48 48 34 48 48 34 47 47 34 47 47 34 47 47 34 47 47 34 47 47 34 47 47 34 47 47 34 47 47 34 47 47 34 47 47 34 47 47 34 46 46 34 46 46 34 46 46 33 46 46 33 46 46 33 46 46 33 46 46 33 46 46 33 46 46 33 46 46 33 46 46 33 46 46 33 45 45 33 45 45 33 45 45 33 45 45 33 45 45 33 45 45 33 45 45 33 45 45 33 45 45 33 45 45 33 45 45 33 45 45 33 44 44 33 44 44 33 44 44 33 44 44 33 44 44 33 44 44 33 44 44 33 44 44 33 44 44 33 44 44 32 44 44 32 44 44 32 44 44 32 43 43 32 43 43 32 43 43 32 43 43 32 43 43 32 43 43 32 43 43 32 43 43 32 43 43 32 43 43 32 43 43 32 43 43 32 43 43 32 43 43 32 43 43 32 42 42 32 42 42 32 42 42 32 42 42 32 42 42 32 42 42 32 42 42 32 42 42 32 42 42 32 42 42 32 42 42 32 42 42 32 42 42 32 42 42 32 42 42 32 42 42 32 41 41 32 41 41 32 41 41 32 41 41 31 41 41 31 41 41 
255 208 209 255 203 205 255 192 192 255 187 187 98 64 64 36 41 41 36 42 42 36 42 42 37 42 42 37 43 43 37 43 43 37 44 44 37 41 45 41 43 59 54 54 85 69 69 109 82 82 131 87 87 144 84 84 144 76 76 137 57 65 102 77 72 119 90 80 146 59 64 118 35 50 50 35 50 50 35 50 50 35 51 51 35 51 51 36 48 48 38 46 49 41 46 56 47 52 72 47 53 77 49 55 82 50 56 83 48 56 81 44 55 73 56 60 73 67 67 67 122 93 93 139 106 106 157 119 119 176 133 133 196 146 146 216 160 160 237 173 173 255 186 186 255 199 199 255 210 210 255 220 220 255 227 227 255 231 231 255 229 230 255 219 219 255 165 166 109 82 82 36 53 53 36 54 54 36 54 54 37 54 54 37 54 54 37 54 54 36 49 49 91 43 47 145 52 52 194 71 71 241 107 107 255 167 173 255 190 190 255 218 218 255 236 236 255 247 247 255 247 248 255 243 243 255 213 213 255 179 179 255 130 130 201 66 66 164 59 59 43 51 51 40 45 45 36 48 48 35 47 47 35 47 47 35 47 47 36 52 52 36 51 51 37 56 56 37 56 56 37 56 56 84 94 100 99 91 97 25 25 25 25 25 25 25 25 25 25 25 25 25 25 25 25 25 25 25 25 25 25 25 25 25 25 25 25 25 25 25 25 25 25 25 25 25 25 25 25 25 25 25 25 25 25 25 25 25 25 25 25 25 25 25 25 25 25 25 25 25 25 25 25 25 25 25 25 25 27 27 27 34 36 36 43 45 45 51 45 45 64 56 57 54 58 72 117 99 125 90 92 129 106 106 153 97 97 138 87 87 124 71 72 97 46 44 51 59 49 53 75 57 58 63 54 54 31 34 34 31 33 33 30 32 32 29 30 30 34 36 36 35 39 39 37 49 49 37 56 56 37 56 56 37 56 56 37 56 56 37 56 56 37 56 56 37 56 56 37 56 56 37 56 56 37 56 56 37 56 56 37 56 56 37 56 56 37 55 55 37 55 55 37 55 55 37 55 55 37 55 55 37 55 55 37 55 55 37 55 55 37 55 55 37 55 55 37 55 55 37 55 55 37 55 55 37 54 54 37 54 54 37 54 54 37 54 54 37 54 54 37 54 54 37 54 54 37 54 54 36 54 54 36 54 54 36 54 54 36 53 53 36 53 53 36 53 53 36 53 53 107 90 90 170 130 130 227 164 164 255 197 197 253 191 191 231 182 182 208 171 171 186 160 160 164 148 148 121 112 112 85 81 81 53 52 52 25 25 25 25 25 25 25 25 25 25 25 25 26 27 27 28 28 28 27 27 27 25 25 25 25 25 25 25 25 25 25 25 25 32 36 36 35 51 51 35 51 51 35 51 51 35 50 50 35 50 50 35 50 50 35 50 50 35 50 50 35 50 50 35 50 50 35 50 50 35 50 50 35 50 50 35 49 49 35 49 49 35 49 49 35 49 49 35 49 49 35 49 49 35 49 49 34 49 49 34 49 49 34 49 49 34 48 48 34 48 48 34 48 48 34 48 48 34 48 48 34 48 48 34 48 48 34 48 48 34 48 48 34 48 48 34 47 47 34 47 47 34 47 47 34 47 47 34 47 47 34 47 47 34 47 47 34 47 47 34 47 47 34 47 47 34 47 47 34 46 46 34 46 46 34 46 46 33 46 46 33 46 46 33 46 46 33 46 46 33 46 46 33 46 46 33 46 46 33 46 46 33 46 46 33 45 45 33 45 45 33 45 45 33 45 45 33 45 45 33 45 45 33 45 45 33 45 45 33 45 45 33 45 45 33 45 45 33 45 45 33 44 44 33 44 44 33 44 44 33 44 44 33 44 44 33 44 44 33 44 44 33 44 44 33 44 44 33 44 44 32 44 44 32 44 44 32 44 44 32 44 44 32 43 43 32 43 43 32 43 43 32 43 43 32 43 43 32 43 43 32 43 43 32 43 43 32 43 43 32 43 43 32 43 43 32 43 43 32 43 43 32 43 43 32 42 42 32 42 42 32 42 42 32 42 42 32 42 42 32 42 42 32 42 42 32 42 42 32 42 42 32 42 42 32 42 42 32 42 42 32 42 42 32 42 42 32 42 42 32 42 42 32 41 41 32 41 41 32 41 41 32 41 41 
255 173 174 255 172 172 255 174 174 255 162 162 255 133 133 73 47 47 36 42 42 37 42 42 37 43 43 37 43 43 37 44 44 37 41 41 34 35 35 36 36 43 42 42 58 56 57 80 72 71 103 75 75 114 71 71 112 58 59 95 74 70 106 82 75 121 64 69 133 48 59 88 35 51 51 35 51 51 35 51 51 35 51 51 35 51 51 35 51 51 35 51 51 36 49 49 37 48 50 38 49 53 39 50 56 39 50 56 38 49 54 41 50 58 41 49 49 78 68 72 94 82 82 109 93 93 126 104 104 143 117 117 163 129 129 182 143 143 203 156 156 224 170 170 245 183 183 255 196 196 255 207 207 255 217 217 255 225 225 255 229 229 255 229 229 255 220 221 255 197 197 113 83 83 37 54 54 37 54 54 37 54 54 37 54 54 37 54 54 35 45 45 96 47 53 155 58 58 168 58 58 234 106 106 255 167 175 255 188 188 255 216 216 255 239 240 255 247 247 255 245 245 255 242 242 255 217 219 255 186 186 255 140 140 215 81 81 168 58 58 109 51 51 37 56 56 37 56 56 37 56 56 37 56 56 37 56 56 38 56 56 38 56 56 38 56 56 38 56 56 38 56 56 58 68 68 50 50 51 25 25 25 25 25 25 25 25 25 25 25 25 25 25 25 25 25 25 25 25 25 25 25 25 25 25 25 25 25 25 25 25 25 25 25 25 25 25 25 25 25 25 25 25 25 25 25 25 25 25 25 25 25 25 25 25 25 25 25 25 25 25 25 25 25 25 25 25 25 29 29 29 34 35 35 42 41 41 62 69 95 81 85 128 86 89 126 103 103 151 160 129 172 88 88 125 78 78 109 71 71 104 69 66 89 39 39 50 39 33 38 83 59 68 80 54 54 50 33 33 29 30 30 30 31 31 34 36 36 35 38 38 36 40 40 37 49 49 38 57 57 38 57 57 38 57 57 38 57 57 38 56 56 38 56 56 38 56 56 38 56 56 37 56 56 37 56 56 37 56 56 37 56 56 37 56 56 37 56 56 37 56 56 37 56 56 37 56 56 37 56 56 37 56 56 37 55 55 37 55 55 37 55 55 37 55 55 37 55 55 37 55 55 37 55 55 37 55 55 37 55 55 37 55 55 37 55 55 37 54 54 37 54 54 37 54 54 37 54 54 37 54 54 37 54 54 37 54 54 37 54 54 36 54 54 36 54 54 109 93 93 172 133 133 255 204 204 255 204 204 255 196 196 230 185 185 205 172 172 180 159 159 131 119 119 90 84 84 54 53 53 25 25 25 25 25 25 25 25 25 25 25 25 25 25 25 25 25 25 25 25 25 25 25 25 26 26 26 26 27 27 25 25 25 25 25 25 25 25 25 25 25 25 33 42 42 35 51 51 35 51 51 35 51 51 35 51 51 35 50 50 35 50 50 35 50 50 35 50 50 35 50 50 35 50 50 35 50 50 35 50 50 35 50 50 35 50 50 35 49 49 35 49 49 35 49 49 35 49 49 35 49 49 35 49 49 35 49 49 35 49 49 34 49 49 34 49 49 34 48 48 34 48 48 34 48 48 34 48 48 34 48 48 34 48 48 34 48 48 34 48 48 34 48 48 34 48 48 34 48 48 34 47 47 34 47 47 34 47 47 34 47 47 34 47 47 34 47 47 34 47 47 34 47 47 34 47 47 34 47 47 34 47 47 34 46 46 34 46 46 34 46 46 33 46 46 33 46 46 33 46 46 33 46 46 33 46 46 33 46 46 33 46 46 33 46 46 33 45 45 33 45 45 33 45 45 33 45 45 33 45 45 33 45 45 33 45 45 33 45 45 33 45 45 33 45 45 33 45 45 33 45 45 33 45 45 33 44 44 33 44 44 33 44 44 33 44 44 33 44 44 33 44 44 33 44 44 33 44 44 33 44 44 32 44 44 32 44 44 32 44 44 32 44 44 32 43 43 32 43 43 32 43 43 32 43 43 32 43 43 32 43 43 32 43 43 32 43 43 32 43 43 32 43 43 32 43 43 32 43 43 32 43 43 32 43 43 32 42 42 32 42 42 32 42 42 32 42 42 32 42 42 32 42 42 32 42 42 32 42 42 32 42 42 32 42 42 32 42 42 32 42 42 32 42 42 32 42 42 32 42 42 32 42 42 32 41 41 32 41 41 
251 137 138 252 134 134 255 132 132 255 122 122 226 97 97 184 68 68 58 47 47 36 44 44 37 43 43 37 43 43 37 44 44 37 44 44 36 37 37 34 34 36 37 37 44 42 42 54 50 50 66 53 53 73 50 51 70 88 52 67 61 60 94 64 70 130 52 60 98 43 53 69 35 51 51 35 51 51 35 51 51 35 51 51 36 51 51 36 51 51 36 52 52 36 52 52 36 52 52 36 52 52 36 52 52 36 52 52 36 52 52 39 41 41 37 36 37 37 36 36 40 38 38 57 53 53 80 73 73 107 95 95 125 108 108 145 121 121 165 135 135 186 149 149 208 163 163 229 176 176 250 189 189 255 201 201 255 211 211 255 219 219 255 224 224 255 223 223 255 213 213 255 190 190 99 76 76 37 55 55 37 55 55 37 55 55 37 55 55 35 45 45 96 53 65 152 60 60 152 51 51 214 94 94 255 149 151 255 175 175 255 203 203 255 230 230 255 237 237 255 241 246 255 231 235 255 203 203 255 176 176 255 136 136 214 85 85 166 61 61 119 53 53 38 56 56 38 56 56 38 57 57 38 57 57 38 57 57 38 57 57 38 57 57 38 57 57 38 57 57 38 57 57 65 67 71 29 29 29 25 25 25 25 25 25 25 25 25 25 25 25 25 25 25 25 25 25 25 25 25 25 25 25 25 25 25 25 25 25 25 25 25 25 25 25 25 25 25 25 25 25 25 25 25 25 25 25 25 25 25 25 25 25 25 25 25 25 25 25 25 25 25 25 25 25 25 25 25 29 29 29 34 35 35 35 39 39 72 68 104 101 102 162 89 92 134 88 90 127 129 103 136 71 72 99 60 61 82 47 47 62 66 67 96 30 30 34 75 46 47 39 39 49 63 42 44 79 52 52 32 34 34 34 37 37 35 39 39 36 40 40 36 41 41 37 50 50 38 57 57 38 57 57 38 57 57 38 57 57 38 57 57 38 57 57 38 57 57 38 57 57 38 57 57 38 57 57 38 57 57 38 56 56 38 56 56 38 56 56 37 56 56 37 56 56 37 56 56 37 56 56 37 56 56 37 56 56 37 56 56 37 56 56 37 56 56 37 56 56 37 55 55 37 55 55 37 55 55 37 55 55 37 55 55 37 55 55 37 55 55 37 55 55 37 55 55 37 55 55 37 55 55 37 54 54 37 54 54 37 54 54 37 54 54 182 128 128 246 168 168 255 213 213 255 210 210 255 201 201 231 188 188 205 174 174 178 159 159 127 118 118 86 83 83 52 51 51 25 25 25 25 25 25 25 25 25 25 25 25 25 25 25 25 25 25 25 25 25 25 25 25 25 25 25 25 25 25 26 27 27 26 27 27 25 25 25 25 25 25 25 25 25 31 31 31 35 51 51 35 51 51 35 51 51 35 51 51 35 51 51 35 51 51 35 51 51 35 50 50 35 50 50 35 50 50 35 50 50 35 50 50 35 50 50 35 50 50 35 50 50 35 50 50 35 50 50 35 49 49 35 49 49 35 49 49 35 49 49 35 49 49 35 49 49 35 49 49 34 49 49 34 49 49 34 49 49 34 48 48 34 48 48 34 48 48 34 48 48 34 48 48 34 48 48 34 48 48 34 48 48 34 48 48 34 48 48 34 47 47 34 47 47 34 47 47 34 47 47 34 47 47 34 47 47 34 47 47 34 47 47 34 47 47 34 47 47 34 47 47 34 46 46 34 46 46 34 46 46 33 46 46 33 46 46 33 46 46 33 46 46 33 46 46 33 46 46 33 46 46 33 46 46 33 45 45 33 45 45 33 45 45 33 45 45 33 45 45 33 45 45 33 45 45 33 45 45 33 45 45 33 45 45 33 45 45 33 45 45 33 45 45 33 44 44 33 44 44 33 44 44 33 44 44 33 44 44 33 44 44 33 44 44 33 44 44 33 44 44 33 44 44 32 44 44 32 44 44 32 44 44 32 43 43 32 43 43 32 43 43 32 43 43 32 43 43 32 43 43 32 43 43 32 43 43 32 43 43 32 43 43 32 43 43 32 43 43 32 43 43 32 43 43 32 42 42 32 42 42 32 42 42 32 42 42 32 42 42 32 42 42 32 42 42 32 42 42 32 42 42 32 42 42 32 42 42 32 42 42 32 42 42 32 42 42 32 42 42 32 42 42 
189 92 92 193 89 89 201 88 88 188 78 78 170 64 64 147 57 57 87 51 52 37 44 44 79 49 49 76 54 54 83 54 54 37 44 44 37 42 42 35 38 38 37 39 41 38 40 44 53 48 65 48 50 73 62 61 102 107 70 115 113 81 145 86 85 164 71 74 145 55 64 114 44 56 83 36 51 51 36 51 51 36 52 52 36 52 52 36 52 52 36 52 52 36 52 52 36 52 52 36 52 52 36 52 52 36 52 52 39 47 53 36 36 43 25 25 25 25 25 25 25 25 25 25 25 25 38 38 38 42 41 41 77 73 73 91 82 82 125 110 110 146 124 124 168 138 138 189 152 152 211 166 166 233 180 180 254 192 192 255 202 202 255 210 210 255 215 215 255 214 214 255 203 203 255 182 183 73 57 57 37 55 55 37 55 55 37 55 55 36 51 51 107 58 68 138 56 56 137 47 47 182 74 74 248 124 124 255 158 161 255 181 181 255 210 211 255 211 211 255 229 231 255 217 222 255 192 192 255 160 160 255 124 124 199 80 80 158 61 61 114 53 53 38 57 57 38 57 57 38 57 57 38 57 57 38 57 57 38 57 57 38 57 57 38 57 57 38 57 57 38 58 58 119 111 130 33 34 34 25 25 25 25 25 25 25 25 25 25 25 25 25 25 25 25 25 25 25 25 25 25 25 25 25 25 25 25 25 25 25 25 25 25 25 25 25 25 25 25 25 25 25 25 25 25 25 25 25 25 25 25 25 25 25 25 25 25 25 25 25 25 25 25 25 25 25 25 25 29 30 30 34 36 36 35 39 39 63 63 99 84 84 134 70 75 108 68 72 100 76 71 96 95 72 89 47 50 61 39 42 48 49 51 71 41 42 55 56 47 54 76 61 77 82 56 61 75 56 56 35 39 39 36 40 40 36 41 41 36 42 42 37 42 42 37 50 50 38 58 58 38 58 58 38 58 58 38 57 57 38 57 57 38 57 57 38 57 57 38 57 57 38 57 57 38 57 57 38 57 57 38 57 57 38 57 57 38 57 57 38 57 57 38 57 57 38 57 57 38 56 56 38 56 56 38 56 56 37 56 56 37 56 56 37 56 56 37 56 56 37 56 56 37 56 56 37 56 56 37 56 56 37 55 55 37 55 55 37 55 55 37 55 55 37 55 55 37 55 55 37 55 55 37 55 55 37 55 55 37 55 55 112 95 95 250 170 170 255 218 218 255 215 215 255 205 205 235 191 191 206 176 176 178 160 160 126 118 118 85 82 82 25 25 25 25 25 25 25 25 25 25 25 25 25 25 25 25 25 25 25 25 25 25 25 25 25 25 25 25 25 25 25 25 25 25 25 25 25 25 25 28 28 28 27 27 27 25 25 25 25 25 25 28 28 28 35 47 47 36 51 51 36 51 51 35 51 51 35 51 51 35 51 51 35 51 51 35 51 51 35 51 51 35 51 51 35 50 50 35 50 50 35 50 50 35 50 50 35 50 50 35 50 50 35 50 50 35 50 50 35 50 50 35 49 49 35 49 49 35 49 49 35 49 49 35 49 49 35 49 49 35 49 49 35 49 49 34 49 49 34 49 49 34 48 48 34 48 48 34 48 48 34 48 48 34 48 48 34 48 48 34 48 48 34 48 48 34 48 48 34 48 48 34 47 47 34 47 47 34 47 47 34 47 47 34 47 47 34 47 47 34 47 47 34 47 47 34 47 47 34 47 47 34 47 47 34 46 46 34 46 46 34 46 46 33 46 46 33 46 46 33 46 46 33 46 46 33 46 46 33 46 46 33 46 46 33 46 46 33 46 46 33 45 45 33 45 45 33 45 45 33 45 45 33 45 45 33 45 45 33 45 45 33 45 45 33 45 45 33 45 45 33 45 45 33 45 45 33 44 44 33 44 44 33 44 44 33 44 44 33 44 44 33 44 44 33 44 44 33 44 44 33 44 44 33 44 44 32 44 44 32 44 44 32 44 44 32 43 43 32 43 43 32 43 43 32 43 43 32 43 43 32 43 43 32 43 43 32 43 43 32 43 43 32 43 43 32 43 43 32 43 43 32 43 43 32 43 43 32 43 43 32 42 42 32 42 42 32 42 42 32 42 42 32 42 42 32 42 42 32 42 42 32 42 42 32 42 42 32 42 42 32 42 42 32 42 42 32 42 42 
140 63 63 144 61 61 143 57 57 136 52 52 128 52 52 95 50 50 54 50 50 58 46 46 119 60 61 155 76 77 156 67 67 124 66 66 148 84 84 169 97 97 185 107 107 49 48 66 69 58 87 60 62 111 93 91 167 113 109 199 122 122 227 127 128 240 137 134 255 107 108 223 107 107 200 85 90 180 46 58 87 36 52 52 36 52 52 36 52 52 36 52 52 36 52 52 36 53 53 36 53 53 36 53 53 36 53 53 33 42 42 26 26 26 25 25 25 25 25 25 25 25 25 25 25 25 25 25 25 25 25 25 25 25 25 41 40 40 62 59 59 91 83 83 126 111 111 148 126 126 170 141 141 193 155 155 215 169 169 236 181 181 255 192 192 255 199 199 255 203 203 255 201 201 255 191 191 247 140 140 111 58 58 37 56 56 37 56 56 37 56 56 95 53 53 135 57 57 123 49 49 146 52 52 197 89 89 255 138 144 255 157 162 255 179 185 255 192 192 255 201 206 255 185 187 255 173 177 255 141 141 228 108 108 180 75 75 144 59 59 100 51 51 38 57 57 38 57 57 38 58 58 38 58 58 38 58 58 38 58 58 38 58 58 38 58 58 38 58 58 38 58 58 72 60 71 33 35 35 25 25 25 25 25 25 25 25 25 25 25 25 25 25 25 25 25 25 25 25 25 25 25 25 25 25 25 25 25 25 25 25 25 25 25 25 25 25 25 25 25 25 25 25 25 25 25 25 25 25 25 25 25 25 25 25 25 39 29 29 25 25 25 51 36 36 29 29 29 33 34 34 34 36 36 35 39 39 56 61 93 58 61 100 57 60 87 50 57 73 46 52 64 89 66 74 80 56 60 36 41 42 36 40 40 44 48 55 54 45 53 55 48 56 86 58 65 69 51 51 36 42 42 36 42 42 37 42 42 37 43 43 37 47 47 38 58 58 38 58 58 38 58 58 38 58 58 38 58 58 38 58 58 38 58 58 38 58 58 38 58 58 38 58 58 38 58 58 38 57 57 38 57 57 38 57 57 38 57 57 38 57 57 38 57 57 38 57 57 38 57 57 38 57 57 38 57 57 38 57 57 38 57 57 38 56 56 38 56 56 38 56 56 37 56 56 37 56 56 37 56 56 37 56 56 37 56 56 37 56 56 37 56 56 37 55 55 37 55 55 37 55 55 37 55 55 37 55 55 111 91 91 183 139 139 255 222 222 255 218 218 255 209 209 240 195 195 211 179 179 181 162 162 127 118 118 84 82 82 25 25 25 25 25 25 25 25 25 25 25 25 25 25 25 25 25 25 25 25 25 25 25 25 25 25 25 25 25 25 25 25 25 25 25 25 25 25 25 25 25 25 25 25 25 31 31 31 25 25 25 25 25 25 28 28 28 31 33 33 36 52 52 36 52 52 36 51 51 36 51 51 35 51 51 35 51 51 35 51 51 35 51 51 35 51 51 35 51 51 35 51 51 35 50 50 35 50 50 35 50 50 35 50 50 35 50 50 35 50 50 35 50 50 35 50 50 35 50 50 35 50 50 35 49 49 35 49 49 35 49 49 35 49 49 35 49 49 35 49 49 35 49 49 34 49 49 34 49 49 34 48 48 34 48 48 34 48 48 34 48 48 34 48 48 34 48 48 34 48 48 34 48 48 34 48 48 34 48 48 34 48 48 34 47 47 34 47 47 34 47 47 34 47 47 34 47 47 34 47 47 34 47 47 34 47 47 34 47 47 34 47 47 34 46 46 34 46 46 34 46 46 33 46 46 33 46 46 33 46 46 33 46 46 33 46 46 33 46 46 33 46 46 33 46 46 33 46 46 33 45 45 33 45 45 33 45 45 33 45 45 33 45 45 33 45 45 33 45 45 33 45 45 33 45 45 33 45 45 33 45 45 33 45 45 33 44 44 33 44 44 33 44 44 33 44 44 33 44 44 33 44 44 33 44 44 33 44 44 33 44 44 33 44 44 32 44 44 32 44 44 32 44 44 32 43 43 32 43 43 32 43 43 32 43 43 32 43 43 32 43 43 32 43 43 32 43 43 32 43 43 32 43 43 32 43 43 32 43 43 32 43 43 32 43 43 32 43 43 32 42 42 32 42 42 32 42 42 32 42 42 32 42 42 32 42 42 32 42 42 32 42 42 32 42 42 32 42 42 32 42 42 
106 53 53 109 53 53 109 50 50 99 47 47 79 47 47 61 48 48 36 43 46 70 42 42 145 71 71 192 85 85 195 79 79 205 88 88 255 125 125 255 137 139 183 107 121 124 84 113 57 57 109 80 80 147 107 107 191 135 134 232 142 142 247 148 147 255 147 147 255 145 145 255 143 143 255 124 124 246 116 117 243 95 96 198 59 71 109 36 53 53 36 53 53 36 53 53 36 53 53 64 52 52 69 53 53 72 54 54 33 38 41 25 25 25 25 25 25 25 25 25 25 25 25 25 25 25 25 25 25 25 25 25 25 25 25 25 25 25 25 25 25 41 40 40 62 59 59 92 84 84 128 113 113 151 128 128 174 143 143 196 156 156 217 169 169 237 179 179 255 187 187 255 190 190 255 188 188 255 172 172 218 68 68 152 61 61 37 56 56 38 56 56 71 44 44 143 77 77 123 55 55 128 53 53 152 62 62 196 94 94 241 128 134 255 140 142 255 152 152 255 167 179 255 148 148 255 137 138 226 113 113 188 85 85 152 64 64 125 56 56 76 46 46 38 58 58 38 58 58 38 58 58 38 58 58 38 58 58 38 58 58 38 58 58 38 58 58 38 58 58 38 59 59 56 52 58 34 36 36 33 33 33 25 25 25 25 25 25 25 25 25 25 25 25 25 25 25 25 25 25 25 25 25 25 25 25 25 25 25 25 25 25 25 25 25 25 25 25 25 25 25 25 25 25 25 25 25 25 25 25 25 25 25 25 25 25 74 51 51 80 45 45 50 37 37 122 71 71 80 57 57 35 37 37 35 40 40 74 75 111 58 62 91 61 61 94 41 49 55 39 47 51 38 46 47 63 47 47 54 48 48 88 66 66 39 41 41 87 65 66 67 44 47 63 51 52 46 44 44 37 43 43 37 44 44 37 44 44 37 44 44 38 51 51 38 59 59 38 59 59 38 59 59 38 58 58 38 58 58 38 58 58 38 58 58 38 58 58 38 58 58 38 58 58 38 58 58 38 58 58 38 58 58 38 58 58 38 58 58 38 58 58 38 57 57 38 57 57 38 57 57 38 57 57 38 57 57 38 57 57 38 57 57 38 57 57 38 57 57 38 57 57 38 57 57 38 56 56 38 56 56 38 56 56 37 56 56 37 56 56 37 56 56 37 56 56 37 56 56 37 56 56 37 56 56 37 55 55 187 139 139 255 221 221 255 221 221 255 213 213 247 200 200 217 183 183 186 165 165 130 120 120 85 83 83 25 25 25 25 25 25 25 25 25 25 25 25 25 25 25 25 25 25 25 25 25 25 25 25 25 25 25 25 25 25 25 25 25 25 25 25 25 25 25 25 25 25 25 25 25 25 25 25 25 25 25 30 31 31 25 25 25 28 28 28 31 32 32 36 52 52 36 52 52 36 52 52 36 52 52 36 52 52 36 51 51 36 51 51 35 51 51 35 51 51 35 51 51 35 51 51 35 51 51 35 51 51 35 51 51 35 50 50 35 50 50 35 50 50 35 50 50 35 50 50 35 50 50 35 50 50 35 50 50 35 50 50 35 49 49 35 49 49 35 49 49 35 49 49 35 49 49 35 49 49 35 49 49 34 49 49 34 49 49 34 49 49 34 48 48 34 48 48 34 48 48 34 48 48 34 48 48 34 48 48 34 48 48 34 48 48 34 48 48 34 48 48 34 47 47 34 47 47 34 47 47 34 47 47 34 47 47 34 47 47 34 47 47 34 47 47 34 47 47 34 47 47 34 46 46 34 46 46 34 46 46 33 46 46 33 46 46 33 46 46 33 46 46 33 46 46 33 46 46 33 46 46 33 46 46 33 46 46 33 45 45 33 45 45 33 45 45 33 45 45 33 45 45 33 45 45 33 45 45 33 45 45 33 45 45 33 45 45 33 45 45 33 45 45 33 44 44 33 44 44 33 44 44 33 44 44 33 44 44 33 44 44 33 44 44 33 44 44 33 44 44 33 44 44 32 44 44 32 44 44 32 44 44 32 43 43 32 43 43 32 43 43 32 43 43 32 43 43 32 43 43 32 43 43 32 43 43 32 43 43 32 43 43 32 43 43 32 43 43 32 43 43 32 43 43 32 43 43 32 42 42 32 42 42 32 42 42 32 42 42 32 42 42 32 42 42 32 42 42 32 42 42 32 42 42 
67 44 44 69 45 45 65 45 45 59 47 47 48 51 52 35 50 50 36 42 42 79 42 42 143 67 68 158 66 66 175 67 67 217 100 100 215 111 111 172 101 108 60 49 72 51 52 91 62 62 114 83 84 149 106 106 183 129 129 218 135 135 231 145 145 251 144 144 248 150 150 255 152 152 255 149 149 255 141 141 255 137 137 255 108 109 237 48 61 91 47 51 51 79 50 50 96 52 52 143 60 63 159 63 63 72 47 53 28 28 29 25 25 25 25 25 25 25 25 25 25 25 25 25 25 25 25 25 25 25 25 25 25 25 25 25 25 25 25 25 25 25 25 25 25 25 25 41 41 41 63 60 60 109 100 100 132 115 115 155 130 130 185 152 156 200 158 159 238 186 199 250 188 197 251 177 177 255 172 172 255 135 135 219 69 69 149 61 61 38 57 57 41 47 47 113 73 73 133 64 64 104 51 51 124 55 55 144 63 63 173 81 81 197 98 98 218 115 119 225 118 120 217 111 112 203 100 100 176 82 82 150 66 66 128 58 58 99 52 52 61 53 53 38 58 58 38 58 58 38 59 59 38 59 59 38 59 59 39 59 59 39 59 59 39 59 59 39 59 59 39 59 59 46 45 45 35 37 37 34 35 35 31 32 32 27 27 27 25 25 25 25 25 25 25 25 25 25 25 25 25 25 25 25 25 25 25 25 25 25 25 25 25 25 25 25 25 25 25 25 25 25 25 25 25 25 25 25 25 25 70 46 46 43 43 58 75 47 47 115 71 71 40 36 36 99 68 68 98 67 68 35 38 38 36 41 41 105 108 161 80 78 110 64 65 94 40 47 48 38 47 47 38 47 47 39 47 47 46 46 46 83 54 55 64 50 51 66 45 45 81 62 62 41 48 49 37 45 45 37 45 45 37 45 45 37 45 45 38 48 48 38 55 55 39 59 59 39 59 59 39 59 59 39 59 59 39 59 59 39 59 59 38 59 59 38 59 59 38 59 59 38 59 59 38 58 58 38 58 58 38 58 58 38 58 58 38 58 58 38 58 58 38 58 58 38 58 58 38 58 58 38 58 58 38 58 58 38 57 57 38 57 57 38 57 57 38 57 57 38 57 57 38 57 57 38 57 57 38 57 57 38 57 57 38 57 57 38 56 56 38 56 56 37 56 56 37 56 56 37 56 56 37 56 56 112 95 95 255 181 181 255 224 224 255 217 217 255 204 204 225 188 188 193 170 170 162 151 151 88 84 84 25 25 25 25 25 25 25 25 25 25 25 25 25 25 25 25 25 25 25 25 25 25 25 25 25 25 25 25 25 25 25 25 25 25 25 25 25 25 25 25 25 25 25 25 25 25 25 25 25 25 25 25 25 25 30 31 31 25 25 25 28 28 28 31 32 32 35 48 48 36 52 52 36 52 52 36 52 52 36 52 52 36 52 52 36 52 52 36 51 51 36 51 51 35 51 51 35 51 51 35 51 51 35 51 51 35 51 51 35 51 51 35 51 51 35 50 50 35 50 50 35 50 50 35 50 50 35 50 50 35 50 50 35 50 50 35 50 50 35 50 50 35 49 49 35 49 49 35 49 49 35 49 49 35 49 49 35 49 49 35 49 49 34 49 49 34 49 49 34 49 49 34 48 48 34 48 48 34 48 48 34 48 48 34 48 48 34 48 48 34 48 48 34 48 48 34 48 48 34 48 48 34 47 47 34 47 47 34 47 47 34 47 47 34 47 47 34 47 47 34 47 47 34 47 47 34 47 47 34 47 47 34 46 46 34 46 46 34 46 46 33 46 46 33 46 46 33 46 46 33 46 46 33 46 46 33 46 46 33 46 46 33 46 46 33 46 46 33 45 45 33 45 45 33 45 45 33 45 45 33 45 45 33 45 45 33 45 45 33 45 45 33 45 45 33 45 45 33 45 45 33 45 45 33 44 44 33 44 44 33 44 44 33 44 44 33 44 44 33 44 44 33 44 44 33 44 44 33 44 44 33 44 44 32 44 44 32 44 44 32 44 44 32 43 43 32 43 43 32 43 43 32 43 43 32 43 43 32 43 43 32 43 43 32 43 43 32 43 43 32 43 43 32 43 43 32 43 43 32 43 43 32 43 43 32 43 43 32 42 42 32 42 42 32 42 42 32 42 42 32 42 42 32 42 42 32 42 42 
40 45 45 40 45 45 39 44 44 34 47 47 35 50 50 35 50 50 33 37 37 74 41 41 116 51 51 141 54 54 155 60 60 215 103 103 146 82 82 72 53 61 43 44 69 46 46 84 58 58 107 82 82 143 105 105 178 116 116 194 130 130 217 143 143 236 153 153 253 160 160 255 164 164 255 164 164 255 160 160 255 151 151 255 133 133 255 102 102 223 67 59 87 115 51 51 182 63 63 196 69 69 228 85 85 122 51 56 30 31 31 25 25 25 25 25 25 25 25 25 25 25 25 25 25 25 25 25 25 25 25 25 25 25 25 25 25 25 25 25 25 25 25 25 25 25 25 25 25 25 25 25 25 42 41 41 80 76 76 113 103 103 147 128 133 177 150 162 194 156 160 210 163 167 228 169 174 232 163 163 230 147 147 255 112 112 207 66 66 128 60 60 38 57 57 72 47 47 106 65 65 87 46 46 97 51 51 114 55 55 127 58 58 141 65 65 154 73 73 160 78 79 158 76 76 155 73 73 134 61 61 119 57 57 99 52 52 68 45 45 43 50 50 39 59 59 39 59 59 39 59 59 39 59 59 39 59 59 39 59 59 39 59 59 39 59 59 39 59 59 39 60 60 67 47 49 34 36 36 34 37 37 34 35 35 33 34 34 29 29 29 27 27 27 25 25 25 25 25 25 25 25 25 25 25 25 25 25 25 25 25 25 25 25 25 25 25 25 25 25 25 25 25 25 25 25 25 39 31 31 101 63 63 87 55 56 59 40 40 94 74 94 35 36 38 57 46 46 73 49 49 54 44 44 36 42 42 102 106 155 140 138 216 62 62 87 49 48 64 41 51 51 39 48 48 42 50 50 39 48 48 40 45 45 44 48 49 42 50 50 38 45 45 38 46 46 38 45 45 38 45 45 38 45 45 38 49 49 38 52 52 39 60 60 39 60 60 39 60 60 39 59 59 39 59 59 39 59 59 39 59 59 39 59 59 39 59 59 39 59 59 39 59 59 39 59 59 39 59 59 38 59 59 38 59 59 38 59 59 38 58 58 38 58 58 38 58 58 38 58 58 38 58 58 38 58 58 38 58 58 38 58 58 38 58 58 38 58 58 38 57 57 38 57 57 38 57 57 38 57 57 38 57 57 38 57 57 38 57 57 38 57 57 38 57 57 38 57 57 38 56 56 38 56 56 185 139 139 255 225 225 255 220 220 255 209 209 235 194 194 203 176 176 170 156 156 91 87 87 25 25 25 25 25 25 25 25 25 25 25 25 25 25 25 25 25 25 25 25 25 25 25 25 25 25 25 25 25 25 25 25 25 25 25 25 25 25 25 25 25 25 25 25 25 25 25 25 25 25 25 25 25 25 25 25 25 28 28 28 32 34 34 28 28 28 31 32 32 34 43 43 36 52 52 36 52 52 36 52 52 36 52 52 36 52 52 36 52 52 36 52 52 36 52 52 36 51 51 36 51 51 35 51 51 35 51 51 35 51 51 35 51 51 35 51 51 35 51 51 35 51 51 35 50 50 35 50 50 35 50 50 35 50 50 35 50 50 35 50 50 35 50 50 35 50 50 35 50 50 35 49 49 35 49 49 35 49 49 35 49 49 35 49 49 35 49 49 35 49 49 34 49 49 34 49 49 34 49 49 34 48 48 34 48 48 34 48 48 34 48 48 34 48 48 34 48 48 34 48 48 34 48 48 34 48 48 34 48 48 34 47 47 34 47 47 34 47 47 34 47 47 34 47 47 34 47 47 34 47 47 34 47 47 34 47 47 34 47 47 34 46 46 34 46 46 34 46 46 33 46 46 33 46 46 33 46 46 33 46 46 33 46 46 33 46 46 33 46 46 33 46 46 33 46 46 33 45 45 33 45 45 33 45 45 33 45 45 33 45 45 33 45 45 33 45 45 33 45 45 33 45 45 33 45 45 33 45 45 33 45 45 33 44 44 33 44 44 33 44 44 33 44 44 33 44 44 33 44 44 33 44 44 33 44 44 33 44 44 33 44 44 32 44 44 32 44 44 32 44 44 32 43 43 32 43 43 32 43 43 32 43 43 32 43 43 32 43 43 32 43 43 32 43 43 32 43 43 32 43 43 32 43 43 32 43 43 32 43 43 32 43 43 32 43 43 32 42 42 32 42 42 32 42 42 32 42 42 32 42 42 
34 47 47 35 50 50 35 50 50 35 51 51 35 51 51 35 51 51 31 32 32 57 36 36 94 41 41 112 42 42 143 53 53 166 81 81 100 60 60 29 29 38 37 37 59 40 40 75 54 54 100 79 79 134 99 99 163 116 116 189 131 131 213 144 144 233 155 155 251 163 163 255 169 169 255 171 171 255 174 174 255 171 169 255 155 155 255 134 134 255 101 102 220 152 63 89 207 79 79 234 96 96 255 124 124 155 77 82 31 32 32 25 25 25 25 25 25 25 25 25 25 25 25 25 25 25 25 25 25 25 25 25 25 25 25 25 25 25 25 25 25 25 25 25 25 25 25 25 25 25 25 25 25 25 25 25 31 31 37 57 56 67 90 84 87 132 119 124 143 121 122 169 138 138 195 151 153 216 162 174 208 143 143 255 146 146 238 85 85 184 64 64 38 58 58 38 58 58 65 44 44 71 43 43 64 45 45 82 49 49 97 52 52 107 55 55 113 56 56 116 57 57 116 57 57 111 56 56 102 53 53 87 50 50 65 45 45 49 52 52 37 54 54 39 59 59 39 59 59 39 60 60 39 60 60 39 60 60 39 60 60 39 60 60 39 60 60 39 60 60 39 60 60 47 50 50 35 38 38 35 39 39 34 37 37 34 36 36 34 35 35 31 32 32 31 32 32 29 29 29 29 29 29 27 27 27 27 27 27 27 27 27 27 27 27 27 27 27 29 29 29 29 29 29 50 33 33 92 58 58 65 44 44 77 55 55 94 55 55 47 44 56 35 37 37 35 38 38 38 38 39 73 48 48 37 43 43 143 144 216 161 161 254 135 135 208 73 74 106 43 47 55 40 47 47 43 51 51 41 50 50 39 48 48 43 52 53 39 47 47 39 47 47 39 47 47 38 46 46 38 46 46 38 49 49 38 53 53 39 60 60 39 60 60 39 60 60 39 60 60 39 60 60 39 60 60 39 60 60 39 60 60 39 60 60 39 60 60 39 59 59 39 59 59 39 59 59 39 59 59 39 59 59 39 59 59 39 59 59 39 59 59 39 59 59 38 59 59 38 59 59 38 59 59 38 58 58 38 58 58 38 58 58 38 58 58 38 58 58 38 58 58 38 58 58 38 58 58 38 58 58 38 57 57 38 57 57 38 57 57 38 57 57 38 57 57 38 57 57 38 57 57 108 90 90 254 179 179 255 227 229 255 214 214 247 200 200 214 182 182 181 163 163 123 117 117 54 53 53 25 25 25 25 25 25 25 25 25 25 25 25 25 25 25 25 25 25 25 25 25 25 25 25 25 25 25 25 25 25 25 25 25 25 25 25 25 25 25 25 25 25 25 25 25 25 25 25 25 25 25 25 25 25 25 25 25 25 25 25 31 32 32 29 30 30 31 33 33 34 43 43 36 53 53 36 53 53 36 52 52 36 52 52 36 52 52 36 52 52 36 52 52 36 52 52 36 52 52 36 52 52 36 52 52 36 51 51 36 51 51 35 51 51 35 51 51 35 51 51 35 51 51 35 51 51 35 51 51 35 50 50 35 50 50 35 50 50 35 50 50 35 50 50 35 50 50 35 50 50 35 50 50 35 50 50 35 49 49 35 49 49 35 49 49 35 49 49 35 49 49 35 49 49 35 49 49 34 49 49 34 49 49 34 49 49 34 48 48 34 48 48 34 48 48 34 48 48 34 48 48 34 48 48 34 48 48 34 48 48 34 48 48 34 48 48 34 47 47 34 47 47 34 47 47 34 47 47 34 47 47 34 47 47 34 47 47 34 47 47 34 47 47 34 47 47 34 46 46 34 46 46 34 46 46 33 46 46 33 46 46 33 46 46 33 46 46 33 46 46 33 46 46 33 46 46 33 46 46 33 46 46 33 45 45 33 45 45 33 45 45 33 45 45 33 45 45 33 45 45 33 45 45 33 45 45 33 45 45 33 45 45 33 45 45 33 45 45 33 44 44 33 44 44 33 44 44 33 44 44 33 44 44 33 44 44 33 44 44 33 44 44 33 44 44 33 44 44 32 44 44 32 44 44 32 44 44 32 43 43 32 43 43 32 43 43 32 43 43 32 43 43 32 43 43 32 43 43 32 43 43 32 43 43 32 43 43 32 43 43 32 43 43 32 43 43 32 43 43 32 43 43 32 42 42 32 42 42 32 42 42 
35 51 51 35 51 51 35 51 51 35 51 51 35 51 51 35 51 51 31 33 33 41 30 30 73 35 35 102 40 40 126 45 45 106 57 57 27 27 27 27 27 33 33 33 51 38 38 68 49 49 90 74 74 124 94 94 154 112 112 180 128 128 203 141 141 224 153 153 243 162 162 255 168 168 255 178 178 255 181 180 255 182 180 255 176 175 255 205 180 255 155 141 255 85 89 199 217 90 90 255 129 129 255 161 161 189 107 116 31 32 32 28 28 28 25 25 25 25 25 25 25 25 25 25 25 25 25 25 25 25 25 25 25 25 25 25 25 25 25 25 25 25 25 25 25 25 25 25 25 25 25 25 25 25 25 25 28 28 29 53 51 66 52 40 45 84 71 73 105 97 97 129 112 112 152 126 126 176 138 144 184 134 139 252 134 134 255 110 110 192 64 64 130 56 56 38 58 58 42 53 53 46 37 37 40 39 39 51 43 43 61 45 45 73 49 49 79 49 49 82 49 49 84 51 51 76 48 48 66 46 46 54 43 43 44 46 46 36 49 49 39 60 60 39 60 60 39 60 60 39 60 60 39 60 60 39 60 60 39 60 60 39 60 60 39 60 60 39 61 61 39 61 61 39 61 61 76 52 52 36 40 40 35 39 39 35 38 38 34 37 37 34 36 36 34 36 36 34 35 35 33 35 35 33 34 34 31 32 32 31 32 32 31 32 32 31 32 32 33 35 35 34 35 35 67 50 50 108 74 83 49 42 50 38 37 37 38 37 37 37 39 43 49 51 67 35 40 40 36 37 37 75 61 62 37 43 43 185 183 255 157 157 241 149 150 231 113 114 172 62 62 86 44 44 48 40 47 47 43 50 50 39 48 48 41 50 51 39 48 48 38 47 47 38 47 47 38 50 50 39 54 54 39 53 53 39 61 61 39 61 61 39 61 61 39 61 61 39 60 60 39 60 60 39 60 60 39 60 60 39 60 60 39 60 60 39 60 60 39 60 60 39 60 60 39 60 60 39 60 60 39 60 60 39 60 60 39 59 59 39 59 59 39 59 59 39 59 59 39 59 59 39 59 59 39 59 59 38 59 59 38 59 59 38 59 59 38 58 58 38 58 58 38 58 58 38 58 58 38 58 58 38 58 58 38 58 58 38 58 58 38 58 58 38 57 57 38 57 57 38 57 57 180 132 132 255 223 225 255 219 219 255 206 206 228 190 190 194 170 170 160 150 150 85 83 83 25 25 25 25 25 25 25 25 25 25 25 25 25 25 25 25 25 25 25 25 25 25 25 25 25 25 25 25 25 25 25 25 25 25 25 25 25 25 25 25 25 25 25 25 25 25 25 25 25 25 25 25 25 25 25 25 25 25 25 25 25 25 25 31 32 32 31 33 33 31 33 33 34 44 44 36 53 53 36 53 53 36 53 53 36 53 53 36 52 52 36 52 52 36 52 52 36 52 52 36 52 52 36 52 52 36 52 52 36 52 52 36 52 52 36 51 51 36 51 51 35 51 51 35 51 51 35 51 51 35 51 51 35 51 51 35 51 51 35 50 50 35 50 50 35 50 50 35 50 50 35 50 50 35 50 50 35 50 50 35 50 50 35 50 50 35 49 49 35 49 49 35 49 49 35 49 49 35 49 49 35 49 49 35 49 49 34 49 49 34 49 49 34 49 49 34 48 48 34 48 48 34 48 48 34 48 48 34 48 48 34 48 48 34 48 48 34 48 48 34 48 48 34 48 48 34 47 47 34 47 47 34 47 47 34 47 47 34 47 47 34 47 47 34 47 47 34 47 47 34 47 47 34 47 47 34 46 46 34 46 46 34 46 46 33 46 46 33 46 46 33 46 46 33 46 46 33 46 46 33 46 46 33 46 46 33 46 46 33 46 46 33 45 45 33 45 45 33 45 45 33 45 45 33 45 45 33 45 45 33 45 45 33 45 45 33 45 45 33 45 45 33 45 45 33 45 45 33 44 44 33 44 44 33 44 44 33 44 44 33 44 44 33 44 44 33 44 44 33 44 44 33 44 44 33 44 44 32 44 44 32 44 44 32 44 44 32 43 43 32 43 43 32 43 43 32 43 43 32 43 43 32 43 43 32 43 43 32 43 43 32 43 43 32 43 43 32 43 43 32 43 43 32 43 43 32 43 43 32 43 43 32 42 42 
35 51 51 35 51 51 35 51 51 35 51 51 36 51 51 36 51 51 32 34 34 31 30 30 59 32 32 88 38 38 112 42 42 65 43 43 25 25 25 25 25 26 31 31 43 35 35 59 41 41 75 66 66 109 87 87 139 105 105 166 121 121 190 135 135 211 147 147 230 157 157 247 166 166 255 176 176 255 178 179 255 174 175 255 189 180 255 163 161 255 143 144 255 130 120 231 156 94 142 255 148 148 255 182 183 255 209 209 31 33 33 31 31 31 26 26 26 25 25 25 25 25 25 25 25 25 25 25 25 25 25 25 25 25 25 25 25 25 25 25 25 25 25 25 25 25 25 25 25 25 25 25 25 28 28 31 39 39 50 55 47 51 41 42 52 48 35 35 91 67 67 84 80 80 117 106 106 138 116 116 166 131 141 234 133 133 255 115 115 190 65 65 148 60 60 39 59 59 39 59 59 37 54 54 36 43 43 35 40 40 38 40 40 42 41 41 47 43 43 48 42 42 49 43 43 46 42 42 42 46 46 39 50 50 36 49 49 39 60 60 39 60 60 39 60 60 39 61 61 39 61 61 39 61 61 39 61 61 39 61 61 39 61 61 39 61 61 39 61 61 39 61 61 39 61 61 49 53 66 35 40 40 36 41 41 35 40 40 35 39 39 35 38 38 35 38 38 34 37 37 36 38 42 37 38 46 36 37 45 36 36 42 35 36 39 34 36 36 34 37 37 34 37 37 76 48 48 89 53 54 61 51 59 78 56 62 77 56 56 48 50 63 45 48 63 36 41 41 37 41 41 75 58 58 92 95 134 174 171 255 148 146 219 140 138 205 120 121 183 102 103 157 67 68 102 48 46 60 36 40 43 37 42 43 38 46 46 39 51 51 39 51 51 39 54 54 39 54 54 39 58 58 40 61 61 39 61 61 39 61 61 39 61 61 39 61 61 39 61 61 39 61 61 39 61 61 39 61 61 39 61 61 39 61 61 39 60 60 39 60 60 39 60 60 39 60 60 39 60 60 39 60 60 39 60 60 39 60 60 39 60 60 39 60 60 39 60 60 39 59 59 39 59 59 39 59 59 39 59 59 39 59 59 39 59 59 39 59 59 38 59 59 38 59 59 38 58 58 38 58 58 38 58 58 38 58 58 38 58 58 38 58 58 38 58 58 38 58 58 38 58 58 177 136 136 255 223 224 255 221 225 242 196 196 209 179 179 174 158 158 91 87 87 25 25 25 25 25 25 25 25 25 25 25 25 25 25 25 25 25 25 25 25 25 25 25 25 25 25 25 25 25 25 25 25 25 25 25 25 25 25 25 25 25 25 25 25 25 25 25 25 25 25 25 25 25 25 25 25 25 25 25 25 25 25 25 28 28 28 31 32 32 31 33 33 31 34 34 34 44 44 36 53 53 36 53 53 36 53 53 36 53 53 36 53 53 36 53 53 36 52 52 36 52 52 36 52 52 36 52 52 36 52 52 36 52 52 36 52 52 36 52 52 36 52 52 36 51 51 36 51 51 35 51 51 35 51 51 35 51 51 35 51 51 35 51 51 35 51 51 35 50 50 35 50 50 35 50 50 35 50 50 35 50 50 35 50 50 35 50 50 35 50 50 35 50 50 35 49 49 35 49 49 35 49 49 35 49 49 35 49 49 35 49 49 35 49 49 34 49 49 34 49 49 34 49 49 34 48 48 34 48 48 34 48 48 34 48 48 34 48 48 34 48 48 34 48 48 34 48 48 34 48 48 34 48 48 34 47 47 34 47 47 34 47 47 34 47 47 34 47 47 34 47 47 34 47 47 34 47 47 34 47 47 34 47 47 34 46 46 34 46 46 34 46 46 33 46 46 33 46 46 33 46 46 33 46 46 33 46 46 33 46 46 33 46 46 33 46 46 33 45 45 33 45 45 33 45 45 33 45 45 33 45 45 33 45 45 33 45 45 33 45 45 33 45 45 33 45 45 33 45 45 33 45 45 33 45 45 33 44 44 33 44 44 33 44 44 33 44 44 33 44 44 33 44 44 33 44 44 33 44 44 33 44 44 32 44 44 32 44 44 32 44 44 32 44 44 32 43 43 32 43 43 32 43 43 32 43 43 32 43 43 32 43 43 32 43 43 32 43 43 32 43 43 32 43 43 32 43 43 32 43 43 32 43 43 32 43 43 
35 51 51 35 51 51 36 51 51 36 51 51 36 52 52 36 52 52 32 35 35 31 33 33 46 34 34 73 36 36 98 41 41 34 35 35 25 25 25 25 25 25 28 28 34 32 32 50 37 37 64 53 53 90 75 75 121 94 94 148 110 110 172 125 125 194 138 138 214 148 148 231 163 164 253 169 169 255 175 176 255 171 171 255 162 162 255 153 153 255 147 146 255 146 137 245 118 93 192 255 156 156 255 192 192 255 216 216 32 34 34 31 33 33 31 31 31 28 28 28 26 26 26 25 25 25 25 25 25 25 25 25 25 25 25 25 25 25 25 25 25 25 25 25 25 25 25 25 25 25 25 25 25 29 29 31 49 49 67 34 35 41 37 37 43 31 32 32 36 33 34 32 34 34 63 64 64 106 99 99 140 117 134 210 122 122 245 111 111 184 68 68 145 60 60 39 59 59 39 59 59 39 60 60 39 60 60 40 55 55 36 49 49 36 45 45 40 48 49 37 46 46 35 45 45 36 50 50 36 50 50 38 55 55 39 61 61 39 61 61 39 61 61 39 61 61 39 61 61 39 61 61 39 61 61 40 61 61 40 61 61 40 61 61 40 61 61 40 62 62 40 62 62 40 62 62 39 53 53 91 68 68 37 42 42 36 41 41 36 40 40 35 40 40 35 39 39 40 42 54 41 43 56 43 44 62 43 43 63 41 41 58 39 39 52 37 38 47 37 38 41 35 38 38 40 39 39 100 67 67 69 49 49 47 40 40 37 40 44 38 41 45 48 51 67 36 42 42 65 53 53 62 50 50 85 89 123 141 142 211 135 135 202 120 120 177 112 110 160 89 91 133 65 68 102 43 44 69 31 31 40 33 34 36 36 42 42 39 58 58 39 58 58 39 58 58 40 62 62 40 62 62 40 62 62 40 62 62 40 62 62 40 62 62 40 62 62 40 61 61 40 61 61 40 61 61 39 61 61 39 61 61 39 61 61 39 61 61 39 61 61 39 61 61 39 61 61 39 61 61 39 60 60 39 60 60 39 60 60 39 60 60 39 60 60 39 60 60 39 60 60 39 60 60 39 60 60 39 60 60 39 59 59 39 59 59 39 59 59 39 59 59 39 59 59 39 59 59 39 59 59 38 59 59 38 59 59 38 58 58 38 58 58 38 58 58 38 58 58 38 58 58 240 170 170 255 225 232 255 214 217 225 187 187 190 168 168 128 120 120 81 80 80 25 25 25 25 25 25 25 25 25 25 25 25 25 25 25 25 25 25 25 25 25 25 25 25 25 25 25 25 25 25 25 25 25 25 25 25 25 25 25 25 25 25 25 25 25 25 25 25 25 25 25 25 25 25 25 25 25 25 25 25 25 25 25 28 28 28 31 32 32 32 34 34 32 34 34 34 44 44 36 54 54 36 53 53 36 53 53 36 53 53 36 53 53 36 53 53 36 53 53 36 53 53 36 53 53 36 52 52 36 52 52 36 52 52 36 52 52 36 52 52 36 52 52 36 52 52 36 52 52 36 51 51 36 51 51 35 51 51 35 51 51 35 51 51 35 51 51 35 51 51 35 51 51 35 50 50 35 50 50 35 50 50 35 50 50 35 50 50 35 50 50 35 50 50 35 50 50 35 50 50 35 49 49 35 49 49 35 49 49 35 49 49 35 49 49 35 49 49 35 49 49 34 49 49 34 49 49 34 48 48 34 48 48 34 48 48 34 48 48 34 48 48 34 48 48 34 48 48 34 48 48 34 48 48 34 48 48 34 47 47 34 47 47 34 47 47 34 47 47 34 47 47 34 47 47 34 47 47 34 47 47 34 47 47 34 47 47 34 47 47 34 46 46 34 46 46 34 46 46 33 46 46 33 46 46 33 46 46 33 46 46 33 46 46 33 46 46 33 46 46 33 46 46 33 45 45 33 45 45 33 45 45 33 45 45 33 45 45 33 45 45 33 45 45 33 45 45 33 45 45 33 45 45 33 45 45 33 45 45 33 44 44 33 44 44 33 44 44 33 44 44 33 44 44 33 44 44 33 44 44 33 44 44 33 44 44 33 44 44 32 44 44 32 44 44 32 44 44 32 44 44 32 43 43 32 43 43 32 43 43 32 43 43 32 43 43 32 43 43 32 43 43 32 43 43 32 43 43 32 43 43 32 43 43 32 43 43 
36 51 51 36 52 52 36 52 52 36 52 52 36 52 52 36 52 52 35 48 48 32 35 35 33 34 34 57 38 38 82 42 42 34 36 36 25 25 25 25 25 25 25 25 26 29 29 39 34 34 53 38 38 67 60 60 98 80 80 126 97 97 151 112 112 174 125 125 194 138 138 213 166 163 243 172 173 255 163 164 255 172 172 255 172 172 255 150 150 252 142 144 246 125 129 230 126 107 202 255 152 152 255 191 191 255 215 215 32 35 36 32 34 34 31 33 33 31 32 32 29 30 30 29 30 30 28 28 28 28 28 28 26 27 27 26 27 27 26 27 27 26 27 27 28 28 28 28 28 28 28 28 28 32 32 39 48 47 63 39 35 39 52 41 46 43 44 56 32 34 34 63 49 49 33 37 37 48 52 52 109 97 105 180 107 107 218 97 97 169 64 64 133 58 58 39 60 60 39 60 60 39 60 60 39 60 60 39 60 60 39 60 60 38 55 55 39 56 56 38 55 55 38 55 55 38 55 55 39 61 61 39 61 61 39 61 61 40 61 61 40 61 61 40 61 61 40 62 62 40 62 62 40 62 62 40 62 62 40 62 62 40 62 62 40 62 62 40 62 62 40 62 62 40 62 62 40 62 62 75 63 78 35 37 37 37 43 43 36 42 42 36 41 41 36 41 41 45 47 63 55 55 83 56 56 84 55 55 81 52 52 76 46 46 68 41 41 60 39 39 53 51 46 54 36 40 40 38 42 44 51 44 44 45 43 45 48 50 64 44 48 56 36 42 42 36 41 41 62 54 55 80 70 85 105 107 161 144 142 213 113 114 168 97 97 147 102 94 137 70 68 101 48 50 75 35 35 51 28 28 35 30 31 32 35 40 40 40 63 63 40 62 62 40 62 62 40 62 62 40 62 62 40 62 62 40 62 62 40 62 62 40 62 62 40 62 62 40 62 62 40 62 62 40 62 62 40 62 62 40 62 62 40 62 62 40 61 61 40 61 61 39 61 61 39 61 61 39 61 61 39 61 61 39 61 61 39 61 61 39 61 61 39 61 61 39 60 60 39 60 60 39 60 60 39 60 60 39 60 60 39 60 60 39 60 60 39 60 60 39 60 60 39 59 59 39 59 59 39 59 59 39 59 59 39 59 59 39 59 59 38 59 59 38 59 59 38 58 58 38 58 58 255 211 211 255 220 228 247 199 199 209 178 178 172 157 157 90 86 86 25 25 25 25 25 25 25 25 25 25 25 25 25 25 25 25 25 25 25 25 25 25 25 25 25 25 25 25 25 25 25 25 25 25 25 25 25 25 25 25 25 25 25 25 25 25 25 25 25 25 25 25 25 25 25 25 25 25 25 25 25 25 25 25 25 25 28 28 28 31 32 32 32 34 34 32 35 35 37 54 54 37 54 54 36 54 54 36 54 54 36 53 53 36 53 53 36 53 53 36 53 53 36 53 53 36 53 53 36 53 53 36 53 53 36 52 52 36 52 52 36 52 52 36 52 52 36 52 52 36 52 52 36 52 52 36 52 52 36 51 51 36 51 51 35 51 51 35 51 51 35 51 51 35 51 51 35 51 51 35 51 51 35 50 50 35 50 50 35 50 50 35 50 50 35 50 50 35 50 50 35 50 50 35 50 50 35 50 50 35 49 49 35 49 49 35 49 49 35 49 49 35 49 49 35 49 49 35 49 49 34 49 49 34 49 49 34 48 48 34 48 48 34 48 48 34 48 48 34 48 48 34 48 48 34 48 48 34 48 48 34 48 48 34 48 48 34 47 47 34 47 47 34 47 47 34 47 47 34 47 47 34 47 47 34 47 47 34 47 47 34 47 47 34 47 47 34 47 47 34 46 46 34 46 46 33 46 46 33 46 46 33 46 46 33 46 46 33 46 46 33 46 46 33 46 46 33 46 46 33 46 46 33 45 45 33 45 45 33 45 45 33 45 45 33 45 45 33 45 45 33 45 45 33 45 45 33 45 45 33 45 45 33 45 45 33 45 45 33 44 44 33 44 44 33 44 44 33 44 44 33 44 44 33 44 44 33 44 44 33 44 44 33 44 44 33 44 44 32 44 44 32 44 44 32 44 44 32 44 44 32 43 43 32 43 43 32 43 43 32 43 43 32 43 43 32 43 43 32 43 43 32 43 43 32 43 43 32 43 43 
36 52 52 36 52 52 36 52 52 36 52 52 36 52 52 36 52 52 36 52 52 32 35 35 32 35 35 37 36 36 61 41 41 34 37 37 27 27 27 25 25 25 25 25 25 26 26 28 30 30 42 34 34 55 41 41 71 63 63 101 81 81 127 97 97 150 111 111 171 126 126 192 144 145 217 183 160 238 149 149 234 149 149 237 152 153 244 149 149 247 138 142 236 122 127 220 87 94 183 184 108 148 255 177 177 255 212 215 255 175 177 32 35 35 32 34 34 31 33 33 31 33 33 31 32 32 31 32 32 31 32 32 29 30 30 29 30 30 29 30 30 29 30 30 31 32 32 31 32 32 31 33 33 31 33 33 60 59 81 61 53 69 45 40 44 41 43 54 38 36 37 59 43 43 33 38 38 34 39 39 47 50 52 144 85 85 187 81 81 151 62 62 113 54 54 39 60 60 39 60 60 39 60 60 39 61 61 39 61 61 39 61 61 39 61 61 39 61 61 39 61 61 40 61 61 40 61 61 40 61 61 40 62 62 40 62 62 40 62 62 40 62 62 40 62 62 40 62 62 40 62 62 40 62 62 40 62 62 40 62 62 40 62 62 40 63 63 40 63 63 40 63 63 40 63 63 40 63 63 40 58 58 54 47 48 37 44 44 37 43 43 37 43 43 36 42 42 57 57 89 66 66 98 69 69 100 69 69 99 66 66 93 59 59 85 50 50 74 42 42 63 55 49 68 37 40 43 40 43 50 39 42 47 64 64 81 39 43 44 47 51 61 37 43 43 39 43 43 56 49 49 70 74 100 113 113 172 109 109 162 88 88 131 94 83 122 107 84 115 53 50 74 34 34 50 28 28 36 30 31 33 34 37 37 36 41 41 39 53 53 40 63 63 40 63 63 40 63 63 40 63 63 40 63 63 40 63 63 40 63 63 40 63 63 40 62 62 40 62 62 40 62 62 40 62 62 40 62 62 40 62 62 40 62 62 40 62 62 40 62 62 40 62 62 40 62 62 40 61 61 40 61 61 40 61 61 39 61 61 39 61 61 39 61 61 39 61 61 39 61 61 39 61 61 39 60 60 39 60 60 39 60 60 39 60 60 39 60 60 39 60 60 39 60 60 39 60 60 39 60 60 39 59 59 39 59 59 39 59 59 39 59 59 39 59 59 39 59 59 38 59 59 255 206 206 255 220 235 240 197 198 197 173 173 157 148 148 81 80 80 25 25 25 25 25 25 25 25 25 25 25 25 25 25 25 25 25 25 25 25 25 25 25 25 25 25 25 25 25 25 25 25 25 25 25 25 25 25 25 25 25 25 25 25 25 25 25 25 25 25 25 25 25 25 25 25 25 25 25 25 25 25 25 28 28 28 31 31 31 31 32 32 32 34 34 34 45 45 37 54 54 37 54 54 37 54 54 37 54 54 36 54 54 36 54 54 36 53 53 36 53 53 36 53 53 36 53 53 36 53 53 36 53 53 36 53 53 36 52 52 36 52 52 36 52 52 36 52 52 36 52 52 36 52 52 36 52 52 36 52 52 36 51 51 36 51 51 36 51 51 35 51 51 35 51 51 35 51 51 35 51 51 35 51 51 35 51 51 35 50 50 35 50 50 35 50 50 35 50 50 35 50 50 35 50 50 35 50 50 35 50 50 35 50 50 35 49 49 35 49 49 35 49 49 35 49 49 35 49 49 35 49 49 35 49 49 34 49 49 34 49 49 34 48 48 34 48 48 34 48 48 34 48 48 34 48 48 34 48 48 34 48 48 34 48 48 34 48 48 34 48 48 34 47 47 34 47 47 34 47 47 34 47 47 34 47 47 34 47 47 34 47 47 34 47 47 34 47 47 34 47 47 34 46 46 34 46 46 34 46 46 33 46 46 33 46 46 33 46 46 33 46 46 33 46 46 33 46 46 33 46 46 33 46 46 33 46 46 33 45 45 33 45 45 33 45 45 33 45 45 33 45 45 33 45 45 33 45 45 33 45 45 33 45 45 33 45 45 33 45 45 33 45 45 33 44 44 33 44 44 33 44 44 33 44 44 33 44 44 33 44 44 33 44 44 33 44 44 33 44 44 33 44 44 32 44 44 32 44 44 32 44 44 32 43 43 32 43 43 32 43 43 32 43 43 32 43 43 32 43 43 32 43 43 32 43 43 32 43 43 
36 52 52 36 52 52 36 52 52 36 52 52 36 53 53 36 53 53 36 53 53 36 53 53 32 36 36 32 36 36 38 37 37 35 39 39 34 35 35 27 27 27 25 25 25 25 25 25 26 26 30 30 30 43 34 34 55 42 42 71 62 62 99 79 79 123 93 93 144 105 105 163 159 145 209 152 143 212 166 154 240 185 155 233 138 140 221 166 162 255 129 134 220 113 120 205 84 91 172 177 107 146 255 151 151 255 193 194 255 207 210 32 36 36 32 35 35 32 35 35 32 34 34 32 34 34 32 34 34 31 33 33 31 33 33 31 33 33 31 33 33 31 34 34 32 34 34 32 34 34 32 34 34 32 35 35 37 39 46 36 38 46 43 44 53 33 37 37 63 49 49 59 48 48 34 39 39 34 40 40 36 37 40 144 73 73 152 65 65 127 57 57 82 53 53 39 61 61 39 61 61 39 61 61 39 61 61 39 61 61 40 61 61 40 61 61 40 62 62 40 62 62 40 62 62 40 62 62 40 62 62 40 62 62 40 62 62 40 62 62 40 62 62 40 62 62 40 63 63 40 63 63 40 63 63 40 63 63 40 63 63 40 63 63 40 63 63 40 63 63 40 63 63 40 63 63 40 63 63 40 63 63 45 57 70 46 42 42 37 42 42 37 44 44 37 43 43 59 61 96 71 72 106 76 76 110 77 77 110 75 75 107 71 70 99 63 63 90 51 51 76 55 49 70 44 45 60 56 58 80 42 45 55 50 53 67 40 45 52 37 44 44 40 42 42 38 45 45 61 65 87 74 76 109 91 92 140 88 88 132 98 81 114 81 72 107 78 67 93 70 47 61 30 30 37 30 32 34 32 34 34 35 39 39 36 42 42 39 54 54 40 63 63 40 63 63 40 63 63 40 63 63 40 63 63 40 63 63 40 63 63 40 63 63 40 63 63 40 63 63 40 63 63 40 63 63 40 63 63 40 63 63 40 62 62 40 62 62 40 62 62 40 62 62 40 62 62 40 62 62 40 62 62 40 62 62 40 62 62 40 61 61 40 61 61 40 61 61 39 61 61 39 61 61 39 61 61 39 61 61 39 61 61 39 61 61 39 60 60 39 60 60 39 60 60 39 60 60 39 60 60 39 60 60 39 60 60 39 60 60 39 59 59 39 59 59 39 59 59 39 59 59 255 201 201 255 215 219 229 194 201 183 165 165 96 92 92 26 26 26 25 25 25 25 25 25 25 25 25 25 25 25 25 25 25 35 28 28 34 28 28 32 27 27 30 27 27 25 25 25 25 25 25 25 25 25 25 25 25 25 25 25 25 25 25 25 25 25 25 25 25 25 25 25 25 25 25 25 25 25 28 28 28 29 30 30 31 32 32 31 33 33 32 35 35 35 45 45 37 54 54 37 54 54 37 54 54 37 54 54 37 54 54 37 54 54 36 54 54 36 54 54 36 53 53 36 53 53 36 53 53 36 53 53 36 53 53 36 53 53 36 53 53 36 52 52 36 52 52 36 52 52 36 52 52 36 52 52 36 52 52 36 52 52 36 52 52 36 51 51 36 51 51 35 51 51 35 51 51 35 51 51 35 51 51 35 51 51 35 51 51 35 51 51 35 50 50 35 50 50 35 50 50 35 50 50 35 50 50 35 50 50 35 50 50 35 50 50 35 49 49 35 49 49 35 49 49 35 49 49 35 49 49 35 49 49 35 49 49 34 49 49 34 49 49 34 49 49 34 48 48 34 48 48 34 48 48 34 48 48 34 48 48 34 48 48 34 48 48 34 48 48 34 48 48 34 48 48 34 47 47 34 47 47 34 47 47 34 47 47 34 47 47 34 47 47 34 47 47 34 47 47 34 47 47 34 47 47 34 46 46 34 46 46 34 46 46 33 46 46 33 46 46 33 46 46 33 46 46 33 46 46 33 46 46 33 46 46 33 46 46 33 45 45 33 45 45 33 45 45 33 45 45 33 45 45 33 45 45 33 45 45 33 45 45 33 45 45 33 45 45 33 45 45 33 45 45 33 45 45 33 44 44 33 44 44 33 44 44 33 44 44 33 44 44 33 44 44 33 44 44 33 44 44 33 44 44 33 44 44 32 44 44 32 44 44 32 44 44 32 43 43 32 43 43 32 43 43 32 43 43 32 43 43 32 43 43 32 43 43 
36 52 52 36 52 52 36 53 53 36 53 53 36 53 53 36 53 53 36 53 53 36 53 53 35 49 49 33 36 36 33 36 36 36 40 40 35 38 38 34 35 35 29 30 30 27 27 27 27 27 27 27 27 30 30 30 42 34 34 53 40 40 67 57 57 91 75 75 116 88 88 136 112 107 161 194 154 213 178 154 229 154 139 209 125 130 202 127 131 210 124 123 210 100 108 183 77 85 156 130 76 110 234 122 122 255 151 151 255 179 179 178 111 113 33 36 36 32 36 36 32 35 35 32 35 35 32 35 35 32 35 35 32 35 35 32 35 35 32 35 35 32 35 35 32 35 35 32 35 35 32 36 36 32 36 36 34 37 37 36 38 39 34 39 39 49 43 44 53 44 46 54 41 41 34 40 40 36 40 43 85 49 54 140 62 62 123 57 57 96 51 51 63 55 55 39 61 61 40 61 61 40 61 61 40 62 62 40 62 62 40 62 62 40 62 62 40 62 62 40 62 62 40 62 62 40 62 62 40 62 62 40 63 63 40 63 63 40 63 63 40 63 63 40 63 63 40 63 63 40 63 63 40 63 63 40 63 63 40 63 63 40 63 63 40 64 64 40 64 64 40 64 64 41 64 64 41 64 64 41 64 64 41 64 64 51 58 71 80 64 64 39 42 42 37 45 45 41 46 55 71 71 108 83 82 119 81 81 116 82 82 117 76 76 109 69 70 99 59 60 87 56 53 77 42 46 55 60 63 80 45 50 58 42 47 54 39 46 46 41 43 43 65 58 58 67 54 62 101 85 112 70 70 106 62 62 94 91 90 142 54 50 72 44 44 70 76 53 67 83 57 62 33 34 36 35 37 37 35 40 40 36 42 42 37 43 43 39 54 54 41 64 64 41 64 64 41 64 64 41 64 64 40 64 64 40 64 64 40 64 64 40 63 63 40 63 63 40 63 63 40 63 63 40 63 63 40 63 63 40 63 63 40 63 63 40 63 63 40 63 63 40 63 63 40 62 62 40 62 62 40 62 62 40 62 62 40 62 62 40 62 62 40 62 62 40 62 62 40 62 62 40 61 61 40 61 61 39 61 61 39 61 61 39 61 61 39 61 61 39 61 61 39 61 61 39 60 60 39 60 60 39 60 60 39 60 60 39 60 60 39 60 60 39 60 60 39 59 59 39 59 59 255 198 201 246 195 197 234 198 204 178 165 170 89 88 88 30 31 31 28 28 28 26 26 26 25 25 25 25 25 25 51 35 35 53 39 39 59 40 40 52 36 36 44 32 32 38 31 31 27 26 26 25 25 25 25 25 25 25 25 25 25 25 25 25 25 25 28 28 30 33 33 42 26 26 26 30 30 34 29 30 30 31 32 32 31 32 32 31 33 33 33 40 40 36 50 50 37 55 55 37 55 55 37 54 54 37 54 54 37 54 54 37 54 54 37 54 54 37 54 54 36 54 54 36 53 53 36 53 53 36 53 53 36 53 53 36 53 53 36 53 53 36 53 53 36 53 53 36 52 52 36 52 52 36 52 52 36 52 52 36 52 52 36 52 52 36 52 52 36 52 52 36 51 51 36 51 51 35 51 51 35 51 51 35 51 51 35 51 51 35 51 51 35 51 51 35 50 50 35 50 50 35 50 50 35 50 50 35 50 50 35 50 50 35 50 50 35 50 50 35 50 50 35 49 49 35 49 49 35 49 49 35 49 49 35 49 49 35 49 49 35 49 49 34 49 49 34 49 49 34 48 48 34 48 48 34 48 48 34 48 48 34 48 48 34 48 48 34 48 48 34 48 48 34 48 48 34 48 48 34 47 47 34 47 47 34 47 47 34 47 47 34 47 47 34 47 47 34 47 47 34 47 47 34 47 47 34 47 47 34 47 47 34 46 46 34 46 46 33 46 46 33 46 46 33 46 46 33 46 46 33 46 46 33 46 46 33 46 46 33 46 46 33 46 46 33 45 45 33 45 45 33 45 45 33 45 45 33 45 45 33 45 45 33 45 45 33 45 45 33 45 45 33 45 45 33 45 45 33 45 45 33 44 44 33 44 44 33 44 44 33 44 44 33 44 44 33 44 44 33 44 44 33 44 44 33 44 44 33 44 44 32 44 44 32 44 44 32 44 44 32 44 44 32 43 43 32 43 43 32 43 43 32 43 43 32 43 43 
36 53 53 36 53 53 36 53 53 36 53 53 36 53 53 36 53 53 36 53 53 36 54 54 36 54 54 36 49 49 33 36 36 34 38 38 35 39 39 35 38 38 34 37 37 32 33 33 32 33 33 29 30 30 31 32 34 34 35 45 37 38 56 42 44 68 56 57 89 70 72 110 85 88 131 102 100 149 134 116 170 129 124 181 108 115 176 120 123 203 130 130 221 102 104 190 66 74 134 98 64 93 186 90 90 224 117 117 255 140 140 255 159 159 88 63 64 33 37 37 33 36 36 32 36 36 32 36 36 32 36 36 32 36 36 32 36 36 32 36 36 32 36 36 33 36 36 34 35 35 38 35 35 43 36 36 48 39 39 56 45 48 56 43 43 69 49 49 55 44 44 34 40 40 34 40 40 39 43 48 74 52 57 107 54 54 88 50 50 63 50 50 43 57 57 40 62 62 40 62 62 40 62 62 40 62 62 40 62 62 40 62 62 40 62 62 40 63 63 40 63 63 40 63 63 40 63 63 40 63 63 40 63 63 40 63 63 40 63 63 40 63 63 40 63 63 40 64 64 40 64 64 40 64 64 41 64 64 41 64 64 41 64 64 41 64 64 41 64 64 41 64 64 41 64 64 41 64 64 41 64 64 41 64 64 41 65 65 53 61 68 86 67 67 47 46 46 38 45 45 45 50 59 73 72 111 77 77 113 80 80 117 76 77 111 69 71 102 60 60 89 60 56 75 41 46 56 44 48 49 44 49 49 39 46 46 48 44 44 58 52 52 70 58 63 42 49 60 87 70 97 90 70 94 52 48 68 47 50 70 47 48 69 87 54 61 52 46 58 81 62 63 36 40 40 36 41 41 37 42 42 37 43 43 37 44 44 40 60 60 41 64 64 41 64 64 41 64 64 41 64 64 41 64 64 41 64 64 41 64 64 41 64 64 41 64 64 41 64 64 40 64 64 40 64 64 40 64 64 40 63 63 40 63 63 40 63 63 40 63 63 40 63 63 40 63 63 40 63 63 40 63 63 40 63 63 40 62 62 40 62 62 40 62 62 40 62 62 40 62 62 40 62 62 40 62 62 40 62 62 40 61 61 40 61 61 39 61 61 39 61 61 39 61 61 39 61 61 39 61 61 39 61 61 39 60 60 39 60 60 39 60 60 39 60 60 39 60 60 39 60 60 255 191 192 242 199 210 213 184 186 161 151 152 122 101 101 153 110 110 155 118 118 147 115 115 138 111 111 124 100 100 132 102 102 142 108 108 139 106 106 98 74 74 56 38 38 47 33 33 37 32 32 25 25 25 25 25 25 25 25 25 32 32 39 35 35 44 35 35 44 49 49 68 34 34 41 44 44 58 33 33 38 31 32 32 31 33 33 32 34 34 35 45 45 37 55 55 37 55 55 37 55 55 37 55 55 37 55 55 37 54 54 37 54 54 37 54 54 37 54 54 37 54 54 36 54 54 36 54 54 36 53 53 36 53 53 36 53 53 36 53 53 36 53 53 36 53 53 36 53 53 36 53 53 36 52 52 36 52 52 36 52 52 36 52 52 36 52 52 36 52 52 36 52 52 36 52 52 36 51 51 36 51 51 35 51 51 35 51 51 35 51 51 35 51 51 35 51 51 35 51 51 35 50 50 35 50 50 35 50 50 35 50 50 35 50 50 35 50 50 35 50 50 35 50 50 35 50 50 35 49 49 35 49 49 35 49 49 35 49 49 35 49 49 35 49 49 35 49 49 34 49 49 34 49 49 34 48 48 34 48 48 34 48 48 34 48 48 34 48 48 34 48 48 34 48 48 34 48 48 34 48 48 34 48 48 34 47 47 34 47 47 34 47 47 34 47 47 34 47 47 34 47 47 34 47 47 34 47 47 34 47 47 34 47 47 34 46 46 34 46 46 34 46 46 33 46 46 33 46 46 33 46 46 33 46 46 33 46 46 33 46 46 33 46 46 33 46 46 33 46 46 33 45 45 33 45 45 33 45 45 33 45 45 33 45 45 33 45 45 33 45 45 33 45 45 33 45 45 33 45 45 33 45 45 33 45 45 33 44 44 33 44 44 33 44 44 33 44 44 33 44 44 33 44 44 33 44 44 33 44 44 33 44 44 33 44 44 32 44 44 32 44 44 32 44 44 32 43 43 32 43 43 32 43 43 32 43 43 
36 53 53 36 53 53 36 53 53 36 53 53 36 53 53 36 54 54 36 54 54 37 54 54 37 54 54 37 54 54 36 50 50 34 41 41 36 41 41 36 40 40 35 39 39 35 39 39 35 38 38 35 38 38 35 38 38 35 38 40 38 41 48 41 45 59 44 49 70 51 56 83 61 67 100 77 80 118 78 84 127 86 93 142 109 110 175 105 108 180 110 110 191 98 98 176 65 69 127 82 58 80 138 62 62 169 82 82 197 102 102 219 118 118 236 128 128 71 50 50 33 37 37 33 37 37 33 37 37 33 37 37 33 37 37 33 37 37 33 37 37 32 36 36 36 35 35 40 34 34 47 36 36 59 40 40 70 47 47 82 55 56 88 58 58 87 54 54 70 46 46 35 41 41 34 38 39 56 45 47 83 50 50 70 46 46 57 49 49 43 51 51 40 62 62 40 62 62 40 62 62 40 62 62 40 63 63 40 63 63 40 63 63 40 63 63 40 63 63 40 63 63 40 63 63 40 63 63 40 63 63 40 64 64 40 64 64 41 64 64 41 64 64 41 64 64 41 64 64 41 64 64 41 64 64 41 64 64 41 64 64 41 65 65 41 65 65 41 65 65 41 65 65 41 65 65 41 65 65 41 65 65 41 65 65 41 65 65 41 65 65 70 85 103 76 78 96 68 70 86 70 76 95 85 86 114 87 90 129 70 68 95 62 65 91 58 59 83 52 57 74 44 48 61 40 48 49 38 45 45 42 44 44 43 49 50 46 52 60 48 49 55 43 50 62 45 51 68 46 49 64 62 53 65 70 56 65 85 64 70 50 42 51 65 48 55 76 55 55 38 42 42 37 43 43 37 44 44 37 44 44 37 45 45 38 50 50 41 65 65 41 65 65 41 65 65 41 65 65 41 65 65 41 65 65 41 65 65 41 64 64 41 64 64 41 64 64 41 64 64 41 64 64 41 64 64 41 64 64 41 64 64 40 64 64 40 64 64 40 64 64 40 63 63 40 63 63 40 63 63 40 63 63 40 63 63 40 63 63 40 63 63 40 63 63 40 62 62 40 62 62 40 62 62 40 62 62 40 62 62 40 62 62 40 62 62 40 62 62 40 61 61 40 61 61 39 61 61 39 61 61 39 61 61 39 61 61 39 61 61 39 60 60 39 60 60 39 60 60 39 60 60 252 185 185 249 190 192 255 201 201 225 179 179 227 166 166 204 156 156 255 196 196 246 192 192 231 186 186 215 178 178 196 165 165 186 159 159 179 155 155 141 124 124 136 120 120 102 89 89 69 60 60 31 30 30 28 28 28 36 36 46 36 36 46 46 46 65 45 39 49 51 50 67 38 38 52 52 53 73 41 42 56 31 33 33 31 34 34 32 34 34 35 45 45 37 55 55 37 55 55 37 55 55 37 55 55 37 55 55 37 55 55 37 55 55 37 54 54 37 54 54 37 54 54 37 54 54 37 54 54 36 54 54 36 54 54 36 53 53 36 53 53 36 53 53 36 53 53 36 53 53 36 53 53 36 53 53 36 52 52 36 52 52 36 52 52 36 52 52 36 52 52 36 52 52 36 52 52 36 52 52 36 51 51 36 51 51 35 51 51 35 51 51 35 51 51 35 51 51 35 51 51 35 51 51 35 51 51 35 50 50 35 50 50 35 50 50 35 50 50 35 50 50 35 50 50 35 50 50 35 50 50 35 49 49 35 49 49 35 49 49 35 49 49 35 49 49 35 49 49 35 49 49 34 49 49 34 49 49 34 49 49 34 48 48 34 48 48 34 48 48 34 48 48 34 48 48 34 48 48 34 48 48 34 48 48 34 48 48 34 47 47 34 47 47 34 47 47 34 47 47 34 47 47 34 47 47 34 47 47 34 47 47 34 47 47 34 47 47 34 47 47 34 46 46 34 46 46 34 46 46 33 46 46 33 46 46 33 46 46 33 46 46 33 46 46 33 46 46 33 46 46 33 46 46 33 45 45 33 45 45 33 45 45 33 45 45 33 45 45 33 45 45 33 45 45 33 45 45 33 45 45 33 45 45 33 45 45 33 45 45 33 45 45 33 44 44 33 44 44 33 44 44 33 44 44 33 44 44 33 44 44 33 44 44 33 44 44 33 44 44 33 44 44 32 44 44 32 44 44 32 44 44 32 43 43 32 43 43 
36 53 53 36 53 53 36 53 53 36 54 54 36 54 54 37 54 54 37 54 54 37 54 54 37 54 54 37 54 54 37 55 55 37 55 55 37 52 52 36 41 41 36 41 41 36 41 41 36 40 40 36 40 40 36 41 41 36 41 41 36 42 42 38 44 48 41 47 57 44 50 67 47 54 76 55 63 92 61 69 102 65 70 113 78 80 131 96 94 155 94 94 158 77 77 135 59 58 96 90 49 49 107 53 53 124 58 58 127 68 88 151 92 137 138 91 140 145 95 148 49 52 81 33 37 37 33 37 37 33 37 37 33 37 37 33 37 37 33 37 37 37 35 35 41 33 33 49 34 34 60 41 41 73 50 50 86 60 60 96 67 67 104 71 72 101 66 66 63 48 49 37 42 42 38 42 42 41 41 41 51 43 44 45 47 47 39 51 51 40 62 62 40 62 62 40 63 63 40 63 63 40 63 63 40 63 63 40 63 63 40 63 63 40 63 63 40 63 63 40 64 64 40 64 64 41 64 64 41 64 64 41 64 64 41 64 64 41 64 64 41 64 64 41 64 64 41 65 65 41 65 65 41 65 65 41 65 65 41 65 65 41 65 65 41 65 65 41 65 65 41 65 65 41 65 65 41 65 65 41 65 65 70 88 104 109 116 148 99 112 139 127 133 179 130 131 176 137 131 170 127 127 168 128 130 171 129 131 176 103 104 140 103 106 147 80 80 104 41 48 55 57 53 53 55 46 46 59 56 57 42 47 65 54 49 54 53 57 69 44 47 62 41 49 55 40 48 54 40 47 52 39 46 50 51 48 49 58 43 43 73 58 58 47 47 48 48 45 45 43 48 49 38 45 45 38 45 45 38 45 45 38 45 45 40 56 56 41 65 65 41 65 65 41 65 65 41 65 65 41 65 65 41 65 65 41 65 65 41 65 65 41 65 65 41 65 65 41 65 65 41 65 65 41 64 64 41 64 64 41 64 64 41 64 64 41 64 64 41 64 64 41 64 64 40 64 64 40 64 64 40 64 64 40 63 63 40 63 63 40 63 63 40 63 63 40 63 63 40 63 63 40 63 63 40 62 62 40 62 62 40 62 62 40 62 62 40 62 62 40 62 62 40 62 62 40 62 62 40 61 61 39 61 61 39 61 61 39 61 61 39 61 61 39 61 61 39 61 61 106 78 78 231 162 162 255 201 201 255 209 209 255 205 205 255 199 199 241 192 192 223 183 183 206 175 175 189 166 166 175 158 158 134 123 123 97 89 89 92 87 87 89 84 84 88 84 84 87 83 83 61 57 57 60 57 57 31 31 36 41 41 54 39 39 48 43 44 55 32 33 34 42 40 49 56 40 44 45 46 61 45 46 61 36 37 44 32 34 34 32 35 35 36 51 51 37 56 56 37 55 55 37 55 55 37 55 55 37 55 55 37 55 55 37 55 55 37 55 55 37 54 54 37 54 54 37 54 54 37 54 54 37 54 54 37 54 54 36 54 54 36 54 54 36 53 53 36 53 53 36 53 53 36 53 53 36 53 53 36 53 53 36 53 53 36 52 52 36 52 52 36 52 52 36 52 52 36 52 52 36 52 52 36 52 52 36 52 52 36 51 51 36 51 51 35 51 51 35 51 51 35 51 51 35 51 51 35 51 51 35 51 51 35 50 50 35 50 50 35 50 50 35 50 50 35 50 50 35 50 50 35 50 50 35 50 50 35 50 50 35 49 49 35 49 49 35 49 49 35 49 49 35 49 49 35 49 49 35 49 49 34 49 49 34 49 49 34 48 48 34 48 48 34 48 48 34 48 48 34 48 48 34 48 48 34 48 48 34 48 48 34 48 48 34 48 48 34 47 47 34 47 47 34 47 47 34 47 47 34 47 47 34 47 47 34 47 47 34 47 47 34 47 47 34 47 47 34 46 46 34 46 46 34 46 46 33 46 46 33 46 46 33 46 46 33 46 46 33 46 46 33 46 46 33 46 46 33 46 46 33 46 46 33 45 45 33 45 45 33 45 45 33 45 45 33 45 45 33 45 45 33 45 45 33 45 45 33 45 45 33 45 45 33 45 45 33 45 45 33 44 44 33 44 44 33 44 44 33 44 44 33 44 44 33 44 44 33 44 44 33 44 44 33 44 44 33 44 44 32 44 44 32 44 44 32 44 44 32 44 44 
36 53 53 36 54 54 37 54 54 37 54 54 37 54 54 37 54 54 37 54 54 37 54 54 37 55 55 37 55 55 37 55 55 37 55 55 37 55 55 37 45 45 36 42 42 36 42 42 36 42 42 36 42 42 36 42 42 37 43 43 37 43 43 37 44 44 38 45 46 40 47 52 42 50 60 45 53 68 49 56 75 47 52 78 59 59 97 69 69 110 71 71 114 64 64 100 45 47 67 61 43 43 90 61 92 89 63 105 120 93 161 102 83 153 141 129 240 106 107 214 112 112 226 59 61 91 34 38 38 33 38 38 33 38 38 33 38 38 33 38 38 40 34 34 47 34 34 57 38 38 70 48 48 84 58 58 95 67 67 103 72 72 104 71 71 86 60 60 70 53 60 36 46 46 35 44 44 37 46 46 37 51 51 38 57 57 40 63 63 40 63 63 40 63 63 40 63 63 40 63 63 40 63 63 40 63 63 40 64 64 40 64 64 41 64 64 41 64 64 41 64 64 41 64 64 41 64 64 41 64 64 41 65 65 41 65 65 41 65 65 41 65 65 41 65 65 41 65 65 41 65 65 41 65 65 41 65 65 41 65 65 41 66 66 41 66 66 41 66 66 41 66 66 41 66 66 70 89 106 112 120 147 134 133 175 125 128 163 149 149 196 147 148 190 147 147 186 146 146 183 145 145 181 146 146 182 147 147 184 147 147 187 149 149 193 129 126 158 94 97 121 71 71 82 89 76 98 87 84 128 84 74 111 54 59 103 65 64 86 59 56 77 39 46 47 39 47 48 38 47 47 39 47 47 39 47 47 39 48 48 39 45 46 42 48 48 43 50 52 40 48 49 38 46 46 38 46 46 38 46 46 39 51 51 41 61 61 41 66 66 41 66 66 41 66 66 41 66 66 41 66 66 41 66 66 41 65 65 41 65 65 41 65 65 41 65 65 41 65 65 41 65 65 41 65 65 41 65 65 41 65 65 41 65 65 41 64 64 41 64 64 41 64 64 41 64 64 41 64 64 41 64 64 41 64 64 40 64 64 40 64 64 40 63 63 40 63 63 40 63 63 40 63 63 40 63 63 40 63 63 40 63 63 40 62 62 40 62 62 40 62 62 40 62 62 40 62 62 40 62 62 40 62 62 40 61 61 40 61 61 39 61 61 39 61 61 111 99 99 178 139 139 238 177 177 255 213 213 255 208 208 252 200 200 232 191 191 212 181 181 193 170 170 175 160 160 131 123 123 93 89 89 58 56 56 55 54 54 25 25 25 25 25 25 25 25 25 25 25 25 25 25 25 26 26 26 30 30 30 42 42 56 35 36 41 31 33 33 31 33 33 35 33 33 67 42 42 37 38 48 49 50 67 43 45 56 32 35 35 35 46 46 37 56 56 37 56 56 37 56 56 37 56 56 37 55 55 37 55 55 37 55 55 37 55 55 37 55 55 37 55 55 37 55 55 37 54 54 37 54 54 37 54 54 37 54 54 37 54 54 36 54 54 36 54 54 36 53 53 36 53 53 36 53 53 36 53 53 36 53 53 36 53 53 36 53 53 36 53 53 36 52 52 36 52 52 36 52 52 36 52 52 36 52 52 36 52 52 36 52 52 36 51 51 36 51 51 35 51 51 35 51 51 35 51 51 35 51 51 35 51 51 35 51 51 35 51 51 35 50 50 35 50 50 35 50 50 35 50 50 35 50 50 35 50 50 35 50 50 35 50 50 35 49 49 35 49 49 35 49 49 35 49 49 35 49 49 35 49 49 35 49 49 34 49 49 34 49 49 34 49 49 34 48 48 34 48 48 34 48 48 34 48 48 34 48 48 34 48 48 34 48 48 34 48 48 34 48 48 34 47 47 34 47 47 34 47 47 34 47 47 34 47 47 34 47 47 34 47 47 34 47 47 34 47 47 34 47 47 34 47 47 34 46 46 34 46 46 34 46 46 33 46 46 33 46 46 33 46 46 33 46 46 33 46 46 33 46 46 33 46 46 33 46 46 33 45 45 33 45 45 33 45 45 33 45 45 33 45 45 33 45 45 33 45 45 33 45 45 33 45 45 33 45 45 33 45 45 33 45 45 33 45 45 33 44 44 33 44 44 33 44 44 33 44 44 33 44 44 33 44 44 33 44 44 33 44 44 33 44 44 33 44 44 32 44 44 32 44 44 
37 54 54 37 54 54 37 54 54 37 54 54 37 54 54 37 54 54 37 55 55 37 55 55 37 55 55 37 55 55 37 55 55 37 55 55 37 56 56 37 56 56 37 46 46 37 42 42 37 43 43 37 43 43 37 43 43 37 43 43 37 44 44 37 44 44 37 45 45 38 45 45 39 46 48 41 49 53 42 47 54 40 41 53 43 43 61 48 48 69 56 53 73 43 46 61 47 45 56 52 52 81 74 69 121 101 98 183 115 115 217 116 117 215 124 124 226 151 148 255 145 145 255 154 154 255 120 121 212 65 68 99 35 40 40 33 38 38 33 39 39 41 36 36 51 35 35 60 39 39 74 51 51 86 59 59 95 65 65 100 66 66 82 58 60 68 56 59 37 52 52 38 51 54 38 57 57 40 58 59 40 63 63 40 63 63 40 63 63 40 63 63 40 63 63 40 64 64 40 64 64 41 64 64 41 64 64 41 64 64 41 64 64 41 64 64 41 64 64 41 65 65 41 65 65 41 65 65 41 65 65 41 65 65 41 65 65 41 65 65 41 65 65 41 65 65 41 66 66 41 66 66 41 66 66 41 66 66 41 66 66 41 66 66 41 66 66 41 66 66 42 66 66 114 120 147 93 105 126 153 147 195 149 147 186 137 137 169 134 134 162 131 131 156 131 131 153 129 129 150 128 128 147 127 127 146 129 129 148 131 131 151 132 132 154 140 137 162 143 141 172 116 118 142 120 123 167 131 129 219 99 100 178 60 61 122 55 59 94 50 49 65 49 46 55 38 46 46 39 48 48 43 51 51 39 48 48 39 48 48 40 48 48 41 48 48 39 47 47 42 49 49 38 47 47 38 46 46 39 51 51 40 56 56 42 66 66 42 66 66 42 66 66 42 66 66 41 66 66 41 66 66 41 66 66 41 66 66 41 66 66 41 66 66 41 66 66 41 66 66 41 65 65 41 65 65 41 65 65 41 65 65 41 65 65 41 65 65 41 65 65 41 65 65 41 65 65 41 64 64 41 64 64 41 64 64 41 64 64 41 64 64 41 64 64 40 64 64 40 64 64 40 63 63 40 63 63 40 63 63 40 63 63 40 63 63 40 63 63 40 63 63 40 62 62 40 62 62 40 62 62 40 62 62 40 62 62 40 62 62 40 61 61 112 101 101 178 142 142 255 217 217 255 215 215 255 209 209 247 200 200 225 189 189 203 177 177 182 165 165 135 125 125 94 90 90 57 56 56 25 25 25 25 25 25 25 25 25 25 25 25 25 25 25 25 25 25 25 25 25 25 25 25 25 25 25 25 25 25 29 29 29 32 33 36 40 41 51 31 33 33 47 36 36 60 46 46 35 36 42 42 43 54 34 37 42 32 35 35 35 46 46 37 56 56 37 56 56 37 56 56 37 56 56 37 56 56 37 56 56 37 55 55 37 55 55 37 55 55 37 55 55 37 55 55 37 55 55 37 54 54 37 54 54 37 54 54 37 54 54 37 54 54 37 54 54 36 54 54 36 54 54 36 53 53 36 53 53 36 53 53 36 53 53 36 53 53 36 53 53 36 53 53 36 52 52 36 52 52 36 52 52 36 52 52 36 52 52 36 52 52 36 52 52 36 52 52 36 51 51 36 51 51 35 51 51 35 51 51 35 51 51 35 51 51 35 51 51 35 51 51 35 50 50 35 50 50 35 50 50 35 50 50 35 50 50 35 50 50 35 50 50 35 50 50 35 50 50 35 49 49 35 49 49 35 49 49 35 49 49 35 49 49 35 49 49 35 49 49 34 49 49 34 49 49 34 48 48 34 48 48 34 48 48 34 48 48 34 48 48 34 48 48 34 48 48 34 48 48 34 48 48 34 48 48 34 47 47 34 47 47 34 47 47 34 47 47 34 47 47 34 47 47 34 47 47 34 47 47 34 47 47 34 47 47 34 46 46 34 46 46 34 46 46 33 46 46 33 46 46 33 46 46 33 46 46 33 46 46 33 46 46 33 46 46 33 46 46 33 46 46 33 45 45 33 45 45 33 45 45 33 45 45 33 45 45 33 45 45 33 45 45 33 45 45 33 45 45 33 45 45 33 45 45 33 45 45 33 44 44 33 44 44 33 44 44 33 44 44 33 44 44 33 44 44 33 44 44 33 44 44 33 44 44 33 44 44 32 44 44 
37 54 54 37 54 54 37 54 54 37 55 55 37 55 55 37 55 55 37 55 55 37 55 55 37 55 55 37 55 55 37 56 56 37 56 56 37 56 56 37 56 56 37 56 56 37 46 46 37 43 43 37 43 43 37 44 44 37 44 44 37 44 44 37 45 45 38 45 45 38 45 45 38 46 46 38 46 46 42 46 47 36 38 39 36 36 40 39 41 46 39 49 54 46 58 59 43 45 65 65 65 117 98 94 168 121 121 211 138 138 240 139 139 237 143 143 249 147 147 251 155 155 255 160 160 255 161 161 255 137 137 233 129 129 221 81 78 112 81 75 105 41 44 50 45 40 40 51 38 38 61 44 44 71 51 51 73 56 56 131 77 81 122 83 83 112 85 85 113 90 90 112 88 88 106 77 77 40 63 63 40 63 63 40 63 63 40 64 64 40 64 64 41 64 64 41 64 64 41 64 64 41 64 64 41 64 64 41 65 65 41 65 65 41 65 65 41 65 65 41 65 65 41 65 65 41 65 65 41 65 65 41 66 66 41 66 66 41 66 66 41 66 66 41 66 66 41 66 66 41 66 66 41 66 66 42 66 66 42 66 66 42 67 67 42 67 67 42 67 67 95 108 136 122 129 166 137 138 173 131 131 159 127 127 149 124 124 141 120 120 134 117 117 128 95 95 104 94 94 101 93 93 99 92 92 98 92 92 98 92 92 99 95 95 102 96 96 105 120 120 132 125 126 143 138 135 159 136 136 183 107 107 180 67 68 128 52 54 97 43 62 66 42 42 49 38 41 41 41 49 49 44 52 52 39 48 48 39 48 48 42 51 51 39 48 48 38 47 47 38 47 47 38 47 47 39 52 52 40 57 57 42 67 67 42 67 67 42 67 67 42 67 67 42 67 67 42 67 67 42 67 67 42 66 66 42 66 66 42 66 66 41 66 66 41 66 66 41 66 66 41 66 66 41 66 66 41 66 66 41 66 66 41 65 65 41 65 65 41 65 65 41 65 65 41 65 65 41 65 65 41 65 65 41 65 65 41 64 64 41 64 64 41 64 64 41 64 64 41 64 64 41 64 64 40 64 64 40 63 63 40 63 63 40 63 63 40 63 63 40 63 63 40 63 63 40 63 63 40 62 62 40 62 62 40 62 62 40 62 62 113 101 101 179 143 143 255 221 221 255 218 218 255 210 210 244 200 200 220 188 188 197 175 175 174 161 161 99 93 93 88 86 86 25 25 25 25 25 25 25 25 25 25 25 25 25 25 25 25 25 25 25 25 25 25 25 25 25 25 25 25 25 25 25 25 25 25 25 25 25 25 25 29 29 29 32 33 35 52 41 46 43 35 35 40 35 35 32 34 36 41 42 55 32 35 35 35 46 46 38 57 57 38 56 56 38 56 56 37 56 56 37 56 56 37 56 56 37 56 56 37 56 56 37 55 55 37 55 55 37 55 55 37 55 55 37 55 55 37 55 55 37 55 55 37 54 54 37 54 54 37 54 54 37 54 54 37 54 54 36 54 54 36 54 54 36 53 53 36 53 53 36 53 53 36 53 53 36 53 53 36 53 53 36 53 53 36 53 53 36 52 52 36 52 52 36 52 52 36 52 52 36 52 52 36 52 52 36 52 52 36 51 51 36 51 51 35 51 51 35 51 51 35 51 51 35 51 51 35 51 51 35 51 51 35 51 51 35 50 50 35 50 50 35 50 50 35 50 50 35 50 50 35 50 50 35 50 50 35 50 50 35 49 49 35 49 49 35 49 49 35 49 49 35 49 49 35 49 49 35 49 49 34 49 49 34 49 49 34 48 48 34 48 48 34 48 48 34 48 48 34 48 48 34 48 48 34 48 48 34 48 48 34 48 48 34 48 48 34 47 47 34 47 47 34 47 47 34 47 47 34 47 47 34 47 47 34 47 47 34 47 47 34 47 47 34 47 47 34 47 47 34 46 46 34 46 46 34 46 46 33 46 46 33 46 46 33 46 46 33 46 46 33 46 46 33 46 46 33 46 46 33 46 46 33 45 45 33 45 45 33 45 45 33 45 45 33 45 45 33 45 45 33 45 45 33 45 45 33 45 45 33 45 45 33 45 45 33 45 45 33 45 45 33 44 44 33 44 44 33 44 44 33 44 44 33 44 44 33 44 44 33 44 44 33 44 44 33 44 44 
37 54 54 37 55 55 37 55 55 37 55 55 37 55 55 37 55 55 37 55 55 37 55 55 37 56 56 37 56 56 37 56 56 37 56 56 37 56 56 38 56 56 38 56 56 38 57 57 37 53 53 37 47 47 37 44 44 37 44 44 37 44 44 37 45 45 38 45 45 38 45 45 39 47 47 39 47 47 38 45 45 40 42 42 44 50 50 40 51 51 39 55 55 43 53 63 53 51 82 69 69 124 105 102 174 134 134 224 134 134 224 127 127 212 141 141 234 152 152 252 161 161 255 167 167 255 174 174 255 178 176 255 190 185 255 165 163 255 135 131 223 122 114 203 67 62 115 42 50 50 94 67 67 160 91 91 178 113 113 233 131 132 255 157 157 255 165 165 255 166 166 255 167 168 255 159 159 197 128 128 117 94 94 105 79 79 41 64 64 41 64 64 41 64 64 41 64 64 41 65 65 41 65 65 41 65 65 41 65 65 41 65 65 41 65 65 41 65 65 41 65 65 41 66 66 41 66 66 41 66 66 41 66 66 41 66 66 41 66 66 42 66 66 42 66 66 42 67 67 42 67 67 42 67 67 42 67 67 42 67 67 42 67 67 42 67 67 91 105 125 110 117 142 143 140 168 124 124 143 119 119 132 95 95 103 91 91 97 69 69 73 68 68 70 47 47 48 46 46 47 46 46 46 45 45 46 45 45 46 45 45 46 46 46 46 46 46 47 66 66 69 68 68 72 92 92 100 117 116 130 123 124 159 67 68 121 52 54 92 45 51 70 41 61 63 39 48 49 39 47 47 40 49 49 41 50 50 39 48 48 39 48 48 40 49 49 38 47 47 39 52 52 40 57 57 40 57 57 42 68 68 42 67 67 42 67 67 42 67 67 42 67 67 42 67 67 42 67 67 42 67 67 42 67 67 42 67 67 42 67 67 42 67 67 42 67 67 42 66 66 42 66 66 41 66 66 41 66 66 41 66 66 41 66 66 41 66 66 41 66 66 41 65 65 41 65 65 41 65 65 41 65 65 41 65 65 41 65 65 41 65 65 41 65 65 41 64 64 41 64 64 41 64 64 41 64 64 41 64 64 40 64 64 40 64 64 40 63 63 40 63 63 40 63 63 40 63 63 40 63 63 40 63 63 40 62 62 113 99 99 186 147 147 255 222 222 255 219 219 255 211 211 242 200 200 217 187 187 193 173 173 140 129 129 95 91 91 56 56 56 25 25 25 25 25 25 25 25 25 25 25 25 25 25 25 25 25 25 25 25 25 25 25 25 25 25 25 25 25 25 25 25 25 25 25 25 25 25 25 25 25 25 25 25 25 31 31 31 32 34 34 64 49 49 32 35 36 45 46 56 40 42 51 32 36 36 35 47 47 38 57 57 38 57 57 38 57 57 38 56 56 38 56 56 37 56 56 37 56 56 37 56 56 37 56 56 37 56 56 37 55 55 37 55 55 37 55 55 37 55 55 37 55 55 37 55 55 37 54 54 37 54 54 37 54 54 37 54 54 37 54 54 37 54 54 36 54 54 36 54 54 36 53 53 36 53 53 36 53 53 36 53 53 36 53 53 36 53 53 36 53 53 36 52 52 36 52 52 36 52 52 36 52 52 36 52 52 36 52 52 36 52 52 36 52 52 36 51 51 36 51 51 35 51 51 35 51 51 35 51 51 35 51 51 35 51 51 35 51 51 35 50 50 35 50 50 35 50 50 35 50 50 35 50 50 35 50 50 35 50 50 35 50 50 35 50 50 35 49 49 35 49 49 35 49 49 35 49 49 35 49 49 35 49 49 34 49 49 34 49 49 34 49 49 34 48 48 34 48 48 34 48 48 34 48 48 34 48 48 34 48 48 34 48 48 34 48 48 34 48 48 34 48 48 34 47 47 34 47 47 34 47 47 34 47 47 34 47 47 34 47 47 34 47 47 34 47 47 34 47 47 34 47 47 34 46 46 34 46 46 34 46 46 33 46 46 33 46 46 33 46 46 33 46 46 33 46 46 33 46 46 33 46 46 33 46 46 33 46 46 33 45 45 33 45 45 33 45 45 33 45 45 33 45 45 33 45 45 33 45 45 33 45 45 33 45 45 33 45 45 33 45 45 33 45 45 33 44 44 33 44 44 33 44 44 33 44 44 33 44 44 33 44 44 33 44 44 33 44 44 
37 55 55 37 55 55 37 55 55 37 55 55 37 55 55 37 55 55 37 56 56 37 56 56 37 56 56 37 56 56 37 56 56 38 56 56 38 56 56 38 57 57 38 57 57 38 57 57 38 57 57 39 55 56 40 53 54 37 47 47 39 50 50 37 44 44 37 45 45 38 46 46 38 45 45 41 52 52 47 55 55 42 55 55 42 55 56 45 63 63 41 57 57 48 48 59 49 50 80 59 59 107 101 97 161 112 111 182 109 109 181 126 126 205 140 140 226 152 152 244 161 161 255 170 170 255 179 180 255 178 177 255 179 177 255 183 178 255 170 164 255 160 150 255 149 114 198 129 95 95 144 108 108 210 139 139 255 174 174 255 192 192 255 206 207 255 215 216 255 222 222 255 224 224 255 223 224 255 217 219 255 212 212 255 168 168 118 96 96 41 65 65 41 65 65 41 65 65 41 65 65 41 65 65 41 65 65 41 65 65 41 66 66 41 66 66 41 66 66 41 66 66 41 66 66 41 66 66 42 66 66 42 66 66 42 67 67 42 67 67 42 67 67 42 67 67 42 67 67 42 67 67 52 73 101 52 73 100 42 67 67 42 67 67 89 104 123 117 123 152 126 126 149 117 117 130 92 92 99 69 69 73 66 66 68 45 45 46 25 25 25 25 25 25 25 25 25 25 25 25 25 25 25 25 25 25 25 25 25 25 25 25 25 25 25 25 25 25 25 25 25 25 25 25 45 45 45 46 46 48 90 90 97 109 111 135 49 51 83 43 49 65 42 68 68 42 68 68 41 61 61 41 58 58 40 53 53 40 53 53 40 53 53 41 58 58 40 58 58 40 58 58 41 63 63 42 68 68 42 68 68 42 68 68 42 68 68 42 68 68 42 68 68 42 68 68 42 68 68 42 67 67 42 67 67 42 67 67 42 67 67 42 67 67 42 67 67 42 67 67 42 67 67 42 67 67 42 66 66 42 66 66 41 66 66 41 66 66 41 66 66 41 66 66 41 66 66 41 66 66 41 65 65 41 65 65 41 65 65 41 65 65 41 65 65 41 65 65 41 65 65 41 64 64 41 64 64 41 64 64 41 64 64 41 64 64 40 64 64 40 64 64 40 63 63 40 63 63 40 63 63 40 63 63 40 63 63 184 144 145 255 223 223 255 219 219 255 212 212 243 200 200 217 187 187 191 172 172 137 128 128 93 89 89 55 55 55 25 25 25 25 25 25 25 25 25 25 25 25 25 25 25 25 25 25 25 25 25 25 25 25 25 25 25 25 25 25 25 25 25 25 25 25 25 25 25 25 25 25 25 25 25 25 25 25 25 25 25 31 32 32 32 35 35 42 44 54 37 39 45 38 40 46 35 47 47 38 57 57 38 57 57 38 57 57 38 57 57 38 57 57 38 56 56 38 56 56 37 56 56 37 56 56 37 56 56 37 56 56 37 56 56 37 55 55 37 55 55 37 55 55 37 55 55 37 55 55 37 55 55 37 55 55 37 54 54 37 54 54 37 54 54 37 54 54 37 54 54 36 54 54 36 54 54 36 53 53 36 53 53 36 53 53 36 53 53 36 53 53 36 53 53 36 53 53 36 52 52 36 52 52 36 52 52 36 52 52 36 52 52 36 52 52 36 52 52 36 52 52 36 51 51 36 51 51 35 51 51 35 51 51 35 51 51 35 51 51 35 51 51 35 51 51 35 50 50 35 50 50 35 50 50 35 50 50 35 50 50 35 50 50 35 50 50 35 50 50 35 50 50 35 49 49 35 49 49 35 49 49 35 49 49 35 49 49 35 49 49 35 49 49 34 49 49 34 49 49 34 48 48 34 48 48 34 48 48 34 48 48 34 48 48 34 48 48 34 48 48 34 48 48 34 48 48 34 48 48 34 47 47 34 47 47 34 47 47 34 47 47 34 47 47 34 47 47 34 47 47 34 47 47 34 47 47 34 47 47 34 47 47 34 46 46 34 46 46 34 46 46 33 46 46 33 46 46 33 46 46 33 46 46 33 46 46 33 46 46 33 46 46 33 46 46 33 45 45 33 45 45 33 45 45 33 45 45 33 45 45 33 45 45 33 45 45 33 45 45 33 45 45 33 45 45 33 45 45 33 45 45 33 45 45 33 44 44 33 44 44 33 44 44 33 44 44 33 44 44 33 44 44 
37 55 55 37 55 55 37 55 55 37 55 55 37 56 56 37 56 56 37 56 56 37 56 56 37 56 56 38 56 56 38 56 56 38 57 57 38 57 57 38 57 57 38 57 57 38 57 57 38 57 57 38 58 58 38 58 58 41 60 60 43 60 60 44 61 61 42 56 56 43 57 57 43 57 57 42 56 57 45 63 64 45 63 64 47 69 71 47 69 72 41 53 53 41 43 53 47 49 74 51 52 89 72 72 123 92 92 152 103 103 168 120 120 192 134 134 213 146 146 231 158 158 248 168 168 255 174 174 255 177 177 255 169 169 255 165 165 255 155 155 255 149 134 224 156 123 177 177 123 148 232 150 150 253 167 167 255 182 182 255 195 195 255 206 206 255 217 218 255 225 227 255 228 228 255 242 243 255 232 232 255 229 229 255 219 219 255 203 203 255 155 155 105 85 85 41 65 65 41 65 65 41 66 66 41 66 66 41 66 66 41 66 66 41 66 66 42 66 66 42 66 66 42 67 67 42 67 67 42 67 67 42 67 67 42 67 67 42 67 67 51 71 96 75 81 109 87 91 149 81 91 152 94 101 190 96 102 191 70 83 143 97 99 136 103 107 117 126 124 142 92 92 101 69 69 73 46 46 47 25 25 25 25 25 25 25 25 25 25 25 25 25 25 25 25 25 25 25 25 25 25 25 25 25 25 25 25 25 25 25 25 25 25 25 25 25 25 25 25 25 25 25 25 25 25 25 25 25 25 25 25 25 25 73 74 76 102 105 123 40 46 56 41 63 63 43 69 69 43 69 69 43 69 69 43 69 69 42 63 63 42 63 63 41 63 63 42 69 69 42 69 69 42 69 69 42 68 68 42 68 68 42 68 68 42 68 68 42 68 68 42 68 68 42 68 68 42 68 68 42 68 68 42 68 68 42 68 68 42 68 68 42 67 67 42 67 67 42 67 67 42 67 67 42 67 67 42 67 67 42 67 67 42 67 67 42 66 66 42 66 66 41 66 66 41 66 66 41 66 66 41 66 66 41 66 66 41 66 66 41 65 65 41 65 65 41 65 65 41 65 65 41 65 65 41 65 65 41 65 65 41 64 64 41 64 64 41 64 64 41 64 64 40 64 64 40 64 64 40 63 63 40 63 63 188 144 146 247 183 183 255 223 223 255 213 213 245 202 202 218 188 188 191 172 172 136 127 127 92 89 89 25 25 25 25 25 25 25 25 25 25 25 25 25 25 25 25 25 25 25 25 25 25 25 25 25 25 25 25 25 25 25 25 25 25 25 25 25 25 25 25 25 25 25 25 25 25 25 25 25 25 25 25 25 25 25 25 25 30 31 31 32 35 35 34 36 39 39 42 48 35 47 47 37 52 52 38 57 57 38 57 57 38 57 57 38 57 57 38 57 57 38 57 57 38 57 57 38 56 56 37 56 56 37 56 56 37 56 56 37 56 56 37 56 56 37 55 55 37 55 55 37 55 55 37 55 55 37 55 55 37 55 55 37 55 55 37 54 54 37 54 54 37 54 54 37 54 54 37 54 54 36 54 54 36 54 54 36 53 53 36 53 53 36 53 53 36 53 53 36 53 53 36 53 53 36 53 53 36 53 53 36 52 52 36 52 52 36 52 52 36 52 52 36 52 52 36 52 52 36 52 52 36 51 51 36 51 51 35 51 51 35 51 51 35 51 51 35 51 51 35 51 51 35 51 51 35 51 51 35 50 50 35 50 50 35 50 50 35 50 50 35 50 50 35 50 50 35 50 50 35 50 50 35 49 49 35 49 49 35 49 49 35 49 49 35 49 49 35 49 49 35 49 49 34 49 49 34 49 49 34 49 49 34 48 48 34 48 48 34 48 48 34 48 48 34 48 48 34 48 48 34 48 48 34 48 48 34 48 48 34 47 47 34 47 47 34 47 47 34 47 47 34 47 47 34 47 47 34 47 47 34 47 47 34 47 47 34 47 47 34 47 47 34 46 46 34 46 46 34 46 46 33 46 46 33 46 46 33 46 46 33 46 46 33 46 46 33 46 46 33 46 46 33 46 46 33 46 46 33 45 45 33 45 45 33 45 45 33 45 45 33 45 45 33 45 45 33 45 45 33 45 45 33 45 45 33 45 45 33 45 45 33 45 45 33 44 44 33 44 44 33 44 44 33 44 44 33 44 44 
37 55 55 37 55 55 37 56 56 37 56 56 37 56 56 37 56 56 37 56 56 38 56 56 38 56 56 38 57 57 38 57 57 38 57 57 38 57 57 38 57 57 38 57 57 38 58 58 38 58 58 38 58 58 38 58 58 42 62 62 46 66 66 46 67 67 46 67 67 46 68 68 46 68 69 47 69 71 47 69 72 49 71 75 50 72 77 50 73 79 41 53 55 38 40 46 41 43 61 42 43 72 53 53 93 74 74 122 93 93 149 110 110 173 124 124 195 136 136 213 147 147 229 161 162 249 183 180 255 163 163 255 163 163 255 163 163 255 151 140 222 153 129 185 175 117 123 193 133 133 210 148 148 226 160 160 241 172 172 255 184 184 255 193 193 255 203 203 255 211 211 255 227 227 255 223 223 255 227 227 255 229 229 255 226 226 255 219 219 255 206 206 255 169 169 103 86 86 41 66 66 41 66 66 41 66 66 42 66 66 42 66 66 42 67 67 42 67 67 42 67 67 42 67 67 42 67 67 42 67 67 42 67 67 42 67 67 62 81 114 73 86 145 122 121 223 112 112 228 144 132 253 151 145 255 169 159 255 131 131 253 121 119 190 140 136 161 70 70 77 66 66 68 25 25 25 25 25 25 25 25 25 25 25 25 25 25 25 25 25 25 25 25 25 25 25 25 25 25 25 25 25 25 25 25 25 25 25 25 25 25 25 25 25 25 25 25 25 25 25 25 25 25 25 25 25 25 25 25 25 25 25 25 25 25 25 54 56 58 39 45 50 40 57 57 43 69 69 43 69 69 43 69 69 43 69 69 43 69 69 43 69 69 43 69 69 43 69 69 43 69 69 43 69 69 43 69 69 43 69 69 43 69 69 42 69 69 42 69 69 42 69 69 42 68 68 42 68 68 42 68 68 42 68 68 42 68 68 42 68 68 42 68 68 42 68 68 42 68 68 42 67 67 42 67 67 42 67 67 42 67 67 42 67 67 42 67 67 42 67 67 42 67 67 42 66 66 42 66 66 41 66 66 41 66 66 41 66 66 41 66 66 41 66 66 41 65 65 41 65 65 41 65 65 41 65 65 41 65 65 41 65 65 41 65 65 41 64 64 41 64 64 41 64 64 41 64 64 40 64 64 40 64 64 178 144 144 255 237 238 255 215 215 249 203 203 222 189 189 194 174 174 137 128 128 91 89 89 25 25 25 25 25 25 25 25 25 25 25 25 25 25 25 25 25 25 25 25 25 25 25 25 25 25 25 25 25 25 25 25 25 25 25 25 25 25 25 25 25 25 25 25 25 25 25 25 25 25 25 25 25 25 25 25 25 25 25 25 25 25 25 31 32 32 33 36 36 35 47 47 37 53 53 38 58 58 38 58 58 38 58 58 38 57 57 38 57 57 38 57 57 38 57 57 38 57 57 38 57 57 38 56 56 38 56 56 37 56 56 37 56 56 37 56 56 37 56 56 37 56 56 37 55 55 37 55 55 37 55 55 37 55 55 37 55 55 37 55 55 37 54 54 37 54 54 37 54 54 37 54 54 37 54 54 37 54 54 36 54 54 36 54 54 36 53 53 36 53 53 36 53 53 36 53 53 36 53 53 36 53 53 36 53 53 36 52 52 36 52 52 36 52 52 36 52 52 36 52 52 36 52 52 36 52 52 36 52 52 36 51 51 36 51 51 35 51 51 35 51 51 35 51 51 35 51 51 35 51 51 35 51 51 35 50 50 35 50 50 35 50 50 35 50 50 35 50 50 35 50 50 35 50 50 35 50 50 35 50 50 35 49 49 35 49 49 35 49 49 35 49 49 35 49 49 35 49 49 34 49 49 34 49 49 34 49 49 34 48 48 34 48 48 34 48 48 34 48 48 34 48 48 34 48 48 34 48 48 34 48 48 34 48 48 34 48 48 34 47 47 34 47 47 34 47 47 34 47 47 34 47 47 34 47 47 34 47 47 34 47 47 34 47 47 34 47 47 34 46 46 34 46 46 34 46 46 33 46 46 33 46 46 33 46 46 33 46 46 33 46 46 33 46 46 33 46 46 33 46 46 33 46 46 33 45 45 33 45 45 33 45 45 33 45 45 33 45 45 33 45 45 33 45 45 33 45 45 33 45 45 33 45 45 33 45 45 33 45 45 33 45 45 33 44 44 33 44 44 33 44 44 
37 55 55 37 56 56 37 56 56 37 56 56 37 56 56 38 56 56 38 56 56 38 57 57 39 58 58 40 59 59 40 59 59 40 59 59 40 59 59 38 58 58 38 58 58 38 58 58 38 58 58 38 58 58 38 58 58 44 65 65 46 67 67 46 67 67 46 67 67 46 68 69 47 69 71 48 70 74 51 73 79 53 75 83 55 77 86 56 79 88 35 38 38 31 31 32 35 36 47 36 36 58 38 38 70 59 59 99 79 79 127 96 96 151 111 111 172 123 123 191 138 138 211 166 163 241 154 152 235 163 164 255 170 169 255 167 168 255 142 128 185 137 99 106 146 106 106 162 120 120 176 131 131 191 143 143 205 153 153 220 163 163 233 172 172 248 182 182 255 192 192 255 200 200 255 208 208 255 214 214 255 218 218 255 220 220 255 218 218 255 211 211 255 197 197 255 171 171 134 101 159 56 72 101 42 67 67 42 67 67 42 67 67 42 67 67 42 67 67 42 67 67 42 67 67 42 68 68 42 68 68 42 68 68 54 68 110 107 101 171 106 105 210 131 131 247 145 145 255 152 152 255 173 170 255 195 187 255 169 165 255 138 130 172 79 77 84 45 45 46 25 25 25 25 25 25 25 25 25 25 25 25 25 25 25 25 25 25 25 25 25 25 25 25 25 25 25 25 25 25 25 25 25 25 25 25 25 25 25 25 25 25 25 25 25 25 25 25 25 25 25 25 25 25 25 25 25 25 25 25 25 25 25 25 25 25 33 34 34 55 61 62 40 58 58 43 70 70 43 70 70 43 70 70 43 70 70 43 70 70 43 70 70 43 70 70 43 69 69 43 69 69 43 69 69 43 69 69 43 69 69 43 69 69 43 69 69 43 69 69 43 69 69 43 69 69 42 69 69 42 69 69 42 69 69 42 68 68 42 68 68 42 68 68 42 68 68 42 68 68 42 68 68 42 68 68 42 68 68 42 67 67 42 67 67 42 67 67 42 67 67 42 67 67 42 67 67 42 67 67 42 67 67 42 66 66 41 66 66 41 66 66 41 66 66 41 66 66 41 66 66 41 65 65 41 65 65 41 65 65 41 65 65 41 65 65 41 65 65 41 65 65 41 64 64 41 64 64 41 64 64 181 140 142 255 222 225 255 223 224 255 206 206 227 192 192 198 176 176 169 159 159 93 89 89 25 25 25 25 25 25 25 25 25 25 25 25 25 25 25 25 25 25 25 25 25 25 25 25 25 25 25 25 25 25 25 25 25 25 25 25 25 25 25 25 25 25 25 25 25 25 25 25 25 25 25 25 25 25 25 25 25 25 25 25 25 25 25 25 25 25 30 31 31 33 40 40 37 53 53 38 58 58 38 58 58 38 58 58 38 58 58 38 58 58 38 57 57 38 57 57 38 57 57 38 57 57 38 57 57 38 57 57 38 56 56 38 56 56 37 56 56 37 56 56 37 56 56 37 56 56 37 56 56 37 55 55 37 55 55 37 55 55 37 55 55 37 55 55 37 55 55 37 55 55 37 54 54 37 54 54 37 54 54 37 54 54 37 54 54 36 54 54 36 54 54 36 53 53 36 53 53 36 53 53 36 53 53 36 53 53 36 53 53 36 53 53 36 52 52 36 52 52 36 52 52 36 52 52 36 52 52 36 52 52 36 52 52 36 52 52 36 51 51 36 51 51 35 51 51 35 51 51 35 51 51 35 51 51 35 51 51 35 51 51 35 50 50 35 50 50 35 50 50 35 50 50 35 50 50 35 50 50 35 50 50 35 50 50 35 50 50 35 49 49 35 49 49 35 49 49 35 49 49 35 49 49 35 49 49 35 49 49 34 49 49 34 49 49 34 48 48 34 48 48 34 48 48 34 48 48 34 48 48 34 48 48 34 48 48 34 48 48 34 48 48 34 48 48 34 47 47 34 47 47 34 47 47 34 47 47 34 47 47 34 47 47 34 47 47 34 47 47 34 47 47 34 47 47 34 47 47 34 46 46 34 46 46 34 46 46 33 46 46 33 46 46 33 46 46 33 46 46 33 46 46 33 46 46 33 46 46 33 46 46 33 45 45 33 45 45 33 45 45 33 45 45 33 45 45 33 45 45 33 45 45 33 45 45 33 45 45 33 45 45 33 45 45 33 45 45 33 45 45 33 44 44 33 44 44 
37 56 56 37 56 56 37 56 56 37 56 56 38 56 56 38 57 57 39 59 59 41 61 61 43 62 62 43 63 63 43 63 63 43 64 64 43 64 64 43 63 63 41 61 61 38 58 58 38 58 58 38 58 58 38 59 59 45 65 65 46 67 67 46 67 67 46 68 69 47 69 71 49 71 76 52 74 81 56 79 87 59 82 92 62 84 96 63 85 98 35 38 38 25 25 25 26 26 29 30 30 43 35 35 57 40 40 71 61 61 99 79 79 124 94 94 146 107 107 165 120 120 184 160 151 221 157 157 239 177 163 247 154 146 228 120 114 163 101 81 90 101 81 81 113 90 90 125 100 100 138 109 109 151 119 119 165 129 129 179 139 139 193 149 149 207 159 159 222 169 169 236 178 178 249 186 186 255 194 194 255 200 200 255 204 204 255 206 206 255 204 204 255 198 198 255 183 183 255 157 157 109 111 228 74 83 165 42 67 67 42 67 67 42 67 67 42 68 68 42 68 68 42 68 68 42 68 68 42 68 68 73 78 112 69 73 135 95 95 193 138 138 247 151 151 255 155 155 255 166 166 255 176 176 255 182 181 255 160 151 218 82 83 98 45 45 46 25 25 25 25 25 25 25 25 25 25 25 25 25 25 25 25 25 25 25 25 25 25 25 25 25 25 25 25 25 25 25 25 25 25 25 25 25 25 25 25 25 25 25 25 25 25 25 25 25 25 25 25 25 25 25 25 25 25 25 25 25 25 25 25 25 25 25 25 25 31 32 32 35 38 38 41 58 58 43 70 70 43 70 70 43 70 70 43 70 70 43 70 70 43 70 70 43 70 70 43 70 70 43 70 70 43 70 70 43 70 70 43 70 70 43 70 70 43 69 69 43 69 69 43 69 69 43 69 69 43 69 69 43 69 69 43 69 69 43 69 69 42 69 69 42 69 69 42 68 68 42 68 68 42 68 68 42 68 68 42 68 68 42 68 68 42 68 68 42 68 68 42 67 67 42 67 67 42 67 67 42 67 67 42 67 67 42 67 67 42 67 67 42 66 66 42 66 66 41 66 66 41 66 66 41 66 66 41 66 66 41 65 65 41 65 65 41 65 65 41 65 65 41 65 65 41 65 65 41 64 64 41 64 64 177 142 142 255 220 220 255 210 210 235 195 195 205 180 180 175 163 163 95 91 91 25 25 25 25 25 25 25 25 25 25 25 25 25 25 25 25 25 25 25 25 25 25 25 25 25 25 25 25 25 25 25 25 25 25 25 25 25 25 25 25 25 25 25 25 25 25 25 25 25 25 25 25 25 25 25 25 25 25 25 25 25 25 25 25 25 25 25 25 25 29 29 29 31 33 33 38 59 59 38 58 58 38 58 58 38 58 58 38 58 58 38 58 58 38 58 58 38 57 57 38 57 57 38 57 57 38 57 57 38 57 57 38 57 57 38 57 57 38 56 56 37 56 56 37 56 56 37 56 56 37 56 56 37 56 56 37 55 55 37 55 55 37 55 55 37 55 55 37 55 55 37 55 55 37 55 55 37 54 54 37 54 54 37 54 54 37 54 54 37 54 54 36 54 54 36 54 54 36 53 53 36 53 53 36 53 53 36 53 53 36 53 53 36 53 53 36 53 53 36 52 52 36 52 52 36 52 52 36 52 52 36 52 52 36 52 52 36 52 52 36 52 52 36 51 51 36 51 51 35 51 51 35 51 51 35 51 51 35 51 51 35 51 51 35 51 51 35 50 50 35 50 50 35 50 50 35 50 50 35 50 50 35 50 50 35 50 50 35 50 50 35 50 50 35 49 49 35 49 49 35 49 49 35 49 49 35 49 49 35 49 49 35 49 49 34 49 49 34 49 49 34 48 48 34 48 48 34 48 48 34 48 48 34 48 48 34 48 48 34 48 48 34 48 48 34 48 48 34 48 48 34 47 47 34 47 47 34 47 47 34 47 47 34 47 47 34 47 47 34 47 47 34 47 47 34 47 47 34 47 47 34 47 47 34 46 46 34 46 46 34 46 46 33 46 46 33 46 46 33 46 46 33 46 46 33 46 46 33 46 46 33 46 46 33 46 46 33 46 46 33 45 45 33 45 45 33 45 45 33 45 45 33 45 45 33 45 45 33 45 45 33 45 45 33 45 45 33 45 45 33 45 45 33 45 45 33 44 44 
37 56 56 37 56 56 38 56 56 38 57 57 38 57 57 41 60 60 43 62 62 45 65 65 45 65 65 45 66 66 45 66 66 45 66 66 46 66 67 46 67 67 45 66 67 43 63 64 40 60 61 39 59 59 39 59 59 46 66 67 46 67 67 46 68 69 47 69 71 49 71 76 52 75 82 57 79 89 62 84 95 65 88 100 67 90 104 68 90 106 36 40 40 31 32 32 25 25 25 27 27 30 30 30 43 34 34 55 40 40 69 57 57 93 74 74 116 88 88 136 99 99 153 125 122 181 169 147 210 170 155 235 145 137 213 91 84 123 51 46 46 64 58 58 71 63 63 78 69 69 99 86 86 111 94 94 123 104 104 137 113 113 151 123 123 165 132 132 179 142 142 193 151 151 207 160 160 221 169 169 234 176 176 253 190 194 255 192 194 255 198 200 255 203 213 255 195 205 255 171 171 231 143 173 108 108 221 74 83 160 42 68 68 42 68 68 42 68 68 42 68 68 42 68 68 42 68 68 46 67 79 48 61 96 104 90 170 126 122 219 136 136 235 146 146 247 158 158 255 172 172 255 188 187 255 174 174 255 130 126 184 72 72 74 25 25 25 25 25 25 25 25 25 25 25 25 25 25 25 25 25 25 25 25 25 25 25 25 25 25 25 25 25 25 25 25 25 25 25 25 25 25 25 25 25 25 25 25 25 25 25 25 25 25 25 25 25 25 25 25 25 25 25 25 25 25 25 25 25 25 57 40 40 25 25 25 52 38 38 35 37 37 39 50 50 43 71 71 43 71 71 43 71 71 43 71 71 43 70 70 43 70 70 43 70 70 43 70 70 43 70 70 43 70 70 43 70 70 43 70 70 43 70 70 43 70 70 43 70 70 43 70 70 43 70 70 43 69 69 43 69 69 43 69 69 43 69 69 43 69 69 43 69 69 43 69 69 42 69 69 42 69 69 42 68 68 42 68 68 42 68 68 42 68 68 42 68 68 42 68 68 42 68 68 42 67 67 42 67 67 42 67 67 42 67 67 42 67 67 42 67 67 42 67 67 42 66 66 42 66 66 41 66 66 41 66 66 41 66 66 41 66 66 41 65 65 41 65 65 41 65 65 41 65 65 41 65 65 106 97 97 255 217 225 255 217 217 245 200 200 214 184 184 183 167 167 98 93 93 56 55 55 25 25 25 25 25 25 25 25 25 25 25 25 25 25 25 25 25 25 25 25 25 25 25 25 25 25 25 25 25 25 25 25 25 25 25 25 25 25 25 25 25 25 25 25 25 25 25 25 25 25 25 25 25 25 25 25 25 25 25 25 25 25 25 25 25 25 25 25 25 28 28 28 31 33 33 39 59 59 38 59 59 38 59 59 38 58 58 38 58 58 38 58 58 38 58 58 38 58 58 38 58 58 38 57 57 38 57 57 38 57 57 38 57 57 38 57 57 38 57 57 38 56 56 38 56 56 37 56 56 37 56 56 37 56 56 37 56 56 37 55 55 37 55 55 37 55 55 37 55 55 37 55 55 37 55 55 37 55 55 37 54 54 37 54 54 37 54 54 37 54 54 37 54 54 36 54 54 36 54 54 36 53 53 36 53 53 36 53 53 36 53 53 36 53 53 36 53 53 36 53 53 36 53 53 36 52 52 36 52 52 36 52 52 36 52 52 36 52 52 36 52 52 36 52 52 36 51 51 36 51 51 35 51 51 35 51 51 35 51 51 35 51 51 35 51 51 35 51 51 35 51 51 35 50 50 35 50 50 35 50 50 35 50 50 35 50 50 35 50 50 35 50 50 35 50 50 35 49 49 35 49 49 35 49 49 35 49 49 35 49 49 35 49 49 35 49 49 34 49 49 34 49 49 34 49 49 34 48 48 34 48 48 34 48 48 34 48 48 34 48 48 34 48 48 34 48 48 34 48 48 34 48 48 34 48 48 34 47 47 34 47 47 34 47 47 34 47 47 34 47 47 34 47 47 34 47 47 34 47 47 34 47 47 34 47 47 34 46 46 34 46 46 34 46 46 33 46 46 33 46 46 33 46 46 33 46 46 33 46 46 33 46 46 33 46 46 33 46 46 33 46 46 33 45 45 33 45 45 33 45 45 33 45 45 33 45 45 33 45 45 33 45 45 33 45 45 33 45 45 33 45 45 33 45 45 33 45 45 
38 56 56 38 56 56 38 57 57 38 57 57 40 59 59 43 62 62 45 65 65 45 66 66 45 66 66 46 66 66 46 67 68 46 67 68 47 68 70 47 68 71 47 69 73 48 69 73 46 66 70 40 61 62 39 59 59 47 68 70 46 67 68 46 68 69 48 70 74 51 73 80 57 79 88 62 84 95 66 88 101 69 91 106 77 97 114 72 94 112 36 41 41 35 37 37 29 30 30 25 25 25 26 26 29 30 30 40 33 33 51 38 38 63 50 50 82 65 65 102 77 77 120 94 94 142 145 127 179 146 130 191 103 93 135 28 29 29 25 25 25 25 25 25 35 35 35 38 36 36 50 48 48 56 52 52 74 68 68 84 75 75 106 94 94 120 103 103 134 113 113 148 123 123 163 132 132 177 141 141 191 150 150 209 162 162 232 180 187 239 180 185 244 178 182 249 177 179 255 175 181 238 150 150 133 133 243 103 103 208 67 78 147 42 68 68 42 68 68 42 69 69 42 69 69 43 69 69 56 64 88 99 72 133 97 88 161 123 123 221 140 140 237 143 143 236 156 156 252 188 184 255 171 171 255 168 168 255 90 93 124 33 34 34 25 25 25 25 25 25 25 25 25 25 25 25 25 25 25 25 25 25 25 25 25 25 25 25 25 25 25 25 25 25 25 25 25 25 25 25 25 25 25 25 25 25 25 25 25 25 25 25 25 25 25 25 25 25 25 25 25 25 25 25 42 31 31 82 57 57 36 32 32 122 80 80 92 65 65 50 40 40 36 42 42 43 71 71 43 71 71 43 71 71 43 71 71 43 71 71 43 71 71 43 71 71 43 71 71 43 71 71 43 71 71 43 70 70 43 70 70 43 70 70 43 70 70 43 70 70 43 70 70 43 70 70 43 70 70 43 70 70 43 70 70 43 70 70 43 69 69 43 69 69 43 69 69 43 69 69 43 69 69 43 69 69 42 69 69 42 69 69 42 68 68 42 68 68 42 68 68 42 68 68 42 68 68 42 68 68 42 68 68 42 67 67 42 67 67 42 67 67 42 67 67 42 67 67 42 67 67 42 66 66 41 66 66 41 66 66 41 66 66 41 66 66 41 66 66 41 65 65 41 65 65 41 65 65 169 135 135 255 219 223 255 209 209 225 189 189 194 173 173 134 126 126 87 86 86 25 25 25 25 25 25 25 25 25 25 25 25 25 25 25 25 25 25 25 25 25 25 25 25 25 25 25 25 25 25 25 25 25 25 25 25 25 25 25 25 25 25 25 25 25 25 25 25 25 25 25 25 25 25 25 25 25 25 25 25 25 25 25 25 25 25 25 25 25 25 25 25 28 28 28 31 32 32 35 47 47 39 59 59 38 59 59 38 59 59 38 58 58 38 58 58 38 58 58 38 58 58 38 58 58 38 58 58 38 57 57 38 57 57 38 57 57 38 57 57 38 57 57 38 57 57 38 56 56 38 56 56 37 56 56 37 56 56 37 56 56 37 56 56 37 56 56 37 55 55 37 55 55 37 55 55 37 55 55 37 55 55 37 55 55 37 54 54 37 54 54 37 54 54 37 54 54 37 54 54 36 54 54 36 54 54 36 53 53 36 53 53 36 53 53 36 53 53 36 53 53 36 53 53 36 53 53 36 53 53 36 52 52 36 52 52 36 52 52 36 52 52 36 52 52 36 52 52 36 52 52 36 51 51 36 51 51 35 51 51 35 51 51 35 51 51 35 51 51 35 51 51 35 51 51 35 51 51 35 50 50 35 50 50 35 50 50 35 50 50 35 50 50 35 50 50 35 50 50 35 50 50 35 49 49 35 49 49 35 49 49 35 49 49 35 49 49 35 49 49 35 49 49 34 49 49 34 49 49 34 49 49 34 48 48 34 48 48 34 48 48 53 64 84 54 64 83 68 76 109 67 75 105 66 73 99 63 70 94 60 67 88 57 64 81 54 61 75 50 57 69 42 52 56 40 51 54 34 47 47 34 47 47 34 47 47 34 47 47 34 47 47 34 47 47 34 46 46 34 46 46 33 46 46 33 46 46 33 46 46 33 46 46 33 46 46 33 46 46 33 46 46 33 46 46 33 46 46 33 45 45 33 45 45 33 45 45 33 45 45 33 45 45 33 45 45 33 45 45 33 45 45 33 45 45 33 45 45 33 45 45 
38 57 57 38 57 57 38 57 57 38 57 57 41 61 61 45 65 65 45 66 66 45 66 66 45 66 66 46 67 68 48 69 71 47 68 72 49 70 75 51 72 79 51 72 80 51 72 80 50 71 80 47 68 75 39 60 60 48 68 71 51 72 76 45 66 69 47 69 75 53 74 83 59 81 92 64 86 99 68 91 106 72 93 110 76 96 115 77 99 119 37 43 44 36 40 40 35 37 37 32 33 33 29 30 30 28 28 30 30 30 37 33 33 47 36 36 56 43 43 70 54 54 86 64 65 101 79 80 121 126 111 156 90 79 105 28 28 28 25 25 25 25 25 25 25 25 25 25 25 25 25 25 25 25 25 25 25 25 25 38 38 38 53 51 51 59 55 55 80 73 73 103 92 92 117 102 102 132 111 111 160 134 143 170 139 144 183 147 149 189 146 146 201 153 153 208 152 152 220 157 158 232 158 168 199 117 123 120 120 220 94 96 193 57 73 112 43 69 69 43 69 69 43 69 69 43 69 69 64 70 95 122 93 165 107 98 174 123 123 209 121 121 200 135 135 218 148 148 235 165 161 250 157 157 248 159 159 250 97 89 91 34 35 35 25 25 25 25 25 25 25 25 25 25 25 25 25 25 25 25 25 25 25 25 25 25 25 25 25 25 25 25 25 25 25 25 25 25 25 25 25 25 25 25 25 25 25 25 25 25 25 25 25 25 25 25 25 25 25 25 25 25 25 25 33 30 30 109 73 73 53 40 40 65 51 51 49 40 40 79 61 61 36 42 42 44 71 71 44 71 71 44 71 71 44 71 71 43 71 71 43 71 71 43 71 71 43 71 71 43 71 71 43 71 71 43 71 71 43 71 71 43 71 71 43 71 71 43 71 71 43 70 70 43 70 70 43 70 70 43 70 70 43 70 70 43 70 70 43 70 70 43 70 70 43 70 70 43 69 69 43 69 69 43 69 69 43 69 69 43 69 69 42 69 69 42 69 69 42 68 68 42 68 68 42 68 68 42 68 68 42 68 68 42 68 68 42 67 67 42 67 67 42 67 67 42 67 67 42 67 67 42 67 67 42 67 67 42 66 66 41 66 66 41 66 66 41 66 66 41 66 66 41 65 65 41 65 65 172 143 150 255 220 220 246 202 205 209 182 182 175 161 161 93 89 89 25 25 25 25 25 25 25 25 25 25 25 25 25 25 25 25 25 25 25 25 25 25 25 25 25 25 25 25 25 25 25 25 25 25 25 25 25 25 25 25 25 25 25 25 25 25 25 25 25 25 25 25 25 25 25 25 25 25 25 25 25 25 25 25 25 25 25 25 25 25 25 25 25 25 25 28 28 28 31 32 32 32 35 35 39 59 59 39 59 59 38 59 59 38 59 59 38 58 58 38 58 58 38 58 58 38 58 58 38 58 58 38 58 58 38 57 57 38 57 57 38 57 57 38 57 57 38 57 57 38 57 57 38 56 56 38 56 56 37 56 56 37 56 56 37 56 56 37 56 56 37 56 56 37 55 55 37 55 55 37 55 55 37 55 55 37 55 55 37 55 55 37 54 54 37 54 54 37 54 54 37 54 54 37 54 54 37 54 54 36 54 54 36 53 53 36 53 53 36 53 53 36 53 53 36 53 53 36 53 53 36 53 53 36 53 53 36 52 52 36 52 52 36 52 52 36 52 52 36 52 52 36 52 52 36 52 52 36 52 52 36 51 51 36 51 51 35 51 51 35 51 51 35 51 51 35 51 51 35 51 51 35 51 51 35 50 50 35 50 50 35 50 50 35 50 50 35 50 50 35 50 50 35 50 50 35 50 50 35 50 50 35 49 49 35 49 49 35 49 49 35 49 49 35 49 49 35 49 49 35 49 49 34 49 49 53 64 89 57 68 90 77 85 126 76 83 120 94 98 151 107 108 174 104 105 164 100 100 152 94 94 140 88 88 128 81 81 115 74 74 102 67 68 90 52 55 66 49 53 59 36 43 44 34 44 44 34 47 47 34 47 47 34 47 47 34 47 47 34 47 47 34 46 46 34 46 46 34 46 46 33 46 46 33 46 46 33 46 46 33 46 46 33 46 46 33 46 46 33 46 46 33 46 46 33 46 46 33 45 45 33 45 45 33 45 45 33 45 45 33 45 45 33 45 45 33 45 45 33 45 45 33 45 45 
38 57 57 38 57 57 38 57 57 39 59 59 44 64 64 45 66 66 45 66 66 45 66 66 46 67 68 47 68 70 48 69 74 51 72 78 53 74 82 55 77 86 57 78 89 57 78 90 56 77 90 51 72 84 46 67 75 39 60 60 53 74 80 50 71 78 48 69 76 54 75 86 60 81 94 65 87 102 71 93 110 74 96 115 76 98 119 76 98 119 75 97 120 36 42 42 36 41 41 35 39 39 35 38 38 32 35 35 32 34 35 34 35 39 36 38 47 38 41 55 41 44 64 47 50 75 56 59 89 65 69 102 65 61 82 28 28 28 25 25 25 25 25 25 25 25 25 25 25 25 25 25 25 25 25 25 25 25 25 25 25 25 25 25 25 25 25 25 37 37 37 41 39 39 58 54 54 78 72 72 109 98 101 138 123 135 132 111 112 145 118 118 157 124 124 168 128 128 180 133 133 189 136 138 201 135 149 146 146 254 122 122 223 70 75 154 43 69 69 43 69 69 43 69 69 43 70 70 58 61 103 91 86 160 103 103 188 106 107 180 109 109 178 122 122 195 146 142 219 180 162 241 144 144 223 145 145 226 72 62 62 34 36 36 29 29 29 25 25 25 25 25 25 25 25 25 25 25 25 25 25 25 25 25 25 25 25 25 25 25 25 25 25 25 25 25 25 25 25 25 25 25 25 25 25 25 25 25 25 25 25 25 25 25 25 25 25 25 32 28 28 81 55 55 25 25 25 52 42 42 68 50 50 34 35 35 35 36 38 68 49 49 36 42 42 42 65 65 44 72 72 44 72 72 44 72 72 44 72 72 44 72 72 44 71 71 44 71 71 44 71 71 44 71 71 43 71 71 43 71 71 43 71 71 43 71 71 43 71 71 43 71 71 43 71 71 43 71 71 43 70 70 43 70 70 43 70 70 43 70 70 43 70 70 43 70 70 43 70 70 43 70 70 43 69 69 43 69 69 43 69 69 43 69 69 43 69 69 42 69 69 42 69 69 42 68 68 42 68 68 42 68 68 42 68 68 42 68 68 42 68 68 42 67 67 42 67 67 42 67 67 42 67 67 42 67 67 42 67 67 42 66 66 101 77 77 110 88 88 172 108 108 167 109 109 159 106 106 162 139 143 255 220 222 238 201 202 194 175 175 129 122 122 55 55 55 25 25 25 25 25 25 25 25 25 25 25 25 25 25 25 25 25 25 25 25 25 25 25 25 25 25 25 25 25 25 25 25 25 25 25 25 25 25 25 25 25 25 25 25 25 25 25 25 25 25 25 25 25 25 25 25 25 25 25 25 25 25 25 25 25 25 25 25 25 25 25 25 26 26 26 30 31 31 31 32 32 32 35 35 39 59 59 39 59 59 39 59 59 39 59 59 38 59 59 38 58 58 38 58 58 38 58 58 38 58 58 38 58 58 38 58 58 38 57 57 38 57 57 38 57 57 38 57 57 38 57 57 38 57 57 38 56 56 38 56 56 37 56 56 37 56 56 37 56 56 37 56 56 37 56 56 37 55 55 37 55 55 37 55 55 37 55 55 37 55 55 37 55 55 37 54 54 37 54 54 37 54 54 37 54 54 37 54 54 37 54 54 36 54 54 36 53 53 36 53 53 36 53 53 36 53 53 36 53 53 36 53 53 36 53 53 36 53 53 36 52 52 36 52 52 36 52 52 36 52 52 36 52 52 36 52 52 36 52 52 36 52 52 36 51 51 36 51 51 35 51 51 35 51 51 35 51 51 35 51 51 35 51 51 35 51 51 35 50 50 35 50 50 35 50 50 35 50 50 35 50 50 35 50 50 35 50 50 35 50 50 35 50 50 35 49 49 35 49 49 35 49 49 35 49 49 35 49 49 35 49 49 79 87 137 83 91 136 105 109 173 124 124 205 124 124 197 119 119 185 115 115 174 109 109 162 103 103 149 96 96 136 88 88 122 81 81 108 73 73 95 65 65 81 57 57 67 45 45 50 38 38 40 32 32 33 32 36 36 34 44 44 34 47 47 34 47 47 34 47 47 34 47 47 34 46 46 34 46 46 34 46 46 33 46 46 33 46 46 33 46 46 33 46 46 33 46 46 33 46 46 33 46 46 33 46 46 33 46 46 33 45 45 33 45 45 33 45 45 33 45 45 33 45 45 33 45 45 33 45 45 33 45 45 
38 57 57 38 57 57 38 57 57 41 60 60 44 64 64 45 66 66 45 66 66 46 67 68 47 68 70 48 70 74 52 73 80 55 77 86 59 81 92 62 84 96 63 85 99 64 85 100 63 83 99 59 80 95 50 71 85 39 60 60 44 65 66 57 78 89 48 70 78 54 76 87 60 82 96 66 88 104 75 95 114 72 94 114 73 96 117 76 98 121 73 96 120 37 43 43 37 42 42 36 42 42 36 41 41 36 41 41 36 40 40 36 40 40 36 41 42 38 43 47 40 45 53 42 48 61 44 51 68 50 57 78 32 34 34 29 29 29 25 25 25 25 25 25 25 25 25 25 25 25 25 25 25 25 25 25 25 25 25 25 25 25 25 25 25 25 25 25 25 25 25 25 25 25 25 25 25 41 41 45 55 53 62 82 72 73 98 81 81 117 96 96 129 103 103 131 107 107 146 116 116 155 120 120 163 116 117 145 145 243 138 138 235 89 84 164 57 69 110 43 70 70 43 70 70 43 70 70 56 59 91 93 91 152 99 99 176 82 82 140 92 92 151 105 105 167 117 118 183 176 159 227 126 126 195 131 131 204 55 53 54 34 37 37 33 34 34 25 25 25 25 25 25 25 25 25 25 25 25 25 25 25 25 25 25 25 25 25 25 25 25 25 25 25 25 25 25 25 25 25 25 25 25 25 25 25 25 25 25 25 25 25 25 25 25 25 25 25 33 30 30 105 67 67 100 57 58 35 33 34 39 36 36 33 35 35 34 37 37 36 37 39 70 51 51 41 59 59 44 72 72 44 72 72 44 72 72 44 72 72 44 72 72 44 72 72 44 72 72 44 72 72 44 72 72 44 72 72 44 71 71 44 71 71 44 71 71 43 71 71 43 71 71 43 71 71 43 71 71 43 71 71 43 71 71 43 71 71 43 70 70 43 70 70 43 70 70 43 70 70 43 70 70 43 70 70 43 70 70 43 69 69 43 69 69 43 69 69 43 69 69 43 69 69 42 69 69 42 69 69 42 68 68 42 68 68 42 68 68 42 68 68 42 68 68 42 68 68 42 67 67 42 67 67 42 67 67 42 67 67 177 103 103 193 124 124 255 150 150 255 168 168 255 172 172 255 165 165 255 202 210 246 196 196 211 182 182 178 165 165 92 89 89 25 25 25 25 25 25 25 25 25 25 25 25 25 25 25 25 25 25 25 25 25 25 25 25 25 25 25 25 25 25 25 25 25 25 25 25 25 25 25 25 25 25 25 25 25 25 25 25 25 25 25 25 25 25 25 25 25 25 25 25 25 25 25 25 25 25 25 25 25 25 25 25 25 25 25 29 30 34 31 31 31 31 33 33 32 35 35 39 59 59 39 59 59 39 59 59 39 59 59 39 59 59 38 59 59 38 58 58 38 58 58 38 58 58 38 58 58 38 58 58 38 58 58 38 57 57 38 57 57 38 57 57 38 57 57 38 57 57 38 57 57 38 56 56 38 56 56 37 56 56 37 56 56 37 56 56 37 56 56 37 56 56 37 55 55 37 55 55 37 55 55 37 55 55 37 55 55 37 55 55 37 54 54 37 54 54 37 54 54 37 54 54 37 54 54 37 54 54 36 54 54 36 53 53 36 53 53 36 53 53 36 53 53 36 53 53 36 53 53 36 53 53 36 53 53 36 52 52 36 52 52 36 52 52 36 52 52 36 52 52 36 52 52 36 52 52 36 52 52 36 51 51 36 51 51 35 51 51 35 51 51 35 51 51 35 51 51 35 51 51 35 51 51 35 50 50 35 50 50 35 50 50 35 50 50 35 50 50 35 50 50 35 50 50 35 50 50 35 50 50 35 49 49 35 49 49 35 49 49 59 71 98 88 96 146 110 115 186 137 137 226 134 134 216 133 133 206 129 129 196 124 124 184 117 117 171 110 110 157 103 103 144 95 95 130 87 87 115 78 78 101 70 70 86 61 61 72 52 52 58 37 37 39 25 25 25 25 25 25 25 25 25 27 28 28 34 41 41 34 47 47 34 47 47 34 47 47 34 47 47 34 46 46 34 46 46 34 46 46 33 46 46 33 46 46 33 46 46 33 46 46 33 46 46 33 46 46 33 46 46 33 46 46 33 46 46 33 45 45 33 45 45 33 45 45 33 45 45 33 45 45 33 45 45 33 45 45 
38 57 57 38 58 58 38 58 58 41 60 60 44 64 64 45 66 66 46 67 67 47 68 70 48 69 74 51 73 80 56 78 87 61 82 94 66 88 101 67 89 104 68 90 106 72 94 113 71 92 111 65 86 105 55 76 93 39 61 61 39 61 61 46 68 72 49 71 81 51 73 85 58 80 95 64 86 103 69 91 110 72 94 115 71 94 116 76 97 121 71 93 117 60 83 101 37 43 43 37 43 43 37 43 43 37 43 43 37 43 43 37 43 43 37 43 43 37 44 44 38 45 46 39 46 49 40 48 53 44 52 61 32 36 36 31 32 32 25 25 25 25 25 25 25 25 25 25 25 25 25 25 25 25 25 25 25 25 25 25 25 25 25 25 25 25 25 25 25 25 25 25 25 25 25 25 25 31 31 34 51 48 61 34 33 39 53 44 44 64 49 49 108 84 84 111 86 86 109 95 95 121 102 102 129 101 101 147 122 173 128 128 212 86 86 158 60 66 118 43 70 70 43 70 70 43 70 70 48 49 74 76 76 121 83 82 140 54 54 96 71 71 118 84 84 135 94 94 148 143 130 187 105 105 163 114 114 177 39 40 40 35 39 39 34 36 36 31 31 31 25 25 25 25 25 25 25 25 25 25 25 25 25 25 25 25 25 25 25 25 25 25 25 25 25 25 25 25 25 25 25 25 25 25 25 25 25 25 25 25 25 25 25 25 25 39 29 29 56 43 50 60 44 45 73 53 53 51 52 69 44 45 58 34 36 36 35 38 38 35 39 39 91 62 62 41 59 59 44 72 72 44 72 72 44 72 72 44 72 72 44 72 72 44 72 72 44 72 72 44 72 72 44 72 72 44 72 72 44 72 72 44 72 72 44 72 72 44 71 71 44 71 71 44 71 71 43 71 71 43 71 71 43 71 71 43 71 71 43 71 71 43 71 71 43 70 70 43 70 70 43 70 70 43 70 70 43 70 70 43 70 70 43 70 70 43 69 69 43 69 69 43 69 69 43 69 69 43 69 69 42 69 69 42 68 68 42 68 68 42 68 68 42 68 68 42 68 68 42 68 68 42 67 67 106 80 80 195 121 121 255 158 158 255 195 195 255 205 205 255 206 206 255 199 199 255 187 187 255 195 198 236 195 200 196 174 174 135 129 129 60 60 60 26 26 26 25 25 25 25 25 25 25 25 25 25 25 25 25 25 25 25 25 25 25 25 25 25 25 25 25 25 25 25 25 25 25 25 25 25 25 25 25 25 25 25 25 25 25 25 25 25 25 25 25 25 25 25 25 25 25 25 25 25 25 25 25 25 25 27 27 30 31 31 37 28 28 28 41 41 51 31 32 32 31 33 33 32 35 35 39 60 60 39 59 59 39 59 59 39 59 59 39 59 59 39 59 59 38 59 59 38 58 58 38 58 58 38 58 58 38 58 58 38 58 58 38 58 58 38 57 57 38 57 57 38 57 57 38 57 57 38 57 57 38 57 57 38 56 56 38 56 56 37 56 56 37 56 56 37 56 56 37 56 56 37 56 56 37 55 55 37 55 55 37 55 55 37 55 55 37 55 55 37 55 55 37 54 54 37 54 54 37 54 54 37 54 54 37 54 54 37 54 54 36 54 54 36 53 53 36 53 53 36 53 53 36 53 53 36 53 53 36 53 53 36 53 53 36 53 53 36 52 52 36 52 52 36 52 52 36 52 52 36 52 52 36 52 52 36 52 52 36 52 52 36 51 51 36 51 51 35 51 51 35 51 51 35 51 51 35 51 51 35 51 51 35 51 51 35 50 50 35 50 50 35 50 50 35 50 50 35 50 50 35 50 50 35 50 50 35 50 50 35 50 50 35 49 49 83 92 148 91 98 149 140 142 240 145 145 235 143 143 225 140 140 216 136 136 204 131 131 192 124 124 179 117 117 165 109 109 151 101 101 137 92 92 122 83 83 107 74 74 92 65 65 77 55 55 62 38 38 41 52 53 72 48 48 65 65 66 98 64 65 94 63 63 89 63 63 87 63 67 88 60 67 85 58 65 80 55 62 76 44 54 59 43 53 57 42 52 56 34 46 46 33 46 46 33 46 46 33 46 46 33 46 46 33 46 46 33 46 46 33 46 46 33 46 46 33 46 46 33 45 45 33 45 45 33 45 45 33 45 45 33 45 45 33 45 45 
38 58 58 38 58 58 38 58 58 38 58 58 43 63 63 45 65 65 46 67 68 47 68 72 50 71 78 55 77 85 60 82 93 65 87 100 68 90 105 74 95 112 71 93 111 71 92 111 75 96 118 69 90 111 58 80 99 45 67 75 39 61 61 40 61 61 42 63 65 47 69 77 53 75 89 58 80 97 62 84 104 68 90 111 68 90 113 64 86 110 58 81 99 56 76 89 39 54 54 37 44 44 37 44 44 37 44 44 37 44 44 37 44 44 37 45 45 38 45 45 38 45 45 38 46 46 38 46 46 40 48 49 33 37 37 31 33 33 29 29 29 25 25 25 25 25 25 25 25 25 25 25 25 25 25 25 25 25 25 25 25 25 25 25 25 25 25 25 25 25 25 25 25 25 25 25 25 27 27 27 42 43 55 38 38 47 40 38 46 30 30 33 31 32 32 75 59 59 59 59 59 79 75 75 99 88 88 118 101 140 105 104 173 79 79 142 56 61 106 43 70 70 43 71 71 43 71 71 40 41 49 59 59 86 66 65 103 41 41 75 47 47 81 58 58 97 69 69 110 84 83 128 130 112 157 84 84 130 37 37 37 36 40 40 35 37 37 34 35 35 31 32 32 27 27 27 25 25 25 25 25 25 25 25 25 25 25 25 25 25 25 25 25 25 25 25 25 25 25 25 25 25 25 25 25 25 25 25 25 25 25 25 25 25 25 63 44 44 104 67 67 44 41 48 102 69 69 38 40 45 59 59 83 38 40 48 35 39 39 36 41 41 47 40 40 41 60 60 44 73 73 44 73 73 44 73 73 44 73 73 44 73 73 44 72 72 44 72 72 44 72 72 44 72 72 44 72 72 44 72 72 44 72 72 44 72 72 44 72 72 44 72 72 44 72 72 44 71 71 44 71 71 43 71 71 43 71 71 43 71 71 43 71 71 43 71 71 43 71 71 43 70 70 43 70 70 43 70 70 43 70 70 43 70 70 43 70 70 43 70 70 43 69 69 43 69 69 43 69 69 43 69 69 42 69 69 42 69 69 42 68 68 42 68 68 42 68 68 42 68 68 101 76 76 197 124 124 255 178 179 255 219 219 255 226 226 255 225 225 255 218 218 255 206 206 255 190 190 253 193 194 221 186 190 184 169 169 98 96 96 31 32 32 30 31 31 26 26 26 25 25 25 25 25 25 25 25 25 25 25 25 25 25 25 25 25 25 25 25 25 25 25 25 25 25 25 25 25 25 25 25 25 25 25 25 25 25 25 25 25 25 25 25 25 25 25 25 25 25 25 25 25 25 25 25 25 25 25 25 32 32 39 50 50 70 30 30 31 48 48 64 36 36 46 31 33 33 32 35 35 39 60 60 39 60 60 39 59 59 39 59 59 39 59 59 39 59 59 38 59 59 38 59 59 38 58 58 38 58 58 38 58 58 38 58 58 38 58 58 38 58 58 38 57 57 38 57 57 38 57 57 38 57 57 38 57 57 38 57 57 38 56 56 38 56 56 37 56 56 37 56 56 37 56 56 37 56 56 37 56 56 37 55 55 37 55 55 37 55 55 37 55 55 37 55 55 37 55 55 37 54 54 37 54 54 37 54 54 37 54 54 37 54 54 37 54 54 36 54 54 36 53 53 36 53 53 36 53 53 36 53 53 36 53 53 36 53 53 36 53 53 36 53 53 36 52 52 36 52 52 36 52 52 36 52 52 36 52 52 36 52 52 36 52 52 36 52 52 36 51 51 36 51 51 35 51 51 35 51 51 35 51 51 35 51 51 35 51 51 35 51 51 35 50 50 35 50 50 35 50 50 35 50 50 35 50 50 35 50 50 35 50 50 35 50 50 88 97 153 119 124 204 149 150 250 149 149 241 150 150 234 147 147 224 143 143 212 137 137 200 130 130 186 123 123 172 115 115 158 106 106 143 97 97 128 88 88 113 78 78 97 69 69 82 77 78 106 88 89 134 79 79 117 92 93 147 93 93 142 109 109 171 106 107 162 102 103 153 98 98 143 93 93 132 88 88 122 82 82 111 76 77 101 71 71 91 58 61 71 56 60 67 45 52 54 34 43 43 33 46 46 33 46 46 33 46 46 33 46 46 33 46 46 33 46 46 33 46 46 33 46 46 33 46 46 33 45 45 33 45 45 33 45 45 33 45 45 33 45 45 
38 58 58 38 58 58 38 58 58 38 58 58 44 64 64 44 64 64 45 65 68 47 68 73 51 72 80 57 79 89 62 83 96 66 88 103 71 92 109 78 97 116 79 97 117 78 99 121 71 93 115 67 89 111 59 80 102 46 68 77 40 61 61 40 62 62 40 62 62 40 62 62 43 65 68 47 69 77 48 71 80 50 72 83 50 73 84 50 73 84 45 67 73 40 63 63 40 64 64 38 49 49 37 44 44 37 44 44 37 45 45 38 45 45 38 45 45 38 45 45 38 46 46 38 46 46 38 46 46 40 48 48 40 44 45 32 34 34 31 32 32 29 29 29 26 26 26 25 25 25 25 25 25 25 25 25 25 25 25 25 25 25 25 25 25 25 25 25 25 25 25 25 25 25 25 25 25 30 30 34 51 50 65 31 29 29 69 47 48 45 45 61 31 33 33 50 38 39 45 39 39 44 48 48 57 59 59 83 78 102 84 83 137 60 60 107 52 57 91 43 71 71 43 71 71 43 71 71 37 41 42 41 43 51 46 47 64 43 45 67 37 38 59 40 41 67 46 46 75 48 48 79 81 72 105 93 76 110 72 58 69 36 42 42 35 39 39 34 37 37 34 36 36 33 34 34 31 31 31 27 27 27 27 27 27 25 25 25 25 25 25 25 25 25 25 25 25 25 25 25 25 25 25 25 25 25 27 27 27 27 27 27 29 29 29 72 46 46 98 66 66 59 42 42 50 38 38 51 41 41 39 38 40 48 51 67 36 41 41 36 42 42 39 41 42 41 60 60 44 73 73 44 73 73 44 73 73 44 73 73 44 73 73 44 73 73 44 73 73 44 73 73 44 73 73 44 72 72 44 72 72 44 72 72 44 72 72 44 72 72 44 72 72 44 72 72 44 72 72 44 72 72 44 71 71 44 71 71 43 71 71 43 71 71 43 71 71 43 71 71 43 71 71 43 71 71 43 70 70 43 70 70 43 70 70 43 70 70 43 70 70 43 70 70 43 69 69 43 69 69 43 69 69 43 69 69 43 69 69 42 69 69 42 68 68 42 68 68 42 68 68 191 121 121 255 182 183 255 222 222 255 235 235 255 240 240 255 231 231 255 216 216 255 202 202 255 184 184 243 188 188 214 182 182 173 163 164 92 93 93 31 33 33 31 32 32 30 31 31 28 28 28 26 26 26 25 25 25 25 25 25 25 25 25 25 25 25 25 25 25 25 25 25 25 25 25 25 25 25 25 25 25 25 25 25 25 25 25 25 25 25 25 25 25 25 25 25 25 25 25 27 27 29 37 37 48 36 31 34 34 34 41 56 56 77 38 38 51 50 50 67 49 49 69 39 41 51 34 41 41 39 60 60 39 60 60 39 60 60 39 59 59 39 59 59 39 59 59 39 59 59 38 59 59 38 59 59 38 58 58 38 58 58 38 58 58 38 58 58 38 58 58 38 58 58 38 57 57 38 57 57 38 57 57 38 57 57 38 57 57 38 57 57 38 56 56 38 56 56 37 56 56 37 56 56 37 56 56 37 56 56 37 55 55 37 55 55 37 55 55 37 55 55 37 55 55 37 55 55 37 55 55 37 54 54 37 54 54 37 54 54 37 54 54 37 54 54 36 54 54 36 54 54 36 53 53 36 53 53 36 53 53 36 53 53 36 53 53 36 53 53 36 53 53 36 53 53 36 52 52 36 52 52 36 52 52 36 52 52 36 52 52 36 52 52 36 52 52 36 52 52 36 51 51 36 51 51 35 51 51 35 51 51 35 51 51 35 51 51 35 51 51 35 51 51 35 50 50 35 50 50 35 50 50 35 50 50 35 50 50 35 50 50 88 98 156 122 127 209 154 155 255 154 154 248 155 155 241 152 152 231 148 148 219 142 142 207 136 136 193 128 128 179 120 120 165 111 111 150 102 102 134 93 93 119 83 83 103 89 90 126 101 102 152 113 113 180 109 109 168 124 125 198 123 123 190 118 118 179 114 114 169 109 109 158 104 104 147 98 98 136 92 92 125 86 86 114 80 80 102 73 73 91 67 67 81 61 61 70 49 49 54 42 42 45 36 37 38 32 36 36 33 43 43 33 46 46 33 46 46 33 46 46 33 46 46 33 46 46 33 46 46 33 46 46 33 46 46 33 46 46 33 45 45 33 45 45 33 45 45 
38 58 58 38 58 58 38 58 58 38 59 59 41 61 61 44 64 64 45 66 69 47 67 74 51 72 81 58 79 91 63 84 98 67 88 104 72 93 111 75 96 116 75 97 118 74 95 118 75 96 120 69 90 114 55 77 93 43 65 69 40 62 62 40 62 62 40 62 62 40 62 62 40 62 62 40 63 63 40 63 63 40 63 63 40 63 63 40 63 63 40 63 63 40 64 64 41 64 64 41 64 64 40 59 59 38 50 50 38 45 45 38 45 45 38 45 45 38 46 46 38 46 46 38 46 46 39 47 47 39 47 47 40 47 47 32 36 36 32 34 34 31 32 32 29 30 30 28 28 28 26 26 26 26 26 26 25 25 25 25 25 25 25 25 25 25 25 25 26 26 26 26 26 26 26 27 27 28 29 29 46 47 60 44 39 51 37 38 43 36 38 42 32 35 35 42 38 38 74 54 55 34 39 39 34 40 40 52 56 74 57 59 98 51 53 86 47 52 74 43 71 71 43 71 71 44 71 71 40 48 48 37 39 40 38 41 43 39 43 48 39 44 52 38 42 54 39 42 58 40 43 61 42 45 64 46 49 69 67 63 80 37 43 43 36 41 41 35 39 39 35 38 38 34 36 36 34 35 35 33 35 35 31 32 32 31 32 32 29 30 30 29 29 29 29 29 29 29 29 29 29 30 30 29 30 30 29 30 30 31 32 32 39 33 33 98 63 63 62 52 61 34 37 37 67 47 47 67 46 46 39 40 45 49 51 67 36 42 42 37 43 43 37 41 42 44 73 73 44 73 73 44 73 73 44 73 73 44 73 73 44 73 73 44 73 73 44 73 73 44 73 73 44 73 73 44 73 73 44 73 73 44 73 73 44 72 72 44 72 72 44 72 72 44 72 72 44 72 72 44 72 72 44 72 72 44 72 72 44 71 71 44 71 71 43 71 71 43 71 71 43 71 71 43 71 71 43 71 71 43 70 70 43 70 70 43 70 70 43 70 70 43 70 70 43 70 70 43 70 70 43 69 69 43 69 69 43 69 69 43 69 69 42 69 69 42 68 68 169 101 101 255 162 166 255 222 230 255 250 250 255 235 235 255 243 245 255 227 227 255 207 207 255 190 190 243 171 171 231 176 176 203 176 176 171 165 169 32 35 35 32 34 34 31 33 33 31 32 32 31 31 31 29 29 29 28 28 28 26 26 26 25 25 25 25 25 25 25 25 25 25 25 25 25 25 25 25 25 25 25 25 25 25 25 25 25 25 25 25 25 25 25 25 25 25 25 25 25 25 25 30 30 37 51 51 71 42 41 56 37 37 45 58 51 65 37 35 41 41 40 49 47 47 61 45 46 58 36 48 48 39 60 60 39 60 60 39 60 60 39 60 60 39 59 59 39 59 59 39 59 59 39 59 59 38 59 59 38 59 59 38 58 58 38 58 58 38 58 58 38 58 58 38 58 58 38 58 58 38 57 57 38 57 57 38 57 57 38 57 57 38 57 57 38 57 57 38 56 56 37 56 56 37 56 56 37 56 56 37 56 56 37 56 56 37 55 55 37 55 55 37 55 55 37 55 55 37 55 55 37 55 55 37 55 55 37 54 54 37 54 54 37 54 54 37 54 54 37 54 54 36 54 54 36 54 54 36 53 53 36 53 53 36 53 53 36 53 53 36 53 53 36 53 53 36 53 53 36 53 53 36 52 52 36 52 52 36 52 52 36 52 52 36 52 52 36 52 52 36 52 52 36 52 52 36 51 51 36 51 51 35 51 51 35 51 51 35 51 51 35 51 51 35 51 51 35 51 51 35 50 50 35 50 50 35 50 50 35 50 50 83 93 152 121 127 211 158 160 255 160 160 255 159 159 247 156 156 237 152 152 226 147 147 213 140 140 200 133 133 186 125 125 171 116 116 156 107 107 141 97 97 125 106 106 156 111 112 170 124 124 201 138 139 229 135 135 215 132 132 205 129 129 196 126 126 186 121 121 175 115 115 164 110 110 153 103 103 141 97 97 129 90 90 117 83 83 106 76 76 94 70 70 82 63 63 71 50 50 54 40 40 41 25 25 25 25 25 25 27 27 27 29 30 30 32 36 36 34 44 44 33 46 46 33 46 46 33 46 46 33 46 46 33 46 46 33 46 46 33 46 46 33 46 46 33 45 45 33 45 45 
38 58 58 38 58 58 38 59 59 39 59 59 39 59 59 42 63 63 45 66 69 47 68 75 52 72 83 58 79 92 63 84 100 67 88 106 72 93 113 79 100 121 74 95 118 73 95 119 71 92 117 64 86 110 50 71 83 40 62 62 40 62 62 40 62 62 40 62 62 40 62 62 40 63 63 40 63 63 40 63 63 40 63 63 40 63 63 40 64 64 41 64 64 41 64 64 41 64 64 41 64 64 41 65 65 41 60 60 40 55 55 43 52 52 40 47 47 38 46 46 38 46 46 39 47 47 38 47 47 39 47 47 40 53 53 33 37 37 32 35 35 32 34 34 31 33 33 31 32 32 29 30 30 29 30 30 29 30 30 28 28 28 28 28 28 28 29 29 28 29 29 29 30 30 30 31 31 31 32 32 33 35 37 49 49 65 66 55 64 40 42 52 33 37 37 49 40 40 81 57 57 48 43 43 34 40 40 41 47 58 51 55 81 46 50 70 42 47 57 44 71 71 44 72 72 44 72 72 44 72 72 45 49 49 38 43 43 38 45 45 38 45 46 38 45 47 39 45 49 39 46 51 40 46 53 40 47 54 41 48 55 39 46 46 37 43 43 36 41 41 35 39 39 35 38 38 35 38 38 34 37 37 34 36 36 34 36 36 34 35 35 34 35 35 34 35 35 34 35 35 34 35 35 34 35 35 34 36 36 34 36 36 34 36 36 103 65 65 102 62 62 83 60 71 55 41 41 46 41 41 47 49 63 48 51 63 37 42 42 37 42 42 48 60 60 44 74 74 44 74 74 44 74 74 44 74 74 44 73 73 44 73 73 44 73 73 44 73 73 44 73 73 44 73 73 44 73 73 44 73 73 44 73 73 44 73 73 44 73 73 44 72 72 44 72 72 44 72 72 44 72 72 44 72 72 44 72 72 44 72 72 44 72 72 44 71 71 44 71 71 43 71 71 43 71 71 43 71 71 43 71 71 43 71 71 43 70 70 43 70 70 43 70 70 43 70 70 43 70 70 43 70 70 43 69 69 43 69 69 43 69 69 43 69 69 42 69 69 183 122 122 255 192 192 255 225 231 255 235 237 255 226 226 255 228 228 255 211 211 255 192 192 244 173 173 212 152 152 212 160 160 212 177 177 114 109 117 33 37 37 32 35 35 32 34 34 31 33 33 31 32 32 31 32 32 31 31 31 29 30 30 29 29 29 28 28 28 26 26 26 26 26 26 26 26 26 26 26 26 26 26 26 26 26 26 26 26 26 26 26 26 26 26 26 29 29 32 40 40 51 30 31 33 48 48 66 43 44 55 32 32 33 64 48 54 31 33 33 34 35 39 43 44 55 37 39 45 36 48 48 39 60 60 39 60 60 39 60 60 39 60 60 39 60 60 39 59 59 39 59 59 39 59 59 39 59 59 38 59 59 38 59 59 38 58 58 38 58 58 38 58 58 38 58 58 38 58 58 38 58 58 38 57 57 38 57 57 38 57 57 38 57 57 38 57 57 38 57 57 38 56 56 37 56 56 37 56 56 37 56 56 37 56 56 37 56 56 37 55 55 37 55 55 37 55 55 37 55 55 37 55 55 37 55 55 37 55 55 37 54 54 37 54 54 37 54 54 37 54 54 37 54 54 36 54 54 36 54 54 36 53 53 36 53 53 36 53 53 36 53 53 36 53 53 36 53 53 36 53 53 36 53 53 36 52 52 36 52 52 36 52 52 36 52 52 36 52 52 36 52 52 36 52 52 36 51 51 36 51 51 35 51 51 35 51 51 35 51 51 35 51 51 35 51 51 35 51 51 53 65 85 53 64 82 62 70 103 70 80 126 97 106 162 160 163 255 163 164 255 161 161 252 160 160 243 156 156 232 151 151 220 145 145 206 137 137 192 129 129 178 120 120 162 111 111 147 101 101 131 106 107 152 118 118 177 127 127 201 144 144 232 141 141 221 139 139 212 136 136 203 131 131 192 126 126 181 121 121 170 114 114 158 108 108 146 101 101 133 94 94 121 87 87 109 79 79 97 72 72 84 65 65 72 51 51 54 40 40 41 25 25 25 25 25 25 25 25 25 25 25 25 25 25 25 27 27 27 31 35 35 34 43 43 33 46 46 33 46 46 33 46 46 33 46 46 33 46 46 33 46 46 33 46 46 33 46 46 33 45 45 
38 59 59 38 59 59 39 59 59 39 59 59 39 59 59 39 59 59 43 64 66 47 68 75 49 70 81 56 77 91 61 83 99 66 87 105 70 91 111 72 93 115 72 93 117 72 93 118 69 90 114 57 77 89 43 65 71 40 62 62 40 62 62 40 62 62 40 63 63 40 63 63 40 63 63 40 63 63 40 63 63 40 63 63 40 64 64 41 64 64 41 64 64 41 64 64 41 64 64 41 65 65 41 65 65 41 65 65 41 65 65 41 61 61 40 61 61 44 57 57 40 56 56 40 57 57 40 57 57 42 59 60 45 61 61 33 38 38 33 36 36 32 36 36 32 35 35 32 34 34 32 34 34 31 33 33 31 33 33 31 33 33 31 33 33 31 33 33 31 33 33 32 34 34 32 34 34 32 35 35 32 35 35 38 39 42 42 43 49 38 40 42 44 38 38 62 46 46 92 60 60 81 57 57 36 43 45 45 54 70 44 53 65 42 48 55 46 65 67 48 76 76 44 72 72 44 72 72 44 72 72 43 56 56 38 45 45 38 46 46 38 46 46 38 46 46 38 46 46 38 46 46 38 46 47 38 47 48 40 48 49 76 66 66 37 44 44 37 42 42 36 41 41 36 40 40 35 39 39 35 39 39 35 38 38 35 38 38 35 37 37 34 37 37 34 37 37 34 37 37 34 37 37 34 37 37 35 37 37 35 38 38 35 38 38 52 40 40 101 66 68 50 41 41 56 48 48 36 41 41 46 49 59 43 47 63 37 43 43 58 50 50 76 71 71 45 74 74 45 74 74 45 74 74 45 74 74 44 74 74 44 74 74 44 74 74 44 73 73 44 73 73 44 73 73 44 73 73 44 73 73 44 73 73 44 73 73 44 73 73 44 73 73 44 73 73 44 72 72 44 72 72 44 72 72 44 72 72 44 72 72 44 72 72 44 72 72 44 71 71 44 71 71 43 71 71 43 71 71 43 71 71 43 71 71 43 71 71 43 70 70 43 70 70 43 70 70 43 70 70 43 70 70 43 70 70 43 69 69 43 69 69 43 69 69 97 81 81 255 168 175 255 201 201 255 215 216 255 223 224 255 213 213 255 212 213 255 193 193 241 172 172 210 152 152 178 131 131 145 108 108 189 167 167 106 103 108 31 31 31 33 36 36 32 35 35 32 34 34 31 34 34 31 33 33 31 32 32 31 32 32 31 32 32 31 31 31 30 31 31 29 30 30 29 29 29 29 29 29 29 29 29 29 29 29 29 29 29 29 30 30 29 30 30 34 34 40 48 48 69 39 40 50 35 37 43 37 36 40 31 33 33 74 48 48 31 33 33 32 34 34 39 39 47 35 38 42 36 49 49 39 60 60 39 60 60 39 60 60 39 60 60 39 60 60 39 60 60 39 59 59 39 59 59 39 59 59 39 59 59 38 59 59 38 58 58 38 58 58 38 58 58 38 58 58 38 58 58 38 58 58 38 57 57 38 57 57 38 57 57 38 57 57 38 57 57 38 57 57 38 57 57 38 56 56 37 56 56 37 56 56 37 56 56 37 56 56 37 56 56 37 55 55 37 55 55 37 55 55 37 55 55 37 55 55 37 55 55 37 55 55 37 54 54 37 54 54 37 54 54 37 54 54 37 54 54 36 54 54 36 54 54 36 53 53 36 53 53 36 53 53 36 53 53 36 53 53 36 53 53 36 53 53 36 52 52 36 52 52 36 52 52 36 52 52 36 52 52 36 52 52 36 52 52 36 52 52 36 51 51 36 51 51 35 51 51 35 51 51 57 70 93 76 85 129 78 85 126 92 96 154 91 95 147 87 91 138 120 123 212 157 160 255 168 169 255 166 166 255 162 162 247 159 159 237 154 154 225 148 148 212 141 141 198 133 133 184 125 125 168 115 115 153 106 106 137 130 131 206 140 141 228 147 148 244 149 149 237 147 147 227 145 145 219 141 141 209 136 136 198 131 131 186 125 125 175 119 119 163 112 112 150 105 105 138 97 97 125 90 90 112 82 82 100 74 74 87 66 66 74 52 52 55 41 41 41 25 25 25 25 25 25 25 25 25 25 25 25 25 25 25 25 25 25 25 25 25 25 25 25 31 32 32 34 41 41 33 46 46 33 46 46 33 46 46 33 46 46 33 46 46 33 46 46 33 46 46 33 46 46 
39 59 59 39 59 59 39 59 59 39 59 59 39 59 59 39 60 60 39 60 60 44 65 69 48 69 78 51 73 86 56 78 94 61 82 101 64 85 106 65 87 109 68 89 112 59 80 99 52 74 86 44 66 72 40 62 62 40 62 62 40 62 62 40 63 63 40 63 63 40 63 63 40 63 63 40 63 63 40 64 64 40 64 64 41 64 64 41 64 64 41 64 64 41 64 64 41 65 65 41 65 65 41 65 65 41 65 65 41 65 65 41 66 66 41 66 66 41 66 66 41 66 66 42 66 66 42 67 67 42 67 67 42 67 67 42 67 67 33 37 37 33 37 37 32 36 36 32 36 36 32 35 35 32 35 35 32 35 35 32 35 35 32 35 35 32 35 35 32 35 35 32 35 35 32 36 36 32 36 36 33 36 36 35 39 41 36 39 39 39 36 36 57 44 45 79 55 55 97 68 68 97 64 65 36 44 44 42 51 56 41 50 53 39 48 49 45 64 65 51 80 81 48 76 76 44 72 72 44 72 72 44 73 73 45 52 54 38 47 47 39 48 48 38 47 47 38 47 47 38 47 47 39 48 48 44 51 51 39 47 47 40 49 49 39 43 43 37 44 44 37 42 42 36 41 41 36 41 41 36 40 40 35 40 40 35 39 39 35 39 39 35 39 39 35 39 39 35 39 39 35 39 39 35 39 39 35 39 39 35 39 39 35 39 39 36 40 40 47 42 42 44 42 42 43 44 44 52 54 69 40 43 51 37 43 43 37 44 44 40 53 53 43 68 68 45 74 74 45 74 74 45 74 74 45 74 74 45 74 74 45 74 74 45 74 74 44 74 74 44 74 74 44 74 74 44 73 73 44 73 73 44 73 73 44 73 73 44 73 73 44 73 73 44 73 73 44 73 73 44 73 73 44 72 72 44 72 72 44 72 72 44 72 72 44 72 72 44 72 72 44 72 72 44 71 71 43 71 71 43 71 71 43 71 71 43 71 71 43 71 71 43 70 70 43 70 70 43 70 70 43 70 70 43 70 70 43 70 70 43 69 69 43 69 69 154 103 103 255 186 191 255 200 206 255 215 220 255 213 214 255 196 196 255 194 197 250 181 186 205 149 149 174 129 129 141 107 107 108 84 84 216 179 179 96 97 97 37 35 35 33 37 37 32 36 36 32 35 35 32 34 34 32 34 34 31 33 33 31 33 33 31 33 33 38 33 33 43 33 33 41 33 33 39 32 32 36 32 32 33 31 31 30 31 31 31 32 32 31 32 32 33 34 39 48 48 64 40 41 52 35 36 41 31 33 33 31 33 33 31 33 33 59 42 42 32 34 34 32 34 34 45 46 60 40 51 57 39 61 61 39 61 61 39 60 60 39 60 60 39 60 60 39 60 60 39 60 60 39 59 59 39 59 59 39 59 59 39 59 59 39 59 59 38 59 59 38 58 58 38 58 58 38 58 58 38 58 58 38 58 58 38 58 58 38 57 57 38 57 57 38 57 57 38 57 57 38 57 57 38 57 57 38 56 56 38 56 56 37 56 56 37 56 56 37 56 56 37 56 56 37 56 56 37 55 55 37 55 55 37 55 55 37 55 55 37 55 55 37 55 55 37 55 55 37 54 54 37 54 54 37 54 54 37 54 54 37 54 54 36 54 54 36 54 54 36 53 53 36 53 53 36 53 53 36 53 53 36 53 53 36 53 53 36 53 53 36 52 52 36 52 52 36 52 52 36 52 52 36 52 52 36 52 52 36 52 52 36 52 52 36 51 51 59 72 98 83 92 141 103 108 178 122 123 212 124 124 205 120 120 193 115 115 181 115 116 191 140 144 243 165 168 255 170 171 255 167 167 255 161 161 242 157 157 230 151 151 218 145 145 204 137 137 189 129 129 174 119 119 159 110 110 143 127 129 198 139 140 224 153 154 251 154 154 243 151 151 233 149 149 224 145 145 214 141 141 203 135 135 192 129 129 180 123 123 167 115 115 155 108 108 142 100 100 129 93 93 116 85 85 103 76 76 90 68 68 76 53 53 57 41 41 42 25 25 25 25 25 25 25 25 25 25 25 25 25 25 25 25 25 25 25 25 25 25 25 25 25 25 25 25 25 25 31 31 31 34 40 40 33 46 46 33 46 46 33 46 46 33 46 46 33 46 46 33 46 46 33 46 46 
39 59 59 39 59 59 39 59 59 39 60 60 39 60 60 39 60 60 39 60 60 39 60 60 41 63 65 44 66 71 49 70 81 51 73 85 53 75 89 54 76 91 50 72 83 49 71 82 43 66 71 40 62 62 40 62 62 40 62 62 40 63 63 40 63 63 40 63 63 40 63 63 40 63 63 40 64 64 41 64 64 41 64 64 41 64 64 41 64 64 41 65 65 41 65 65 41 65 65 41 65 65 41 65 65 41 66 66 41 66 66 41 66 66 41 66 66 42 66 66 42 66 66 42 67 67 42 67 67 43 68 68 44 69 69 45 71 72 40 55 55 33 37 37 33 37 37 33 37 37 33 36 36 32 36 36 32 36 36 32 36 36 32 36 36 32 36 36 33 36 36 33 36 36 33 37 37 33 37 37 33 37 37 34 37 38 37 36 36 44 37 38 64 46 46 87 64 65 97 70 70 72 59 59 38 47 47 41 50 50 40 50 50 108 80 81 127 103 105 125 105 107 124 103 104 127 99 99 115 92 97 44 73 73 44 73 73 40 54 54 39 48 48 39 48 48 39 48 48 39 47 47 39 48 48 40 49 49 40 48 49 41 50 52 54 55 55 38 45 45 37 44 44 37 43 43 36 42 42 36 41 41 36 41 41 36 40 40 36 40 40 36 40 40 36 40 40 35 40 40 35 40 40 35 39 39 35 38 39 35 39 40 39 39 41 41 43 47 42 44 47 37 41 45 47 48 59 50 52 68 44 48 64 37 44 44 37 43 43 50 59 60 45 74 74 45 74 74 45 74 74 45 74 74 45 74 74 45 74 74 45 74 74 45 74 74 45 74 74 45 74 74 44 74 74 44 74 74 44 74 74 44 73 73 44 73 73 44 73 73 44 73 73 44 73 73 44 73 73 44 73 73 44 73 73 44 72 72 44 72 72 44 72 72 44 72 72 44 72 72 44 72 72 44 72 72 44 71 71 44 71 71 43 71 71 43 71 71 43 71 71 43 71 71 43 70 70 43 70 70 43 70 70 43 70 70 43 70 70 43 70 70 43 69 69 149 105 105 255 178 187 255 201 204 255 200 204 255 192 193 250 175 175 227 163 163 208 155 158 167 124 124 135 103 103 103 81 81 91 69 69 142 112 113 96 96 98 39 38 40 33 37 37 33 37 37 32 36 36 32 35 35 32 35 35 32 34 34 41 35 35 52 39 39 61 42 42 64 41 41 59 38 38 52 35 35 47 34 34 42 32 32 36 32 32 31 32 32 31 33 33 33 34 37 55 55 77 37 38 49 33 35 38 34 35 43 31 33 33 43 38 38 58 45 45 32 34 34 35 34 36 35 36 38 36 48 48 39 61 61 39 61 61 39 60 60 39 60 60 39 60 60 39 60 60 39 60 60 39 60 60 39 59 59 39 59 59 39 59 59 39 59 59 38 59 59 38 59 59 38 58 58 38 58 58 38 58 58 38 58 58 38 58 58 38 58 58 38 57 57 38 57 57 38 57 57 38 57 57 38 57 57 38 57 57 38 56 56 38 56 56 37 56 56 37 56 56 37 56 56 37 56 56 37 55 55 37 55 55 37 55 55 37 55 55 37 55 55 37 55 55 37 55 55 37 54 54 37 54 54 37 54 54 37 54 54 37 54 54 37 54 54 36 54 54 36 53 53 36 53 53 36 53 53 36 53 53 36 53 53 36 53 53 36 53 53 36 53 53 36 52 52 36 52 52 36 52 52 36 52 52 36 52 52 36 52 52 54 68 97 86 96 150 109 115 192 136 137 235 138 139 228 136 136 218 132 132 207 127 127 194 120 120 180 132 135 220 160 165 255 169 171 255 173 173 255 168 168 251 163 163 238 154 154 222 148 148 209 140 140 195 132 132 180 123 123 165 114 114 149 129 131 203 142 144 229 156 157 255 157 157 248 155 155 238 153 153 229 149 149 219 145 145 208 139 139 197 133 133 184 126 126 172 119 119 159 111 111 146 104 104 133 96 96 120 87 87 106 79 79 93 70 70 79 54 54 58 42 42 43 25 25 25 25 25 25 25 25 25 25 25 25 25 25 25 25 25 25 25 25 25 25 25 25 25 25 25 25 25 25 25 25 25 25 25 25 31 32 32 34 44 44 33 46 46 33 46 46 33 46 46 33 46 46 33 46 46 33 46 46 
39 59 59 39 59 59 39 60 60 39 60 60 39 60 60 39 60 60 39 60 60 39 60 60 39 61 61 39 61 61 39 61 61 42 64 68 43 65 69 43 65 70 40 62 62 40 62 62 40 62 62 40 62 62 40 62 62 40 63 63 40 63 63 40 63 63 40 63 63 40 63 63 40 64 64 41 64 64 41 64 64 41 64 64 41 64 64 41 65 65 41 65 65 41 65 65 41 65 65 41 65 65 41 66 66 41 66 66 41 66 66 41 66 66 42 66 66 42 67 67 42 67 67 45 70 71 45 71 71 47 73 73 47 73 73 50 76 77 49 76 76 38 48 48 33 38 38 33 37 37 33 37 37 33 37 37 33 37 37 33 37 37 33 37 37 33 37 37 33 37 37 33 37 37 33 37 37 33 38 38 34 38 38 37 37 37 37 33 33 48 36 36 68 51 51 86 63 63 79 62 62 62 53 53 99 71 75 168 96 99 191 121 127 197 127 132 255 161 162 255 171 173 255 173 174 255 186 187 255 163 163 196 130 130 178 109 109 112 92 95 41 55 55 40 49 49 42 51 52 41 49 49 39 48 48 47 54 54 39 49 49 40 50 50 40 49 49 46 47 47 38 45 45 37 44 44 37 43 43 37 42 42 36 42 42 36 41 41 36 41 41 36 41 41 36 40 41 36 38 41 36 38 42 36 38 43 36 37 44 37 38 46 37 38 47 53 47 57 44 44 57 47 46 59 46 49 65 51 55 70 38 44 44 37 43 43 41 60 60 43 68 68 45 75 75 45 75 75 45 75 75 45 74 74 45 74 74 45 74 74 45 74 74 45 74 74 45 74 74 45 74 74 45 74 74 45 74 74 44 74 74 44 74 74 44 73 73 44 73 73 44 73 73 44 73 73 44 73 73 44 73 73 44 73 73 44 73 73 44 72 72 44 72 72 44 72 72 44 72 72 44 72 72 44 72 72 44 72 72 44 71 71 44 71 71 43 71 71 43 71 71 43 71 71 43 71 71 43 70 70 43 70 70 43 70 70 43 70 70 43 70 70 43 70 70 179 106 106 255 161 163 255 176 179 255 177 177 247 168 168 213 151 151 194 143 147 176 134 140 128 98 98 96 76 76 63 53 53 68 53 53 47 40 40 122 118 120 34 39 39 36 39 40 33 37 37 33 36 36 32 36 36 32 35 35 32 35 35 58 43 43 81 51 51 83 55 55 80 54 54 73 49 49 64 43 43 55 36 36 49 34 34 44 33 33 37 31 31 32 32 34 31 33 33 45 46 61 43 44 60 34 36 40 40 41 49 35 34 34 51 43 43 39 35 35 32 35 35 37 40 44 45 51 61 38 55 55 39 61 61 39 61 61 39 61 61 39 60 60 39 60 60 39 60 60 39 60 60 39 60 60 39 60 60 39 59 59 39 59 59 39 59 59 39 59 59 38 59 59 38 58 58 38 58 58 38 58 58 38 58 58 38 58 58 38 58 58 38 57 57 38 57 57 38 57 57 38 57 57 38 57 57 38 57 57 38 57 57 38 56 56 37 56 56 37 56 56 37 56 56 37 56 56 37 56 56 37 55 55 37 55 55 37 55 55 37 55 55 37 55 55 37 55 55 37 55 55 37 54 54 37 54 54 37 54 54 37 54 54 37 54 54 36 54 54 36 54 54 36 53 53 36 53 53 36 53 53 36 53 53 36 53 53 36 53 53 36 53 53 36 53 53 36 52 52 36 52 52 36 52 52 36 52 52 59 72 102 92 101 156 118 123 202 146 147 246 147 147 238 145 145 229 141 141 217 136 136 204 128 128 190 120 120 175 148 151 254 165 169 255 170 171 255 173 173 255 173 172 250 163 163 234 154 154 218 143 143 200 135 135 186 127 127 170 117 117 155 139 140 221 143 145 233 162 164 255 162 162 254 158 158 243 156 156 234 153 153 224 148 148 213 143 143 201 136 136 189 130 130 177 122 122 164 115 115 151 107 107 137 99 99 124 90 90 110 81 81 96 73 73 82 63 63 68 43 43 44 25 25 25 25 25 25 25 25 25 25 25 25 25 25 25 25 25 25 25 25 25 25 25 25 25 25 25 25 25 25 25 25 25 25 25 25 25 25 25 25 25 25 33 35 35 33 46 46 33 46 46 33 46 46 33 46 46 33 46 46 33 46 46 
39 59 59 39 60 60 39 60 60 39 60 60 39 60 60 39 60 60 39 60 60 39 61 61 39 61 61 39 61 61 39 61 61 40 61 61 40 62 62 40 62 62 40 62 62 40 62 62 40 62 62 40 63 63 40 63 63 40 63 63 40 63 63 40 63 63 40 63 63 40 64 64 41 64 64 41 64 64 41 64 64 41 64 64 41 65 65 41 65 65 41 65 65 41 65 65 41 65 65 41 66 66 41 66 66 41 66 66 41 66 66 42 66 66 42 67 67 42 67 67 44 70 70 45 71 71 47 73 73 49 75 75 49 75 75 49 76 76 49 76 76 50 77 78 41 50 50 33 38 38 33 38 38 33 38 38 33 37 37 33 37 37 33 37 37 33 38 38 33 38 38 33 38 38 33 38 38 33 38 38 32 35 35 34 34 35 39 32 32 51 38 38 69 51 51 71 57 57 64 56 56 139 82 82 168 109 109 241 146 148 255 195 196 255 225 234 255 219 226 255 221 221 255 235 235 255 224 224 255 229 230 255 212 212 255 190 190 255 153 153 168 107 108 46 71 71 46 66 66 44 58 59 42 56 56 42 56 56 41 56 56 41 55 55 43 57 57 47 65 65 38 47 47 38 45 45 37 44 44 37 43 43 37 43 43 37 42 42 36 42 42 38 42 45 38 41 48 38 40 49 39 39 51 40 40 54 42 42 57 44 44 60 46 46 63 47 47 65 52 49 69 55 53 77 47 48 71 40 47 48 37 43 43 41 60 60 45 66 66 45 75 75 45 75 75 45 75 75 45 75 75 45 75 75 45 75 75 45 74 74 45 74 74 45 74 74 45 74 74 45 74 74 45 74 74 45 74 74 45 74 74 45 74 74 44 74 74 44 74 74 44 73 73 44 73 73 44 73 73 44 73 73 44 73 73 44 73 73 44 73 73 44 72 72 44 72 72 44 72 72 44 72 72 44 72 72 44 72 72 44 72 72 44 71 71 43 71 71 43 71 71 43 71 71 43 71 71 43 71 71 43 70 70 43 70 70 43 70 70 43 70 70 43 70 70 203 107 107 235 148 148 235 156 157 236 159 159 203 142 142 175 126 126 149 110 110 139 112 122 88 71 71 58 50 50 38 35 35 64 41 42 33 30 30 98 93 97 34 39 39 54 54 66 32 36 36 33 37 37 33 36 36 32 36 36 32 35 35 75 50 50 95 62 62 95 65 65 92 64 64 85 60 60 76 53 53 66 45 45 54 36 36 48 34 34 43 33 33 39 34 36 32 34 34 32 34 34 40 42 48 40 42 49 37 34 34 36 35 35 58 46 46 32 35 35 32 34 34 36 36 38 36 49 49 39 61 61 39 61 61 39 61 61 39 61 61 39 61 61 39 60 60 39 60 60 39 60 60 39 60 60 39 60 60 39 59 59 39 59 59 39 59 59 39 59 59 39 59 59 38 59 59 38 58 58 38 58 58 38 58 58 38 58 58 38 58 58 38 58 58 38 57 57 38 57 57 38 57 57 38 57 57 38 57 57 38 57 57 38 56 56 38 56 56 37 56 56 37 56 56 37 56 56 37 56 56 37 56 56 37 55 55 37 55 55 37 55 55 37 55 55 37 55 55 37 55 55 37 55 55 37 54 54 37 54 54 37 54 54 37 54 54 37 54 54 36 54 54 36 54 54 36 53 53 36 53 53 36 53 53 36 53 53 36 53 53 36 53 53 36 53 53 36 53 53 36 52 52 36 52 52 60 73 103 94 104 160 145 147 255 154 154 255 154 154 247 152 152 238 149 149 226 143 143 213 136 136 199 128 128 184 135 137 226 153 159 255 166 170 255 181 179 255 195 183 255 166 168 241 167 164 233 168 164 223 138 138 191 130 130 176 121 121 160 121 123 178 149 151 246 163 165 255 163 164 255 160 160 247 159 159 238 156 156 229 151 151 218 146 146 206 140 140 194 133 133 181 126 126 168 118 118 155 110 110 141 102 102 128 93 93 114 84 84 100 75 75 86 66 66 71 44 44 46 32 32 33 25 25 25 25 25 25 25 25 25 25 25 25 25 25 25 25 25 25 25 25 25 25 25 25 25 25 25 25 25 25 25 25 25 25 25 25 25 25 25 25 25 25 27 27 27 34 36 36 33 46 46 33 46 46 33 46 46 33 46 46 33 46 46 
39 60 60 39 60 60 39 60 60 39 60 60 39 60 60 39 61 61 39 61 61 39 61 61 39 61 61 39 61 61 40 61 61 40 62 62 40 62 62 40 62 62 40 62 62 40 62 62 40 63 63 40 63 63 40 63 63 40 63 63 40 63 63 40 63 63 40 64 64 41 64 64 41 64 64 41 64 64 41 64 64 41 65 65 41 65 65 41 65 65 41 65 65 41 65 65 41 66 66 41 66 66 41 66 66 41 66 66 42 66 66 42 67 67 42 67 67 42 67 67 45 71 71 50 76 77 49 75 76 49 76 76 49 76 76 49 76 76 49 76 76 50 77 77 49 77 77 45 60 60 35 39 39 33 38 38 33 38 38 33 38 38 33 38 38 33 38 38 33 38 38 33 38 38 33 38 38 33 39 39 32 34 34 34 32 32 41 33 33 52 39 39 59 48 49 58 52 52 138 89 89 211 127 131 255 176 181 255 190 190 255 204 204 255 233 233 255 223 223 255 230 230 255 232 232 255 242 242 255 230 230 255 226 226 255 217 217 255 202 202 255 179 179 234 139 141 98 88 88 51 76 78 48 73 73 48 72 72 46 70 70 43 68 68 44 68 68 45 75 75 45 75 75 38 48 48 40 48 48 37 45 45 37 44 44 37 43 43 37 43 43 40 44 54 44 45 61 46 46 65 48 48 68 52 52 72 54 54 75 57 57 79 60 60 83 61 61 85 60 60 85 69 64 91 46 50 63 38 43 43 42 61 61 43 66 66 45 75 75 45 75 75 45 75 75 45 75 75 45 75 75 45 75 75 45 75 75 45 75 75 45 75 75 45 74 74 45 74 74 45 74 74 45 74 74 45 74 74 45 74 74 45 74 74 45 74 74 44 74 74 44 74 74 44 73 73 44 73 73 44 73 73 44 73 73 44 73 73 44 73 73 44 73 73 44 72 72 44 72 72 44 72 72 44 72 72 44 72 72 110 88 88 113 92 92 160 95 95 153 94 94 99 85 85 92 81 81 43 71 71 43 70 70 43 70 70 43 70 70 43 70 70 43 70 70 194 99 99 250 155 155 217 145 145 205 141 141 165 119 119 136 101 101 109 84 84 92 77 83 52 45 46 35 33 33 25 25 25 75 49 49 25 25 25 25 25 25 34 38 38 41 45 50 32 32 32 33 36 36 33 37 37 33 36 36 32 36 36 92 57 57 102 68 68 103 71 71 100 70 70 94 67 67 86 61 61 75 53 53 63 43 43 51 34 34 48 35 36 49 38 39 32 34 35 34 36 37 35 34 35 38 35 36 61 46 46 43 38 38 32 35 35 32 35 35 35 38 42 36 49 49 40 62 62 40 61 61 39 61 61 39 61 61 39 61 61 39 61 61 39 60 60 39 60 60 39 60 60 39 60 60 39 60 60 39 60 60 39 59 59 39 59 59 39 59 59 39 59 59 38 59 59 38 59 59 38 58 58 38 58 58 38 58 58 38 58 58 38 58 58 38 58 58 38 57 57 38 57 57 38 57 57 38 57 57 38 57 57 38 57 57 38 56 56 38 56 56 37 56 56 37 56 56 37 56 56 37 56 56 37 56 56 37 55 55 37 55 55 37 55 55 37 55 55 37 55 55 37 55 55 37 54 54 37 54 54 37 54 54 37 54 54 37 54 54 37 54 54 36 54 54 36 54 54 36 53 53 36 53 53 36 53 53 36 53 53 36 53 53 36 53 53 36 53 53 36 52 52 36 52 52 95 105 162 151 153 255 160 160 255 159 159 254 158 158 245 154 154 234 149 149 221 142 142 207 134 134 192 125 125 176 131 134 212 157 164 255 178 178 255 209 197 255 176 178 255 166 166 239 169 168 231 144 144 199 136 136 185 124 124 166 114 114 150 134 137 208 161 165 255 168 169 255 165 166 255 161 161 242 158 158 233 154 154 222 149 149 211 143 143 198 136 136 186 129 129 173 121 121 159 113 113 146 105 105 132 96 96 118 87 87 104 78 78 89 68 68 75 45 45 47 33 33 33 25 25 25 25 25 25 25 25 25 25 25 25 25 25 25 25 25 25 25 25 25 25 25 25 25 25 25 25 25 25 25 25 25 25 25 25 25 25 25 25 25 25 25 25 25 25 25 25 33 34 34 34 43 43 33 46 46 33 46 46 33 46 46 33 46 46 
39 60 60 39 60 60 39 60 60 39 60 60 39 61 61 39 61 61 39 61 61 39 61 61 40 61 61 40 61 61 40 62 62 40 62 62 40 62 62 40 62 62 40 62 62 40 63 63 40 63 63 40 63 63 40 63 63 40 63 63 40 64 64 40 64 64 41 64 64 41 64 64 41 64 64 41 64 64 41 65 65 41 65 65 41 65 65 41 65 65 41 65 65 41 66 66 41 66 66 41 66 66 41 66 66 42 66 66 42 67 67 42 67 67 42 67 67 46 71 72 49 75 76 49 75 75 49 75 75 49 76 76 49 76 76 49 76 76 49 76 76 50 77 77 50 77 77 50 77 77 46 68 68 42 51 51 36 40 40 34 39 39 33 39 39 33 39 39 34 39 39 34 39 39 34 39 39 34 39 39 32 34 34 35 35 35 44 45 45 47 51 51 47 53 53 120 81 81 181 115 115 255 159 159 255 179 181 255 193 194 255 203 204 255 219 220 255 215 215 255 219 219 255 223 223 255 225 225 255 226 226 255 223 223 255 218 218 255 218 222 255 196 196 255 186 193 229 146 153 91 85 85 52 82 82 51 82 82 51 81 81 46 76 76 45 75 75 45 75 75 45 75 75 45 75 75 43 63 63 38 46 46 38 45 45 37 44 44 37 44 44 47 49 71 54 54 78 58 58 82 63 63 87 67 67 92 69 69 95 72 72 99 74 74 102 73 73 101 70 70 100 58 60 83 47 56 71 42 61 61 43 65 65 45 75 75 45 75 75 45 75 75 45 75 75 45 75 75 45 75 75 45 75 75 45 75 75 45 75 75 45 75 75 45 75 75 45 75 75 45 74 74 45 74 74 45 74 74 45 74 74 45 74 74 45 74 74 45 74 74 44 74 74 44 74 74 44 73 73 44 73 73 44 73 73 44 73 73 44 73 73 44 73 73 44 73 73 44 72 72 44 72 72 119 96 96 196 124 124 255 144 144 255 154 154 255 151 151 255 151 151 227 135 135 205 121 121 178 102 102 113 79 79 68 69 69 43 70 70 43 70 70 43 70 70 104 79 79 220 138 138 215 140 140 188 127 129 129 98 98 102 80 80 73 60 60 57 52 63 47 45 57 25 25 25 25 25 25 66 44 44 25 25 25 50 50 68 26 27 27 34 39 39 40 42 46 33 33 34 33 37 37 33 37 37 33 36 36 89 53 53 105 70 70 106 74 74 104 74 74 100 71 71 92 65 65 82 58 58 71 49 49 57 38 38 50 35 36 45 34 35 44 34 34 56 44 44 58 44 44 36 36 37 58 46 46 42 36 36 32 35 35 35 38 40 39 50 53 38 56 56 40 62 62 40 61 61 40 61 61 39 61 61 39 61 61 39 61 61 39 61 61 39 60 60 39 60 60 39 60 60 39 60 60 39 60 60 39 59 59 39 59 59 39 59 59 39 59 59 39 59 59 38 59 59 38 58 58 38 58 58 38 58 58 38 58 58 38 58 58 38 58 58 38 57 57 38 57 57 38 57 57 38 57 57 38 57 57 38 57 57 38 57 57 38 56 56 37 56 56 37 56 56 37 56 56 37 56 56 37 56 56 37 55 55 37 55 55 37 55 55 37 55 55 37 55 55 37 55 55 37 55 55 37 54 54 37 54 54 37 54 54 37 54 54 37 54 54 36 54 54 36 54 54 36 53 53 36 53 53 36 53 53 36 53 53 36 53 53 36 53 53 36 53 53 36 53 53 92 103 162 151 154 255 162 163 255 162 162 255 162 162 251 159 159 241 153 153 228 147 147 214 139 139 199 130 130 183 120 120 166 130 133 206 158 166 255 169 171 255 179 181 255 188 175 249 165 166 233 149 150 208 154 154 205 134 134 179 118 118 155 139 141 222 163 167 255 167 170 255 170 170 255 165 165 250 160 160 237 156 156 226 151 151 215 145 145 203 139 139 190 132 132 177 124 124 164 116 116 150 108 108 136 99 99 122 90 90 108 80 80 93 71 71 79 54 54 57 41 41 42 25 25 25 25 25 25 25 25 25 25 25 25 25 25 25 25 25 25 25 25 25 25 25 25 25 25 25 25 25 25 25 25 25 25 25 25 25 25 25 25 25 25 25 25 25 25 25 25 25 25 25 27 27 27 34 36 36 34 46 46 33 46 46 33 46 46 33 46 46 
39 60 60 39 60 60 39 60 60 39 61 61 39 61 61 39 61 61 39 61 61 40 61 61 40 61 61 40 62 62 40 62 62 40 62 62 40 62 62 40 62 62 40 63 63 40 63 63 40 63 63 40 63 63 40 63 63 40 64 64 40 64 64 41 64 64 41 64 64 41 64 64 41 64 64 41 65 65 41 65 65 41 65 65 41 65 65 41 65 65 41 66 66 41 66 66 41 66 66 41 66 66 42 66 66 42 67 67 42 67 67 42 67 67 42 67 67 45 71 71 49 75 75 49 75 75 49 76 76 49 76 76 49 76 76 49 76 76 50 77 77 50 77 77 50 77 77 51 78 78 53 79 79 57 81 81 55 72 72 50 61 61 42 50 50 36 47 47 36 47 47 38 49 49 38 49 49 38 50 50 38 48 48 42 58 58 46 60 61 46 70 70 101 79 79 154 108 109 214 135 135 233 155 155 248 169 171 255 180 181 255 187 187 255 193 193 255 197 197 255 202 202 255 206 206 255 209 209 255 210 210 255 210 210 255 215 217 255 208 209 255 205 209 255 192 196 255 178 185 241 131 133 52 82 82 52 82 82 52 82 82 51 81 81 46 76 76 45 75 75 45 75 75 45 75 75 45 75 75 44 69 69 57 59 59 40 53 53 38 46 46 40 46 52 55 58 79 70 69 97 71 72 100 75 76 105 79 79 110 80 80 112 79 79 112 67 69 93 58 68 83 52 63 80 43 60 60 61 77 77 45 75 75 45 75 75 45 75 75 45 75 75 45 75 75 45 75 75 45 75 75 45 75 75 45 75 75 45 75 75 45 75 75 45 75 75 45 75 75 45 75 75 45 74 74 45 74 74 45 74 74 45 74 74 45 74 74 45 74 74 45 74 74 44 74 74 44 74 74 44 73 73 44 73 73 44 73 73 44 73 73 44 73 73 44 73 73 111 89 89 198 126 126 255 158 158 255 201 204 255 209 209 255 211 211 255 203 203 255 192 192 255 178 178 255 159 159 239 136 136 204 111 111 136 85 85 64 70 70 43 70 70 43 70 70 59 67 67 171 108 108 165 113 113 141 98 98 91 74 74 67 59 59 48 46 46 33 34 34 44 45 53 40 40 50 28 29 29 31 30 35 61 44 44 57 48 60 54 44 48 39 41 50 35 40 40 33 37 37 37 40 43 33 37 37 33 37 37 33 36 36 98 63 63 109 74 75 103 72 72 101 71 71 94 66 66 84 59 59 73 51 51 62 42 43 52 36 36 43 35 35 53 40 40 53 40 41 65 50 50 43 38 38 34 36 36 32 35 35 36 39 41 37 44 47 36 50 50 40 62 62 40 62 62 40 62 62 40 61 61 39 61 61 39 61 61 39 61 61 39 61 61 39 60 60 39 60 60 39 60 60 39 60 60 39 60 60 39 60 60 39 59 59 39 59 59 39 59 59 39 59 59 38 59 59 38 59 59 38 58 58 38 58 58 38 58 58 38 58 58 38 58 58 38 58 58 38 57 57 38 57 57 38 57 57 38 57 57 38 57 57 38 57 57 38 56 56 38 56 56 37 56 56 37 56 56 37 56 56 37 56 56 37 56 56 37 55 55 37 55 55 37 55 55 37 55 55 37 55 55 37 55 55 37 55 55 37 54 54 37 54 54 37 54 54 37 54 54 37 54 54 36 54 54 36 54 54 36 53 53 36 53 53 36 53 53 36 53 53 36 53 53 36 53 53 80 91 152 124 132 218 165 167 255 169 169 255 166 166 255 164 164 248 157 157 234 151 151 220 143 143 205 135 135 190 125 125 173 115 115 156 138 142 232 157 165 255 183 178 255 176 176 255 181 176 255 153 154 215 146 146 202 140 139 186 124 124 164 111 111 145 133 136 205 163 166 255 171 172 255 169 169 255 166 166 246 157 157 230 153 153 219 148 148 207 141 141 195 134 134 182 127 127 169 119 119 155 111 111 141 102 102 127 93 93 112 83 83 98 74 74 83 64 64 68 42 42 44 25 25 25 25 25 25 25 25 25 25 25 25 25 25 25 25 25 25 25 25 25 25 25 25 25 25 25 25 25 25 25 25 25 25 25 25 25 25 25 25 25 25 25 25 25 25 25 25 25 25 25 25 25 25 25 25 25 34 35 35 34 46 46 34 46 46 33 46 46 33 46 46 
39 60 60 39 60 60 39 61 61 39 61 61 39 61 61 39 61 61 40 61 61 40 61 61 40 62 62 40 62 62 40 62 62 40 62 62 40 62 62 40 63 63 40 63 63 40 63 63 40 63 63 40 63 63 40 64 64 40 64 64 41 64 64 41 64 64 41 64 64 41 64 64 41 65 65 41 65 65 41 65 65 41 65 65 41 65 65 41 66 66 41 66 66 41 66 66 41 66 66 42 66 66 42 67 67 42 67 67 42 67 67 42 67 67 42 67 67 49 75 76 49 75 75 49 76 76 49 76 76 49 76 76 49 76 76 49 77 77 49 77 77 50 77 77 53 79 79 57 81 81 62 84 84 67 88 88 71 88 88 73 88 88 65 75 75 41 63 63 41 63 63 47 67 67 51 71 71 48 69 69 47 70 70 50 79 79 51 80 80 66 78 78 97 88 88 168 111 111 186 128 128 199 140 140 209 150 150 219 159 160 225 164 164 231 168 168 239 174 174 245 179 179 251 183 183 255 186 186 255 188 188 255 197 198 255 196 198 255 196 197 255 186 187 255 178 178 254 165 165 241 149 149 163 105 105 52 83 83 52 83 83 51 82 82 50 80 80 45 75 75 45 75 75 45 75 75 45 75 75 45 75 75 45 75 75 43 68 68 41 58 58 40 50 50 45 57 65 54 64 80 84 76 100 84 78 102 70 78 104 62 72 89 60 68 85 59 75 92 49 65 74 43 66 66 45 76 76 45 76 76 45 76 76 45 75 75 45 75 75 45 75 75 45 75 75 45 75 75 45 75 75 45 75 75 45 75 75 45 75 75 45 75 75 45 75 75 45 75 75 45 75 75 45 75 75 45 74 74 45 74 74 45 74 74 45 74 74 45 74 74 45 74 74 44 74 74 44 74 74 44 73 73 44 73 73 44 73 73 44 73 73 44 73 73 110 90 90 201 133 133 255 190 190 255 220 223 255 232 233 255 233 235 255 235 235 255 217 217 255 203 203 255 187 187 255 168 168 236 147 147 220 133 133 183 109 109 141 79 79 79 56 56 43 70 70 43 70 70 120 76 76 116 81 81 90 68 68 58 52 52 44 46 46 33 37 37 32 36 36 32 35 35 50 49 64 40 39 47 43 44 55 32 33 33 44 44 54 42 42 54 34 37 41 33 36 36 34 39 39 47 49 60 37 38 42 32 35 35 33 37 37 47 41 41 81 57 57 96 65 66 94 65 65 89 62 62 81 56 56 72 48 48 60 40 41 49 37 37 44 38 38 47 41 41 41 37 37 35 38 38 33 36 36 33 35 37 38 41 46 41 53 56 38 56 56 40 62 62 40 62 62 40 62 62 40 62 62 40 61 61 39 61 61 39 61 61 39 61 61 39 61 61 39 61 61 39 60 60 39 60 60 39 60 60 39 60 60 39 60 60 39 59 59 39 59 59 39 59 59 39 59 59 39 59 59 38 59 59 38 58 58 38 58 58 38 58 58 38 58 58 38 58 58 38 58 58 38 57 57 38 57 57 38 57 57 38 57 57 38 57 57 38 57 57 38 57 57 38 56 56 37 56 56 37 56 56 37 56 56 37 56 56 37 56 56 37 55 55 37 55 55 37 55 55 37 55 55 37 55 55 37 55 55 37 55 55 37 54 54 37 54 54 37 54 54 37 54 54 37 54 54 37 54 54 36 54 54 36 54 54 36 53 53 36 53 53 36 53 53 36 53 53 36 53 53 95 106 164 161 165 255 173 174 255 171 171 255 171 171 255 165 165 244 156 156 227 147 147 211 139 139 196 129 129 179 119 119 162 109 109 144 151 155 255 153 161 250 166 164 245 181 175 247 167 165 230 152 154 213 140 141 191 132 133 176 135 131 167 134 136 215 164 168 255 167 169 255 172 171 255 170 170 252 164 164 239 155 155 223 150 150 211 144 144 199 137 137 186 130 130 173 122 122 159 114 114 146 105 105 131 96 96 117 86 86 102 77 77 87 67 67 72 44 44 46 25 25 25 25 25 25 25 25 25 25 25 25 25 25 25 25 25 25 25 25 25 25 25 25 25 25 25 25 25 25 25 25 25 25 25 25 25 25 25 25 25 25 25 25 25 25 25 25 25 25 25 25 25 25 25 25 25 25 25 25 33 34 34 34 40 40 34 46 46 34 46 46 33 46 46 
39 60 60 39 61 61 39 61 61 39 61 61 39 61 61 40 61 61 40 61 61 40 62 62 40 62 62 40 62 62 40 62 62 40 62 62 40 63 63 40 63 63 40 63 63 40 63 63 40 63 63 40 64 64 40 64 64 41 64 64 41 64 64 41 64 64 41 64 64 41 65 65 41 65 65 41 65 65 41 65 65 41 65 65 43 67 67 44 69 69 46 71 72 46 71 72 44 69 69 43 68 69 43 68 68 42 67 67 42 67 67 42 67 67 43 69 69 47 73 73 49 75 75 49 76 76 49 76 76 49 76 76 49 76 76 49 77 77 51 78 78 55 81 81 60 84 84 67 88 88 73 92 92 79 95 95 82 96 96 85 96 96 80 90 90 43 71 71 43 71 71 48 75 75 60 83 83 57 81 81 49 78 78 51 79 79 54 81 81 77 76 76 124 85 85 140 101 101 152 112 112 161 120 120 168 126 126 175 132 132 181 136 136 188 142 142 195 147 147 201 152 152 207 156 156 212 159 159 223 168 171 237 180 187 238 176 179 226 165 165 226 163 163 222 156 156 217 148 148 211 139 139 198 126 126 52 83 83 52 83 83 52 82 82 51 80 80 46 77 77 45 75 75 45 75 75 45 75 75 45 76 76 45 76 76 45 76 76 45 76 76 45 76 76 43 66 66 44 69 70 47 71 71 72 78 87 82 92 126 90 102 135 104 114 161 106 121 166 111 122 166 101 118 160 74 96 115 77 99 122 45 76 76 45 76 76 45 76 76 45 75 75 45 75 75 45 75 75 45 75 75 45 75 75 45 75 75 45 75 75 45 75 75 45 75 75 45 75 75 45 75 75 45 75 75 45 75 75 45 74 74 45 74 74 45 74 74 45 74 74 45 74 74 45 74 74 44 74 74 44 74 74 44 73 73 44 73 73 44 73 73 101 83 83 197 132 136 255 191 195 255 230 230 255 235 235 255 234 234 255 238 238 255 234 235 255 215 215 255 199 199 255 182 182 246 163 163 217 143 143 221 144 144 200 130 130 157 101 102 100 61 61 51 57 57 43 70 70 59 58 58 68 52 52 52 43 43 37 36 36 33 38 38 33 38 38 33 37 37 33 37 37 34 38 41 34 37 39 48 49 64 37 39 46 36 38 45 44 44 53 36 38 38 32 36 36 33 37 37 34 39 39 43 46 53 33 34 35 32 35 35 33 37 37 45 40 40 60 46 46 71 49 49 70 50 50 64 46 46 58 42 42 46 38 38 38 36 36 34 38 38 34 38 38 33 36 36 33 35 35 33 36 36 34 43 43 37 50 50 38 56 56 40 62 62 40 62 62 40 62 62 40 62 62 40 62 62 40 62 62 40 61 61 39 61 61 39 61 61 39 61 61 39 61 61 39 60 60 39 60 60 39 60 60 39 60 60 39 60 60 39 60 60 39 59 59 39 59 59 39 59 59 39 59 59 38 59 59 38 59 59 38 58 58 38 58 58 38 58 58 38 58 58 38 58 58 38 58 58 38 57 57 38 57 57 38 57 57 38 57 57 38 57 57 38 57 57 38 56 56 38 56 56 37 56 56 37 56 56 37 56 56 37 56 56 37 56 56 37 55 55 37 55 55 37 55 55 37 55 55 37 55 55 37 55 55 37 55 55 37 54 54 37 54 54 37 54 54 37 54 54 37 54 54 36 54 54 36 54 54 36 53 53 36 53 53 36 53 53 36 53 53 60 74 103 145 151 255 166 169 255 172 173 255 173 174 255 173 173 255 165 165 239 154 154 220 142 142 201 133 133 185 123 123 168 113 113 151 101 101 132 154 157 255 149 157 241 153 156 232 182 173 241 150 152 212 152 155 214 133 135 181 143 137 176 156 144 176 137 140 208 160 165 255 168 169 255 171 172 255 172 171 249 161 161 232 151 151 215 146 146 203 139 139 191 132 132 178 125 125 164 116 116 150 108 108 136 99 99 122 90 90 107 80 80 92 70 70 77 45 45 48 33 33 33 25 25 25 25 25 25 25 25 25 25 25 25 25 25 25 25 25 25 25 25 25 25 25 25 25 25 25 25 25 25 25 25 25 25 25 25 25 25 25 25 25 25 25 25 25 25 25 25 25 25 25 25 25 25 25 25 25 25 25 25 33 34 34 34 37 37 34 46 46 34 46 46 34 46 46 
39 61 61 39 61 61 39 61 61 39 61 61 40 61 61 40 61 61 40 62 62 40 62 62 40 62 62 40 62 62 40 62 62 40 63 63 40 63 63 40 63 63 40 63 63 40 63 63 40 64 64 40 64 64 41 64 64 41 64 64 41 64 64 41 64 64 41 65 65 41 65 65 41 65 65 41 65 65 43 67 68 44 69 69 46 71 71 46 72 72 48 73 73 50 75 77 48 73 73 47 72 72 47 72 73 45 70 70 42 67 67 42 68 68 42 68 68 48 74 74 48 74 74 49 76 76 49 76 76 49 76 76 49 77 77 51 78 78 56 81 81 63 86 86 71 91 91 78 96 96 85 100 100 89 102 102 95 105 105 93 101 101 90 95 95 58 76 77 43 71 71 44 71 71 61 84 84 63 85 85 51 78 78 55 81 81 62 85 85 69 75 75 95 72 72 106 84 84 113 89 89 118 93 93 125 99 99 129 102 102 136 108 108 142 113 113 149 117 117 155 122 122 160 125 125 165 129 129 178 140 143 188 148 151 180 138 138 181 136 136 182 136 136 183 134 134 181 129 129 179 125 125 175 119 119 154 97 97 57 85 85 57 85 85 56 83 83 55 81 81 45 75 75 45 76 76 45 76 76 45 76 76 45 76 76 45 76 76 45 76 76 45 76 76 45 76 76 74 97 123 101 119 162 109 124 167 137 147 211 141 149 211 141 149 207 167 167 247 166 165 241 169 170 250 133 142 193 140 145 205 134 138 191 98 114 149 70 94 112 45 76 76 45 75 75 45 75 75 45 75 75 45 75 75 45 75 75 45 75 75 45 75 75 45 75 75 45 75 75 45 75 75 45 75 75 45 75 75 45 74 74 45 74 74 45 74 74 45 74 74 45 74 74 45 74 74 44 74 74 44 74 74 44 73 73 44 73 73 44 73 73 175 115 115 255 171 171 255 213 213 255 228 229 255 237 237 255 230 230 255 232 233 255 220 220 255 204 204 255 186 186 246 169 169 218 149 149 189 129 129 189 128 128 187 129 129 148 103 103 103 71 71 52 40 40 43 70 70 43 70 70 39 35 35 33 32 33 32 32 33 34 39 39 33 38 38 33 38 38 33 38 38 33 38 38 33 37 37 36 39 41 34 36 37 34 38 39 34 38 38 40 41 41 33 37 37 33 37 37 33 37 37 104 80 80 106 84 86 167 118 121 164 118 118 159 118 118 155 115 115 160 113 113 157 111 111 95 73 74 91 69 70 33 36 36 33 37 37 32 35 35 38 41 43 33 35 35 35 44 44 38 50 52 37 50 50 38 56 56 40 63 63 40 62 62 40 62 62 40 62 62 40 62 62 40 62 62 40 62 62 40 61 61 39 61 61 39 61 61 39 61 61 39 61 61 39 60 60 39 60 60 39 60 60 39 60 60 39 60 60 39 60 60 39 59 59 39 59 59 39 59 59 39 59 59 39 59 59 38 59 59 38 58 58 38 58 58 38 58 58 38 58 58 38 58 58 38 58 58 38 57 57 38 57 57 38 57 57 38 57 57 38 57 57 38 57 57 38 57 57 38 56 56 37 56 56 37 56 56 37 56 56 37 56 56 37 56 56 37 55 55 37 55 55 37 55 55 37 55 55 37 55 55 37 55 55 37 55 55 37 54 54 37 54 54 37 54 54 37 54 54 37 54 54 37 54 54 36 54 54 36 54 54 36 53 53 36 53 53 36 53 53 90 101 158 158 165 255 168 169 255 171 172 255 186 180 255 168 166 241 172 172 240 152 152 213 140 140 194 127 127 174 116 116 156 105 105 138 93 93 120 149 151 255 143 151 231 150 158 231 148 152 218 143 151 207 153 150 207 128 133 174 119 123 158 120 120 150 147 151 242 164 167 255 174 176 255 174 171 255 168 167 240 160 160 226 153 153 213 141 141 195 135 135 182 127 127 169 119 119 155 111 111 141 102 102 126 93 93 112 83 83 97 73 73 81 55 55 59 42 42 42 25 25 25 25 25 25 25 25 25 25 25 25 25 25 25 25 25 25 25 25 25 25 25 25 25 25 25 25 25 25 25 25 25 25 25 25 25 25 25 25 25 25 25 25 25 25 25 25 25 25 25 25 25 25 25 25 25 25 25 25 25 25 25 33 33 33 34 36 36 34 46 46 34 46 46 34 46 46 
39 61 61 39 61 61 39 61 61 40 61 61 40 61 61 40 62 62 40 62 62 40 62 62 40 62 62 40 62 62 40 63 63 40 63 63 40 63 63 40 63 63 40 63 63 40 63 63 40 64 64 41 64 64 41 64 64 41 64 64 41 64 64 41 65 65 41 65 65 41 65 65 41 65 65 44 68 68 46 70 70 49 74 75 48 73 73 48 74 74 48 74 74 48 74 74 49 75 75 48 74 74 49 75 75 50 76 77 48 73 74 44 69 69 42 68 68 49 75 75 48 74 74 48 75 75 49 75 75 49 76 76 52 77 77 57 81 81 65 86 86 73 92 92 82 98 98 89 103 103 96 107 108 99 107 107 109 113 113 107 111 111 95 98 98 61 77 77 44 71 71 44 71 71 50 76 76 62 84 84 55 80 80 63 85 85 61 77 77 57 51 51 56 48 48 64 56 56 68 59 59 71 61 61 74 63 63 84 73 73 90 77 77 95 81 81 101 85 85 106 89 89 112 93 93 117 97 97 132 110 115 142 114 114 139 111 111 147 112 112 146 111 111 140 108 108 141 106 106 143 106 106 143 105 105 135 96 96 67 91 91 68 91 91 67 89 89 63 84 84 45 76 76 45 76 76 45 76 76 45 76 76 45 76 76 45 76 76 45 76 76 45 76 76 99 117 160 103 119 154 132 141 195 164 165 238 167 168 237 166 166 232 164 164 225 161 161 219 170 165 222 164 160 214 156 157 209 160 157 209 158 158 218 152 150 209 117 125 167 92 110 139 67 92 108 45 75 75 45 75 75 45 75 75 45 75 75 45 75 75 45 75 75 45 75 75 45 75 75 45 75 75 45 75 75 45 75 75 45 75 75 45 74 74 45 74 74 45 74 74 45 74 74 45 74 74 45 74 74 44 74 74 44 74 74 44 73 73 96 85 85 236 139 146 255 192 193 255 222 222 255 233 234 255 230 230 255 217 217 255 215 216 255 201 201 255 183 183 238 167 167 211 149 149 183 130 130 173 120 120 145 101 101 142 102 103 103 76 76 70 54 54 42 36 36 33 37 37 43 70 70 40 60 60 32 32 32 32 33 34 32 33 33 33 39 39 34 39 40 35 40 40 34 39 39 34 39 40 34 38 38 35 39 39 35 39 39 34 39 39 33 38 38 107 80 80 179 123 123 174 127 127 239 166 166 232 167 167 255 201 201 255 202 202 255 198 198 255 194 194 253 188 188 244 181 181 179 141 141 173 136 136 121 101 102 79 71 75 43 50 56 35 42 43 42 54 58 38 51 53 38 57 57 40 63 63 40 63 63 40 63 63 40 63 63 40 62 62 40 62 62 40 62 62 40 62 62 40 62 62 40 61 61 40 61 61 39 61 61 39 61 61 39 61 61 39 61 61 39 60 60 39 60 60 39 60 60 39 60 60 39 60 60 39 60 60 39 59 59 39 59 59 39 59 59 39 59 59 38 59 59 38 59 59 38 58 58 38 58 58 38 58 58 38 58 58 38 58 58 38 58 58 38 57 57 38 57 57 38 57 57 38 57 57 38 57 57 38 57 57 38 56 56 38 56 56 37 56 56 37 56 56 37 56 56 37 56 56 37 56 56 37 55 55 37 55 55 37 55 55 37 55 55 37 55 55 37 55 55 37 55 55 37 54 54 37 54 54 37 54 54 37 54 54 37 54 54 36 54 54 36 54 54 36 53 53 36 53 53 36 53 53 110 119 201 161 167 255 177 177 255 193 182 255 190 183 255 160 160 233 154 154 218 167 161 218 149 144 193 120 120 162 109 109 144 97 97 125 85 85 106 129 130 210 137 144 220 143 151 218 143 151 212 144 149 206 145 142 191 120 123 161 113 118 149 120 123 174 151 158 255 182 181 255 175 180 255 233 191 255 164 165 236 156 156 218 150 150 206 137 137 186 130 130 173 122 122 159 114 114 145 105 105 131 96 96 116 86 86 101 76 76 86 66 66 71 43 43 45 25 25 25 25 25 25 25 25 25 25 25 25 25 25 25 25 25 25 25 25 25 25 25 25 25 25 25 25 25 25 25 25 25 25 25 25 25 25 25 25 25 25 25 25 25 25 25 25 25 25 25 25 25 25 25 25 25 25 25 25 25 25 25 25 25 25 33 34 34 34 36 36 34 47 47 34 46 46 34 46 46 
39 61 61 39 61 61 39 61 61 40 61 61 40 62 62 40 62 62 40 62 62 40 62 62 40 62 62 40 63 63 40 63 63 40 63 63 40 63 63 40 63 63 40 63 63 40 64 64 41 64 64 41 64 64 41 64 64 41 64 64 41 65 65 41 65 65 41 65 65 41 65 65 44 68 68 46 70 70 48 73 73 48 73 73 48 74 74 49 74 74 49 74 74 48 74 74 49 75 75 49 75 76 49 75 75 50 75 75 51 75 75 53 76 76 42 68 68 50 75 75 50 76 76 48 74 74 48 74 74 51 76 76 56 79 79 65 85 85 74 92 92 83 99 99 98 107 107 99 108 109 105 112 112 109 113 113 111 113 113 111 111 111 101 100 100 43 71 71 44 71 71 44 72 72 44 72 72 62 82 82 61 82 82 70 89 89 54 65 65 37 39 39 31 30 30 32 31 31 33 32 32 34 33 33 35 34 34 37 35 35 45 43 43 48 45 45 50 47 47 53 48 48 56 50 50 69 63 64 89 79 88 90 81 91 91 72 72 95 80 80 111 89 89 122 95 95 141 100 100 104 84 84 109 88 88 107 84 84 86 93 93 80 98 98 79 96 96 71 88 88 45 76 76 45 76 76 45 76 76 45 76 76 113 92 92 120 99 99 132 104 124 108 115 149 127 137 187 178 169 232 157 158 215 156 157 210 154 154 203 152 152 198 150 150 193 147 148 187 151 148 186 147 147 187 141 141 178 141 141 177 137 137 174 134 135 174 133 134 175 131 132 178 112 122 157 67 91 103 45 75 75 45 75 75 45 75 75 45 75 75 101 80 80 112 91 91 112 93 93 109 91 91 101 85 85 45 75 75 45 75 75 45 74 74 45 74 74 45 74 74 45 74 74 45 74 74 45 74 74 44 74 74 44 74 74 44 73 73 151 105 105 255 172 176 255 195 201 255 214 222 255 211 211 255 204 204 255 198 198 255 206 211 252 179 180 224 160 160 199 143 143 172 125 125 163 115 115 141 102 102 127 88 88 87 66 66 59 49 49 42 38 38 32 32 32 32 34 34 43 70 70 43 70 70 40 60 60 32 34 34 33 35 35 34 40 40 34 40 40 35 40 41 34 39 39 34 38 39 42 43 43 34 38 39 34 39 39 110 82 82 184 129 130 177 129 129 255 183 183 255 225 225 255 223 223 255 210 210 255 205 205 255 199 199 243 192 192 231 186 186 222 181 181 212 175 175 203 169 169 196 165 165 192 160 160 191 157 158 151 129 133 74 79 79 39 57 57 40 64 64 40 63 63 40 63 63 40 63 63 40 63 63 40 63 63 40 62 62 40 62 62 40 62 62 40 62 62 40 62 62 40 62 62 40 61 61 39 61 61 39 61 61 39 61 61 39 61 61 39 60 60 39 60 60 39 60 60 39 60 60 39 60 60 39 60 60 39 59 59 39 59 59 39 59 59 39 59 59 38 59 59 38 59 59 38 58 58 38 58 58 38 58 58 38 58 58 38 58 58 38 58 58 38 57 57 38 57 57 38 57 57 38 57 57 38 57 57 38 57 57 38 57 57 38 56 56 37 56 56 37 56 56 37 56 56 37 56 56 37 56 56 37 55 55 37 55 55 37 55 55 37 55 55 37 55 55 37 55 55 37 55 55 37 54 54 37 54 54 37 54 54 37 54 54 37 54 54 37 54 54 36 54 54 36 54 54 36 53 53 36 53 53 140 147 253 159 163 255 179 179 255 169 171 255 171 172 255 174 172 241 142 143 201 149 149 200 137 137 181 114 114 151 101 101 131 89 89 112 76 76 93 97 97 147 129 136 208 136 144 207 135 142 198 140 144 200 137 138 188 115 120 155 107 112 139 138 140 215 154 161 255 190 181 255 174 176 255 188 176 255 189 179 250 158 156 214 146 146 198 132 132 177 124 124 164 116 116 150 108 108 136 99 99 121 89 89 107 79 79 91 69 69 76 45 45 47 33 33 33 25 25 25 25 25 25 25 25 25 25 25 25 25 25 25 25 25 25 25 25 25 25 25 25 25 25 25 25 25 25 25 25 25 25 25 25 25 25 25 25 25 25 25 25 25 25 25 25 25 25 25 25 25 25 25 25 25 25 25 25 25 25 25 27 27 27 33 34 34 34 36 36 34 45 45 34 47 47 34 46 46 
39 61 61 39 61 61 40 61 61 40 62 62 40 62 62 40 62 62 40 62 62 40 62 62 40 62 62 40 63 63 40 63 63 40 63 63 40 63 63 40 63 63 40 64 64 41 64 64 41 64 64 41 64 64 41 64 64 41 65 65 41 65 65 41 65 65 41 65 65 41 65 65 44 69 69 48 73 73 48 73 73 48 74 74 48 74 74 48 74 74 49 75 75 49 75 75 49 75 75 49 75 75 51 75 75 54 76 76 58 78 78 60 78 78 61 78 79 42 68 68 55 79 79 51 76 76 50 75 75 55 78 78 63 83 83 73 90 90 83 97 97 93 104 104 100 109 109 107 113 114 116 118 119 115 117 117 116 115 115 111 108 108 78 88 88 44 71 71 44 72 72 44 72 72 44 72 72 47 74 74 58 80 80 74 89 89 57 67 67 32 35 35 26 26 26 25 25 25 25 25 25 25 25 25 25 25 25 25 25 25 25 25 25 25 25 25 25 25 25 25 25 25 25 25 25 32 32 32 42 42 45 44 44 47 47 40 41 73 59 65 54 48 48 53 47 47 77 63 63 115 86 86 82 68 68 98 73 73 92 90 90 92 106 106 89 102 102 70 88 88 45 76 76 45 76 76 119 102 107 198 132 138 202 137 138 227 151 173 176 141 178 206 157 199 150 150 203 149 150 196 147 148 189 144 144 182 142 142 175 139 139 169 134 134 163 132 132 159 130 130 156 127 127 151 126 126 149 123 123 146 120 120 144 120 120 145 120 120 147 120 120 149 122 122 155 128 131 172 65 89 98 45 75 75 119 98 98 194 122 122 200 130 130 255 150 150 255 155 155 255 151 151 242 136 136 168 113 113 146 95 95 89 81 81 45 74 74 45 74 74 45 74 74 45 74 74 45 74 74 44 74 74 44 74 74 44 73 73 187 111 111 255 172 179 255 187 187 255 199 199 255 198 198 255 182 182 249 174 174 242 176 180 214 156 159 183 133 133 157 115 115 130 97 97 120 89 89 95 72 73 71 56 56 46 39 39 36 35 36 32 33 33 32 32 32 32 33 33 33 38 38 43 70 70 43 70 70 40 62 62 36 45 45 36 40 40 34 40 40 36 41 42 34 39 39 34 39 39 37 41 41 34 39 39 109 84 84 187 135 135 250 177 177 255 221 221 255 218 218 255 223 223 255 217 217 255 201 201 240 193 193 226 186 186 212 178 178 200 171 171 188 164 164 179 159 159 170 153 153 162 148 148 132 120 120 129 117 117 129 117 117 131 117 117 126 121 122 67 83 83 40 63 63 40 63 63 40 63 63 40 63 63 40 63 63 40 62 62 40 62 62 40 62 62 40 62 62 40 62 62 40 62 62 40 61 61 39 61 61 39 61 61 39 61 61 39 61 61 39 60 60 39 60 60 39 60 60 39 60 60 39 60 60 39 60 60 39 59 59 39 59 59 39 59 59 39 59 59 39 59 59 38 59 59 38 58 58 38 58 58 38 58 58 38 58 58 38 58 58 38 58 58 38 57 57 38 57 57 38 57 57 38 57 57 38 57 57 38 57 57 38 57 57 38 56 56 38 56 56 37 56 56 37 56 56 37 56 56 37 56 56 37 56 56 37 55 55 37 55 55 37 55 55 37 55 55 37 55 55 37 55 55 37 55 55 37 54 54 37 54 54 53 67 89 53 67 87 52 66 84 51 64 80 48 62 76 45 59 72 56 70 100 143 150 250 158 163 254 181 181 255 188 179 255 176 168 236 166 164 234 135 135 188 127 127 173 129 127 166 108 108 140 92 92 118 80 80 98 66 66 78 52 52 57 153 153 240 144 146 214 138 144 201 135 137 190 119 121 162 109 115 145 100 105 129 117 123 182 153 161 253 182 175 255 167 174 251 208 193 255 173 170 237 154 153 207 156 154 202 132 132 174 119 119 155 110 110 141 102 102 126 93 93 112 83 83 97 73 73 81 55 55 58 41 41 42 25 25 25 25 25 25 25 25 25 25 25 25 25 25 25 25 25 25 25 25 25 25 25 25 25 25 25 25 25 25 25 25 25 25 25 25 25 25 25 25 25 25 25 25 25 25 25 25 25 25 25 25 25 25 25 25 25 25 25 25 25 25 25 25 25 25 29 29 29 33 34 34 34 36 36 34 43 43 34 47 47 34 47 47 
39 61 61 40 61 61 40 62 62 40 62 62 40 62 62 40 62 62 40 62 62 40 62 62 40 63 63 40 63 63 40 63 63 40 63 63 40 63 63 40 64 64 40 64 64 41 64 64 41 64 64 41 64 64 41 65 65 41 65 65 41 65 65 41 65 65 41 65 65 44 68 68 47 72 72 48 73 73 48 73 73 48 74 74 48 74 74 48 74 74 49 74 74 49 75 75 50 75 75 52 77 77 58 79 79 63 81 81 68 84 84 72 86 86 70 82 82 55 73 73 53 77 77 61 82 82 53 76 76 61 81 81 71 88 88 80 94 94 90 101 101 101 110 110 106 112 112 113 116 116 117 118 118 119 117 117 118 113 113 103 101 101 84 87 87 44 71 71 44 72 72 44 72 72 44 72 72 44 72 72 48 74 74 65 82 82 60 68 68 32 36 36 31 32 32 25 25 25 25 25 25 25 25 25 25 25 25 25 25 25 25 25 25 25 25 25 25 25 25 25 25 25 25 25 25 25 25 25 39 39 47 48 47 63 52 42 45 38 33 38 34 34 44 26 27 27 28 29 29 71 52 52 79 60 60 107 73 73 84 88 88 102 111 111 97 105 105 66 87 87 95 83 83 172 114 116 245 140 140 255 183 189 255 218 223 255 190 218 149 150 214 146 146 191 135 135 173 134 134 167 130 130 159 127 127 152 124 124 146 121 121 140 119 119 135 114 114 129 112 112 126 109 109 121 107 107 119 107 107 118 106 106 118 106 106 119 107 107 121 108 108 123 109 109 127 112 112 135 121 124 154 135 109 116 255 160 160 255 208 211 255 203 203 255 210 210 255 217 220 255 211 213 255 195 195 255 171 171 255 149 149 196 116 116 123 87 87 45 74 74 45 74 74 45 74 74 45 74 74 44 74 74 44 74 74 44 73 73 222 123 124 255 162 165 255 169 173 255 172 172 240 165 165 224 157 157 207 147 147 205 152 157 165 122 122 139 103 103 113 86 86 106 75 75 85 65 66 56 46 46 32 30 30 27 27 28 33 32 33 32 32 32 32 33 33 32 34 34 33 38 38 43 70 70 43 70 70 43 69 69 43 69 69 38 54 54 36 47 47 36 47 47 34 39 39 34 39 39 34 39 39 191 134 137 255 179 180 255 227 229 255 230 230 255 218 218 255 212 212 255 204 204 242 196 196 226 187 187 210 178 178 195 170 170 181 161 161 168 153 153 130 119 119 121 114 114 89 84 84 85 82 82 83 81 81 56 54 54 55 53 53 56 54 54 58 55 55 92 86 87 38 56 56 40 63 63 40 63 63 40 63 63 40 63 63 40 63 63 40 62 62 40 62 62 40 62 62 40 62 62 40 62 62 40 61 61 39 61 61 39 61 61 39 61 61 39 61 61 39 61 61 39 60 60 39 60 60 39 60 60 39 60 60 39 60 60 39 60 60 39 59 59 39 59 59 39 59 59 39 59 59 38 59 59 38 59 59 38 58 58 38 58 58 38 58 58 38 58 58 38 58 58 38 58 58 38 57 57 38 57 57 38 57 57 38 57 57 38 57 57 38 57 57 38 56 56 38 56 56 37 56 56 37 56 56 37 56 56 37 56 56 37 56 56 37 55 55 37 55 55 37 55 55 37 55 55 37 55 55 37 55 55 59 73 99 79 89 138 79 89 133 91 96 160 91 97 154 88 93 145 82 87 134 76 81 122 68 73 109 86 91 161 141 148 243 160 166 253 199 186 255 156 157 227 160 156 219 142 143 198 127 128 176 116 116 158 153 142 177 101 101 128 83 83 104 70 70 84 56 56 64 38 38 40 132 133 210 147 148 222 138 140 199 127 126 172 110 113 148 102 108 135 93 99 119 129 132 202 151 159 247 159 158 240 173 173 245 155 158 222 151 152 210 177 171 222 157 151 196 141 138 177 119 119 152 105 105 131 96 96 117 86 86 102 76 76 86 66 66 71 43 43 44 25 25 25 25 25 25 25 25 25 25 25 25 25 25 25 25 25 25 25 25 25 25 25 25 25 25 25 25 25 25 25 25 25 25 25 25 25 25 25 25 25 25 25 25 25 25 25 25 25 25 25 25 25 25 25 25 25 25 25 25 25 25 25 25 25 25 27 27 27 29 30 30 34 35 35 34 37 37 34 43 43 34 47 47 34 47 47 
40 61 61 40 62 62 40 62 62 40 62 62 40 62 62 40 62 62 40 62 62 40 63 63 40 63 63 40 63 63 40 63 63 40 63 63 40 64 64 40 64 64 41 64 64 41 64 64 41 64 64 41 64 64 41 65 65 41 65 65 41 65 65 41 65 65 41 65 65 44 68 68 47 72 72 48 73 73 48 74 74 48 74 74 48 74 74 48 74 74 49 75 75 50 75 75 53 77 77 61 82 82 67 86 86 75 90 90 79 92 92 84 94 94 83 91 91 74 81 82 43 69 69 58 79 80 65 80 80 66 83 83 76 90 90 85 96 96 95 103 103 105 110 111 111 114 114 115 115 115 119 116 116 119 114 114 113 108 108 101 99 99 74 82 82 55 76 76 44 72 72 44 72 72 44 72 72 44 72 72 44 72 72 44 73 73 52 69 69 33 37 37 32 34 34 29 30 30 25 25 25 25 25 25 25 25 25 25 25 25 25 25 25 25 25 25 25 25 25 25 25 25 25 25 25 25 25 25 32 32 37 50 50 66 38 33 40 38 32 35 33 33 40 36 37 47 32 34 34 47 37 39 82 57 57 97 71 71 102 88 88 110 114 114 87 98 98 111 91 92 167 117 122 246 150 150 255 204 215 255 218 223 254 183 215 199 159 192 132 132 171 125 125 156 121 121 147 117 117 138 113 113 130 110 110 123 106 106 117 103 103 111 84 84 91 82 82 87 80 80 85 63 63 67 63 63 66 62 62 65 62 62 65 62 62 65 62 62 66 79 79 84 80 80 87 98 98 107 105 105 119 114 119 140 255 214 217 255 233 234 255 229 229 255 230 230 255 226 226 255 228 231 255 214 215 255 192 192 255 171 171 254 148 148 220 121 121 148 92 92 64 70 70 45 74 74 45 74 74 44 74 74 44 74 74 94 69 69 222 127 127 255 163 163 238 153 153 246 164 165 197 137 137 182 129 129 163 118 118 161 124 138 124 95 97 93 72 72 67 54 54 67 54 54 51 43 43 34 34 40 29 29 35 25 25 25 26 26 26 30 30 31 32 33 33 32 34 34 33 37 37 43 70 70 43 70 70 43 69 69 43 69 69 43 69 69 43 69 69 40 61 61 38 54 54 38 53 53 184 130 130 255 180 181 255 226 226 255 225 225 255 217 217 255 210 210 249 201 201 232 192 192 214 182 182 197 172 172 181 162 162 165 152 152 126 118 118 90 86 86 84 82 82 54 53 53 25 25 25 25 25 25 25 25 25 25 25 25 25 25 25 25 25 25 25 25 25 26 26 26 57 57 57 38 56 56 40 63 63 40 63 63 40 63 63 40 63 63 40 62 62 40 62 62 40 62 62 40 62 62 40 62 62 40 61 61 40 61 61 39 61 61 39 61 61 39 61 61 39 61 61 39 60 60 39 60 60 39 60 60 39 60 60 39 60 60 39 60 60 39 59 59 39 59 59 39 59 59 39 59 59 38 59 59 38 59 59 38 58 58 38 58 58 38 58 58 38 58 58 38 58 58 38 58 58 38 57 57 38 57 57 38 57 57 38 57 57 38 57 57 38 57 57 38 57 57 38 56 56 37 56 56 37 56 56 37 56 56 37 56 56 37 56 56 37 56 56 37 55 55 37 55 55 37 55 55 61 76 104 85 95 149 105 111 187 110 115 185 128 129 217 125 126 206 119 119 192 112 112 177 103 103 162 94 94 145 84 84 128 86 86 142 137 144 233 150 159 240 150 153 226 164 163 228 143 147 205 147 148 204 126 127 171 110 110 147 127 117 146 107 104 127 76 76 92 60 60 70 40 40 43 29 29 30 40 40 55 124 124 185 123 124 177 117 115 155 104 108 140 95 101 124 86 92 108 124 127 189 148 155 240 154 161 237 166 164 232 171 168 230 147 151 207 138 138 186 142 141 182 123 123 158 116 116 146 105 105 128 91 91 109 80 80 92 70 70 76 45 45 47 33 33 33 25 25 25 25 25 25 25 25 25 30 30 38 32 32 39 36 36 49 35 35 46 33 33 42 31 31 38 28 28 30 25 25 25 25 25 25 25 25 25 25 25 25 25 25 25 25 25 25 25 25 25 25 25 25 25 25 25 25 25 25 25 25 25 25 25 25 29 29 29 33 34 34 34 35 35 34 37 37 34 47 47 34 47 47 34 47 47 
40 61 61 40 62 62 40 62 62 40 62 62 40 62 62 40 62 62 40 63 63 40 63 63 40 63 63 40 63 63 40 63 63 40 63 63 40 64 64 41 64 64 41 64 64 41 64 64 41 64 64 41 65 65 41 65 65 41 65 65 41 65 65 41 65 65 41 66 66 44 68 68 47 72 72 48 73 73 48 74 74 48 74 74 48 74 74 48 74 74 50 75 75 54 77 77 61 82 82 71 88 88 78 94 94 85 97 97 94 102 102 98 103 103 93 98 98 86 90 91 43 69 69 43 69 69 53 75 76 66 81 81 76 88 88 86 95 95 95 101 101 104 106 106 110 110 110 114 110 111 113 107 107 116 109 110 111 106 106 99 100 100 85 87 87 73 82 82 44 72 72 44 72 72 44 72 72 44 72 72 44 72 72 44 73 73 44 73 73 33 38 38 32 36 36 31 33 33 29 30 30 26 27 27 25 25 25 25 25 25 25 25 25 25 25 25 25 25 25 25 25 25 25 25 25 25 25 25 26 26 26 37 38 45 45 46 60 40 39 50 79 61 71 44 46 57 32 36 36 43 38 38 75 56 56 90 68 68 100 87 87 108 107 107 77 92 92 155 111 114 255 157 161 255 192 197 255 199 200 255 202 214 200 163 194 139 136 170 118 118 144 113 113 133 109 109 123 104 104 114 84 84 91 80 80 85 62 62 65 60 60 62 43 43 44 42 42 43 42 42 42 25 25 25 25 25 25 25 25 25 25 25 25 25 25 25 25 25 25 41 41 41 42 42 42 42 42 44 88 77 80 111 100 107 109 116 132 255 242 242 255 233 233 255 231 231 255 228 228 255 221 221 255 206 206 255 190 190 255 173 173 243 153 153 215 131 131 183 106 106 121 81 81 45 74 74 45 74 74 44 74 74 44 73 73 83 66 66 193 115 115 229 148 148 234 157 157 202 138 138 154 109 109 137 100 100 117 88 88 109 88 95 85 70 75 52 44 44 38 34 34 49 37 38 30 30 35 40 32 34 55 47 53 42 42 56 25 25 25 28 28 28 31 33 33 32 35 35 33 38 38 43 70 70 43 70 70 43 69 69 43 69 69 43 69 69 43 69 69 42 69 69 42 68 68 187 144 144 255 188 188 255 226 226 255 223 223 255 215 215 255 207 207 241 197 197 222 187 187 204 176 176 185 165 165 168 155 155 126 118 118 89 85 85 55 54 54 52 52 52 25 25 25 25 25 25 25 25 25 25 25 25 25 25 25 25 25 25 25 25 25 25 25 25 25 25 25 25 25 25 26 26 26 31 33 33 38 56 56 40 63 63 40 63 63 40 63 63 40 62 62 40 62 62 40 62 62 40 62 62 40 62 62 40 61 61 40 61 61 39 61 61 39 61 61 39 61 61 39 61 61 39 60 60 39 60 60 39 60 60 39 60 60 39 60 60 39 60 60 39 59 59 39 59 59 39 59 59 39 59 59 39 59 59 38 59 59 38 58 58 38 58 58 38 58 58 38 58 58 38 58 58 38 58 58 38 57 57 38 57 57 38 57 57 38 57 57 38 57 57 38 57 57 38 57 57 38 56 56 38 56 56 37 56 56 37 56 56 37 56 56 37 56 56 37 56 56 37 55 55 37 55 55 87 98 156 110 116 199 139 141 246 144 144 241 141 141 231 138 138 220 132 132 207 125 125 192 117 117 176 107 107 160 97 97 142 86 86 124 75 75 106 157 159 255 143 151 228 150 157 229 142 148 209 145 150 212 143 141 190 119 122 161 108 110 142 95 95 120 122 108 126 68 68 79 46 46 51 34 34 35 25 25 25 25 25 25 106 107 162 104 104 148 98 99 133 96 101 128 90 96 116 79 85 98 114 117 173 144 151 232 153 160 233 149 154 218 146 152 210 152 154 212 134 137 181 126 127 165 118 118 150 110 112 138 101 102 122 89 90 104 77 77 86 55 55 59 42 42 42 25 25 25 25 25 25 25 25 25 34 34 43 44 44 60 50 50 72 54 54 80 50 50 74 44 44 65 40 40 56 35 35 45 30 30 33 25 25 25 25 25 25 25 25 25 25 25 25 25 25 25 25 25 25 25 25 25 25 25 25 25 25 25 25 25 25 29 29 29 31 32 32 34 35 35 34 36 36 35 38 38 34 47 47 34 47 47 34 47 47 
40 62 62 40 62 62 40 62 62 40 62 62 40 62 62 40 62 62 40 63 63 40 63 63 40 63 63 40 63 63 40 63 63 40 64 64 41 64 64 41 64 64 41 64 64 41 64 64 41 65 65 41 65 65 41 65 65 41 65 65 41 65 65 41 65 65 41 66 66 44 68 68 47 71 71 48 73 73 48 74 74 48 74 74 48 74 74 49 75 75 53 77 77 61 82 82 70 88 88 81 95 96 88 100 100 96 105 106 101 107 107 107 109 109 105 105 105 93 93 93 43 69 69 43 69 69 43 69 69 54 77 77 67 81 81 78 86 86 88 93 93 98 99 99 105 103 103 111 105 105 119 113 113 119 114 114 117 113 113 109 106 106 95 94 94 78 83 83 44 72 72 44 72 72 44 72 72 44 72 72 44 72 72 44 73 73 44 73 73 34 39 39 33 37 37 32 35 35 32 34 34 30 31 31 29 30 30 28 28 28 26 27 27 26 27 27 26 27 27 26 27 27 26 27 27 28 28 28 28 29 29 30 31 32 40 41 49 45 45 59 45 45 55 34 37 40 33 36 37 42 33 33 65 50 51 77 59 59 75 70 70 80 93 93 137 96 96 230 127 128 255 170 170 255 213 214 255 214 214 232 176 193 119 120 151 111 111 133 106 106 121 101 101 110 80 80 86 62 62 65 43 43 44 42 42 42 25 25 25 25 25 25 25 25 25 25 25 25 25 25 25 25 25 25 25 25 25 25 25 25 25 25 25 25 25 25 25 25 25 25 25 25 25 25 25 91 65 65 60 45 45 70 58 58 91 81 84 244 181 187 255 225 225 255 226 227 255 222 224 255 208 208 255 194 194 255 177 177 241 162 162 218 144 144 193 125 125 202 125 125 168 101 102 87 66 66 44 74 74 44 74 74 44 73 73 44 73 73 146 89 89 176 116 116 172 119 119 153 109 110 111 81 81 92 70 70 72 57 57 53 44 44 62 58 72 30 29 29 25 25 25 64 47 48 39 38 45 35 35 41 46 37 37 48 48 67 28 28 28 28 30 30 32 35 35 33 36 36 33 38 38 43 70 70 43 69 69 43 69 69 43 69 69 43 69 69 43 69 69 42 69 69 184 140 140 255 190 190 255 229 229 255 221 221 255 213 213 255 204 204 235 194 194 214 183 183 195 171 171 175 160 160 130 121 121 91 87 87 56 54 54 25 25 25 25 25 25 25 25 25 25 25 25 25 25 25 25 25 25 25 25 25 25 25 25 25 25 25 25 25 25 25 25 25 25 25 25 25 25 25 25 25 25 28 28 28 32 34 34 40 63 63 40 63 63 40 63 63 40 62 62 40 62 62 40 62 62 40 62 62 40 62 62 40 62 62 40 61 61 39 61 61 39 61 61 39 61 61 39 61 61 39 60 60 39 60 60 39 60 60 39 60 60 39 60 60 39 60 60 39 59 59 39 59 59 39 59 59 39 59 59 39 59 59 38 59 59 38 58 58 38 58 58 38 58 58 38 58 58 38 58 58 38 58 58 38 58 58 38 57 57 38 57 57 38 57 57 38 57 57 38 57 57 38 57 57 38 56 56 38 56 56 37 56 56 37 56 56 37 56 56 37 56 56 37 56 56 55 70 101 92 104 162 121 127 211 152 153 255 152 152 251 152 152 242 148 148 231 142 142 218 135 135 203 126 126 187 117 117 170 106 106 153 95 95 135 84 84 116 72 72 97 156 155 253 140 145 216 140 148 213 134 142 197 138 142 194 121 123 166 111 116 150 101 104 131 89 91 111 126 101 116 69 65 72 41 41 43 27 27 27 25 25 25 25 25 25 31 31 38 90 91 130 90 91 122 87 91 115 83 89 106 72 78 88 101 104 152 139 146 223 147 154 223 147 156 218 152 158 217 140 140 190 130 136 177 125 125 160 131 126 154 105 108 131 96 98 115 86 87 98 75 76 82 50 50 52 29 29 29 27 27 27 25 25 25 44 44 62 55 55 81 66 66 98 66 66 96 64 64 91 59 59 84 52 52 74 43 43 62 55 55 84 54 54 77 49 49 65 43 43 57 42 42 55 41 41 53 25 25 25 25 25 25 25 25 25 50 35 35 36 29 29 29 29 29 37 33 33 33 35 35 34 36 36 34 37 37 34 42 42 34 47 47 34 47 47 34 47 47 
40 62 62 40 62 62 40 62 62 40 62 62 40 62 62 40 63 63 40 63 63 40 63 63 40 63 63 40 63 63 40 64 64 40 64 64 41 64 64 41 64 64 41 64 64 41 64 64 41 65 65 41 65 65 41 65 65 42 66 66 44 68 69 44 69 69 44 69 69 45 69 69 47 71 71 47 72 72 48 73 73 48 74 74 49 74 74 52 76 76 60 80 80 70 87 87 79 94 94 89 101 101 100 108 110 105 111 112 107 110 110 111 111 111 108 106 106 98 94 94 43 69 69 43 69 69 43 69 69 48 75 75 55 76 76 70 81 81 80 87 87 94 97 97 107 105 105 112 109 109 123 119 120 125 120 120 123 116 116 115 109 109 99 95 95 64 78 78 44 72 72 44 72 72 44 72 72 44 72 72 44 73 73 44 73 73 44 73 73 43 59 59 33 38 38 33 37 37 32 36 36 32 35 35 32 34 34 31 33 33 30 31 31 30 31 31 30 31 31 30 31 31 30 31 31 30 32 32 31 33 33 32 34 34 33 37 38 39 41 45 40 40 41 35 39 41 32 35 35 38 33 33 53 42 43 59 49 49 57 72 72 73 78 78 154 100 100 231 141 144 244 157 157 255 177 177 255 194 203 169 145 166 110 110 129 100 100 111 79 79 85 60 60 63 42 42 43 25 25 25 25 25 25 25 25 25 25 25 25 25 25 25 25 25 25 25 25 25 25 25 25 25 25 25 25 25 25 25 25 25 25 25 25 25 25 25 25 25 25 48 38 38 98 66 66 56 46 47 48 42 42 62 53 54 84 64 65 101 76 78 255 207 207 255 203 203 255 205 209 255 185 185 245 171 171 226 158 158 206 143 143 185 127 127 162 110 110 171 113 113 179 117 117 124 80 81 52 59 59 44 74 74 44 73 73 44 73 73 104 66 66 126 85 85 114 82 83 99 75 76 71 57 57 53 44 44 40 35 35 30 28 28 41 41 51 42 41 55 34 33 38 70 51 51 37 37 48 36 29 29 39 39 50 44 45 55 30 31 31 32 34 34 32 36 36 33 37 37 33 38 38 43 70 70 43 69 69 43 69 69 43 69 69 43 69 69 42 69 69 126 107 107 179 146 146 255 233 238 255 220 220 255 211 211 250 202 202 229 191 191 208 179 179 187 167 167 167 154 154 123 117 117 86 83 83 53 52 52 25 25 25 25 25 25 25 25 25 25 25 25 25 25 25 25 25 25 25 25 25 25 25 25 25 25 25 25 25 25 25 25 25 25 25 25 25 25 25 25 25 25 25 25 25 25 25 25 31 31 31 32 35 35 40 63 63 40 63 63 40 62 62 40 62 62 40 62 62 40 62 62 40 62 62 40 62 62 40 61 61 39 61 61 39 61 61 39 61 61 39 61 61 39 60 60 39 60 60 39 60 60 39 60 60 39 60 60 39 60 60 39 59 59 39 59 59 39 59 59 39 59 59 39 59 59 38 59 59 38 59 59 38 58 58 38 58 58 38 58 58 38 58 58 38 58 58 38 58 58 38 57 57 38 57 57 38 57 57 38 57 57 38 57 57 38 57 57 38 57 57 38 56 56 37 56 56 37 56 56 37 56 56 37 56 56 37 56 56 94 105 165 125 131 216 159 159 255 159 159 255 158 158 250 155 155 239 149 149 226 142 142 212 134 134 196 124 124 179 114 114 162 103 103 143 91 91 125 88 88 123 86 86 119 133 133 219 142 146 224 129 136 194 127 134 185 131 135 184 115 117 156 103 109 138 92 97 119 80 84 99 111 92 100 71 57 60 37 39 39 31 32 32 31 32 32 29 30 30 33 33 40 61 62 89 86 84 112 81 86 106 77 83 96 67 72 79 71 75 99 156 159 254 141 148 214 149 154 220 141 145 200 132 136 182 125 131 169 160 145 176 152 137 162 108 105 124 90 93 107 80 83 91 62 64 67 42 43 43 33 34 34 31 32 32 42 42 60 57 57 84 72 72 106 73 73 105 83 83 127 82 82 123 96 96 147 94 94 142 82 82 125 93 93 146 91 91 138 88 88 131 83 83 120 80 80 114 76 76 108 72 72 101 55 55 70 54 54 68 78 58 63 79 52 57 47 36 36 63 41 41 34 35 35 34 36 36 34 37 37 34 42 42 34 47 47 34 47 47 34 47 47 
40 62 62 40 62 62 40 62 62 40 62 62 40 63 63 40 63 63 40 63 63 40 63 63 40 63 63 40 63 63 40 64 64 41 64 64 41 64 64 41 64 64 41 64 64 41 65 65 41 65 65 42 66 66 44 68 68 46 70 70 48 72 73 48 73 73 48 73 73 48 73 74 47 72 72 47 71 71 47 72 72 48 73 73 50 73 73 57 77 77 67 84 84 77 91 91 87 99 99 98 106 106 107 111 112 115 115 115 114 114 114 117 114 114 114 109 109 86 89 89 43 69 69 43 69 69 43 70 70 45 72 72 55 76 76 65 79 79 78 86 86 95 98 98 111 110 110 117 114 114 124 118 118 126 119 119 123 115 115 114 107 107 97 92 92 64 78 78 44 72 72 44 72 72 44 72 72 44 72 72 44 73 73 44 73 73 44 73 73 44 73 73 34 39 39 33 38 38 33 37 37 33 36 36 32 36 36 32 35 35 32 35 35 32 35 35 32 35 35 32 35 35 32 35 35 32 35 35 32 36 36 32 36 36 36 39 40 34 38 38 38 41 41 35 40 41 32 34 34 33 31 31 43 35 35 52 61 61 45 75 75 96 82 82 178 107 107 206 132 132 218 147 148 221 153 153 191 153 166 122 120 139 85 85 93 61 61 64 42 42 43 25 25 25 25 25 25 25 25 25 25 25 25 25 25 25 25 25 25 25 25 25 25 25 25 25 25 25 25 25 25 25 25 25 25 25 25 25 25 25 25 25 25 25 25 25 25 25 25 27 27 27 73 57 57 44 37 37 31 31 31 29 29 29 35 35 37 69 55 55 234 170 170 255 188 190 243 175 175 222 159 159 204 146 146 185 133 133 166 119 119 163 115 115 158 110 110 144 96 96 137 96 96 110 77 77 57 45 45 44 73 73 44 73 73 44 73 73 70 50 51 73 52 52 63 49 49 51 43 43 45 44 44 36 37 37 30 31 31 28 29 29 31 32 35 37 38 45 43 43 54 32 32 37 58 48 58 39 33 34 43 44 59 35 36 40 32 35 35 32 36 36 33 37 37 33 38 38 38 54 54 43 70 70 43 69 69 43 69 69 43 69 69 43 69 69 42 69 69 178 142 142 255 223 229 255 226 231 255 210 210 247 200 200 226 189 189 203 177 177 181 164 164 160 150 150 91 87 87 55 54 54 25 25 25 25 25 25 25 25 25 25 25 25 25 25 25 25 25 25 25 25 25 25 25 25 25 25 25 25 25 25 25 25 25 25 25 25 25 25 25 25 25 25 25 25 25 25 25 25 25 25 25 25 25 25 25 25 25 31 33 33 36 50 50 40 63 63 40 62 62 40 62 62 40 62 62 40 62 62 40 62 62 40 62 62 40 61 61 39 61 61 39 61 61 39 61 61 39 61 61 39 61 61 39 60 60 39 60 60 39 60 60 39 60 60 39 60 60 39 60 60 39 59 59 39 59 59 39 59 59 39 59 59 38 59 59 38 59 59 38 58 58 38 58 58 38 58 58 38 58 58 38 58 58 38 58 58 38 57 57 38 57 57 38 57 57 38 57 57 38 57 57 38 57 57 38 57 57 38 56 56 38 56 56 37 56 56 37 56 56 37 56 56 91 104 164 127 134 220 161 163 255 167 167 255 165 165 255 162 162 248 155 155 233 148 148 219 140 140 203 130 130 186 120 120 169 109 109 151 97 97 132 85 85 113 96 96 131 93 93 126 102 102 168 143 143 218 145 147 218 138 140 200 123 123 169 103 107 138 94 100 124 83 89 106 71 76 87 73 67 71 93 68 69 34 36 36 34 37 37 34 36 36 34 35 35 34 35 35 73 74 107 63 64 85 73 75 93 69 74 85 57 63 67 47 51 51 155 154 238 148 152 225 149 152 213 133 138 187 126 130 171 119 126 160 127 126 154 133 125 147 95 95 111 85 89 99 74 78 83 52 55 56 34 37 37 34 36 36 34 35 35 52 53 71 83 83 134 96 96 144 112 112 174 108 108 164 120 120 188 123 123 200 126 126 196 125 125 190 115 115 173 111 111 165 107 107 157 103 103 148 98 98 139 94 94 130 89 89 122 84 84 113 81 81 107 75 76 99 86 74 86 53 53 59 90 58 60 42 44 45 34 37 37 35 38 38 34 45 45 34 47 47 34 47 47 34 47 47 
40 62 62 40 62 62 40 62 62 40 62 62 40 63 63 40 63 63 40 63 63 40 63 63 40 63 63 40 64 64 40 64 64 41 64 64 41 64 64 41 64 64 41 64 64 41 65 65 42 66 66 44 68 68 47 72 72 48 73 73 48 73 73 48 73 73 48 74 74 48 74 74 48 73 73 47 72 72 47 72 72 48 72 72 53 74 74 62 80 80 73 87 87 83 95 95 93 102 102 103 109 109 117 116 116 116 115 116 119 116 116 120 114 115 112 104 104 74 83 83 43 69 69 43 69 69 44 71 71 44 71 71 50 74 74 64 78 78 75 82 82 93 95 95 105 104 104 116 112 112 120 114 114 122 114 114 117 109 109 106 98 98 81 85 85 54 75 75 44 72 72 44 72 72 44 72 72 44 72 72 44 73 73 44 73 73 44 73 73 44 73 73 42 58 58 33 38 38 33 38 38 33 37 37 33 37 37 33 37 37 33 36 36 33 36 36 33 36 36 33 36 36 33 36 36 33 37 37 33 37 37 33 37 37 34 38 38 36 41 42 35 40 41 35 40 41 32 33 33 32 32 32 41 44 44 44 58 58 45 75 75 86 79 79 153 98 98 170 114 114 177 124 125 177 127 127 154 129 135 88 90 98 61 61 63 41 41 41 25 25 25 25 25 25 25 25 25 25 25 25 25 25 25 25 25 25 25 25 25 25 25 25 25 25 25 25 25 25 25 25 25 25 25 25 25 25 25 25 25 25 25 25 25 25 25 25 67 49 49 100 64 64 36 34 34 35 32 33 27 27 27 29 29 29 34 36 36 35 38 38 114 85 85 226 169 181 198 146 147 176 128 128 159 117 117 141 104 104 147 106 106 127 92 92 119 84 85 108 76 76 87 67 68 70 55 55 50 41 41 42 65 65 44 73 73 44 73 73 47 58 58 42 36 36 39 35 36 35 34 35 32 35 35 33 37 37 32 36 36 32 35 35 32 34 34 32 34 34 39 41 48 35 37 39 46 47 60 38 39 47 36 39 43 32 36 36 33 36 36 33 37 37 33 37 37 33 38 38 38 54 54 43 70 70 43 69 69 43 69 69 43 69 69 43 69 69 108 102 102 240 177 180 255 224 226 255 215 216 246 198 198 223 187 187 201 175 175 178 161 161 129 121 121 88 85 85 53 53 53 25 25 25 25 25 25 25 25 25 25 25 25 25 25 25 25 25 25 25 25 25 25 25 25 25 25 25 25 25 25 25 25 25 25 25 25 25 25 25 25 25 25 25 25 25 25 25 25 25 25 25 25 25 25 25 25 25 25 25 25 31 31 31 32 35 35 40 63 63 40 62 62 40 62 62 40 62 62 40 62 62 40 62 62 40 62 62 40 61 61 39 61 61 39 61 61 39 61 61 39 61 61 39 61 61 39 60 60 39 60 60 39 60 60 39 60 60 39 60 60 39 60 60 39 59 59 39 59 59 39 59 59 39 59 59 38 59 59 38 59 59 38 58 58 38 58 58 38 58 58 38 58 58 38 58 58 38 58 58 38 57 57 38 57 57 38 57 57 38 57 57 38 57 57 38 57 57 38 57 57 38 56 56 38 56 56 37 56 56 37 56 56 62 78 108 123 131 219 164 167 255 170 171 255 173 173 255 172 172 255 165 165 246 154 154 226 144 144 209 135 135 193 125 125 175 114 114 157 102 102 138 90 90 119 99 99 137 111 111 155 97 98 130 84 84 110 120 120 184 135 135 196 129 129 186 105 105 143 93 96 123 85 91 111 74 80 92 61 67 73 46 51 52 82 62 62 53 41 41 35 38 38 35 38 38 35 37 37 34 37 37 42 43 54 60 59 85 53 53 63 62 67 75 50 56 58 38 43 43 115 116 188 146 148 218 143 145 205 139 139 190 124 124 162 113 120 151 106 112 137 103 103 122 87 87 100 78 80 88 55 59 61 35 39 39 35 38 38 34 37 37 57 59 85 105 105 176 116 116 181 134 134 213 140 140 226 147 147 230 138 138 212 127 127 194 124 124 186 120 120 177 116 116 168 112 112 159 107 107 150 102 102 141 97 97 131 92 92 122 86 86 113 81 81 104 76 76 95 71 71 87 69 69 81 64 65 74 62 62 69 47 48 50 41 43 44 35 40 40 34 47 47 34 47 47 34 47 47 34 47 47 
40 62 62 40 62 62 40 62 62 40 63 63 40 63 63 40 63 63 40 63 63 40 63 63 40 63 63 40 64 64 41 64 64 41 64 64 41 64 64 41 64 64 41 65 65 42 66 66 44 68 68 47 72 72 48 72 72 48 73 73 48 73 73 48 73 73 49 74 74 48 73 73 50 74 74 48 73 73 47 72 72 50 73 73 57 76 76 67 83 83 78 90 90 88 97 97 98 104 104 107 110 110 115 115 115 120 117 117 120 115 115 117 109 109 92 92 92 58 75 75 46 72 72 46 73 73 47 74 74 47 74 74 47 74 74 58 78 78 68 80 80 82 86 86 95 94 94 106 102 102 109 103 103 109 101 101 103 96 96 84 87 87 66 78 78 44 72 72 44 72 72 44 72 72 44 72 72 44 72 72 44 73 73 44 73 73 44 73 73 44 73 73 44 73 73 36 48 48 33 38 38 33 38 38 33 38 38 33 37 37 33 37 37 33 37 37 33 37 37 33 37 37 33 37 37 33 37 37 33 38 38 33 38 38 35 40 41 38 42 42 34 39 40 35 38 38 32 33 33 34 36 36 40 54 54 45 75 75 45 75 75 105 69 69 121 82 82 130 93 93 134 99 99 135 102 103 118 110 116 68 70 73 27 27 27 25 25 25 25 25 25 25 25 25 25 25 25 25 25 25 25 25 25 25 25 25 25 25 25 25 25 25 25 25 25 25 25 25 25 25 25 25 25 25 25 25 25 25 25 25 25 25 25 25 25 25 52 37 37 101 72 72 40 32 32 29 28 29 25 25 25 29 30 30 34 36 36 36 41 41 42 41 41 167 126 128 145 109 109 128 97 97 111 85 85 115 87 87 98 71 71 66 53 53 51 43 43 47 40 40 44 38 38 39 36 36 37 34 34 36 46 46 44 73 73 44 73 73 44 73 73 34 37 37 32 33 33 32 33 33 33 36 36 33 38 38 33 38 38 33 37 37 33 37 37 33 36 36 33 36 36 33 36 36 37 38 40 33 37 37 38 39 39 38 40 40 33 37 37 33 38 38 33 38 38 36 46 46 41 62 62 43 69 69 43 69 69 43 69 69 43 69 69 43 69 69 170 138 138 255 212 213 255 212 212 246 197 197 223 186 186 199 173 173 176 160 160 126 119 119 86 84 84 25 25 25 25 25 25 25 25 25 25 25 25 25 25 25 25 25 25 25 25 25 25 25 25 25 25 25 25 25 25 25 25 25 25 25 25 25 25 25 25 25 25 25 25 25 25 25 25 25 25 25 25 25 25 25 25 25 25 25 25 25 25 25 25 25 25 29 29 29 31 33 33 36 50 50 40 62 62 40 62 62 40 62 62 40 62 62 40 62 62 40 62 62 40 61 61 39 61 61 39 61 61 39 61 61 39 61 61 39 61 61 39 60 60 39 60 60 39 60 60 39 60 60 39 60 60 39 60 60 39 59 59 39 59 59 39 59 59 39 59 59 38 59 59 38 59 59 38 58 58 38 58 58 38 58 58 38 58 58 38 58 58 38 58 58 38 58 58 38 57 57 38 57 57 38 57 57 38 57 57 38 57 57 38 57 57 38 56 56 38 56 56 37 56 56 37 56 56 95 107 165 160 164 255 169 170 255 175 176 255 173 174 255 173 173 254 163 164 239 153 153 219 139 139 198 129 129 180 118 118 163 106 106 144 94 94 125 81 81 105 90 90 120 101 101 136 90 89 118 79 79 101 88 88 144 113 110 159 104 104 144 95 91 121 86 91 113 76 81 97 65 70 78 48 53 56 39 44 44 56 50 50 88 60 60 36 37 37 35 39 39 35 38 38 35 38 38 35 38 38 48 50 67 54 54 78 43 44 52 51 55 63 37 42 42 54 58 74 121 121 181 126 126 178 121 121 165 114 120 155 108 114 142 100 106 128 114 105 121 122 106 116 72 75 79 52 56 57 35 39 39 35 39 39 92 94 150 100 101 153 130 131 211 156 156 250 151 151 237 140 140 217 136 136 207 133 133 199 130 130 190 125 125 181 121 121 172 116 116 162 111 111 153 106 106 143 100 100 133 95 95 124 89 89 114 84 84 105 78 78 96 73 73 86 68 68 78 63 63 69 51 51 55 41 41 43 35 35 35 36 37 37 32 34 34 34 44 44 34 47 47 34 47 47 34 47 47 
40 62 62 40 62 62 40 62 62 40 63 63 40 63 63 40 63 63 40 63 63 40 63 63 40 64 64 40 64 64 41 64 64 41 64 64 41 64 64 41 64 64 41 65 65 44 68 68 47 71 71 48 72 72 48 73 73 48 73 73 48 73 73 48 74 74 49 74 74 50 73 73 53 74 74 58 77 77 51 75 75 54 74 74 59 77 77 70 84 84 81 91 91 91 97 97 100 103 103 108 109 109 114 112 112 117 112 112 115 108 108 96 95 96 76 84 84 46 73 73 48 74 74 49 76 76 51 77 77 52 77 77 54 78 78 57 79 79 65 82 82 73 82 82 73 81 81 79 85 85 83 87 87 82 86 86 69 80 80 55 75 75 44 72 72 44 72 72 44 72 72 44 72 72 44 72 72 44 72 72 44 73 73 44 73 73 44 73 73 44 73 73 44 73 73 44 73 73 37 48 48 34 39 39 33 38 38 33 38 38 33 38 38 33 38 38 33 38 38 33 38 38 33 38 38 33 38 38 33 38 38 34 38 38 37 42 43 35 40 40 34 39 39 35 40 40 34 38 38 38 54 54 43 67 67 45 75 75 45 75 75 78 59 59 85 65 65 89 70 70 91 73 73 87 70 70 69 73 79 35 38 38 31 31 31 25 25 25 25 25 25 25 25 25 25 25 25 25 25 25 25 25 25 25 25 25 25 25 25 25 25 25 25 25 25 25 25 25 25 25 25 25 25 25 25 25 25 25 25 25 25 25 25 40 29 29 49 35 35 56 48 55 47 39 45 25 25 25 27 27 27 29 30 30 35 37 37 36 41 41 36 38 38 131 106 117 106 84 88 78 63 63 79 60 60 58 46 46 48 41 41 35 33 38 27 27 27 25 25 25 33 32 32 31 31 31 32 32 32 33 36 36 44 73 73 44 73 73 44 73 73 39 56 56 33 36 36 33 35 35 33 36 36 34 39 39 33 38 38 33 38 38 33 38 38 33 38 38 33 38 38 37 40 40 35 39 39 34 39 40 35 39 40 36 39 39 33 38 38 33 38 38 33 38 38 38 54 54 43 70 70 43 69 69 43 69 69 43 69 69 43 69 69 42 69 69 231 171 178 255 208 208 252 199 199 224 186 186 200 173 173 175 159 159 126 118 118 85 83 83 25 25 25 25 25 25 25 25 25 25 25 25 25 25 25 25 25 25 25 25 25 25 25 25 25 25 25 25 25 25 25 25 25 25 25 25 25 25 25 25 25 25 25 25 25 25 25 25 25 25 25 25 25 25 25 25 25 25 25 25 25 25 25 25 25 25 25 25 25 28 28 28 31 32 32 32 36 36 40 62 62 40 62 62 40 62 62 40 62 62 40 62 62 40 62 62 40 61 61 39 61 61 39 61 61 39 61 61 39 61 61 39 61 61 39 60 60 39 60 60 39 60 60 39 60 60 39 60 60 39 60 60 39 59 59 39 59 59 39 59 59 39 59 59 39 59 59 38 59 59 38 58 58 38 58 58 38 58 58 38 58 58 38 58 58 38 58 58 38 58 58 38 57 57 38 57 57 38 57 57 38 57 57 38 57 57 38 57 57 38 56 56 38 56 56 37 56 56 76 88 147 143 150 255 166 170 255 169 169 255 188 183 255 176 174 255 164 163 238 171 171 238 160 159 220 136 136 189 121 121 167 110 110 149 98 98 130 85 85 110 71 71 89 76 76 100 86 86 114 73 74 94 68 69 85 61 61 75 83 83 124 95 94 128 83 83 110 78 81 99 67 73 83 53 58 63 40 46 46 36 41 41 36 41 41 60 50 50 86 61 61 48 41 42 35 39 39 35 39 39 35 39 39 36 39 42 35 38 38 48 46 58 57 50 59 42 40 40 36 41 41 112 110 166 116 117 164 113 118 157 111 117 149 103 109 134 95 101 120 103 97 110 147 120 128 71 63 67 35 39 39 67 71 100 100 103 157 126 128 204 164 164 255 158 159 252 147 147 229 144 144 220 141 141 212 138 138 203 134 134 194 130 130 185 125 125 175 120 120 165 114 114 155 109 109 145 103 103 135 97 97 125 91 91 115 85 85 106 79 79 96 74 74 86 68 68 77 62 62 68 43 43 46 41 41 41 25 25 25 25 25 25 25 25 25 27 27 27 31 32 32 34 39 39 34 45 45 34 47 47 
40 62 62 40 62 62 40 63 63 40 63 63 40 63 63 40 63 63 40 63 63 40 63 63 40 64 64 41 64 64 41 64 64 41 64 64 41 64 64 41 65 65 42 66 66 45 69 69 47 72 72 48 72 72 48 73 73 48 73 73 48 73 73 48 74 74 50 74 74 54 75 75 60 78 78 68 83 83 74 87 87 70 84 84 65 79 79 72 83 83 80 88 88 89 94 94 97 99 99 104 102 102 107 103 103 94 96 96 78 87 87 75 83 83 47 74 74 49 76 76 50 76 76 52 77 77 55 78 78 59 79 79 62 80 80 64 80 80 66 81 81 72 84 84 59 76 76 53 74 74 54 74 74 54 74 74 44 71 71 44 71 71 44 72 72 44 72 72 44 72 72 44 72 72 44 72 72 44 72 72 44 73 73 44 73 73 44 73 73 44 73 73 44 73 73 44 73 73 44 73 73 37 48 48 34 39 39 33 39 39 33 38 38 33 38 38 33 38 38 33 38 38 33 38 38 33 38 38 33 38 38 33 39 39 35 41 41 35 40 40 34 40 40 37 49 49 39 57 57 43 67 67 45 75 75 45 75 75 48 78 78 49 47 47 52 46 46 51 46 46 49 44 44 46 41 41 66 70 71 35 39 39 33 34 34 25 25 25 25 25 25 25 25 25 25 25 25 25 25 25 25 25 25 25 25 25 25 25 25 25 25 25 25 25 25 25 25 25 25 25 25 25 25 25 25 25 25 25 25 25 25 25 25 65 46 46 105 68 68 42 40 47 36 36 45 48 49 66 52 52 73 34 35 35 35 38 38 36 41 41 37 44 44 75 64 68 62 55 63 41 37 37 58 45 45 47 40 40 32 32 36 37 37 46 39 39 54 25 25 25 29 30 30 32 33 33 32 33 33 33 36 36 44 73 73 44 73 73 44 73 73 44 73 73 37 49 49 34 38 38 35 40 40 34 39 39 34 39 39 33 38 38 34 39 39 35 40 40 35 39 40 35 39 39 35 39 40 34 39 39 34 39 39 35 40 41 33 38 38 33 38 38 38 54 54 43 70 70 43 70 70 43 69 69 43 69 69 43 69 69 43 69 69 162 128 129 255 214 224 255 203 204 233 191 191 203 174 174 177 160 160 126 118 118 85 83 83 25 25 25 25 25 25 25 25 25 25 25 25 25 25 25 25 25 25 25 25 25 25 25 25 25 25 25 25 25 25 25 25 25 25 25 25 25 25 25 25 25 25 25 25 25 25 25 25 25 25 25 25 25 25 25 25 25 25 25 25 25 25 25 25 25 25 25 25 25 25 25 25 40 40 52 42 42 52 32 35 35 40 62 62 40 62 62 40 62 62 40 62 62 40 62 62 40 62 62 40 61 61 39 61 61 39 61 61 39 61 61 39 61 61 39 61 61 39 60 60 39 60 60 39 60 60 39 60 60 39 60 60 39 60 60 39 59 59 39 59 59 39 59 59 39 59 59 39 59 59 38 59 59 38 58 58 38 58 58 38 58 58 38 58 58 38 58 58 38 58 58 38 58 58 38 57 57 38 57 57 38 57 57 38 57 57 38 57 57 38 57 57 38 57 57 38 56 56 37 56 56 88 101 156 155 163 255 196 194 255 196 183 255 187 183 255 175 172 250 150 150 219 145 146 207 144 144 200 128 128 175 113 113 153 101 101 134 88 88 114 75 75 94 61 61 73 58 58 74 71 71 92 63 64 80 59 61 75 52 52 64 53 53 71 73 73 100 71 73 93 69 73 86 59 64 70 45 50 52 37 42 42 40 45 45 36 41 41 36 41 41 99 65 65 73 51 51 50 39 39 67 51 51 50 41 41 36 38 39 49 41 41 84 61 61 81 54 54 51 40 40 35 39 39 67 70 98 116 111 156 107 110 147 106 112 142 99 105 128 90 95 112 81 87 97 108 96 100 56 53 54 71 71 103 95 99 151 158 159 255 163 163 255 154 155 242 150 150 231 148 148 224 145 145 216 142 142 207 138 138 197 133 133 188 128 128 178 123 123 168 117 117 158 111 111 148 105 105 137 99 99 127 93 93 117 87 87 106 80 80 96 74 74 86 68 68 76 54 54 59 43 43 45 33 33 33 25 25 25 25 25 25 25 25 25 25 25 25 25 25 25 25 25 25 27 27 27 34 38 38 34 45 45 
40 62 62 40 62 62 40 63 63 40 63 63 40 63 63 40 63 63 40 63 63 40 64 64 40 64 64 41 64 64 41 64 64 41 64 64 41 64 64 41 65 65 43 67 67 47 71 71 48 72 72 48 72 72 48 73 73 48 73 73 48 73 73 50 74 74 54 76 76 62 80 80 70 85 85 81 93 93 91 99 99 99 103 103 91 96 96 85 91 91 80 84 84 73 82 82 78 85 85 85 88 88 73 83 83 72 81 81 57 74 74 46 72 72 49 76 76 50 76 76 54 78 80 58 79 79 63 80 81 69 83 85 74 86 86 76 87 87 76 86 86 73 83 83 71 82 82 43 71 71 43 71 71 43 71 71 44 71 71 44 71 71 44 72 72 44 72 72 44 72 72 44 72 72 44 72 72 44 72 72 44 72 72 44 73 73 44 73 73 44 73 73 44 73 73 44 73 73 44 73 73 44 73 73 42 65 65 37 48 48 35 40 40 34 39 39 34 39 39 34 39 39 34 39 39 34 39 39 36 41 41 37 42 42 34 39 39 37 49 49 40 57 57 42 59 59 43 67 67 45 75 75 45 75 75 50 77 77 49 79 79 35 40 40 34 37 37 33 34 34 28 29 29 25 25 25 45 49 49 36 40 40 34 36 36 29 29 29 25 25 25 25 25 25 25 25 25 25 25 25 25 25 25 25 25 25 25 25 25 25 25 25 25 25 25 25 25 25 25 25 25 25 25 25 25 25 25 25 25 25 25 25 25 54 38 38 108 73 73 67 41 41 61 51 59 34 34 38 46 43 48 74 72 104 35 39 39 36 42 42 37 45 45 37 36 39 52 52 66 32 32 38 53 40 40 42 42 53 37 33 36 39 33 34 44 45 59 28 29 29 30 32 32 33 34 35 33 35 35 33 36 36 44 73 73 44 73 73 44 73 73 44 72 72 44 72 72 37 48 48 36 41 41 35 41 41 34 39 39 35 40 41 35 40 41 35 40 42 35 40 41 34 39 39 37 40 40 35 40 40 34 39 39 33 38 38 36 46 46 38 54 54 41 62 62 43 70 70 43 69 69 43 69 69 43 69 69 43 69 69 42 69 69 171 140 140 255 208 209 240 194 195 213 181 181 181 161 161 128 120 120 86 83 83 25 25 25 25 25 25 25 25 25 25 25 25 25 25 25 25 25 25 25 25 25 25 25 25 25 25 25 25 25 25 25 25 25 25 25 25 25 25 25 25 25 25 25 25 25 25 25 25 25 25 25 25 25 25 25 25 25 25 25 25 25 25 25 25 25 25 25 25 25 31 31 36 25 25 25 50 50 66 37 38 44 34 36 40 38 56 56 40 62 62 40 62 62 40 62 62 40 62 62 40 62 62 40 61 61 39 61 61 39 61 61 39 61 61 39 61 61 39 61 61 39 60 60 39 60 60 39 60 60 39 60 60 39 60 60 39 60 60 39 59 59 39 59 59 39 59 59 39 59 59 39 59 59 38 59 59 38 58 58 38 58 58 38 58 58 38 58 58 38 58 58 38 58 58 38 58 58 38 57 57 38 57 57 38 57 57 38 57 57 38 57 57 38 57 57 38 57 57 38 56 56 38 56 56 107 117 197 157 161 255 181 181 255 181 177 255 185 179 255 165 165 239 147 147 210 135 135 191 162 156 205 121 121 162 104 104 138 91 91 118 78 78 98 64 64 77 48 48 55 34 34 36 53 52 69 60 58 71 49 51 62 45 46 55 40 41 48 52 52 69 68 64 80 58 59 68 50 55 59 39 44 44 40 45 45 37 42 42 45 47 47 42 45 45 53 46 46 55 48 50 59 47 47 106 71 71 81 53 54 44 39 41 56 45 45 96 62 62 92 64 64 55 41 41 35 39 39 35 39 39 97 101 145 100 106 141 97 103 130 94 100 120 84 90 104 76 82 90 54 59 62 97 96 153 98 100 154 164 166 255 157 158 252 156 156 244 154 154 235 152 152 227 149 149 219 145 145 210 141 141 200 136 136 191 131 131 181 125 125 170 119 119 160 113 113 150 107 107 139 101 101 128 94 94 118 88 88 107 82 82 97 75 75 86 69 69 76 54 54 58 43 43 44 33 33 33 25 25 25 25 25 25 25 25 25 25 25 25 25 25 25 25 25 25 25 25 25 25 25 25 27 27 27 34 35 35 
40 62 62 40 63 63 40 63 63 40 63 63 40 63 63 40 63 63 40 63 63 40 64 64 40 64 64 41 64 64 41 64 64 41 64 64 41 64 64 41 65 65 43 67 67 46 70 70 47 72 72 48 72 72 48 73 73 48 73 73 49 74 74 52 75 75 60 79 79 70 86 86 81 93 93 91 100 100 99 105 105 105 108 108 102 103 103 100 99 99 89 88 88 54 73 73 52 72 72 53 72 72 42 68 68 42 68 68 45 71 71 48 75 75 49 76 76 52 77 77 57 78 78 64 81 82 74 87 88 82 92 93 88 96 96 94 99 100 93 97 97 88 91 91 77 82 82 61 77 77 43 71 71 43 71 71 44 71 71 44 71 71 44 72 72 44 72 72 44 72 72 44 72 72 44 72 72 44 72 72 44 72 72 44 73 73 44 73 73 44 73 73 44 73 73 44 73 73 44 73 73 44 73 73 44 73 73 44 74 74 43 66 66 42 60 60 39 50 51 39 51 52 40 52 53 41 52 54 41 52 54 38 50 50 40 58 58 39 57 57 42 66 66 45 75 75 45 75 75 45 75 75 45 75 75 49 79 79 56 84 84 38 42 42 33 38 38 32 35 35 29 30 30 26 26 26 39 46 46 36 42 42 35 38 38 34 35 35 27 27 27 25 25 25 25 25 25 25 25 25 25 25 25 25 25 25 25 25 25 25 25 25 25 25 25 25 25 25 25 25 25 25 25 25 25 25 25 25 25 25 25 25 25 58 44 49 77 49 50 40 34 34 79 54 56 42 35 35 34 36 36 49 49 63 39 43 50 37 42 42 38 45 45 25 25 25 36 37 44 44 44 56 39 39 51 37 37 48 37 37 48 33 33 39 40 41 53 30 32 32 32 35 35 33 37 37 33 37 37 36 47 47 44 73 73 44 73 73 44 72 72 44 72 72 44 72 72 44 72 72 39 56 56 37 48 48 35 40 40 34 39 39 35 40 40 34 39 39 34 39 39 34 39 39 34 39 39 37 41 41 34 39 39 36 47 47 38 54 54 41 62 62 43 70 70 43 69 69 43 69 69 43 69 69 43 69 69 43 69 69 42 69 69 158 135 135 250 195 197 220 184 184 193 170 170 161 149 149 88 84 84 25 25 25 25 25 25 25 25 25 25 25 25 25 25 25 25 25 25 25 25 25 25 25 25 25 25 25 25 25 25 25 25 25 25 25 25 25 25 25 25 25 25 25 25 25 25 25 25 25 25 25 25 25 25 25 25 25 25 25 25 25 25 25 25 25 25 25 25 25 25 25 25 38 38 46 48 48 66 36 36 43 47 47 60 49 49 65 36 49 49 40 62 62 40 62 62 40 62 62 40 62 62 40 62 62 40 61 61 39 61 61 39 61 61 39 61 61 39 61 61 39 61 61 39 60 60 39 60 60 39 60 60 39 60 60 39 60 60 39 60 60 39 59 59 39 59 59 39 59 59 39 59 59 39 59 59 38 59 59 38 58 58 38 58 58 38 58 58 38 58 58 38 58 58 38 58 58 38 58 58 38 57 57 38 57 57 38 57 57 38 57 57 38 57 57 38 57 57 38 57 57 38 56 56 38 56 56 134 141 243 158 165 255 185 176 255 213 192 255 150 151 222 153 153 222 137 137 194 127 127 176 122 122 165 116 116 153 95 95 124 81 81 102 67 67 81 51 51 59 36 36 38 43 43 61 40 40 52 43 43 53 42 43 51 41 41 46 40 40 43 38 39 41 41 42 46 49 48 53 44 44 45 39 45 45 38 43 43 36 42 42 36 41 41 37 42 42 40 45 46 44 46 46 38 42 43 78 57 57 68 52 52 47 43 43 36 40 40 61 51 51 52 44 44 35 39 39 35 40 40 35 40 40 48 55 67 92 97 131 96 100 126 88 94 112 80 85 97 72 77 82 109 114 173 127 131 213 168 171 255 162 163 255 161 161 249 157 157 239 155 155 231 152 152 222 148 148 213 143 143 203 138 138 194 133 133 183 128 128 173 122 122 162 115 115 152 109 109 141 103 103 130 96 96 119 89 89 108 83 83 98 76 76 87 69 69 76 55 55 58 43 43 44 25 25 25 25 25 25 25 25 25 25 25 25 25 25 25 25 25 25 25 25 25 25 25 25 25 25 25 25 25 25 25 25 25 27 27 27 
40 62 62 40 63 63 40 63 63 40 63 63 40 63 63 40 63 63 40 63 63 40 64 64 41 64 64 41 64 64 41 64 64 41 64 64 41 65 65 41 65 65 43 67 67 46 70 70 47 72 72 48 72 72 48 73 73 48 73 73 51 74 74 58 78 78 68 84 84 79 92 92 90 99 99 100 106 108 107 110 112 109 109 109 111 109 109 111 107 108 97 92 92 42 68 68 42 68 68 42 68 68 42 68 68 42 69 69 45 71 71 48 75 75 51 76 76 56 77 77 62 79 79 72 85 85 86 94 94 98 103 103 103 106 106 107 108 108 107 106 106 102 101 101 90 90 90 77 82 82 43 71 71 43 71 71 43 71 71 44 71 71 44 72 72 44 72 72 44 72 72 44 72 72 44 72 72 44 72 72 44 72 72 44 72 72 44 73 73 44 73 73 44 73 73 44 73 73 44 73 73 44 73 73 44 73 73 48 76 76 48 77 77 55 82 82 51 73 74 48 72 73 49 73 75 52 75 78 50 74 77 48 72 74 47 77 77 45 74 74 45 74 74 45 74 74 45 75 75 45 75 75 52 79 79 53 83 83 53 85 85 38 42 42 33 38 38 33 37 37 32 35 35 30 31 31 44 50 50 37 43 43 36 40 40 35 37 37 34 35 35 29 29 29 27 27 27 25 25 25 25 25 25 25 25 25 25 25 25 25 25 25 25 25 25 25 25 25 25 25 25 25 25 25 25 25 25 25 25 25 25 25 25 86 57 57 95 60 60 29 30 30 32 33 33 84 55 55 35 38 38 51 47 57 41 45 57 37 43 43 38 45 45 26 26 26 28 28 30 32 33 36 41 41 51 42 42 55 38 39 49 36 37 42 40 42 50 32 36 36 33 37 37 33 38 38 33 39 39 39 56 56 44 73 73 44 72 72 44 72 72 44 72 72 44 72 72 44 72 72 44 72 72 41 64 64 39 56 56 37 48 48 37 48 48 37 47 47 34 40 40 36 47 47 36 47 47 41 57 57 39 55 55 41 62 62 43 70 70 43 70 70 43 70 70 43 69 69 43 69 69 43 69 69 43 69 69 42 69 69 42 69 69 199 153 153 227 181 181 202 176 176 174 159 159 92 87 87 52 52 52 25 25 25 25 25 25 25 25 25 25 25 25 25 25 25 25 25 25 25 25 25 25 25 25 25 25 25 25 25 25 25 25 25 25 25 25 25 25 25 25 25 25 25 25 25 25 25 25 25 25 25 25 25 25 25 25 25 25 25 25 25 25 25 25 25 25 25 25 25 25 25 25 36 36 45 56 57 77 34 34 36 40 41 48 43 43 51 34 43 43 40 62 62 40 62 62 40 62 62 40 62 62 40 61 61 40 61 61 39 61 61 39 61 61 39 61 61 39 61 61 39 61 61 39 60 60 39 60 60 39 60 60 39 60 60 39 60 60 39 60 60 39 59 59 39 59 59 39 59 59 39 59 59 39 59 59 38 59 59 38 58 58 38 58 58 38 58 58 38 58 58 38 58 58 38 58 58 38 58 58 38 57 57 38 57 57 38 57 57 38 57 57 38 57 57 38 57 57 38 57 57 38 56 56 38 56 56 135 142 238 153 159 247 162 161 241 155 158 233 155 153 218 145 145 205 128 128 179 117 117 161 107 107 143 125 118 148 83 83 105 69 69 85 54 54 63 37 37 40 28 28 28 37 37 46 53 54 71 44 41 47 44 41 44 45 42 44 40 39 40 39 38 38 36 37 37 33 33 34 33 34 34 37 39 39 37 43 43 37 42 42 37 42 42 39 43 43 37 42 42 38 43 44 39 43 43 42 45 45 37 42 42 38 42 42 36 40 40 36 40 40 36 40 40 36 40 40 36 43 43 35 45 45 35 48 48 49 62 71 84 90 114 82 87 104 78 83 92 101 104 139 131 135 218 161 165 255 166 167 255 163 163 252 159 159 241 157 157 234 154 154 225 150 150 216 146 146 206 141 141 196 135 135 186 130 130 175 124 124 165 117 117 154 111 111 143 104 104 132 98 98 121 91 91 110 84 84 99 77 77 88 69 69 76 55 55 58 43 43 44 25 25 25 25 25 25 25 25 25 25 25 25 25 25 25 25 25 25 25 25 25 25 25 25 25 25 25 25 25 25 25 25 25 25 25 25 25 25 25 
40 63 63 40 63 63 40 63 63 40 63 63 40 63 63 40 63 63 40 64 64 40 64 64 41 64 64 41 64 64 41 64 64 41 64 64 41 65 65 41 65 65 41 65 65 46 70 70 46 71 71 47 72 72 48 72 72 49 73 73 54 75 75 63 81 81 75 89 89 86 96 96 96 103 103 105 109 109 116 115 116 115 113 113 117 112 112 113 106 106 99 92 92 42 68 68 44 70 70 45 71 71 45 71 71 44 70 70 45 71 71 48 74 74 52 76 76 59 78 78 68 82 82 82 91 91 95 101 101 108 110 111 117 115 115 118 116 116 117 113 114 112 107 107 100 96 96 82 83 83 43 71 71 43 71 71 43 71 71 44 71 71 44 71 71 44 72 72 44 72 72 44 72 72 44 72 72 44 72 72 44 72 72 44 72 72 44 73 73 44 73 73 44 73 73 44 73 73 44 73 73 48 75 75 48 77 77 49 79 79 52 82 82 53 84 85 56 85 85 52 82 82 52 82 82 53 83 84 54 83 85 58 85 87 52 81 83 49 78 79 45 74 74 45 74 74 45 74 74 45 74 74 52 80 80 53 83 83 53 84 84 48 74 74 34 39 39 33 38 38 33 37 37 32 36 36 36 41 41 37 44 44 36 42 42 35 39 39 35 37 37 34 36 36 31 32 32 29 29 29 27 27 27 27 27 27 25 25 25 25 25 25 25 25 25 25 25 25 25 25 25 25 25 25 27 27 27 27 27 27 29 29 29 71 42 42 130 80 82 53 52 66 59 43 43 71 53 53 35 39 39 47 49 62 56 59 77 37 44 44 35 40 40 30 31 31 30 31 31 30 31 31 34 35 39 36 38 41 36 37 42 37 39 42 34 37 37 33 37 37 33 38 38 33 38 38 34 39 39 39 56 56 44 72 72 44 72 72 44 72 72 44 72 72 44 72 72 44 72 72 44 72 72 44 71 71 44 71 71 41 63 63 41 63 63 41 63 63 39 55 55 41 63 63 41 62 62 41 62 62 43 70 70 43 70 70 43 70 70 43 70 70 43 69 69 43 69 69 43 69 69 43 69 69 43 69 69 42 69 69 42 68 68 237 175 175 213 175 176 185 167 167 130 123 123 87 86 86 25 25 25 25 25 25 25 25 25 25 25 25 25 25 25 25 25 25 25 25 25 25 25 25 25 25 25 25 25 25 25 25 25 25 25 25 25 25 25 25 25 25 25 25 25 25 25 25 25 25 25 25 25 25 25 25 25 25 25 25 25 25 25 25 25 25 25 25 25 35 35 45 31 31 37 33 33 37 49 49 61 31 31 31 33 34 36 36 35 36 45 48 59 40 62 62 40 62 62 40 62 62 40 62 62 40 61 61 40 61 61 39 61 61 39 61 61 39 61 61 39 61 61 39 60 60 39 60 60 39 60 60 39 60 60 39 60 60 39 60 60 39 60 60 39 59 59 39 59 59 39 59 59 39 59 59 39 59 59 38 59 59 38 58 58 38 58 58 38 58 58 38 58 58 38 58 58 38 58 58 38 58 58 38 57 57 38 57 57 38 57 57 38 57 57 38 57 57 38 57 57 38 57 57 38 56 56 38 56 56 131 138 228 153 160 241 148 151 224 162 160 227 141 143 202 140 141 196 119 119 164 107 107 145 96 96 127 140 122 146 77 76 93 57 57 67 40 40 44 28 28 29 25 25 25 47 47 60 44 45 53 31 32 33 30 30 30 51 40 42 59 44 44 50 42 42 30 31 31 28 28 28 27 27 27 35 36 36 37 39 39 37 41 41 37 42 42 37 42 42 39 43 44 36 41 41 36 41 41 36 40 40 39 43 43 40 43 43 36 40 40 36 40 40 36 43 43 36 46 46 36 46 46 36 48 48 35 51 51 35 51 51 47 60 67 76 82 97 91 95 131 114 120 176 170 173 255 167 168 255 166 167 255 160 160 244 159 159 236 156 156 228 152 152 219 148 148 209 143 143 199 137 137 188 132 132 178 126 126 167 119 119 156 113 113 145 106 106 134 99 99 123 92 92 111 85 85 100 78 78 89 70 70 77 55 55 58 43 43 44 25 25 25 25 25 25 25 25 25 25 25 25 25 25 25 25 25 25 25 25 25 25 25 25 25 25 25 25 25 25 25 25 25 25 25 25 25 25 25 25 25 25 
40 63 63 40 63 63 40 63 63 40 63 63 40 63 63 40 63 63 40 64 64 40 64 64 41 64 64 41 64 64 41 64 64 41 64 64 41 65 65 41 65 65 41 65 65 46 70 70 46 70 70 46 71 71 47 71 71 50 72 72 57 76 76 69 83 83 80 91 91 91 98 98 101 105 105 111 112 112 116 115 116 121 116 117 119 112 112 114 106 106 76 84 84 45 71 71 47 73 73 47 73 73 49 75 75 50 75 75 49 74 74 51 75 75 54 76 76 62 78 78 73 84 84 90 96 96 106 107 107 112 112 112 122 118 118 126 120 121 123 117 117 117 110 110 104 98 98 75 81 81 43 71 71 43 71 71 43 71 71 44 71 71 44 71 71 44 72 72 44 72 72 44 72 72 44 72 72 44 72 72 44 72 72 44 72 72 44 72 72 44 73 73 44 73 73 44 73 73 50 77 77 48 78 78 52 81 81 53 83 83 52 83 83 53 84 84 52 83 83 53 84 84 52 83 83 52 83 83 52 82 82 51 81 81 53 82 86 52 81 86 45 74 74 45 74 74 45 74 74 46 76 76 51 81 81 52 83 83 53 84 84 53 84 84 34 40 40 34 39 39 33 38 38 33 37 37 33 37 37 38 45 45 37 43 43 36 41 41 35 39 39 35 38 38 34 37 37 34 36 36 32 33 33 31 32 32 29 30 30 29 30 30 29 30 30 29 30 30 29 30 30 29 30 30 29 30 30 31 33 33 32 33 33 50 38 38 100 63 63 74 53 61 58 41 41 73 52 52 36 40 40 60 57 73 44 49 56 37 44 44 35 41 41 32 36 36 32 36 36 32 36 36 32 36 36 33 36 36 33 37 38 37 39 39 38 41 42 34 38 38 33 38 38 33 39 39 36 47 47 41 64 64 44 72 72 44 72 72 44 72 72 44 72 72 44 72 72 44 72 72 44 71 71 44 71 71 43 71 71 43 71 71 43 71 71 43 71 71 43 71 71 43 70 70 43 70 70 43 70 70 43 70 70 43 70 70 43 70 70 43 69 69 43 69 69 43 69 69 43 69 69 43 69 69 42 69 69 42 69 69 42 68 68 225 170 170 201 169 169 169 158 158 93 91 91 31 31 31 28 28 28 25 25 25 25 25 25 25 25 25 25 25 25 25 25 25 25 25 25 25 25 25 25 25 25 25 25 25 25 25 25 25 25 25 25 25 25 25 25 25 25 25 25 25 25 25 25 25 25 25 25 25 25 25 25 25 25 25 25 25 25 25 25 25 26 26 27 43 43 56 56 55 79 29 29 29 33 34 37 31 32 32 32 33 33 37 34 34 44 47 55 40 62 62 40 62 62 40 62 62 40 62 62 40 61 61 40 61 61 39 61 61 39 61 61 39 61 61 39 61 61 39 60 60 39 60 60 39 60 60 39 60 60 39 60 60 39 60 60 39 60 60 39 59 59 39 59 59 39 59 59 39 59 59 39 59 59 38 59 59 38 58 58 38 58 58 38 58 58 38 58 58 38 58 58 38 58 58 51 67 89 49 65 85 38 57 57 38 57 57 38 57 57 38 57 57 38 57 57 38 57 57 38 56 56 38 56 56 140 144 237 149 155 239 144 152 220 139 145 206 143 147 206 139 136 185 111 111 150 97 97 128 85 85 110 134 114 133 65 65 76 42 42 47 31 31 32 25 25 25 30 30 37 55 55 76 37 38 46 25 25 25 68 46 46 74 51 51 88 60 60 69 46 47 27 27 27 25 25 25 29 30 30 34 35 35 35 37 37 36 43 43 36 47 47 36 44 44 36 44 44 36 44 44 36 44 44 36 44 44 36 43 43 36 43 43 36 46 46 36 46 46 36 49 49 36 49 49 36 51 51 35 51 51 35 51 51 35 51 51 35 51 51 45 58 62 113 118 178 163 166 255 168 171 255 169 170 255 184 182 255 160 160 239 157 157 230 154 154 221 149 149 211 145 145 201 139 139 191 134 134 180 127 127 169 121 121 158 114 114 147 108 108 136 101 101 124 93 93 113 86 86 101 79 79 90 71 71 78 56 56 59 43 43 44 25 25 25 25 25 25 25 25 25 25 25 25 25 25 25 25 25 25 25 25 25 25 25 25 25 25 25 25 25 25 25 25 25 25 25 25 25 25 25 25 25 25 25 25 25 
40 63 63 40 63 63 40 63 63 40 63 63 40 63 63 40 63 63 40 64 64 41 64 64 41 64 64 41 64 64 41 64 64 41 64 64 41 65 65 41 65 65 44 68 68 47 71 71 46 70 70 46 71 71 48 71 71 52 72 72 60 77 77 72 85 85 84 93 93 95 100 100 104 106 106 113 112 112 119 115 115 121 114 114 119 110 110 109 99 99 75 83 83 48 74 74 50 76 77 50 75 76 52 76 77 55 77 77 57 77 77 59 78 78 62 78 78 63 80 80 75 84 84 93 97 97 114 112 112 114 112 112 122 117 117 127 119 119 124 116 116 118 109 109 102 95 95 66 77 77 43 71 71 43 71 71 43 71 71 43 71 71 44 71 71 44 71 71 44 72 72 44 72 72 44 72 72 44 72 72 44 72 72 44 72 72 44 72 72 44 72 72 44 73 73 55 80 80 50 79 79 54 82 82 54 84 84 53 83 83 52 83 83 53 83 84 52 83 83 52 83 83 52 83 83 52 83 83 52 83 83 52 83 83 50 79 79 54 83 89 52 82 88 45 74 74 45 74 74 53 80 80 51 81 81 52 82 82 52 84 84 53 84 84 44 62 62 34 39 39 34 39 39 33 38 38 33 38 38 39 47 47 37 44 44 36 42 42 36 41 41 35 40 40 35 39 39 35 38 38 34 37 37 34 37 37 34 36 36 34 36 36 34 36 36 34 36 36 34 36 36 34 36 36 34 36 36 34 37 37 34 37 37 35 38 38 71 52 52 91 68 69 79 59 59 38 41 41 46 45 50 55 54 76 48 52 68 38 45 45 35 40 40 33 37 37 33 37 37 33 37 37 33 37 37 37 40 40 38 41 42 35 39 40 36 41 41 35 40 41 34 39 39 34 39 39 39 56 56 44 72 72 44 72 72 44 72 72 44 72 72 44 72 72 44 72 72 44 71 71 44 71 71 43 71 71 43 71 71 43 71 71 43 71 71 43 71 71 43 70 70 43 70 70 43 70 70 43 70 70 43 70 70 43 70 70 43 70 70 43 69 69 43 69 69 43 69 69 43 69 69 42 69 69 42 69 69 42 68 68 42 68 68 219 172 176 185 162 162 129 124 124 59 61 61 31 32 32 30 31 31 26 26 26 25 25 25 25 25 25 25 25 25 25 25 25 25 25 25 25 25 25 25 25 25 25 25 25 25 25 25 25 25 25 25 25 25 25 25 25 25 25 25 25 25 25 25 25 25 25 25 25 25 25 25 25 25 25 25 25 25 25 25 25 26 26 26 42 43 57 53 53 74 61 43 43 42 34 34 31 32 32 31 33 33 32 33 33 44 51 57 40 62 62 40 62 62 40 62 62 40 62 62 40 61 61 39 61 61 39 61 61 39 61 61 39 61 61 39 61 61 39 60 60 39 60 60 39 60 60 39 60 60 39 60 60 39 60 60 39 60 60 39 59 59 39 59 59 39 59 59 39 59 59 38 59 59 38 59 59 38 58 58 38 58 58 61 78 105 81 93 144 82 92 140 80 91 135 90 97 159 86 93 150 69 79 112 64 74 104 57 69 94 46 62 72 38 57 57 38 57 57 38 56 56 38 56 56 139 139 231 169 169 255 136 144 207 130 138 192 139 143 198 125 125 170 105 108 141 92 93 119 76 76 95 94 81 93 71 63 70 33 33 34 25 25 25 25 25 25 25 25 25 58 59 83 30 30 30 25 25 25 32 28 28 49 35 35 56 37 37 109 65 65 38 31 31 29 30 30 32 33 33 34 37 37 35 38 38 36 46 46 36 53 53 36 50 50 36 50 50 36 50 50 36 49 49 36 49 49 36 49 49 36 49 49 36 49 49 36 52 52 36 52 52 36 51 51 36 51 51 36 51 51 35 51 51 35 51 51 35 51 51 101 106 167 142 146 231 166 169 255 169 169 255 170 170 255 164 164 244 158 158 232 155 155 223 151 151 214 146 146 204 141 141 193 135 135 183 129 129 172 123 123 161 116 116 149 109 109 138 102 102 126 95 95 115 87 87 103 80 80 91 72 72 79 56 56 60 43 43 45 25 25 25 25 25 25 25 25 25 25 25 25 25 25 25 25 25 25 25 25 25 25 25 25 25 25 25 25 25 25 25 25 25 25 25 25 25 25 25 25 25 25 25 25 25 25 25 25 
40 63 63 40 63 63 40 63 63 40 63 63 40 63 63 40 63 63 40 64 64 41 64 64 41 64 64 41 64 64 41 64 64 41 64 64 41 65 65 41 65 65 45 69 69 47 72 72 47 71 71 46 71 71 48 71 71 54 72 72 63 78 78 75 86 86 86 93 93 96 100 100 105 105 105 112 109 109 117 111 111 117 109 109 112 102 102 83 88 88 63 77 77 49 75 75 51 76 77 54 77 78 59 78 79 63 80 81 67 81 81 69 82 82 70 81 81 69 79 79 76 84 84 90 94 94 106 105 105 112 109 109 119 113 113 122 114 114 120 111 111 111 102 102 86 87 87 64 77 77 43 71 71 43 71 71 43 71 71 43 71 71 44 71 71 44 71 71 44 72 72 44 72 72 44 72 72 44 72 72 44 72 72 44 72 72 44 72 72 44 72 72 47 75 75 48 76 76 52 81 81 52 82 83 54 84 84 52 83 83 53 83 83 52 83 83 52 83 83 53 84 84 53 83 83 52 83 83 52 83 83 52 83 83 52 82 82 50 79 79 54 84 95 45 74 74 45 74 74 53 80 80 52 82 82 52 82 82 52 83 83 52 84 84 52 84 84 40 52 54 34 39 39 34 39 39 33 38 38 33 38 38 38 45 45 37 43 43 36 42 42 36 41 41 36 40 40 35 40 40 35 39 39 35 38 38 35 38 38 35 38 38 35 38 38 35 38 38 35 38 38 35 38 38 35 38 38 35 38 38 35 39 39 35 39 39 36 40 41 46 44 45 44 45 45 39 42 43 43 44 53 57 57 79 60 61 82 35 42 42 33 38 38 33 38 38 33 38 38 34 38 38 34 39 39 36 40 40 34 39 40 34 39 40 36 41 42 35 39 39 34 39 39 39 56 56 41 64 64 44 72 72 44 72 72 44 72 72 44 72 72 44 72 72 44 71 71 44 71 71 43 71 71 43 71 71 43 71 71 43 71 71 43 71 71 43 70 70 43 70 70 43 70 70 43 70 70 43 70 70 43 70 70 43 70 70 43 69 69 43 69 69 43 69 69 43 69 69 43 69 69 42 69 69 42 68 68 42 68 68 42 68 68 215 174 181 173 157 158 94 94 94 32 35 35 31 34 34 31 32 32 30 31 31 26 26 26 25 25 25 25 25 25 25 25 25 25 25 25 25 25 25 25 25 25 25 25 25 25 25 25 25 25 25 25 25 25 25 25 25 25 25 25 25 25 25 25 25 25 25 25 25 25 25 25 25 25 25 25 25 25 30 30 35 49 40 45 34 35 42 42 42 53 63 44 44 62 41 41 31 33 33 32 34 34 32 34 34 39 51 53 40 62 62 40 62 62 40 62 62 40 62 62 40 61 61 39 61 61 39 61 61 39 61 61 39 61 61 39 61 61 39 60 60 39 60 60 39 60 60 39 60 60 39 60 60 39 60 60 39 59 59 39 59 59 39 59 59 39 59 59 39 59 59 38 59 59 38 59 59 64 81 110 90 101 156 110 117 196 114 120 193 131 132 226 129 129 215 123 123 202 115 115 187 106 106 171 95 96 153 83 84 134 65 70 101 54 61 86 42 57 62 38 56 56 38 56 56 119 119 198 148 148 224 143 145 212 134 139 197 126 128 177 116 114 148 96 100 127 84 87 107 70 72 85 69 59 65 75 60 63 27 27 27 25 25 25 25 25 25 30 30 36 55 55 80 25 25 25 25 25 25 25 25 25 25 25 25 35 29 29 119 71 71 40 34 34 32 33 33 34 36 36 35 38 38 35 39 39 36 46 46 36 53 53 36 53 53 36 52 52 36 52 52 36 52 52 36 52 52 36 52 52 36 52 52 36 52 52 36 52 52 36 52 52 36 52 52 36 51 51 36 51 51 35 51 51 35 51 51 35 51 51 96 107 161 161 164 255 169 172 255 174 173 255 174 174 255 161 161 236 156 156 226 152 152 216 148 148 206 142 142 196 137 137 185 131 131 174 124 124 163 118 118 152 111 111 140 104 104 129 96 96 117 89 89 105 81 81 93 73 73 81 57 57 61 44 44 45 25 25 25 25 25 25 25 25 25 25 25 25 25 25 25 25 25 25 25 25 25 25 25 25 25 25 25 25 25 25 25 25 25 25 25 25 25 25 25 25 25 25 25 25 25 25 25 25 25 25 25 
40 63 63 40 63 63 40 63 63 40 63 63 40 63 63 40 64 64 40 64 64 41 64 64 41 64 64 41 64 64 41 64 64 41 64 64 41 65 65 43 67 67 47 71 71 47 72 72 48 72 72 47 71 71 49 71 71 55 73 73 63 76 76 74 84 84 85 91 91 94 97 97 102 101 101 108 104 104 110 103 103 109 99 99 99 93 93 70 79 79 60 76 76 60 77 77 54 76 77 59 78 78 66 82 82 73 85 85 79 89 89 85 92 94 84 90 90 79 85 85 78 82 82 81 86 86 96 96 96 105 101 101 111 105 105 112 104 104 107 99 99 88 89 89 68 78 78 43 71 71 43 71 71 43 71 71 43 71 71 43 71 71 43 71 71 44 71 71 44 71 71 44 72 72 44 72 72 44 72 72 44 72 72 44 72 72 44 72 72 44 72 72 50 77 77 52 80 80 52 82 82 52 82 82 52 82 82 52 83 83 52 83 83 52 83 83 52 83 83 52 83 83 52 83 83 52 83 83 52 83 83 52 83 83 52 82 82 51 81 81 56 83 83 45 74 74 45 74 74 46 75 75 52 82 82 52 82 82 51 81 81 52 83 83 52 83 83 52 83 83 39 51 52 34 39 39 34 39 39 33 39 39 41 49 51 37 44 44 37 43 43 36 42 42 36 41 41 36 41 41 36 40 40 36 40 40 35 40 40 35 39 39 35 39 39 35 39 39 35 39 39 35 39 39 35 39 39 35 40 40 36 40 40 36 40 40 37 42 43 44 44 44 40 41 42 44 43 49 51 49 63 64 61 83 60 61 83 36 42 42 33 39 39 33 38 38 35 40 41 36 41 43 34 39 39 37 40 41 37 41 41 38 41 41 34 40 40 35 40 40 39 56 56 41 64 64 44 72 72 44 72 72 44 72 72 44 72 72 44 71 71 44 71 71 43 71 71 43 71 71 43 71 71 43 71 71 43 71 71 43 71 71 43 70 70 43 70 70 43 70 70 43 70 70 43 70 70 43 70 70 43 70 70 43 69 69 43 69 69 43 69 69 43 69 69 43 69 69 42 69 69 42 68 68 42 68 68 42 68 68 42 68 68 155 137 137 167 158 160 88 91 91 32 36 36 32 35 35 31 33 33 31 32 32 31 31 31 29 29 29 26 26 26 25 25 25 25 25 25 25 25 25 25 25 25 25 25 25 25 25 25 25 25 25 25 25 25 25 25 25 25 25 25 25 25 25 25 25 25 25 25 25 25 25 25 25 25 25 27 27 30 44 44 59 46 46 66 41 35 38 33 33 36 39 34 34 77 52 52 31 33 33 32 34 34 32 35 35 40 51 55 40 62 62 40 62 62 40 62 62 40 61 61 40 61 61 39 61 61 39 61 61 39 61 61 39 61 61 39 61 61 39 60 60 39 60 60 39 60 60 39 60 60 39 60 60 39 60 60 39 59 59 39 59 59 39 59 59 39 59 59 39 59 59 60 77 108 93 105 164 118 125 210 146 148 255 149 149 250 146 146 239 142 142 228 136 136 215 129 129 200 120 120 184 110 110 167 99 99 149 87 87 131 75 75 111 64 65 94 53 55 77 39 51 56 38 56 56 80 85 134 126 126 188 141 139 197 133 133 188 119 118 161 94 97 125 85 90 111 73 77 92 59 62 70 44 47 50 85 65 65 53 41 41 31 32 32 29 30 30 29 30 30 58 58 75 31 31 37 29 30 30 29 30 30 29 30 30 60 39 40 109 65 65 55 39 39 34 37 37 35 38 38 35 39 39 35 40 40 36 50 50 36 53 53 36 53 53 36 53 53 36 52 52 36 52 52 36 52 52 36 52 52 36 52 52 36 52 52 36 52 52 36 52 52 36 52 52 36 51 51 36 51 51 35 51 51 35 51 51 93 101 159 161 165 255 166 171 255 170 172 255 170 171 254 169 168 245 168 168 241 153 153 218 149 149 209 144 144 198 138 138 188 132 132 177 126 126 166 119 119 154 112 112 143 105 105 131 98 98 119 90 90 107 82 82 95 74 74 83 66 66 70 44 44 46 25 25 25 25 25 25 25 25 25 25 25 25 25 25 25 25 25 25 25 25 25 25 25 25 25 25 25 25 25 25 25 25 25 25 25 25 25 25 25 25 25 25 25 25 25 25 25 25 25 25 25 25 25 25 
40 63 63 40 63 63 40 63 63 40 63 63 40 63 63 40 64 64 40 64 64 41 64 64 41 64 64 41 64 64 41 64 64 41 65 65 41 65 65 43 67 67 47 71 71 47 72 72 48 72 72 48 73 73 49 73 73 55 73 73 61 75 75 71 79 79 78 84 84 87 88 88 92 91 91 103 100 100 106 98 98 105 99 99 96 90 90 85 87 88 71 81 81 70 79 79 69 79 79 67 81 81 77 88 88 86 94 94 93 99 99 98 102 102 100 101 101 94 95 95 83 84 84 81 84 84 81 84 84 90 89 89 95 91 91 85 88 88 82 85 85 67 78 78 43 70 70 43 70 70 43 71 71 43 71 71 43 71 71 43 71 71 43 71 71 43 71 71 44 71 71 44 71 71 44 72 72 44 72 72 44 72 72 44 72 72 44 72 72 44 72 72 46 75 75 51 80 80 52 82 82 52 82 82 52 82 82 52 82 82 52 82 82 52 83 83 53 83 83 52 83 83 53 83 84 52 83 83 52 83 83 52 83 83 52 82 82 52 81 81 58 85 86 44 74 74 44 74 74 44 74 74 56 85 86 54 83 83 51 81 81 51 81 81 51 82 82 52 82 82 52 83 83 38 50 50 34 39 39 34 39 39 34 39 39 38 45 45 37 44 44 37 43 43 37 42 42 36 42 42 36 41 41 36 41 41 36 41 41 36 40 40 36 40 40 36 40 40 36 40 40 36 40 40 36 40 40 36 41 41 36 41 41 37 42 43 38 41 42 40 41 43 46 43 49 49 49 64 66 63 82 70 70 96 53 56 71 34 40 40 34 39 40 34 39 39 35 40 40 38 42 44 35 40 41 34 39 39 34 39 39 34 39 39 38 49 49 41 57 57 41 64 64 44 72 72 44 72 72 44 72 72 44 72 72 44 71 71 44 71 71 43 71 71 43 71 71 43 71 71 43 71 71 43 71 71 43 71 71 43 70 70 43 70 70 43 70 70 43 70 70 43 70 70 43 70 70 43 70 70 43 69 69 43 69 69 43 69 69 43 69 69 43 69 69 42 69 69 42 68 68 42 68 68 42 68 68 42 68 68 42 68 68 112 111 111 157 147 149 33 38 38 33 37 37 32 35 35 32 34 34 31 33 33 31 32 32 31 32 32 29 30 30 28 28 28 26 26 26 25 25 25 25 25 25 25 25 25 25 25 25 25 25 25 25 25 25 25 25 25 25 25 25 25 25 25 25 25 25 25 25 25 25 25 25 26 26 26 29 30 33 48 48 67 48 48 65 31 31 31 31 32 32 31 33 33 68 50 50 54 39 39 32 34 34 33 34 36 51 62 71 40 62 62 40 62 62 40 62 62 40 61 61 40 61 61 39 61 61 39 61 61 39 61 61 39 61 61 39 60 60 39 60 60 39 60 60 39 60 60 39 60 60 39 60 60 39 60 60 39 59 59 39 59 59 39 59 59 39 59 59 62 79 110 97 109 168 143 147 255 158 159 255 159 160 255 160 160 253 152 152 238 146 146 225 139 139 210 130 130 194 120 120 178 109 109 160 98 98 142 86 86 123 85 85 123 82 82 118 65 66 93 44 45 59 36 44 45 37 56 56 112 112 169 108 108 154 107 107 147 92 92 123 82 85 108 73 79 94 60 66 74 46 51 54 38 42 42 76 51 51 85 57 57 34 36 36 34 36 36 34 36 36 42 44 53 43 44 60 45 45 59 44 45 54 53 43 43 47 38 38 87 63 63 43 39 39 35 38 38 35 39 39 35 39 39 36 46 46 36 53 53 36 53 53 36 53 53 36 53 53 36 52 52 36 52 52 36 52 52 36 52 52 36 52 52 36 52 52 36 52 52 36 52 52 36 52 52 36 51 51 36 51 51 36 51 51 35 51 51 94 105 158 160 166 255 169 171 255 191 175 255 174 175 255 164 164 237 157 157 224 150 150 211 145 145 201 140 140 190 134 134 179 128 128 168 121 121 157 114 114 145 107 107 133 99 99 121 92 92 109 84 84 97 76 76 85 68 68 72 45 45 47 33 33 33 25 25 25 25 25 25 25 25 25 25 25 25 25 25 25 25 25 25 25 25 25 25 25 25 25 25 25 25 25 25 25 25 25 25 25 25 25 25 25 25 25 25 25 25 25 25 25 25 25 25 25 25 25 25 
40 63 63 40 63 63 40 63 63 40 63 63 40 63 63 40 64 64 40 64 64 41 64 64 41 64 64 41 64 64 41 64 64 41 65 65 41 65 65 43 67 67 46 70 70 47 72 72 48 72 72 48 73 73 51 73 73 57 76 76 67 81 81 76 86 86 84 91 91 95 97 99 98 98 98 107 102 103 110 104 104 113 108 108 103 96 96 88 88 88 86 92 93 82 87 87 78 80 80 77 87 87 88 95 95 97 102 102 109 109 110 113 111 111 112 109 110 106 103 103 95 92 92 80 81 81 58 75 75 61 76 76 64 77 77 64 76 76 54 73 73 43 70 70 43 70 70 43 70 70 43 70 70 43 71 71 43 71 71 43 71 71 43 71 71 43 71 71 43 71 71 44 71 71 44 71 71 44 72 72 44 72 72 44 72 72 44 72 72 44 72 72 49 77 77 51 80 80 52 81 81 52 82 82 52 82 82 52 82 82 52 82 82 52 82 82 54 84 84 53 83 83 53 83 83 54 84 84 52 83 83 52 83 83 52 81 81 52 81 81 59 89 90 54 83 85 44 73 73 44 74 74 53 82 83 56 85 86 52 82 82 50 79 79 50 79 79 51 80 80 51 80 80 51 81 81 47 70 70 43 52 52 35 40 40 38 44 46 38 45 45 37 44 44 37 43 43 37 43 43 36 42 42 36 42 42 36 41 41 36 41 41 36 41 41 36 41 41 36 41 41 36 41 41 36 41 41 36 41 41 36 40 40 35 38 38 36 37 40 36 36 42 45 45 57 58 58 75 70 70 93 63 77 90 68 79 106 66 71 96 93 97 148 107 112 169 95 100 148 99 103 149 93 98 144 88 92 138 63 69 90 43 60 60 43 60 61 46 68 68 45 73 73 44 72 72 44 72 72 44 71 71 44 71 71 44 71 71 43 71 71 43 71 71 43 71 71 43 71 71 43 71 71 43 70 70 43 70 70 43 70 70 43 70 70 43 70 70 43 70 70 43 70 70 43 70 70 43 69 69 43 69 69 43 69 69 43 69 69 43 69 69 42 69 69 42 68 68 42 68 68 42 68 68 42 68 68 42 68 68 42 68 68 42 68 68 145 137 137 33 38 38 33 37 37 32 36 36 32 35 35 32 34 34 31 33 33 31 33 33 31 32 32 31 31 31 29 30 30 29 29 29 28 28 28 26 26 26 26 26 26 26 26 26 26 26 26 26 26 26 26 26 26 26 26 26 26 26 26 28 28 28 28 28 28 29 29 32 41 41 52 38 39 50 39 40 50 31 32 32 31 33 33 31 33 33 49 38 38 32 34 34 32 35 35 36 39 42 38 56 56 40 62 62 40 62 62 40 62 62 40 61 61 39 61 61 39 61 61 39 61 61 39 61 61 39 61 61 39 60 60 39 60 60 39 60 60 39 60 60 39 60 60 39 60 60 39 60 60 39 59 59 39 59 59 39 59 59 60 76 107 98 111 169 155 159 255 166 167 255 172 173 255 167 168 255 163 163 249 159 159 237 145 145 217 137 137 201 127 127 184 116 116 167 105 105 149 93 93 130 81 81 111 93 93 130 100 101 144 84 84 116 60 61 79 40 41 49 36 43 43 85 85 134 93 93 135 86 86 119 82 82 106 71 75 91 61 66 76 47 52 56 39 44 44 36 41 41 36 40 40 82 63 63 83 53 53 63 47 47 36 38 40 35 38 38 56 49 58 44 46 55 71 48 48 104 68 75 66 44 44 41 39 39 35 38 38 35 39 39 35 39 39 36 40 40 36 47 47 36 53 53 36 53 53 36 53 53 36 53 53 36 52 52 36 52 52 36 52 52 36 52 52 36 52 52 36 52 52 36 52 52 36 52 52 36 52 52 36 51 51 36 51 51 36 51 51 58 71 99 148 152 255 162 165 255 195 186 255 175 177 255 167 167 243 161 161 230 152 152 215 146 146 203 141 141 192 135 135 182 129 129 171 122 122 159 116 116 148 108 108 136 101 101 124 93 93 112 86 86 99 77 77 87 69 69 74 46 46 48 34 34 34 25 25 25 25 25 25 25 25 25 25 25 25 25 25 25 25 25 25 25 25 25 25 25 25 25 25 25 25 25 25 25 25 25 25 25 25 25 25 25 25 25 25 25 25 25 25 25 25 25 25 25 25 25 25 25 25 25 
40 63 63 40 63 63 40 63 63 40 63 63 40 63 63 40 64 64 40 64 64 41 64 64 41 64 64 41 64 64 41 64 64 41 65 65 41 65 65 41 65 65 46 70 70 46 71 71 47 72 72 49 72 72 53 74 74 61 77 77 73 86 86 85 94 94 96 101 101 107 108 108 116 114 115 118 114 115 119 113 113 117 109 109 106 97 97 99 95 95 98 100 100 97 97 97 89 88 88 87 85 85 100 104 104 107 109 109 115 113 114 119 115 115 119 113 113 114 108 108 103 97 97 84 82 82 43 69 69 43 69 69 43 70 70 43 70 70 43 70 70 43 70 70 43 70 70 43 70 70 43 70 70 43 70 70 43 71 71 43 71 71 43 71 71 43 71 71 45 72 72 45 73 73 44 71 71 44 71 71 44 72 72 44 72 72 44 72 72 44 72 72 59 83 83 51 80 80 51 81 81 52 81 81 52 82 82 52 82 82 52 82 82 52 82 82 52 82 82 52 83 83 53 84 84 53 84 84 52 83 83 52 82 82 53 81 81 54 84 84 62 91 93 66 94 101 44 73 73 44 73 73 48 77 77 59 88 92 55 83 85 50 79 79 50 79 79 50 79 79 50 79 79 54 81 81 53 81 81 61 87 90 48 70 70 46 63 63 44 56 56 38 45 45 37 44 44 37 43 43 37 43 43 37 42 42 36 42 42 36 42 42 36 42 42 36 42 42 36 42 42 36 42 42 36 42 42 36 41 41 36 39 40 36 38 40 37 37 43 45 45 57 57 57 74 71 71 95 100 102 140 112 122 179 108 124 170 134 136 205 139 140 212 188 180 255 158 161 247 171 170 255 156 160 241 157 154 236 119 121 178 114 119 176 94 112 149 70 92 110 50 79 79 47 75 75 44 71 71 44 71 71 43 71 71 43 71 71 43 71 71 43 71 71 43 71 71 43 71 71 43 70 70 43 70 70 43 70 70 43 70 70 43 70 70 43 70 70 43 70 70 43 70 70 43 69 69 43 69 69 43 69 69 43 69 69 43 69 69 42 69 69 42 68 68 42 68 68 42 68 68 42 68 68 42 68 68 42 68 68 42 68 68 42 67 67 148 143 143 33 37 37 33 37 37 33 36 36 32 36 36 32 35 35 32 34 34 32 34 34 31 33 33 31 33 33 31 32 32 31 32 32 31 31 31 31 31 31 29 30 30 29 30 30 29 29 29 29 29 29 29 29 29 29 30 30 29 30 30 29 30 30 31 31 31 34 35 42 50 50 70 39 39 48 31 32 32 31 33 33 31 33 33 32 33 34 61 44 44 32 35 35 32 35 35 36 48 48 40 62 62 40 62 62 40 62 62 40 61 61 40 61 61 39 61 61 39 61 61 39 61 61 39 61 61 39 61 61 39 60 60 39 60 60 39 60 60 39 60 60 39 60 60 39 60 60 39 60 60 39 59 59 39 59 59 39 59 59 95 109 167 153 157 255 168 170 255 199 196 255 168 168 255 167 168 253 167 167 246 159 159 232 145 145 209 132 132 189 121 121 172 110 110 154 99 99 135 86 86 116 73 73 97 107 107 152 97 97 130 85 84 111 69 70 89 58 58 73 41 42 51 36 44 44 76 76 110 71 71 97 66 66 84 61 60 71 48 54 58 39 45 45 36 41 41 36 41 41 36 41 41 39 40 40 59 50 50 96 63 63 46 39 41 88 63 63 90 60 61 49 40 42 48 40 40 100 66 66 67 48 48 35 39 39 35 39 39 35 39 39 36 40 40 36 47 47 36 53 53 36 53 53 36 53 53 36 53 53 36 53 53 36 52 52 36 52 52 36 52 52 36 52 52 36 52 52 36 52 52 36 52 52 36 52 52 36 52 52 36 52 52 36 51 51 36 51 51 89 95 147 160 165 255 184 182 255 172 176 255 172 168 245 177 170 241 158 158 223 146 146 205 141 141 195 136 136 184 130 130 173 124 124 162 117 117 150 110 110 138 103 103 126 95 95 114 87 87 102 79 79 89 71 71 77 55 55 57 34 34 34 25 25 25 25 25 25 25 25 25 25 25 25 25 25 25 25 25 25 25 25 25 25 25 25 25 25 25 25 25 25 25 25 25 25 25 25 25 25 25 25 25 25 25 25 25 25 25 25 25 25 25 25 25 25 25 25 25 25 25 25 
40 63 63 40 63 63 40 63 63 40 63 63 40 63 63 40 64 64 40 64 64 41 64 64 41 64 64 41 64 64 41 64 64 41 65 65 41 65 65 41 65 65 46 70 70 46 70 70 46 71 71 49 72 72 54 73 73 64 78 78 77 87 87 89 96 96 100 103 103 109 109 109 120 116 117 122 116 116 122 114 114 118 108 108 103 93 93 106 98 98 109 107 107 110 107 108 100 96 96 87 83 83 106 107 107 111 110 110 120 116 116 125 118 119 124 116 116 118 109 109 105 97 97 66 77 77 43 69 69 43 69 69 43 69 69 43 70 70 43 70 70 43 70 70 43 70 70 43 70 70 43 70 70 43 70 70 44 72 72 46 73 73 52 77 77 50 76 76 53 78 78 48 76 76 50 77 77 51 77 79 45 73 73 44 72 72 44 72 72 44 72 72 51 79 79 49 77 77 51 80 80 51 81 81 52 81 81 52 82 82 52 82 82 52 82 82 52 82 82 52 82 82 53 83 83 52 82 82 52 82 82 50 80 80 50 79 79 61 90 91 72 101 106 61 90 96 44 73 73 44 73 73 44 73 73 52 81 83 57 86 88 49 78 78 49 78 78 49 78 78 50 79 79 57 83 83 62 87 87 54 83 84 60 89 91 59 88 90 66 95 98 63 87 91 46 59 62 38 45 45 37 44 44 37 43 43 37 43 43 37 43 43 37 43 43 37 42 42 37 42 42 37 42 42 36 41 41 37 40 42 36 37 41 39 39 46 48 48 60 59 59 77 68 73 89 117 117 177 117 125 178 142 151 220 172 172 255 167 168 249 165 165 242 165 165 239 170 163 233 169 166 236 154 156 221 145 145 209 141 141 204 139 139 202 135 137 201 136 134 180 88 106 137 50 78 78 47 75 75 43 71 71 43 71 71 43 71 71 43 71 71 43 71 71 43 71 71 43 70 70 43 70 70 43 70 70 43 70 70 43 70 70 43 70 70 43 70 70 43 69 69 43 69 69 43 69 69 43 69 69 43 69 69 43 69 69 42 69 69 42 68 68 42 68 68 42 68 68 42 68 68 42 68 68 42 68 68 42 68 68 42 67 67 42 67 67 97 105 105 31 32 32 33 38 38 33 37 37 32 36 36 32 35 35 32 35 35 32 34 34 32 34 34 31 33 33 31 33 33 31 33 33 31 32 32 31 32 32 31 32 32 31 32 32 31 32 32 31 32 32 31 32 32 31 32 32 31 32 32 31 32 32 31 32 32 36 36 42 57 56 79 42 40 51 33 34 38 33 35 40 32 34 34 39 34 34 53 43 43 32 35 35 34 36 37 42 52 56 40 62 62 40 62 62 40 62 62 40 61 61 39 61 61 39 61 61 39 61 61 39 61 61 39 61 61 39 60 60 39 60 60 39 60 60 39 60 60 39 60 60 39 60 60 39 60 60 39 59 59 39 59 59 39 59 59 85 99 157 126 136 220 166 169 255 187 182 255 185 179 255 167 167 253 174 174 252 158 158 231 169 167 232 141 141 198 125 125 175 114 114 158 102 102 139 90 90 120 77 77 100 63 63 80 93 93 127 79 80 104 73 73 94 65 65 81 57 57 71 46 46 57 37 39 42 49 55 69 60 60 78 56 56 69 58 52 57 41 47 48 36 42 42 38 43 43 37 42 42 36 41 41 36 41 41 36 40 40 67 53 55 46 43 43 84 52 52 98 67 67 57 44 45 36 40 41 51 43 43 35 39 39 35 39 39 35 40 40 36 40 40 36 47 47 36 50 50 36 53 53 36 53 53 36 53 53 36 53 53 36 53 53 36 52 52 36 52 52 36 52 52 36 52 52 36 52 52 36 52 52 36 52 52 36 52 52 36 52 52 36 52 52 36 51 51 36 51 51 97 107 159 156 163 255 185 180 255 165 170 250 177 175 255 172 171 237 154 155 215 150 150 205 137 137 186 131 131 175 125 125 164 119 119 153 112 112 141 104 104 129 97 97 117 89 89 105 81 81 92 72 72 79 56 56 59 43 43 43 25 25 25 25 25 25 25 25 25 25 25 25 25 25 25 25 25 25 25 25 25 25 25 25 25 25 25 25 25 25 25 25 25 25 25 25 25 25 25 25 25 25 25 25 25 25 25 25 25 25 25 25 25 25 25 25 25 25 25 25 25 25 25 
40 63 63 40 63 63 40 63 63 40 63 63 40 63 63 40 64 64 40 64 64 41 64 64 41 64 64 41 64 64 41 64 64 41 64 64 41 65 65 41 65 65 44 68 68 46 70 70 46 70 70 49 71 71 55 72 72 66 79 79 79 88 88 91 96 96 101 103 103 110 108 108 117 113 113 121 113 113 120 110 110 112 101 101 117 107 107 115 113 113 120 114 114 116 110 110 108 101 101 90 85 85 105 105 105 113 110 110 120 115 115 124 116 116 123 114 114 117 107 107 101 93 93 66 76 76 43 69 69 43 69 69 43 69 69 43 70 70 43 70 70 43 70 70 43 70 70 43 70 70 43 70 70 48 74 74 47 75 76 48 76 76 50 78 78 56 83 83 53 80 80 51 80 80 52 80 80 53 80 80 56 82 82 49 77 77 46 74 76 44 72 72 51 80 80 49 77 77 50 78 78 51 80 80 51 81 81 51 81 81 51 81 81 52 81 81 52 81 81 52 81 81 52 81 81 54 82 82 56 83 84 62 86 86 56 85 86 69 98 103 72 101 107 56 85 89 44 73 73 44 73 73 44 73 73 44 73 73 55 84 85 57 86 87 57 86 87 57 86 87 58 87 89 65 91 93 59 87 89 63 92 94 70 98 102 73 102 108 73 101 108 76 105 116 76 99 103 62 73 73 52 61 61 38 45 45 37 44 44 37 44 44 37 43 43 37 43 43 37 43 43 39 45 45 38 42 46 40 42 48 45 45 56 51 52 66 56 63 75 80 87 120 141 130 188 161 161 228 179 179 255 175 176 255 174 174 252 169 170 241 162 162 225 159 159 218 155 156 212 149 150 204 144 144 196 138 138 189 135 135 184 131 131 180 128 128 176 125 125 174 139 136 187 121 120 158 63 86 99 43 71 71 43 71 71 43 71 71 43 71 71 43 70 70 43 70 70 43 70 70 43 70 70 43 70 70 43 70 70 43 70 70 43 70 70 43 69 69 43 69 69 43 69 69 43 69 69 43 69 69 43 69 69 42 69 69 42 68 68 42 68 68 42 68 68 42 68 68 42 68 68 42 68 68 42 68 68 42 67 67 42 67 67 42 67 67 42 67 67 41 42 46 33 38 38 33 37 37 33 36 36 32 36 36 32 35 35 32 35 35 32 34 34 32 34 34 32 34 34 31 34 34 31 33 33 31 33 33 31 33 33 31 33 33 31 33 33 31 33 33 31 33 33 31 33 33 31 33 33 31 33 33 31 33 33 33 35 39 53 54 73 46 46 64 35 37 42 44 45 57 32 33 33 50 37 37 46 41 41 32 35 35 36 49 49 40 62 62 40 62 62 40 62 62 40 61 61 40 61 61 39 61 61 39 61 61 39 61 61 39 61 61 39 61 61 39 60 60 39 60 60 39 60 60 39 60 60 39 60 60 39 60 60 39 60 60 39 59 59 39 59 59 39 59 59 95 109 164 159 164 255 164 165 255 176 177 255 178 173 255 164 164 243 153 153 224 145 145 210 145 145 202 133 133 183 116 116 160 105 105 141 92 92 122 79 79 103 66 66 83 51 51 61 70 70 95 64 64 82 60 61 75 60 59 70 50 50 60 43 43 51 38 39 44 36 40 40 46 50 61 51 47 52 42 40 44 37 38 38 37 42 42 37 42 42 42 45 45 44 46 46 40 44 44 38 42 42 37 42 42 37 42 42 47 42 42 50 44 44 36 40 40 35 40 40 35 40 40 36 40 40 36 40 40 36 40 40 36 47 47 36 50 50 36 53 53 36 53 53 36 53 53 36 53 53 36 53 53 36 53 53 36 52 52 36 52 52 36 52 52 36 52 52 36 52 52 36 52 52 36 52 52 36 52 52 36 52 52 36 52 52 36 51 51 36 51 51 127 132 215 156 163 253 168 167 249 187 187 255 170 171 249 155 156 218 150 150 206 145 146 197 132 132 178 126 126 167 120 120 155 113 113 144 106 106 132 98 98 120 91 91 107 83 83 95 74 74 82 66 66 69 44 44 45 25 25 25 25 25 25 25 25 25 25 25 25 25 25 25 25 25 25 25 25 25 25 25 25 25 25 25 25 25 25 25 25 25 25 25 25 25 25 25 25 25 25 25 25 25 25 25 25 25 25 25 25 25 25 25 25 25 25 25 25 25 25 25 25 25 25 
40 63 63 40 63 63 40 63 63 40 63 63 40 63 63 40 64 64 40 64 64 41 64 64 41 64 64 41 64 64 41 64 64 41 64 64 41 65 65 41 65 65 41 65 65 45 69 69 46 70 70 50 71 71 56 73 73 66 78 78 79 86 86 90 94 94 100 101 101 108 105 105 114 108 108 115 107 107 112 101 101 106 98 98 110 102 102 123 117 117 122 115 115 120 112 112 111 102 102 98 89 89 100 100 100 110 107 107 117 111 111 120 111 111 118 108 108 108 98 98 83 84 84 53 72 72 43 69 69 43 69 69 43 69 69 43 69 69 43 70 70 43 70 70 43 70 70 43 70 70 46 73 73 48 76 76 53 79 79 52 80 80 51 80 80 52 81 81 51 80 80 52 81 81 53 82 82 51 80 80 51 80 80 52 80 80 57 81 81 45 73 73 51 79 79 51 79 79 49 77 77 49 77 77 50 78 78 50 79 79 51 80 80 51 80 80 51 80 80 50 79 79 51 80 80 57 84 84 58 83 85 66 90 90 62 91 93 69 98 102 71 99 108 59 87 92 44 73 73 44 73 73 44 73 73 44 73 73 44 73 73 61 89 93 67 96 101 67 96 100 68 97 101 70 99 104 70 99 104 74 102 109 72 101 109 73 102 112 72 97 105 77 98 104 82 100 103 89 103 103 83 93 93 73 81 81 57 64 64 58 64 64 40 46 46 38 45 45 38 45 45 38 45 45 39 43 48 51 59 69 55 63 77 57 72 81 83 91 124 106 115 161 156 157 243 166 167 246 170 170 244 167 167 236 165 164 226 165 161 216 157 156 208 148 148 196 141 141 186 134 134 177 131 131 172 128 128 167 125 125 162 122 122 158 119 119 154 116 116 151 136 125 161 179 153 191 94 101 130 48 76 76 43 71 71 43 70 70 43 70 70 43 70 70 43 70 70 43 70 70 43 70 70 43 70 70 43 70 70 43 70 70 43 69 69 43 69 69 43 69 69 43 69 69 43 69 69 42 69 69 42 69 69 42 68 68 42 68 68 42 68 68 42 68 68 42 68 68 42 68 68 42 68 68 42 67 67 42 67 67 42 67 67 42 67 67 42 67 67 38 53 53 35 39 39 33 37 37 33 37 37 33 36 36 32 36 36 32 35 35 32 35 35 32 35 35 32 34 34 32 34 34 32 34 34 32 34 34 31 34 34 31 33 33 31 33 33 31 33 33 31 33 33 31 33 33 31 33 33 31 33 33 31 33 33 31 34 34 37 39 48 40 41 52 39 41 47 32 34 34 60 48 48 48 41 42 32 35 35 37 39 42 36 49 49 40 62 62 40 62 62 40 62 62 40 61 61 40 61 61 39 61 61 39 61 61 39 61 61 39 61 61 39 61 61 39 60 60 39 60 60 39 60 60 39 60 60 39 60 60 39 60 60 39 60 60 39 59 59 39 59 59 78 91 146 143 150 255 164 168 255 200 189 255 227 197 255 173 169 247 157 157 228 145 145 210 137 137 194 149 148 198 122 123 166 106 106 143 94 94 124 81 81 105 68 68 84 53 53 63 48 48 61 61 60 82 49 49 62 54 51 61 45 47 55 44 44 51 38 38 43 37 38 40 35 38 38 37 56 56 38 43 45 39 37 37 36 37 37 41 44 44 39 44 45 37 42 42 36 41 41 36 41 41 43 47 47 43 45 45 39 43 43 39 42 42 43 45 45 38 42 42 36 40 40 36 40 40 36 40 40 36 40 40 36 47 47 36 50 50 36 53 53 36 53 53 36 53 53 36 53 53 36 53 53 36 53 53 36 53 53 36 53 53 36 52 52 36 52 52 36 52 52 36 52 52 36 52 52 36 52 52 36 52 52 36 52 52 36 52 52 36 51 51 36 51 51 160 159 255 154 162 248 156 157 235 202 184 255 160 160 226 151 151 212 145 145 198 141 142 190 135 135 177 121 121 158 114 114 147 107 107 135 100 100 123 92 92 110 84 84 98 76 76 85 67 67 72 45 45 46 25 25 25 25 25 25 25 25 25 25 25 25 25 25 25 25 25 25 25 25 25 25 25 25 25 25 25 25 25 25 25 25 25 25 25 25 25 25 25 25 25 25 25 25 25 25 25 25 25 25 25 25 25 25 25 25 25 25 25 25 25 25 25 25 25 25 25 25 25 
40 63 63 40 63 63 40 63 63 40 63 63 40 63 63 40 64 64 40 64 64 41 64 64 41 64 64 41 64 64 41 64 64 41 64 64 41 65 65 41 65 65 41 65 65 41 65 65 45 69 69 49 71 71 56 73 73 63 75 75 75 82 82 86 89 89 95 95 95 102 98 98 105 99 99 103 95 95 105 97 97 103 97 97 116 113 113 122 115 115 124 115 115 120 110 110 109 98 98 89 86 86 94 94 94 103 100 100 108 102 102 109 101 101 104 96 96 85 86 86 66 75 75 43 69 69 43 69 69 43 69 69 43 69 69 43 69 69 43 69 69 43 70 70 43 70 70 48 74 74 48 75 75 51 79 79 51 79 79 51 80 80 52 80 80 51 80 80 51 80 80 51 80 80 51 80 80 52 81 81 51 80 80 51 79 79 51 79 79 56 80 81 55 82 84 51 79 79 49 77 77 49 77 77 49 77 77 49 77 77 49 78 78 49 78 78 49 78 78 51 79 79 58 83 83 63 87 87 61 88 90 68 94 97 70 99 105 73 101 110 72 100 113 51 79 83 44 73 73 44 73 73 44 73 73 44 73 73 44 73 73 44 73 73 50 79 80 63 92 99 64 93 99 65 94 100 68 97 104 67 96 103 66 95 104 62 91 97 60 88 96 78 93 97 89 99 99 98 106 106 105 112 112 112 117 117 115 119 119 100 103 103 98 100 100 78 81 81 55 73 79 55 73 77 60 76 80 64 86 94 66 88 97 64 92 95 110 125 163 147 149 224 157 158 229 160 160 226 158 158 217 155 154 207 155 152 200 159 152 194 150 147 190 133 133 169 125 125 159 122 122 153 119 119 148 115 115 143 112 112 138 110 110 134 107 107 131 128 121 145 151 135 158 149 134 159 113 112 138 102 105 138 43 70 70 43 70 70 43 70 70 43 70 70 43 70 70 43 70 70 43 70 70 43 70 70 43 69 69 43 69 69 43 69 69 43 69 69 43 69 69 43 69 69 42 69 69 42 69 69 42 68 68 42 68 68 42 68 68 42 68 68 42 68 68 42 68 68 42 68 68 42 67 67 42 67 67 42 67 67 42 67 67 42 67 67 42 67 67 42 67 67 43 45 50 33 38 38 33 37 37 33 36 36 32 36 36 32 36 36 32 35 35 32 35 35 32 35 35 32 35 35 32 34 34 32 34 34 32 34 34 32 34 34 32 34 34 31 33 33 31 33 33 31 33 33 31 33 33 31 33 33 32 34 34 32 34 34 32 34 34 32 35 35 32 34 34 40 34 34 37 34 35 51 45 45 32 36 36 36 49 49 40 62 62 40 62 62 40 62 62 40 61 61 40 61 61 39 61 61 39 61 61 39 61 61 39 61 61 39 61 61 39 60 60 39 60 60 39 60 60 39 60 60 39 60 60 39 60 60 39 60 60 39 59 59 39 59 59 39 59 59 85 99 150 150 159 255 178 175 255 173 173 255 172 172 255 158 158 229 150 150 214 137 137 194 128 128 178 143 139 182 133 126 163 95 95 125 82 82 105 69 69 85 54 54 64 39 39 43 52 52 66 47 47 62 38 38 44 41 40 45 39 40 44 39 39 42 37 37 39 36 37 38 35 38 38 36 45 45 37 56 56 37 51 51 36 42 42 36 40 40 37 43 43 38 43 44 37 42 42 37 42 42 37 42 43 36 41 41 41 44 44 36 41 41 38 42 42 36 41 41 36 41 41 36 41 41 36 44 44 36 47 47 36 50 50 36 53 53 36 53 53 36 53 53 36 53 53 36 53 53 36 53 53 36 53 53 36 53 53 36 53 53 36 52 52 36 52 52 36 52 52 36 52 52 36 52 52 36 52 52 36 52 52 36 52 52 36 52 52 36 51 51 36 51 51 168 165 255 152 160 241 157 162 237 165 166 234 152 154 215 147 147 202 141 142 192 137 139 183 130 131 170 122 122 155 109 109 138 102 102 126 94 94 113 86 86 101 78 78 88 70 70 75 46 46 48 34 34 34 25 25 25 25 25 25 25 25 25 25 25 25 25 25 25 25 25 25 25 25 25 25 25 25 25 25 25 25 25 25 25 25 25 25 25 25 25 25 25 25 25 25 25 25 25 25 25 25 25 25 25 25 25 25 25 25 25 25 25 25 25 25 25 25 25 25 25 25 25 
40 63 63 40 63 63 40 63 63 40 63 63 40 63 63 40 64 64 40 64 64 41 64 64 41 64 64 41 64 64 41 64 64 41 64 64 41 65 65 41 65 65 41 65 65 41 65 65 41 65 65 43 67 67 51 70 70 56 72 72 68 76 76 77 81 81 84 85 85 84 86 86 89 87 87 93 91 91 97 96 96 107 106 106 115 110 110 120 112 112 120 110 110 114 103 103 93 89 89 80 79 79 81 84 84 89 88 88 93 89 89 83 85 85 70 79 79 64 75 75 42 69 69 42 69 69 43 69 69 43 69 69 43 69 69 43 69 69 43 69 69 43 69 69 43 70 70 46 73 73 50 78 78 50 79 79 51 79 79 51 79 79 51 80 80 51 80 80 51 80 80 51 80 80 51 80 80 51 81 81 51 79 79 51 79 79 51 79 79 51 79 79 66 92 94 52 80 80 51 79 79 49 77 77 49 77 77 49 77 77 49 77 77 49 77 77 49 77 77 51 79 79 58 84 85 63 90 92 66 93 96 69 97 102 72 100 108 73 101 113 63 90 96 44 72 72 44 72 72 44 72 72 44 72 72 44 72 72 44 72 72 44 72 72 44 72 72 44 73 73 51 79 82 51 80 83 51 80 83 52 80 84 52 81 85 51 79 84 44 73 73 51 76 76 77 90 90 100 103 103 110 112 112 117 116 116 121 119 119 122 119 119 118 115 115 109 106 106 67 87 90 68 96 103 74 102 113 77 103 112 72 100 109 101 116 153 140 143 212 146 149 208 150 151 208 148 148 199 144 144 189 140 140 179 144 139 173 130 130 162 125 125 153 119 119 144 111 111 134 108 108 129 104 104 123 101 101 118 98 98 114 95 95 110 120 109 122 131 119 132 130 116 128 111 108 123 95 95 111 96 98 114 82 95 109 43 70 70 43 70 70 43 70 70 43 70 70 43 70 70 43 70 70 43 69 69 43 69 69 43 69 69 43 69 69 43 69 69 43 69 69 42 69 69 42 69 69 42 68 68 42 68 68 42 68 68 42 68 68 42 68 68 42 68 68 42 68 68 42 67 67 42 67 67 42 67 67 42 67 67 42 67 67 42 67 67 42 67 67 42 66 66 42 66 66 37 38 40 33 37 37 33 37 37 33 36 36 32 36 36 32 36 36 32 35 35 32 35 35 32 35 35 32 35 35 35 34 34 35 34 34 36 33 33 35 33 33 35 33 33 35 32 32 34 32 32 33 32 32 33 32 32 33 32 33 32 33 33 33 35 36 36 35 35 63 50 51 37 35 35 43 39 39 32 36 36 36 49 49 38 55 55 40 62 62 40 62 62 40 62 62 40 61 61 40 61 61 39 61 61 39 61 61 39 61 61 39 61 61 39 61 61 39 60 60 39 60 60 39 60 60 39 60 60 39 60 60 39 60 60 39 60 60 39 59 59 39 59 59 39 59 59 86 100 147 152 159 251 154 155 240 199 181 255 167 161 232 156 157 225 151 150 210 127 127 177 117 117 160 127 120 156 102 102 132 82 82 106 69 69 86 54 54 64 39 39 43 41 41 50 37 37 45 58 58 73 39 37 39 44 40 44 47 41 42 37 39 40 37 38 39 36 38 38 35 37 37 36 40 40 37 56 56 37 55 55 37 52 52 37 47 47 37 45 45 37 42 42 37 42 42 37 42 42 39 44 45 36 41 41 36 41 41 36 41 41 36 41 41 36 44 44 36 44 44 36 47 47 36 50 50 36 54 54 36 53 53 36 53 53 36 53 53 36 53 53 36 53 53 36 53 53 36 53 53 36 53 53 36 53 53 36 53 53 36 52 52 36 52 52 36 52 52 36 52 52 36 52 52 36 52 52 36 52 52 36 52 52 36 52 52 36 51 51 36 51 51 152 152 246 149 156 234 158 166 238 154 163 227 154 157 217 149 146 198 138 140 186 132 135 176 126 127 163 118 119 149 105 105 131 96 96 117 88 88 104 80 80 91 72 72 78 55 55 58 34 34 34 25 25 25 25 25 25 25 25 25 25 25 25 25 25 25 25 25 25 25 25 25 25 25 25 25 25 25 25 25 25 25 25 25 25 25 25 25 25 25 25 25 25 25 25 25 25 25 25 25 25 25 25 25 25 25 25 25 25 25 25 25 25 25 25 25 25 25 25 25 25 25 25 
40 63 63 40 63 63 40 63 63 40 63 63 40 63 63 40 64 64 40 64 64 41 64 64 41 64 64 41 64 64 41 64 64 41 64 64 41 65 65 41 65 65 41 65 65 41 65 65 41 65 65 41 65 65 41 65 65 45 67 67 52 70 70 58 73 73 65 76 76 70 77 77 73 79 79 82 87 87 94 95 95 103 101 101 110 104 104 113 105 105 110 101 101 90 89 89 70 78 78 54 72 72 58 73 73 61 74 74 63 75 75 62 74 74 53 71 71 42 68 68 42 68 68 42 69 69 42 69 69 43 69 69 43 69 69 43 69 69 43 69 69 43 69 69 50 75 75 55 79 79 50 78 78 50 79 79 51 79 79 51 79 79 51 79 79 51 80 80 51 80 80 51 80 80 51 80 81 52 81 81 51 79 79 50 78 78 51 78 78 60 87 88 64 91 94 59 86 91 54 82 83 52 80 81 49 76 76 49 77 77 49 77 77 49 77 77 53 81 81 62 88 89 71 95 97 67 95 98 69 97 103 72 100 108 74 102 114 59 87 93 51 79 83 44 72 72 44 72 72 44 72 72 44 72 72 44 72 72 44 72 72 44 72 72 44 72 72 44 72 72 44 72 72 44 72 72 44 72 72 44 72 72 44 72 72 44 72 72 44 72 72 44 72 72 53 76 76 69 84 84 89 95 95 96 100 100 100 103 103 100 102 102 82 93 93 77 88 88 58 78 78 44 72 72 52 80 83 59 87 93 81 102 124 116 126 174 137 138 193 139 141 188 138 140 182 135 136 173 131 131 163 126 126 154 121 121 145 114 114 136 108 108 126 100 100 116 96 96 109 92 92 103 89 89 98 74 74 81 71 71 77 69 69 75 116 99 103 75 68 72 66 65 69 56 56 61 65 65 69 73 74 80 88 94 102 43 70 70 43 70 70 43 70 70 43 70 70 43 69 69 43 69 69 43 69 69 43 69 69 43 69 69 43 69 69 42 69 69 42 69 69 42 68 68 42 68 68 42 68 68 42 68 68 42 68 68 42 68 68 42 68 68 42 68 68 42 67 67 42 67 67 42 67 67 42 67 67 42 67 67 42 67 67 42 67 67 42 66 66 42 66 66 41 66 66 44 62 64 32 34 34 33 37 37 33 37 37 33 36 36 32 36 36 32 36 36 32 35 35 32 35 35 43 36 36 43 36 36 46 35 35 45 34 34 45 33 33 43 33 33 42 33 33 41 32 32 40 32 32 39 32 32 40 33 35 39 33 33 38 34 34 57 44 44 48 41 41 59 45 46 32 36 36 40 47 51 36 49 49 40 62 62 40 62 62 40 62 62 40 61 61 40 61 61 39 61 61 39 61 61 39 61 61 39 61 61 39 61 61 39 60 60 39 60 60 39 60 60 39 60 60 39 60 60 39 60 60 39 60 60 39 59 59 39 59 59 39 59 59 39 59 59 121 128 220 150 158 242 150 153 230 184 169 239 139 139 203 139 140 198 135 135 188 116 116 159 106 106 142 142 126 156 97 94 117 69 69 85 54 54 64 39 39 43 30 30 30 40 40 53 55 55 73 32 33 36 39 35 35 27 27 27 31 31 31 46 41 41 37 38 38 35 36 36 35 37 37 36 40 40 37 56 56 37 55 55 37 55 55 37 55 55 37 52 52 37 52 52 37 48 48 37 48 48 36 45 45 36 45 45 36 45 45 36 48 48 36 48 48 36 48 48 36 51 51 37 54 54 36 54 54 36 54 54 36 53 53 36 53 53 36 53 53 36 53 53 36 53 53 36 53 53 36 53 53 36 53 53 36 53 53 36 53 53 36 52 52 36 52 52 36 52 52 36 52 52 36 52 52 36 52 52 36 52 52 36 52 52 36 52 52 36 52 52 36 51 51 138 139 224 155 161 241 148 156 223 155 161 224 141 141 195 183 168 216 134 138 181 128 132 169 121 123 156 113 115 142 106 107 129 96 96 113 82 82 95 74 74 82 65 65 69 43 43 44 25 25 25 25 25 25 25 25 25 25 25 25 25 25 25 25 25 25 25 25 25 25 25 25 25 25 25 25 25 25 25 25 25 25 25 25 25 25 25 25 25 25 25 25 25 25 25 25 25 25 25 25 25 25 25 25 25 25 25 25 25 25 25 25 25 25 25 25 25 25 25 25 25 25 25 
40 63 63 40 63 63 40 63 63 40 63 63 40 63 63 40 63 63 40 64 64 41 64 64 41 64 64 41 64 64 41 64 64 41 64 64 41 64 64 41 65 65 41 65 65 41 65 65 41 65 65 41 65 65 41 65 65 41 65 65 41 66 66 43 67 67 48 70 70 58 73 73 65 75 75 75 81 81 85 87 87 93 92 92 98 93 93 98 92 92 85 85 85 69 77 77 53 71 71 42 67 67 42 68 68 42 68 68 42 68 68 42 68 68 42 68 68 42 68 68 42 68 68 42 68 68 42 69 69 42 69 69 43 69 69 43 69 69 43 69 69 43 69 69 45 72 72 49 76 76 50 78 78 50 79 79 50 79 79 51 79 79 51 79 79 51 79 79 51 80 80 52 80 81 51 80 80 53 81 81 51 78 78 50 78 78 51 79 79 61 89 90 67 94 99 66 93 102 61 84 85 56 84 86 52 80 80 52 80 80 56 83 84 56 84 85 61 89 91 70 97 100 69 97 102 75 102 109 73 101 111 74 102 115 59 87 94 52 80 84 44 72 72 44 72 72 44 72 72 44 72 72 44 72 72 44 72 72 44 72 72 44 72 72 44 72 72 44 72 72 44 72 72 44 72 72 44 72 72 44 72 72 44 72 72 44 72 72 44 72 72 44 72 72 44 72 72 44 72 72 57 77 77 64 82 82 68 85 85 70 86 86 63 81 81 45 73 73 44 72 72 44 72 72 44 72 72 44 72 72 90 106 132 128 131 182 130 131 173 130 131 168 126 128 159 122 123 149 117 117 139 109 109 127 102 102 117 95 95 107 89 89 97 73 73 79 70 70 74 55 55 58 53 53 56 52 52 53 39 39 39 67 55 56 66 57 57 63 58 60 27 27 27 25 25 25 37 37 37 39 39 39 47 52 53 72 79 83 43 70 70 43 69 69 43 69 69 43 69 69 43 69 69 43 69 69 43 69 69 43 69 69 42 69 69 42 69 69 42 68 68 42 68 68 42 68 68 42 68 68 42 68 68 42 68 68 42 68 68 42 67 67 42 67 67 42 67 67 42 67 67 42 67 67 42 67 67 42 67 67 42 67 67 42 66 66 42 66 66 41 66 66 41 66 66 41 66 66 40 58 58 33 34 34 33 37 37 33 37 37 33 36 36 32 36 36 32 36 36 50 39 39 59 43 43 64 43 43 63 43 43 61 42 42 58 41 41 56 39 39 54 38 38 52 37 37 50 36 36 48 35 35 47 34 34 49 37 39 47 35 35 42 37 37 53 46 46 32 36 36 36 49 49 42 54 58 40 62 62 40 62 62 40 62 62 40 62 62 40 61 61 40 61 61 59 77 105 62 79 105 62 79 103 60 78 100 58 76 97 55 73 92 39 60 60 39 60 60 39 60 60 39 60 60 39 60 60 39 60 60 39 59 59 39 59 59 39 59 59 39 59 59 120 127 211 154 157 240 154 159 237 141 144 207 129 129 185 134 134 187 117 117 160 104 104 140 93 93 122 84 84 107 96 90 106 56 56 66 38 38 42 28 28 29 25 25 25 48 49 67 35 36 40 28 28 28 38 29 29 38 29 29 27 27 27 33 31 31 30 31 31 32 33 33 34 37 37 36 40 40 37 56 56 37 55 55 37 55 55 37 55 55 37 55 55 37 55 55 37 55 55 37 55 55 37 55 55 37 51 51 37 51 51 37 54 54 37 54 54 37 54 54 37 54 54 37 54 54 36 54 54 36 54 54 36 53 53 36 53 53 36 53 53 36 53 53 36 53 53 36 53 53 36 53 53 36 53 53 36 53 53 36 53 53 36 52 52 36 52 52 36 52 52 36 52 52 36 52 52 36 52 52 36 52 52 36 52 52 36 52 52 36 52 52 36 51 51 130 133 213 162 164 245 162 165 237 152 152 214 170 161 212 159 156 201 140 139 178 123 128 162 116 120 148 109 111 135 101 102 121 92 93 107 82 82 92 70 70 75 45 45 46 25 25 25 25 25 25 25 25 25 25 25 25 25 25 25 25 25 25 25 25 25 25 25 25 25 25 25 25 25 25 25 25 25 25 25 25 25 25 25 25 25 25 25 25 25 25 25 25 25 25 25 25 25 25 25 25 25 25 25 25 25 25 25 25 25 25 25 25 25 25 25 25 25 25 25 25 25 25 
40 63 63 40 63 63 40 63 63 40 63 63 40 63 63 40 63 63 40 64 64 40 64 64 41 64 64 41 64 64 41 64 64 41 64 64 41 64 64 41 65 65 41 65 65 41 65 65 41 65 65 41 65 65 41 65 65 41 65 65 41 66 66 41 66 66 43 67 67 47 69 69 56 72 72 61 73 73 67 76 76 72 79 79 75 80 80 66 76 76 54 71 71 42 67 67 42 67 67 42 67 67 42 67 67 42 68 68 42 68 68 42 68 68 42 68 68 42 68 68 42 68 68 42 68 68 42 68 68 42 69 69 42 69 69 43 69 69 43 69 69 43 69 69 52 76 76 49 76 76 50 78 78 50 78 78 50 79 79 50 79 79 51 79 79 51 79 79 51 79 79 51 80 80 52 80 80 52 80 80 52 80 80 52 79 79 58 85 86 70 97 101 69 97 103 70 97 107 54 80 81 57 86 89 65 93 100 60 88 92 61 89 92 65 93 98 67 95 101 69 97 105 72 99 109 77 104 116 67 94 104 59 87 95 51 79 83 44 72 72 44 72 72 44 72 72 44 72 72 44 72 72 44 72 72 44 72 72 44 72 72 44 72 72 44 72 72 44 72 72 44 72 72 44 72 72 44 72 72 44 72 72 44 72 72 44 72 72 44 72 72 44 72 72 44 72 72 45 73 73 51 76 76 56 79 79 58 81 81 63 84 84 58 82 82 55 78 78 48 76 76 45 73 73 44 72 72 44 71 71 102 114 148 121 123 162 111 111 142 115 116 142 111 111 132 106 106 122 97 97 110 92 92 101 74 74 79 56 56 60 54 54 56 39 39 40 38 38 38 25 25 25 25 25 25 25 25 25 25 25 25 78 57 57 76 56 56 33 31 31 25 25 25 25 25 25 25 25 25 25 25 25 35 38 38 37 44 44 43 69 69 43 69 69 43 69 69 43 69 69 43 69 69 43 69 69 42 69 69 42 69 69 42 68 68 42 68 68 42 68 68 42 68 68 42 68 68 42 68 68 42 68 68 42 68 68 42 67 67 42 67 67 42 67 67 42 67 67 42 67 67 42 67 67 42 67 67 42 67 67 42 66 66 42 66 66 41 66 66 41 66 66 41 66 66 41 66 66 41 66 66 39 58 59 35 42 42 35 38 38 33 37 37 33 36 36 32 36 36 67 46 46 81 55 55 82 56 56 81 57 57 79 56 56 76 55 55 73 53 53 70 51 51 67 48 48 65 46 47 61 43 43 58 41 41 57 40 40 46 36 36 41 37 37 38 41 44 36 49 49 38 56 56 40 62 62 40 62 62 40 62 62 40 62 62 57 75 106 66 84 113 92 105 160 92 103 155 110 117 192 109 116 186 105 112 177 100 106 166 94 101 156 85 93 143 66 78 107 50 67 80 39 60 60 39 60 60 39 60 60 39 59 59 39 59 59 39 59 59 39 59 59 114 121 198 149 152 231 167 166 241 140 145 205 140 141 197 128 128 174 101 101 137 91 91 120 80 80 102 83 74 90 76 69 78 38 38 42 28 28 29 25 25 25 40 41 57 47 48 61 30 30 31 55 43 43 52 42 42 86 51 52 27 27 27 25 25 25 27 27 27 32 33 33 35 38 38 36 40 40 37 56 56 37 55 55 37 55 55 37 55 55 37 55 55 37 55 55 37 55 55 37 55 55 37 55 55 37 54 54 37 54 54 37 54 54 37 54 54 37 54 54 37 54 54 37 54 54 36 54 54 36 54 54 36 53 53 36 53 53 36 53 53 36 53 53 36 53 53 36 53 53 36 53 53 36 53 53 36 53 53 36 53 53 36 52 52 36 52 52 36 52 52 36 52 52 36 52 52 36 52 52 36 52 52 36 52 52 36 52 52 36 52 52 36 51 51 125 128 206 136 137 206 141 142 204 136 137 193 153 154 203 138 136 178 121 121 157 118 123 154 111 115 141 104 107 128 96 98 114 87 89 100 78 80 86 52 52 55 36 36 36 25 25 25 25 25 25 25 25 25 25 25 25 25 25 25 25 25 25 25 25 25 25 25 25 25 25 25 25 25 25 25 25 25 25 25 25 25 25 25 25 25 25 25 25 25 25 25 25 25 25 25 25 25 25 25 25 25 25 25 25 25 25 25 25 25 25 25 25 25 25 25 25 25 25 25 25 25 25 
40 63 63 40 63 63 40 63 63 40 63 63 40 63 63 40 63 63 40 64 64 40 64 64 41 64 64 41 64 64 41 64 64 41 64 64 41 64 64 41 65 65 41 65 65 41 65 65 41 65 65 41 65 65 41 65 65 41 65 65 41 66 66 41 66 66 41 66 66 41 66 66 41 66 66 47 68 68 49 69 69 50 69 69 50 69 69 42 67 67 42 67 67 42 67 67 42 67 67 42 67 67 42 67 67 42 67 67 42 68 68 42 68 68 42 68 68 42 68 68 42 68 68 42 68 68 42 68 68 42 68 68 42 69 69 42 69 69 43 69 69 43 69 69 50 75 75 48 75 75 50 77 77 50 78 78 50 78 78 50 79 79 50 79 79 51 79 79 51 79 79 51 79 79 52 81 81 52 80 80 51 79 80 52 79 79 58 85 87 71 98 105 70 97 105 69 97 108 52 80 82 54 83 88 59 87 96 67 95 106 68 96 106 72 99 112 70 98 110 71 99 113 70 98 113 67 94 110 54 82 89 44 71 71 44 71 71 44 71 71 44 71 71 44 71 71 44 71 71 44 71 71 44 72 72 44 72 72 44 72 72 44 72 72 44 72 72 44 72 72 44 72 72 44 72 72 44 72 72 44 72 72 44 72 72 44 72 72 44 72 72 44 72 72 48 76 77 50 78 79 55 79 79 57 81 81 57 81 81 57 81 81 56 81 81 54 80 80 50 78 78 49 77 77 45 73 73 79 97 119 119 124 162 112 114 142 100 100 122 97 97 113 92 92 103 74 74 82 70 70 75 53 53 56 39 39 40 37 37 38 25 25 25 25 25 25 25 25 25 25 25 25 25 25 25 25 25 25 25 25 25 53 43 43 59 50 51 27 27 27 25 25 25 25 25 25 25 25 25 25 25 25 34 37 37 37 42 42 39 51 51 43 69 69 43 69 69 43 69 69 42 69 69 42 69 69 42 68 68 42 68 68 42 68 68 42 68 68 42 68 68 42 68 68 42 68 68 42 68 68 42 68 68 42 67 67 42 67 67 42 67 67 42 67 67 42 67 67 42 67 67 42 67 67 42 66 66 42 66 66 41 66 66 41 66 66 41 66 66 41 66 66 41 66 66 41 66 66 41 65 65 41 65 65 39 58 58 37 44 45 41 43 48 33 37 37 33 37 37 67 45 45 93 63 63 95 66 66 95 67 67 94 68 68 92 67 67 90 65 65 86 63 63 83 60 60 80 58 58 77 55 55 71 50 50 57 42 43 46 38 38 35 43 43 37 50 50 38 55 55 40 62 62 40 62 62 40 62 62 40 62 62 67 85 115 97 110 167 123 130 213 151 153 255 153 154 254 150 150 244 140 140 226 133 133 214 125 125 199 116 116 183 107 108 169 95 97 152 75 82 117 65 73 104 45 62 69 39 59 59 39 59 59 39 59 59 39 59 59 39 59 59 104 111 180 141 141 212 149 149 214 146 146 206 135 136 189 113 113 152 90 91 119 78 78 100 66 66 81 52 52 61 115 84 89 38 35 36 25 25 25 25 25 25 37 37 46 48 49 62 25 25 25 27 27 27 50 37 37 71 49 49 130 81 81 27 27 27 29 30 30 34 37 37 35 39 39 36 40 40 37 56 56 37 55 55 37 55 55 37 55 55 37 55 55 37 55 55 37 55 55 37 55 55 37 55 55 37 54 54 37 54 54 37 54 54 37 54 54 37 54 54 37 54 54 37 54 54 36 54 54 36 54 54 36 53 53 36 53 53 36 53 53 36 53 53 36 53 53 36 53 53 36 53 53 36 53 53 36 53 53 36 53 53 36 52 52 36 52 52 36 52 52 36 52 52 36 52 52 36 52 52 36 52 52 36 52 52 36 52 52 36 52 52 36 51 51 115 120 196 128 129 194 132 132 189 133 138 189 129 136 180 125 124 164 116 116 149 111 114 142 106 111 133 98 102 120 90 94 106 82 85 92 65 67 70 51 53 53 33 34 34 31 31 31 27 27 27 25 25 25 25 25 25 25 25 25 25 25 25 25 25 25 25 25 25 25 25 25 25 25 25 25 25 25 25 25 25 25 25 25 25 25 25 25 25 25 25 25 25 25 25 25 25 25 25 25 25 25 25 25 25 25 25 25 25 25 25 25 25 25 33 28 28 61 40 40 49 33 33 
40 63 63 40 63 63 40 63 63 40 63 63 40 63 63 40 63 63 40 64 64 40 64 64 41 64 64 41 64 64 41 64 64 41 64 64 41 64 64 41 64 64 41 65 65 41 65 65 41 65 65 41 65 65 41 65 65 41 65 65 41 65 65 41 66 66 41 66 66 41 66 66 41 66 66 41 66 66 41 66 66 42 66 66 42 66 66 42 67 67 42 67 67 42 67 67 42 67 67 42 67 67 42 67 67 42 67 67 42 67 67 42 68 68 42 68 68 42 68 68 42 68 68 42 68 68 42 68 68 42 68 68 48 72 72 48 71 71 48 72 72 47 72 72 48 74 74 48 74 74 49 76 76 50 77 77 50 78 78 50 78 78 50 78 78 50 79 79 50 79 79 50 79 79 51 79 79 51 79 80 57 82 82 60 86 87 63 90 93 70 98 105 70 97 106 71 98 112 53 81 85 57 85 92 64 92 104 70 98 112 75 101 117 78 105 123 75 103 121 75 103 123 71 98 118 64 91 111 49 77 85 43 71 71 43 71 71 43 71 71 43 71 71 43 71 71 43 71 71 44 71 71 44 71 71 44 71 71 44 71 71 44 71 71 44 71 71 44 71 71 44 71 71 44 71 71 44 71 71 44 71 71 44 71 71 44 71 71 44 71 71 48 76 77 48 76 76 52 79 80 54 80 80 53 79 79 52 79 79 51 79 79 51 79 79 50 79 79 50 79 79 50 78 78 49 76 76 79 94 109 108 115 142 102 103 122 88 88 101 71 71 78 55 55 59 52 52 54 38 38 38 25 25 25 25 25 25 25 25 25 25 25 25 25 25 25 25 25 25 25 25 25 25 25 25 25 25 25 47 36 36 82 58 58 32 31 31 27 27 27 38 38 50 37 37 48 32 32 39 29 29 29 34 37 37 36 42 42 37 45 45 43 69 69 42 69 69 42 69 69 42 69 69 42 68 68 42 68 68 42 68 68 42 68 68 42 68 68 42 68 68 42 68 68 42 68 68 42 67 67 42 67 67 42 67 67 42 67 67 42 67 67 42 67 67 42 67 67 42 67 67 42 66 66 42 66 66 41 66 66 41 66 66 41 66 66 41 66 66 41 66 66 41 66 66 41 65 65 41 65 65 41 65 65 41 65 65 41 65 65 39 57 57 42 50 55 35 44 44 33 37 37 78 54 54 98 65 65 103 72 72 102 73 73 101 73 73 100 72 72 97 70 70 93 66 66 87 62 62 71 54 54 56 47 47 54 48 48 39 52 54 39 57 57 40 62 62 40 62 62 40 62 62 40 62 62 40 62 62 94 108 168 124 132 219 170 173 255 163 164 255 162 162 255 187 184 255 160 161 245 151 151 230 137 137 209 128 128 194 118 118 178 108 108 161 97 97 144 85 85 126 74 75 110 58 66 85 42 59 63 39 59 59 39 59 59 39 59 59 39 59 59 90 97 159 121 121 181 123 123 174 127 126 170 116 116 155 95 97 125 84 87 109 70 71 86 52 53 61 37 37 40 76 58 60 56 44 44 25 25 25 25 25 25 30 30 35 45 45 59 25 25 25 25 25 25 25 25 25 52 35 35 93 61 61 30 31 31 34 36 36 35 38 38 35 39 39 36 44 44 37 55 55 37 55 55 37 55 55 37 55 55 37 55 55 37 55 55 37 55 55 37 55 55 37 55 55 37 54 54 37 54 54 37 54 54 37 54 54 37 54 54 37 54 54 37 54 54 36 54 54 36 54 54 36 53 53 36 53 53 36 53 53 36 53 53 36 53 53 36 53 53 36 53 53 36 53 53 36 53 53 36 53 53 36 52 52 36 52 52 36 52 52 36 52 52 36 52 52 36 52 52 36 52 52 36 52 52 36 52 52 36 52 52 36 51 51 71 82 117 124 129 191 128 132 187 129 136 184 124 130 172 120 121 156 113 113 144 106 109 134 101 106 125 93 98 112 85 89 99 77 80 85 54 56 58 34 36 36 34 35 35 33 35 35 33 34 34 31 31 31 29 29 29 27 27 27 25 25 25 25 25 25 25 25 25 25 25 25 25 25 25 25 25 25 25 25 25 25 25 25 25 25 25 25 25 25 25 25 25 25 25 25 25 25 25 25 25 25 25 25 25 25 25 25 25 25 25 25 25 25 57 38 38 109 67 67 92 49 49 
40 63 63 40 63 63 40 63 63 40 63 63 40 63 63 40 63 63 40 63 63 40 64 64 40 64 64 41 64 64 41 64 64 41 64 64 41 64 64 41 64 64 41 65 65 41 65 65 41 65 65 41 65 65 41 65 65 41 65 65 41 65 65 41 65 65 41 66 66 41 66 66 41 66 66 41 66 66 41 66 66 42 66 66 42 66 66 42 67 67 42 67 67 42 67 67 42 67 67 42 67 67 42 67 67 42 67 67 42 67 67 42 67 67 42 68 68 42 68 68 42 68 68 42 68 68 42 68 68 49 73 73 49 73 73 48 74 74 55 79 79 50 77 77 49 75 75 48 74 74 48 74 74 49 76 76 50 77 77 50 77 77 50 78 78 50 78 78 50 78 78 50 78 78 50 77 77 54 80 80 64 88 90 70 92 95 66 93 97 70 97 105 72 99 110 78 105 123 56 83 89 61 88 97 71 98 113 71 98 113 77 103 120 78 106 126 78 105 125 76 103 125 72 100 122 64 91 113 50 77 87 43 71 71 43 71 71 43 71 71 43 71 71 43 71 71 43 71 71 43 71 71 43 71 71 43 71 71 43 71 71 43 71 71 43 71 71 43 71 71 43 71 71 43 71 71 43 71 71 43 71 71 43 71 71 43 71 71 43 71 71 46 74 74 50 78 78 53 80 81 54 81 81 52 79 79 51 79 79 50 79 79 50 79 79 50 79 79 50 79 79 50 78 78 50 77 77 82 96 106 99 106 123 91 93 103 66 66 71 51 51 53 37 37 38 25 25 25 25 25 25 25 25 25 25 25 25 25 25 25 25 25 25 25 25 25 25 25 25 25 25 25 25 25 25 25 25 25 45 35 35 109 73 73 54 40 40 41 41 53 30 30 33 38 38 45 52 53 70 51 51 74 35 38 38 36 42 42 37 44 44 44 70 70 42 69 69 42 68 68 42 68 68 42 68 68 42 68 68 42 68 68 42 68 68 42 68 68 42 68 68 42 68 68 42 67 67 42 67 67 42 67 67 42 67 67 42 67 67 42 67 67 42 67 67 42 67 67 42 66 66 42 66 66 41 66 66 41 66 66 41 66 66 41 66 66 41 66 66 41 66 66 41 65 65 41 65 65 41 65 65 41 65 65 41 65 65 41 65 65 41 65 65 41 64 64 39 58 58 41 53 54 41 48 51 51 50 50 70 60 60 84 66 66 87 64 66 85 68 68 83 66 66 66 59 59 64 56 56 61 59 59 48 53 53 38 56 56 40 62 62 40 62 62 40 62 62 40 62 62 40 62 62 40 62 62 95 110 169 128 137 222 166 169 255 171 171 255 167 167 255 163 163 252 158 158 241 181 175 251 150 151 221 138 138 202 125 125 182 115 115 166 105 105 150 93 93 132 82 82 115 79 79 115 83 83 119 64 67 88 39 55 56 39 59 59 39 59 59 39 59 59 56 69 93 102 102 153 108 108 153 99 99 136 91 91 119 79 79 101 72 77 91 58 62 70 43 45 48 34 35 36 46 35 35 83 59 59 54 39 40 25 25 25 25 25 25 58 58 83 27 27 27 27 27 27 41 34 35 86 60 60 64 46 46 34 37 37 35 38 38 35 39 39 36 40 40 37 48 48 37 55 55 37 55 55 37 55 55 37 55 55 37 55 55 37 55 55 37 55 55 37 55 55 37 55 55 37 54 54 37 54 54 37 54 54 37 54 54 37 54 54 37 54 54 37 54 54 36 54 54 36 54 54 36 53 53 36 53 53 36 53 53 36 53 53 36 53 53 36 53 53 36 53 53 36 53 53 36 53 53 36 53 53 36 52 52 36 52 52 36 52 52 36 52 52 36 52 52 36 52 52 36 52 52 36 52 52 36 52 52 36 52 52 36 51 51 36 51 51 118 123 183 122 129 180 122 128 173 119 125 164 161 143 176 127 121 148 102 105 127 96 101 117 88 93 104 80 84 91 64 68 70 43 47 47 35 37 37 34 37 37 34 36 36 34 35 35 33 35 35 33 34 34 31 32 32 29 29 29 27 27 27 27 27 27 25 25 25 25 25 25 25 25 25 25 25 25 25 25 25 25 25 25 25 25 25 25 25 25 25 25 25 25 25 25 25 25 25 25 25 25 25 25 25 27 27 27 30 29 29 81 52 52 136 85 85 88 61 61 
40 63 63 40 63 63 40 63 63 40 63 63 40 63 63 40 63 63 40 63 63 40 64 64 40 64 64 41 64 64 41 64 64 41 64 64 41 64 64 41 64 64 41 64 64 41 65 65 41 65 65 41 65 65 41 65 65 41 65 65 41 65 65 41 65 65 41 66 66 41 66 66 41 66 66 41 66 66 41 66 66 41 66 66 42 66 66 42 66 66 42 67 67 42 67 67 42 67 67 42 67 67 42 67 67 42 67 67 42 67 67 42 67 67 42 67 67 42 68 68 42 68 68 42 68 68 48 72 72 47 73 73 49 76 76 52 78 78 50 77 77 51 78 78 50 77 77 48 74 74 48 74 74 48 74 74 48 75 75 49 75 75 49 76 76 49 76 76 49 76 76 49 76 76 49 76 76 57 82 82 64 87 88 68 95 101 71 98 106 73 100 111 74 101 114 66 92 103 56 83 92 63 91 102 73 100 115 72 99 115 77 103 122 81 107 128 78 105 127 76 104 127 72 99 123 59 86 103 46 74 78 43 71 71 43 71 71 43 71 71 43 71 71 43 71 71 43 71 71 43 71 71 43 71 71 43 71 71 43 71 71 43 71 71 43 71 71 43 71 71 43 71 71 43 71 71 43 71 71 43 71 71 43 71 71 43 71 71 46 73 73 50 78 79 53 79 79 53 79 79 50 79 79 50 79 79 51 79 80 50 79 79 50 79 79 50 79 79 50 78 78 50 78 78 50 77 77 70 87 93 79 85 94 61 64 67 37 37 38 25 25 25 25 25 25 25 25 25 25 25 25 25 25 25 25 25 25 25 25 25 25 25 25 25 25 25 25 25 25 25 25 25 25 25 25 25 25 25 27 27 27 58 46 46 62 53 65 25 25 25 45 46 60 30 31 34 31 31 33 44 45 55 78 76 110 36 42 42 45 50 59 47 74 74 47 73 73 44 69 69 42 68 68 42 68 68 42 68 68 68 90 119 70 89 116 106 118 172 109 120 172 101 114 164 88 103 151 66 85 107 63 84 106 42 67 67 42 67 67 42 67 67 42 66 66 42 66 66 41 66 66 41 66 66 41 66 66 41 66 66 41 66 66 41 66 66 41 65 65 41 65 65 41 65 65 41 65 65 41 65 65 41 65 65 41 65 65 41 65 65 41 64 64 41 64 64 41 64 64 41 64 64 41 64 64 38 55 55 39 57 57 39 57 57 52 56 56 55 59 62 53 62 62 50 59 59 38 56 56 40 63 63 40 63 63 40 62 62 40 62 62 40 62 62 40 62 62 40 62 62 40 62 62 91 106 164 127 136 220 175 172 255 211 198 255 174 176 255 165 165 252 159 159 239 153 153 227 153 153 221 148 148 210 133 133 188 119 119 168 109 109 152 98 98 135 86 86 117 75 75 100 83 83 117 98 98 140 87 87 121 60 63 82 38 55 55 39 59 59 38 59 59 38 59 59 82 83 124 92 92 130 82 82 111 76 76 99 73 69 84 57 63 70 46 51 54 38 42 42 35 38 38 34 37 37 63 48 48 88 59 60 56 39 39 60 42 42 41 41 53 65 53 68 71 49 54 42 37 44 92 59 59 61 44 44 35 38 38 35 39 39 36 40 40 36 41 41 37 48 48 37 55 55 37 55 55 37 55 55 37 55 55 37 55 55 37 55 55 37 55 55 37 55 55 37 55 55 37 54 54 37 54 54 37 54 54 37 54 54 37 54 54 37 54 54 37 54 54 36 54 54 36 54 54 36 53 53 36 53 53 36 53 53 36 53 53 36 53 53 36 53 53 36 53 53 36 53 53 36 53 53 36 53 53 36 52 52 36 52 52 36 52 52 36 52 52 36 52 52 36 52 52 36 52 52 36 52 52 36 52 52 36 52 52 36 51 51 36 51 51 109 114 173 120 126 175 118 124 166 114 120 156 146 137 167 163 142 167 97 101 120 90 96 109 83 88 96 75 79 83 53 57 58 35 39 39 35 38 38 35 38 38 34 37 37 34 36 36 34 36 36 34 35 35 34 35 35 33 34 34 33 34 34 33 33 38 33 33 37 30 30 34 30 30 32 27 27 27 27 27 27 27 27 27 27 27 27 27 27 27 27 27 27 27 27 27 27 27 27 29 29 29 29 29 29 31 31 31 33 32 32 82 47 47 101 66 66 69 47 47 
40 63 63 40 63 63 40 63 63 40 63 63 40 63 63 40 63 63 40 63 63 40 64 64 40 64 64 41 64 64 41 64 64 41 64 64 41 64 64 41 64 64 41 64 64 41 65 65 41 65 65 41 65 65 41 65 65 41 65 65 41 65 65 41 65 65 41 65 65 41 66 66 41 66 66 41 66 66 41 66 66 41 66 66 41 66 66 42 66 66 42 66 66 42 67 67 42 67 67 42 67 67 42 67 67 42 67 67 42 67 67 42 67 67 42 67 67 42 67 67 42 68 68 50 73 73 50 75 75 50 76 76 50 77 77 50 77 77 50 78 78 51 78 78 51 78 78 49 75 75 48 74 74 48 74 74 48 74 74 48 74 74 48 74 74 48 74 74 48 74 74 48 74 74 51 78 78 62 87 88 73 97 101 68 94 100 72 98 107 73 100 112 73 100 117 62 89 101 55 82 91 64 91 104 73 100 116 76 103 123 75 102 122 77 104 126 77 104 127 74 101 126 67 94 118 53 80 92 43 70 70 43 70 70 43 70 70 43 70 70 43 70 70 43 71 71 43 71 71 43 71 71 43 71 71 43 71 71 43 71 71 43 71 71 43 71 71 43 71 71 43 71 71 43 71 71 43 71 71 43 71 71 43 71 71 43 71 71 48 75 77 52 78 78 52 78 78 50 78 78 50 79 79 52 80 82 52 80 81 51 79 80 51 79 81 51 79 81 50 78 78 50 77 77 49 77 77 87 95 107 62 69 72 47 51 51 33 33 33 25 25 25 25 25 25 25 25 25 25 25 25 25 25 25 25 25 25 25 25 25 25 25 25 25 25 25 25 25 25 25 25 25 25 25 25 25 25 25 39 29 29 88 62 62 42 33 33 84 68 83 53 41 41 55 41 41 29 30 30 35 37 37 62 62 83 49 51 71 60 62 86 50 77 77 49 76 76 48 74 74 46 72 72 70 89 117 101 115 169 134 143 231 131 138 215 137 143 215 166 164 255 160 159 252 146 147 236 129 133 194 121 129 188 87 101 138 62 82 100 42 66 66 42 66 66 41 66 66 41 66 66 41 66 66 41 66 66 41 66 66 41 66 66 41 65 65 41 65 65 41 65 65 41 65 65 41 65 65 41 65 65 41 65 65 41 65 65 41 64 64 41 64 64 41 64 64 41 64 64 41 64 64 41 64 64 40 64 64 40 64 64 40 63 63 111 93 93 111 95 95 113 98 98 175 123 123 172 123 123 164 119 119 101 92 92 98 91 91 95 87 87 40 62 62 40 62 62 40 62 62 63 81 109 120 130 212 160 164 255 198 192 255 199 183 255 168 169 254 163 164 242 154 154 226 147 147 213 164 156 215 137 138 191 126 126 174 110 110 151 99 99 134 88 88 117 77 77 100 65 65 82 60 60 78 87 87 118 81 80 105 72 72 92 49 51 63 39 59 59 38 59 59 38 59 59 64 70 103 74 75 103 72 71 92 67 63 77 62 58 66 45 49 52 38 43 44 36 41 41 36 40 40 35 40 40 35 39 39 61 50 50 75 50 50 94 63 63 45 38 38 75 53 55 105 63 63 55 40 40 50 43 43 35 39 39 35 39 39 36 40 40 36 40 40 37 48 48 37 56 56 37 55 55 37 55 55 37 55 55 37 55 55 37 55 55 37 55 55 37 55 55 37 55 55 37 55 55 37 54 54 37 54 54 37 54 54 37 54 54 37 54 54 37 54 54 37 54 54 36 54 54 36 54 54 36 53 53 36 53 53 36 53 53 36 53 53 36 53 53 36 53 53 36 53 53 36 53 53 36 53 53 36 53 53 36 52 52 36 52 52 36 52 52 36 52 52 36 52 52 36 52 52 36 52 52 36 52 52 36 52 52 36 52 52 36 51 51 36 51 51 51 64 78 109 115 163 111 117 157 110 117 150 114 115 142 123 115 137 96 94 111 85 91 102 78 83 89 55 60 61 36 40 40 35 39 39 35 39 39 35 38 38 35 38 38 35 37 37 34 37 37 34 36 36 37 38 46 41 41 55 41 41 54 40 40 52 40 40 55 38 38 52 37 37 48 36 36 44 33 33 37 31 32 33 31 32 32 31 32 32 31 32 32 31 32 32 31 32 32 33 34 34 33 34 34 33 34 34 33 35 35 52 39 39 63 45 45 34 36 36 
40 63 63 40 63 63 40 63 63 40 63 63 40 63 63 40 63 63 40 63 63 40 63 63 40 64 64 40 64 64 41 64 64 41 64 64 41 64 64 41 64 64 41 64 64 41 64 64 41 65 65 41 65 65 41 65 65 41 65 65 41 65 65 41 65 65 41 65 65 41 65 65 41 66 66 41 66 66 41 66 66 41 66 66 41 66 66 41 66 66 42 66 66 42 66 66 42 67 67 42 67 67 42 67 67 42 67 67 42 67 67 42 67 67 42 67 67 42 67 67 43 69 69 50 74 74 49 75 75 50 76 76 50 77 77 50 77 77 50 77 77 50 78 78 50 77 77 50 76 76 48 74 74 48 74 74 48 74 74 48 74 74 48 74 74 48 74 74 48 74 74 51 77 77 55 82 83 65 91 94 73 97 103 71 98 106 74 100 112 74 101 117 63 90 101 52 79 85 57 84 92 61 87 101 68 95 111 72 99 118 72 99 120 74 101 123 72 99 123 68 95 119 55 82 95 47 74 79 43 70 70 43 70 70 43 70 70 43 70 70 43 70 70 43 70 70 43 70 70 43 70 70 43 70 70 43 70 70 43 70 70 43 70 70 43 70 70 43 70 70 43 70 70 43 70 70 43 70 70 43 70 70 43 70 70 43 70 70 47 74 75 52 77 77 51 77 78 51 79 81 51 79 80 52 79 81 50 78 78 53 80 81 55 81 82 55 81 83 54 81 81 54 80 80 54 79 79 63 71 78 37 44 44 36 41 41 34 36 36 27 27 27 25 25 25 25 25 25 25 25 25 25 25 25 25 25 25 25 25 25 25 25 25 25 25 25 25 25 25 25 25 25 25 25 25 25 25 25 41 32 32 111 70 70 80 51 51 57 43 43 38 32 32 113 72 72 32 33 33 35 38 38 44 44 58 66 62 87 74 73 102 50 77 77 50 77 77 74 94 122 107 120 175 149 153 236 168 165 255 167 169 255 172 172 255 172 170 255 154 154 237 150 150 229 145 145 220 170 159 231 179 160 229 134 136 203 124 127 192 97 107 153 57 78 91 41 66 66 41 66 66 41 66 66 41 66 66 41 66 66 41 65 65 41 65 65 41 65 65 41 65 65 41 65 65 41 65 65 41 65 65 41 65 65 41 64 64 41 64 64 62 82 111 67 86 114 67 86 113 86 101 152 85 99 148 114 95 95 116 100 100 193 137 137 194 142 142 255 176 176 255 175 175 253 174 174 255 197 197 255 191 191 223 159 159 216 154 154 205 147 147 143 116 116 137 109 109 85 84 84 92 107 160 154 158 255 160 160 255 165 165 255 165 166 250 165 165 244 157 157 227 146 146 210 138 138 196 146 145 196 137 137 182 112 112 151 100 100 133 88 88 115 77 77 98 65 65 80 52 52 62 59 59 80 66 66 88 63 63 81 68 68 85 58 59 73 36 42 42 38 59 59 38 58 58 38 58 58 58 61 80 56 57 70 55 52 59 45 43 46 37 41 41 36 42 42 36 42 42 36 41 41 36 41 41 36 40 40 36 40 40 35 40 40 84 62 62 47 39 39 54 44 45 82 61 62 43 40 40 35 39 39 35 40 40 36 40 40 36 40 40 36 44 44 37 48 48 37 55 55 37 55 55 37 55 55 37 55 55 37 55 55 37 55 55 37 55 55 37 55 55 37 55 55 37 54 54 37 54 54 37 54 54 37 54 54 37 54 54 37 54 54 37 54 54 36 54 54 36 54 54 36 54 54 36 53 53 36 53 53 36 53 53 36 53 53 36 53 53 36 53 53 36 53 53 36 53 53 36 53 53 36 53 53 36 52 52 36 52 52 36 52 52 36 52 52 36 52 52 36 52 52 36 52 52 36 52 52 36 52 52 36 52 52 36 51 51 36 51 51 36 51 51 101 107 153 107 112 150 105 111 142 100 106 131 107 104 123 89 89 106 79 79 87 73 78 81 52 57 58 36 40 40 35 40 40 35 39 39 35 39 39 35 38 38 35 38 38 38 41 49 46 47 63 51 52 75 52 53 75 54 54 82 53 53 78 49 49 72 45 45 65 41 41 59 39 39 54 38 38 49 36 36 43 34 34 37 33 34 34 33 35 35 33 35 35 33 35 35 34 35 35 34 35 35 34 35 35 34 35 35 34 36 36 34 36 36 34 36 36 
40 62 62 40 63 63 40 63 63 40 63 63 40 63 63 40 63 63 40 63 63 40 63 63 40 64 64 40 64 64 41 64 64 41 64 64 41 64 64 41 64 64 41 64 64 41 64 64 41 65 65 41 65 65 41 65 65 41 65 65 41 65 65 41 65 65 41 65 65 41 65 65 41 65 65 41 66 66 41 66 66 41 66 66 41 66 66 41 66 66 41 66 66 42 66 66 42 66 66 42 67 67 42 67 67 42 67 67 42 67 67 42 67 67 42 67 67 42 67 67 44 70 70 48 74 74 49 76 76 49 76 76 50 77 77 50 77 77 50 77 77 50 77 77 50 77 77 50 76 76 49 75 75 48 74 74 47 74 74 48 74 74 48 74 74 48 74 74 54 80 80 58 84 86 63 90 93 67 94 100 70 97 105 73 100 112 73 100 115 69 94 104 58 86 95 54 82 88 55 81 90 60 87 101 60 87 102 64 91 109 66 93 113 66 93 115 60 87 105 54 81 93 47 74 80 43 70 70 43 70 70 43 70 70 43 70 70 43 70 70 43 70 70 43 70 70 43 70 70 43 70 70 43 70 70 43 70 70 43 70 70 43 70 70 43 70 70 43 70 70 43 70 70 43 70 70 43 70 70 43 70 70 43 70 70 43 70 70 46 73 73 51 78 80 50 77 78 50 77 77 51 78 79 52 80 80 56 81 81 59 83 83 62 85 85 67 89 90 66 88 90 65 87 87 65 86 86 52 67 70 37 45 45 36 42 42 35 39 39 34 35 35 27 27 27 25 25 25 25 25 25 25 25 25 25 25 25 25 25 25 25 25 25 25 25 25 25 25 25 25 25 25 25 25 25 25 25 25 25 25 25 72 48 48 103 64 64 29 30 30 29 30 30 73 52 52 48 40 40 35 40 40 36 37 41 52 52 69 80 77 104 50 77 77 97 113 166 149 144 193 175 177 255 229 202 255 163 163 252 163 164 247 166 165 245 161 162 236 154 154 224 147 147 214 142 142 205 137 137 196 130 130 187 174 163 217 123 124 176 113 114 165 107 113 162 56 76 86 41 66 66 41 66 66 41 65 65 41 65 65 41 65 65 41 65 65 41 65 65 41 65 65 41 65 65 41 65 65 41 64 64 41 64 64 67 87 117 96 110 167 103 115 169 136 143 223 141 146 221 188 154 231 238 172 222 236 175 223 255 179 179 255 219 219 255 223 223 255 225 225 255 221 221 255 216 216 255 209 209 255 203 203 255 195 195 255 188 188 251 181 181 240 173 173 228 162 162 173 134 134 160 136 190 169 160 233 197 183 255 213 195 255 180 171 246 159 160 230 148 148 209 137 137 192 128 128 178 146 136 180 120 120 158 103 103 135 87 87 112 75 75 95 63 63 77 50 50 58 43 43 54 46 46 58 48 48 64 52 52 64 53 53 64 51 51 61 44 45 53 38 59 59 38 58 58 38 58 58 42 55 62 44 46 52 40 41 43 40 38 38 36 40 40 36 42 42 36 42 42 37 42 42 36 41 41 36 41 41 36 41 41 36 40 40 36 41 41 36 41 41 38 42 43 36 40 40 36 41 42 36 40 40 36 40 40 36 40 40 36 41 41 37 48 48 37 56 56 37 55 55 37 55 55 37 55 55 37 55 55 37 55 55 37 55 55 37 55 55 37 55 55 37 55 55 37 54 54 37 54 54 37 54 54 37 54 54 37 54 54 37 54 54 37 54 54 36 54 54 36 54 54 36 54 54 36 53 53 36 53 53 36 53 53 36 53 53 36 53 53 36 53 53 36 53 53 36 53 53 36 53 53 36 53 53 36 52 52 36 52 52 36 52 52 36 52 52 36 52 52 36 52 52 36 52 52 36 52 52 36 52 52 36 52 52 36 51 51 36 51 51 36 51 51 63 73 97 98 104 140 99 105 134 96 101 124 114 105 121 94 85 96 74 76 82 54 59 61 36 40 40 36 40 40 36 40 40 35 39 39 35 39 39 35 39 39 39 42 51 50 52 70 58 59 84 65 65 97 66 66 97 65 65 94 62 62 89 59 59 83 54 54 76 47 47 68 41 41 59 39 39 54 38 38 50 36 36 44 34 34 36 34 35 35 34 36 36 34 36 36 34 36 36 34 36 36 34 36 36 34 36 36 34 36 36 34 36 36 34 37 37 
40 62 62 40 63 63 40 63 63 40 63 63 40 63 63 40 63 63 40 63 63 40 63 63 40 63 63 40 64 64 40 64 64 41 64 64 41 64 64 41 64 64 41 64 64 41 64 64 41 64 64 41 65 65 41 65 65 41 65 65 41 65 65 41 65 65 41 65 65 41 65 65 41 65 65 41 66 66 41 66 66 41 66 66 41 66 66 41 66 66 41 66 66 41 66 66 42 66 66 42 66 66 42 67 67 42 67 67 42 67 67 42 67 67 42 67 67 42 67 67 46 71 71 49 75 75 49 76 76 49 76 76 50 76 76 50 77 77 50 77 77 50 77 77 50 77 77 50 76 76 49 75 75 51 77 78 53 78 79 51 77 78 50 76 77 54 80 81 58 84 86 63 89 94 66 92 99 68 95 104 71 97 109 67 94 105 64 91 101 63 89 98 61 87 94 60 87 97 59 86 97 57 84 97 52 78 88 54 80 93 52 79 89 52 79 89 51 78 88 46 73 78 43 70 70 43 70 70 43 70 70 43 70 70 43 70 70 43 70 70 43 70 70 43 70 70 43 70 70 43 70 70 43 70 70 43 70 70 43 70 70 43 70 70 43 70 70 43 70 70 43 70 70 43 70 70 43 70 70 43 70 70 43 70 70 43 70 70 44 71 71 49 76 77 53 79 81 54 80 81 57 82 82 61 85 85 70 90 90 71 91 91 78 96 96 79 97 98 81 98 100 79 95 95 78 93 93 64 78 78 38 45 45 37 43 43 36 41 41 35 38 38 34 36 36 29 30 30 27 27 27 25 25 25 25 25 25 25 25 25 25 25 25 25 25 25 25 25 25 25 25 25 25 25 25 25 25 25 25 25 25 51 37 37 103 68 68 93 56 57 80 56 56 61 45 45 35 39 39 36 40 40 48 42 47 62 60 77 61 75 86 97 115 166 130 136 210 171 161 255 186 181 255 167 164 246 166 164 241 163 163 237 156 157 224 151 151 215 145 145 204 140 140 196 135 135 187 129 129 178 146 139 185 145 141 184 120 120 161 108 109 147 99 99 136 99 103 139 75 87 112 41 65 65 41 65 65 41 65 65 41 65 65 41 65 65 41 65 65 41 65 65 41 65 65 41 64 64 63 83 113 96 110 168 142 145 230 158 159 255 161 163 255 159 160 255 228 189 255 255 194 245 255 207 230 255 226 227 255 229 229 255 230 230 255 229 229 255 224 224 255 218 218 255 211 211 255 204 204 255 197 197 253 192 195 243 184 184 230 176 176 219 169 169 211 162 163 198 151 151 193 148 148 177 149 172 173 153 203 152 152 225 157 156 223 156 157 218 133 133 187 126 126 173 117 117 158 125 122 157 120 116 147 85 85 109 73 73 91 61 61 72 46 46 52 36 36 38 49 49 61 59 60 79 49 48 58 42 42 51 40 40 46 42 42 49 39 40 44 37 46 46 38 58 58 38 58 58 38 58 58 38 48 49 37 40 40 38 41 41 38 41 41 36 42 42 41 45 45 42 46 46 41 44 44 37 42 42 44 45 45 40 43 43 38 43 44 44 47 48 42 44 44 42 43 43 39 43 43 36 41 41 36 41 41 36 41 41 37 48 48 37 52 52 37 56 56 37 55 55 37 55 55 37 55 55 37 55 55 37 55 55 37 55 55 37 55 55 37 55 55 37 55 55 37 54 54 37 54 54 37 54 54 37 54 54 37 54 54 37 54 54 37 54 54 36 54 54 36 54 54 36 53 53 36 53 53 36 53 53 36 53 53 36 53 53 36 53 53 36 53 53 36 53 53 36 53 53 36 53 53 36 52 52 36 52 52 36 52 52 36 52 52 36 52 52 36 52 52 36 52 52 36 52 52 36 52 52 36 52 52 36 52 52 36 51 51 36 51 51 36 51 51 35 51 51 89 95 131 96 102 130 94 98 118 107 101 115 143 117 126 76 74 78 52 57 57 36 41 41 36 40 40 36 40 40 35 40 40 35 39 39 35 39 39 49 52 71 65 66 102 72 72 107 73 73 106 72 72 104 71 71 100 68 68 96 64 64 90 59 59 83 54 54 76 46 46 66 40 40 57 39 39 53 37 37 48 35 35 42 40 36 37 34 36 36 34 36 36 34 36 36 34 36 36 34 36 36 34 37 37 34 37 37 34 37 37 34 37 37 
40 62 62 40 63 63 40 63 63 40 63 63 40 63 63 40 63 63 40 63 63 40 63 63 40 63 63 40 63 63 40 64 64 40 64 64 41 64 64 41 64 64 41 64 64 41 64 64 41 64 64 41 64 64 41 65 65 41 65 65 41 65 65 41 65 65 41 65 65 41 65 65 41 65 65 41 65 65 41 66 66 41 66 66 41 66 66 41 66 66 41 66 66 41 66 66 41 66 66 42 66 66 42 66 66 42 66 66 42 67 67 42 67 67 42 67 67 42 67 67 47 72 72 49 74 74 49 75 75 49 76 76 49 76 76 50 76 76 50 77 77 50 77 77 50 77 77 50 77 77 50 76 76 52 78 79 60 86 89 61 87 90 62 87 92 63 89 94 64 90 98 61 87 92 63 89 96 64 90 99 61 88 96 66 92 104 57 85 91 61 89 97 64 92 102 73 96 109 66 92 107 62 88 103 56 83 99 45 72 75 43 69 69 43 69 69 43 69 69 43 69 69 43 69 69 43 69 69 43 69 69 43 70 70 43 70 70 43 70 70 43 70 70 43 70 70 43 70 70 43 70 70 43 70 70 43 70 70 43 70 70 43 70 70 43 70 70 43 70 70 43 70 70 43 70 70 43 70 70 43 70 70 43 70 70 43 70 70 43 70 70 50 75 75 55 79 79 61 83 83 68 89 89 75 93 93 82 98 98 85 100 100 92 106 109 92 105 105 94 106 107 92 102 102 89 99 99 81 90 90 38 45 45 37 44 44 36 42 42 36 41 41 35 39 39 34 37 37 32 33 33 29 30 30 27 27 27 27 27 27 27 27 27 27 27 27 27 27 27 27 27 27 27 27 27 27 27 27 29 30 30 30 31 31 73 52 52 96 60 60 78 50 50 66 45 45 36 40 40 35 38 38 42 42 50 61 61 77 108 110 169 130 139 208 153 154 241 171 171 255 165 165 244 161 161 232 165 166 232 153 154 215 150 149 206 140 140 193 135 135 184 130 130 175 124 124 166 119 119 157 145 134 169 135 131 164 105 105 135 97 97 124 89 89 114 85 85 109 87 93 116 59 75 86 41 65 65 41 65 65 41 65 65 41 65 65 41 65 65 41 65 65 41 64 64 66 85 114 100 114 170 139 147 233 171 171 255 171 170 255 171 169 255 254 186 233 255 200 223 255 225 225 255 231 231 255 233 233 255 231 231 255 227 227 255 222 222 255 215 215 255 209 209 255 201 201 250 194 194 237 186 186 227 180 181 216 174 175 204 165 166 194 158 158 184 150 152 172 140 140 165 135 135 161 132 132 162 133 133 166 143 162 154 146 196 137 138 192 122 122 167 113 113 153 104 104 137 121 109 137 96 93 115 74 74 90 58 58 67 43 43 48 34 34 36 38 38 45 55 56 74 45 42 50 33 33 36 33 33 34 55 45 47 37 38 40 37 38 39 36 40 40 38 58 58 38 58 58 38 58 58 38 58 58 37 47 47 37 42 42 38 44 44 37 43 43 42 46 46 41 45 45 37 42 42 40 44 44 39 43 45 43 46 46 37 42 42 42 45 45 40 43 43 43 45 45 41 43 43 36 41 41 36 45 45 37 48 48 37 52 52 37 56 56 37 55 55 37 55 55 37 55 55 37 55 55 37 55 55 37 55 55 37 55 55 37 55 55 37 55 55 37 55 55 37 54 54 37 54 54 37 54 54 37 54 54 37 54 54 37 54 54 37 54 54 36 54 54 36 54 54 36 53 53 36 53 53 36 53 53 36 53 53 36 53 53 36 53 53 36 53 53 36 53 53 36 53 53 36 53 53 36 52 52 36 52 52 36 52 52 36 52 52 36 52 52 36 52 52 36 52 52 36 52 52 36 52 52 36 52 52 36 52 52 36 51 51 36 51 51 36 51 51 35 51 51 35 51 51 86 92 118 86 92 110 82 87 99 140 115 122 79 68 70 35 39 39 36 41 41 36 40 40 36 40 40 35 40 40 35 40 40 35 39 39 56 58 86 73 74 110 78 78 113 77 77 110 76 76 107 74 74 104 72 72 100 68 68 95 64 64 89 58 58 81 51 51 72 42 42 60 39 39 55 38 38 51 36 36 45 41 38 41 35 37 37 34 37 37 34 37 37 34 37 37 34 37 37 34 37 37 34 37 37 35 37 37 35 38 38 
40 62 62 40 62 62 40 63 63 40 63 63 40 63 63 40 63 63 40 63 63 40 63 63 40 63 63 40 63 63 40 64 64 40 64 64 41 64 64 41 64 64 41 64 64 41 64 64 41 64 64 41 64 64 41 64 64 41 65 65 41 65 65 41 65 65 41 65 65 41 65 65 41 65 65 41 65 65 41 65 65 41 66 66 41 66 66 41 66 66 41 66 66 41 66 66 41 66 66 41 66 66 41 66 66 42 66 66 42 66 66 42 67 67 42 67 67 42 67 67 47 72 72 49 74 74 49 75 75 49 75 75 49 76 76 49 76 76 50 76 76 50 77 77 50 77 77 50 77 77 51 77 77 60 84 85 68 92 96 66 92 98 70 96 106 70 96 107 70 96 109 58 85 93 56 82 86 55 81 86 52 79 82 58 85 93 61 89 96 66 93 104 69 97 111 70 97 112 70 96 113 67 93 111 58 85 103 43 69 69 43 69 69 43 69 69 43 69 69 43 69 69 43 69 69 43 69 69 43 69 69 43 69 69 43 69 69 43 69 69 43 69 69 43 69 69 43 69 69 43 69 69 43 69 69 43 69 69 43 69 69 43 69 69 43 69 69 43 69 69 43 69 69 43 69 69 43 69 69 43 69 69 43 69 69 43 69 69 43 69 69 50 74 74 63 82 82 72 89 89 80 95 96 88 101 101 94 106 106 99 108 108 102 110 110 105 112 113 104 110 110 102 107 107 96 100 100 66 82 82 38 45 45 37 44 44 37 43 43 36 42 42 36 41 41 35 39 39 35 38 38 34 37 37 34 36 36 32 33 33 32 33 33 31 33 33 31 33 33 32 33 33 32 33 33 32 33 33 34 36 36 34 37 37 36 38 38 61 48 49 45 41 41 41 44 44 36 40 40 37 37 38 42 42 49 63 64 81 108 109 163 151 154 236 181 175 253 161 162 234 156 156 220 167 162 222 157 157 212 145 145 197 136 136 182 129 129 171 123 123 162 118 118 153 112 112 143 140 130 159 116 113 140 100 99 122 93 94 113 83 83 100 78 78 93 73 73 86 74 75 88 75 82 93 41 65 65 41 65 65 41 65 65 41 65 65 41 64 64 41 64 64 64 84 112 99 114 167 171 175 255 165 166 255 183 173 255 191 188 255 255 195 241 255 213 234 255 229 229 255 237 237 255 232 232 255 230 230 255 225 225 255 219 219 255 212 212 255 204 204 250 196 196 237 188 188 224 180 180 211 172 172 199 165 165 186 156 156 176 150 151 165 142 143 154 134 134 145 127 127 138 122 122 133 118 118 131 117 117 134 120 120 131 122 137 132 128 168 109 109 147 100 100 132 90 90 115 106 99 118 102 92 107 54 54 62 39 39 43 30 30 31 33 33 42 46 47 59 34 34 39 30 30 30 34 30 30 27 27 27 43 39 41 36 37 37 37 38 38 36 40 40 38 58 58 38 58 58 38 58 58 38 58 58 38 58 58 38 54 54 37 46 46 38 43 43 40 46 47 37 43 43 37 42 42 36 42 42 36 41 41 43 49 52 37 42 42 36 41 41 36 41 41 36 41 41 36 41 41 36 45 45 37 49 49 37 52 52 37 56 56 37 56 56 37 55 55 37 55 55 37 55 55 37 55 55 37 55 55 37 55 55 37 55 55 37 55 55 37 55 55 37 54 54 37 54 54 37 54 54 37 54 54 37 54 54 37 54 54 37 54 54 37 54 54 36 54 54 36 54 54 36 53 53 36 53 53 36 53 53 36 53 53 36 53 53 36 53 53 36 53 53 36 53 53 36 53 53 36 53 53 36 52 52 36 52 52 36 52 52 36 52 52 36 52 52 36 52 52 36 52 52 36 52 52 36 52 52 36 52 52 36 52 52 36 51 51 36 51 51 36 51 51 35 51 51 35 51 51 47 60 67 81 86 104 77 83 93 88 85 90 71 63 64 33 33 33 36 39 39 36 40 40 36 40 40 36 40 40 35 40 40 35 39 39 63 64 101 75 75 111 82 80 114 81 80 114 77 77 109 76 76 106 74 74 103 72 72 99 67 67 92 61 61 85 55 55 76 46 46 65 40 40 56 38 38 52 51 44 54 38 37 41 35 37 37 34 37 37 34 37 37 34 37 37 35 37 37 35 37 37 35 38 38 35 38 38 35 38 38 
40 62 62 40 62 62 40 63 63 40 63 63 40 63 63 40 63 63 40 63 63 40 63 63 40 63 63 40 63 63 40 63 63 40 64 64 40 64 64 41 64 64 41 64 64 41 64 64 41 64 64 41 64 64 41 64 64 41 65 65 41 65 65 41 65 65 41 65 65 41 65 65 41 65 65 41 65 65 41 65 65 41 65 65 41 65 65 41 66 66 41 66 66 41 66 66 41 66 66 41 66 66 41 66 66 41 66 66 42 66 66 42 66 66 42 67 67 42 67 67 47 72 72 47 72 72 49 74 74 49 75 75 49 75 75 49 76 76 49 76 76 49 76 76 49 76 76 49 76 76 51 78 78 56 82 85 66 90 94 70 94 100 70 96 106 74 99 112 78 102 119 62 88 101 53 79 86 53 79 82 56 82 88 61 87 96 71 96 106 78 102 118 74 101 119 79 103 120 73 99 118 70 96 117 62 88 109 43 69 69 43 69 69 43 69 69 43 69 69 43 69 69 43 69 69 43 69 69 43 69 69 43 69 69 43 69 69 43 69 69 43 69 69 43 69 69 43 69 69 43 69 69 43 69 69 43 69 69 43 69 69 43 69 69 43 69 69 43 69 69 43 69 69 43 69 69 43 69 69 43 69 69 43 69 69 43 69 69 43 69 69 43 69 69 59 78 78 78 90 90 90 99 100 98 106 106 105 111 111 109 114 114 113 116 116 113 115 115 112 112 112 107 106 106 84 90 90 64 78 78 43 69 69 37 45 45 37 44 44 37 43 43 36 42 42 36 41 41 36 40 40 35 39 39 35 39 39 35 38 38 35 38 38 35 37 37 34 37 37 35 37 37 35 38 38 35 38 38 35 38 38 35 39 39 36 40 41 36 40 40 40 44 45 40 43 43 44 43 43 45 39 41 47 46 56 101 104 152 141 145 224 153 153 228 160 161 231 158 159 223 147 147 202 143 143 192 139 139 183 130 130 171 121 121 158 116 116 148 110 110 139 104 104 129 98 98 120 118 107 126 111 107 124 88 87 100 74 74 84 69 69 77 57 57 63 54 54 58 44 44 48 53 57 60 53 60 64 41 65 65 41 65 65 41 64 64 41 64 64 41 64 64 96 110 162 152 156 255 215 196 255 204 191 255 209 192 255 250 187 229 255 208 229 255 233 239 255 235 240 255 229 230 255 223 223 255 220 220 255 213 213 255 206 206 251 198 198 237 189 189 223 181 181 208 172 172 195 164 164 181 154 154 168 146 146 156 138 138 144 130 130 133 122 122 105 97 97 99 93 93 75 71 71 73 69 69 71 67 67 71 68 68 76 73 73 102 96 99 95 95 125 86 86 109 75 75 93 65 65 77 79 69 76 37 37 40 29 29 29 25 25 25 42 43 52 39 39 46 28 28 28 53 39 39 38 29 29 25 25 25 27 27 27 36 37 37 36 38 38 36 40 40 38 58 58 38 58 58 38 58 58 38 58 58 38 58 58 38 58 58 38 54 54 37 50 50 38 47 47 37 43 43 37 43 43 37 42 42 37 42 42 42 47 50 37 43 43 37 42 42 36 45 45 36 45 45 37 49 49 37 52 52 37 56 56 37 56 56 37 56 56 37 56 56 37 55 55 37 55 55 37 55 55 37 55 55 37 55 55 37 55 55 37 55 55 37 55 55 37 55 55 37 54 54 37 54 54 37 54 54 37 54 54 37 54 54 37 54 54 37 54 54 36 54 54 36 54 54 36 54 54 36 53 53 36 53 53 36 53 53 36 53 53 36 53 53 36 53 53 36 53 53 36 53 53 36 53 53 36 53 53 36 52 52 36 52 52 36 52 52 36 52 52 36 52 52 36 52 52 36 52 52 36 52 52 36 52 52 36 52 52 36 52 52 36 51 51 36 51 51 36 51 51 35 51 51 35 51 51 35 51 51 46 59 64 74 79 89 69 74 78 64 53 53 50 41 41 35 35 35 36 40 40 36 40 40 36 40 40 35 40 40 35 40 40 58 59 95 79 79 114 79 80 116 79 79 112 78 78 110 77 77 107 77 77 107 73 73 102 68 68 95 63 62 86 55 55 77 49 48 67 40 40 57 48 45 59 38 39 49 40 39 42 35 37 37 35 38 38 35 38 38 35 38 38 35 38 38 35 38 38 35 38 38 35 38 38 34 37 37 
40 62 62 40 62 62 40 62 62 40 63 63 40 63 63 40 63 63 40 63 63 40 63 63 40 63 63 40 63 63 40 63 63 40 63 63 40 64 64 40 64 64 41 64 64 41 64 64 41 64 64 41 64 64 41 64 64 41 64 64 41 65 65 41 65 65 41 65 65 41 65 65 41 65 65 41 65 65 41 65 65 41 65 65 41 65 65 41 65 65 41 66 66 41 66 66 41 66 66 41 66 66 41 66 66 41 66 66 41 66 66 42 66 66 42 66 66 42 66 66 47 72 72 47 72 72 47 72 72 48 74 74 49 74 74 49 75 75 49 75 75 49 75 75 49 75 75 49 75 75 54 80 81 74 94 96 68 91 97 71 95 104 73 99 110 74 99 114 74 100 119 69 93 107 58 84 92 60 85 99 61 87 95 66 92 104 76 98 110 74 99 114 81 105 123 76 102 121 75 101 122 72 98 120 62 88 111 42 69 69 42 69 69 42 69 69 42 69 69 42 69 69 42 69 69 43 69 69 43 69 69 43 69 69 43 69 69 43 69 69 43 69 69 43 69 69 43 69 69 43 69 69 43 69 69 43 69 69 43 69 69 43 69 69 43 69 69 43 69 69 43 69 69 43 69 69 43 69 69 43 69 69 43 69 69 43 69 69 43 69 69 43 69 69 43 69 69 68 81 81 89 94 94 101 103 103 110 110 110 115 113 113 117 113 113 116 111 111 96 100 100 77 88 88 69 80 80 42 69 69 42 69 69 39 46 46 37 44 44 37 43 43 37 42 42 36 42 42 36 41 41 36 41 41 36 40 40 35 40 40 35 39 39 35 39 39 35 39 39 35 39 39 35 39 39 35 39 39 35 40 40 36 40 40 39 44 46 40 45 47 42 45 45 40 42 42 34 36 36 36 36 39 48 54 62 106 108 151 139 141 207 150 150 216 153 153 214 147 147 202 140 137 181 132 131 171 134 132 167 113 113 144 107 107 134 101 101 124 95 95 114 88 88 105 114 100 113 123 104 113 72 70 78 65 62 67 46 46 50 44 44 46 34 34 35 33 33 33 25 25 25 34 36 36 58 60 78 41 64 64 41 64 64 41 64 64 41 64 64 90 106 156 144 149 248 156 156 249 159 159 245 171 171 255 255 194 235 255 203 226 255 225 225 255 226 226 255 227 227 255 219 219 255 212 212 255 205 205 253 198 198 238 190 190 222 181 181 207 171 171 192 162 162 178 153 153 164 144 144 149 134 134 137 126 126 106 99 99 78 73 73 73 70 70 48 47 47 46 46 46 45 45 45 25 25 25 25 25 25 25 25 25 26 26 26 31 33 33 67 65 76 70 70 86 58 58 69 83 67 72 83 65 67 27 27 27 25 25 25 28 28 32 39 39 53 32 32 36 49 34 34 48 38 38 75 51 51 25 25 25 27 27 27 32 34 34 37 39 39 36 41 41 38 58 58 38 58 58 38 58 58 38 58 58 38 58 58 38 57 57 38 57 57 38 57 57 38 53 53 37 53 53 38 50 50 38 50 50 37 50 50 37 50 50 37 50 50 37 49 49 37 53 53 37 52 52 37 56 56 37 56 56 37 56 56 37 56 56 37 56 56 37 55 55 37 55 55 37 55 55 37 55 55 37 55 55 37 55 55 37 55 55 37 55 55 37 55 55 37 55 55 37 54 54 37 54 54 37 54 54 37 54 54 37 54 54 37 54 54 37 54 54 36 54 54 36 54 54 36 54 54 36 53 53 36 53 53 36 53 53 36 53 53 36 53 53 36 53 53 36 53 53 36 53 53 36 53 53 36 53 53 36 52 52 36 52 52 36 52 52 36 52 52 36 52 52 36 52 52 36 52 52 36 52 52 36 52 52 36 52 52 36 52 52 36 51 51 36 51 51 36 51 51 35 51 51 35 51 51 35 51 51 35 51 51 45 58 61 67 72 74 36 41 41 103 76 76 56 48 48 36 40 40 36 40 40 36 40 40 36 40 40 35 40 40 35 39 39 76 72 107 73 75 109 82 81 113 79 80 112 74 74 104 73 73 102 72 72 100 67 67 94 61 61 86 54 54 75 48 47 67 45 43 60 40 41 54 41 39 47 36 38 40 35 38 38 39 42 47 40 41 51 35 38 38 35 38 38 35 38 38 35 37 37 39 41 41 35 42 42 
40 62 62 40 62 62 40 62 62 40 62 62 40 63 63 40 63 63 40 63 63 40 63 63 40 63 63 40 63 63 40 63 63 40 63 63 40 64 64 40 64 64 40 64 64 41 64 64 41 64 64 41 64 64 41 64 64 41 64 64 41 64 64 41 65 65 41 65 65 41 65 65 41 65 65 41 65 65 41 65 65 41 65 65 41 65 65 41 65 65 41 65 65 41 66 66 41 66 66 41 66 66 41 66 66 41 66 66 41 66 66 41 66 66 41 66 66 42 66 66 45 70 70 47 72 72 47 72 72 47 72 72 47 72 72 48 73 73 48 73 73 48 73 73 48 73 73 50 75 75 56 81 83 65 90 94 71 96 105 73 99 110 73 99 112 74 100 117 70 96 113 63 89 97 65 90 101 62 87 100 65 90 108 68 94 106 69 95 108 78 102 118 77 103 122 77 102 123 76 102 124 72 98 121 55 81 92 42 68 68 42 68 68 42 68 68 42 68 68 42 68 68 42 69 69 42 69 69 42 69 69 42 69 69 42 69 69 42 69 69 42 69 69 42 69 69 42 69 69 42 69 69 42 69 69 42 69 69 42 69 69 43 69 69 43 69 69 43 69 69 43 69 69 43 69 69 43 69 69 42 69 69 42 69 69 42 69 69 42 69 69 42 69 69 42 69 69 45 71 71 57 77 77 70 83 83 89 92 92 93 95 95 94 95 95 79 89 89 76 85 85 57 75 75 42 68 68 42 68 68 42 68 68 42 68 68 38 45 45 37 44 44 37 43 43 37 42 42 36 42 42 36 41 41 36 41 41 36 41 41 36 41 41 36 40 40 36 40 40 36 40 40 36 40 40 36 40 40 36 41 41 36 41 41 40 44 44 41 45 45 41 46 47 36 40 40 36 37 37 44 44 51 85 89 128 130 138 203 135 138 196 141 141 197 138 138 187 133 132 174 134 128 162 118 118 148 109 109 134 98 98 120 92 92 110 85 85 99 79 79 89 64 64 71 59 59 64 85 75 79 62 59 62 34 34 35 25 25 25 25 25 25 35 35 44 34 34 42 33 33 41 33 33 42 59 60 82 54 59 75 41 64 64 41 64 64 59 78 102 115 127 197 156 157 246 180 178 255 191 180 255 197 167 222 255 190 209 255 228 228 255 222 222 255 222 223 255 213 213 255 207 207 255 200 200 242 191 191 226 182 182 210 173 173 194 163 163 178 153 153 163 143 143 148 134 134 134 124 124 103 97 97 75 72 72 49 48 48 46 46 46 25 25 25 25 25 25 25 25 25 25 25 25 25 25 25 25 25 25 25 25 25 25 25 25 40 40 49 43 44 53 49 50 59 39 39 43 32 32 33 93 67 67 41 34 35 25 25 25 30 30 37 51 52 70 25 25 25 56 42 42 51 41 41 102 62 62 47 35 35 29 30 30 34 37 37 35 40 40 36 41 41 38 58 58 38 58 58 38 58 58 38 58 58 38 58 58 38 57 57 38 57 57 38 57 57 38 57 57 38 57 57 38 57 57 38 57 57 38 57 57 38 57 57 38 56 56 38 56 56 37 56 56 37 56 56 37 56 56 37 56 56 37 56 56 37 56 56 37 56 56 37 55 55 37 55 55 37 55 55 37 55 55 37 55 55 37 55 55 37 55 55 37 55 55 37 55 55 37 54 54 37 54 54 37 54 54 37 54 54 37 54 54 37 54 54 37 54 54 37 54 54 36 54 54 36 54 54 36 53 53 36 53 53 36 53 53 36 53 53 36 53 53 36 53 53 36 53 53 36 53 53 36 53 53 36 53 53 36 53 53 36 52 52 36 52 52 36 52 52 36 52 52 36 52 52 36 52 52 36 52 52 36 52 52 36 52 52 36 52 52 36 52 52 36 51 51 36 51 51 35 51 51 35 51 51 35 51 51 35 51 51 35 51 51 35 51 51 43 56 57 36 44 44 62 55 55 83 66 66 41 37 37 36 39 39 36 40 40 36 40 40 36 40 40 35 40 40 41 44 53 68 66 98 72 70 102 69 70 100 71 71 101 67 68 95 65 65 92 61 61 86 58 58 81 57 54 75 44 45 64 49 46 61 50 50 68 49 49 65 38 39 47 52 54 70 50 52 64 49 49 56 36 38 42 35 38 38 44 42 42 63 57 57 51 52 52 35 46 46 
40 62 62 40 62 62 40 62 62 40 62 62 40 63 63 40 63 63 40 63 63 40 63 63 40 63 63 40 63 63 40 63 63 40 63 63 40 63 63 40 64 64 40 64 64 40 64 64 41 64 64 41 64 64 41 64 64 41 64 64 41 64 64 41 64 64 41 64 64 41 65 65 41 65 65 41 65 65 41 65 65 41 65 65 41 65 65 41 65 65 41 65 65 41 65 65 41 65 65 41 66 66 41 66 66 41 66 66 41 66 66 41 66 66 41 66 66 41 66 66 47 71 71 47 71 71 47 71 71 47 72 72 47 72 72 47 72 72 47 72 72 47 72 72 47 72 72 52 78 79 60 85 88 64 90 96 72 97 106 72 98 109 74 99 115 73 99 118 70 96 112 66 93 103 74 96 109 66 92 107 63 88 105 69 95 109 69 95 110 75 100 117 76 101 121 76 102 124 74 100 124 68 93 118 52 78 90 42 68 68 42 68 68 42 68 68 42 68 68 42 68 68 42 68 68 42 68 68 42 68 68 42 68 68 42 68 68 42 68 68 42 68 68 42 68 68 42 68 68 42 68 68 42 68 68 42 69 69 42 69 69 42 69 69 42 69 69 42 69 69 42 69 69 42 69 69 42 69 69 42 69 69 42 68 68 42 68 68 44 70 70 45 71 71 46 72 72 48 73 74 51 75 75 54 76 76 65 80 80 62 78 78 58 75 75 55 72 72 42 68 68 42 68 68 42 68 68 42 68 68 42 68 68 42 68 68 42 63 63 38 45 45 37 44 44 37 43 43 37 43 43 36 42 42 36 42 42 36 42 42 36 41 41 36 41 41 36 41 41 36 41 41 36 41 41 36 41 41 36 41 41 38 43 43 37 43 43 43 46 46 37 42 43 38 40 41 40 41 45 43 56 60 88 99 133 127 133 186 126 128 175 127 127 171 123 123 160 117 117 148 124 116 142 111 108 129 93 93 109 82 82 95 75 75 84 61 61 67 48 48 52 45 45 47 84 62 63 68 52 52 32 30 30 25 25 25 25 25 25 44 44 58 35 35 41 44 44 56 50 50 69 56 56 79 63 63 87 75 75 103 41 64 64 42 65 65 86 102 145 143 152 238 163 162 243 208 196 255 192 185 255 234 177 213 255 211 211 255 222 223 255 216 218 255 209 209 255 202 202 249 195 195 233 186 186 216 176 176 199 166 166 182 156 156 166 146 146 150 135 135 134 125 125 102 97 97 74 71 71 48 47 47 25 25 25 25 25 25 25 25 25 25 25 25 25 25 25 25 25 25 25 25 25 25 25 25 25 25 25 25 25 25 36 36 44 33 33 38 51 50 60 41 42 48 30 30 30 25 25 25 70 54 55 65 47 47 25 25 25 25 25 25 55 55 74 25 25 25 30 28 28 25 25 25 82 58 58 60 43 43 32 34 34 35 39 39 36 40 40 36 42 42 38 58 58 38 58 58 38 58 58 38 58 58 38 57 57 38 57 57 38 57 57 38 57 57 38 57 57 38 57 57 38 57 57 38 57 57 38 57 57 38 56 56 38 56 56 37 56 56 37 56 56 37 56 56 37 56 56 37 56 56 37 56 56 37 56 56 37 55 55 37 55 55 37 55 55 37 55 55 37 55 55 37 55 55 37 55 55 37 55 55 37 55 55 37 55 55 37 54 54 37 54 54 37 54 54 37 54 54 37 54 54 37 54 54 37 54 54 36 54 54 36 54 54 36 54 54 36 53 53 36 53 53 36 53 53 36 53 53 36 53 53 36 53 53 36 53 53 36 53 53 36 53 53 36 53 53 36 53 53 36 52 52 36 52 52 36 52 52 36 52 52 36 52 52 36 52 52 36 52 52 36 52 52 36 52 52 36 52 52 36 51 51 36 51 51 36 51 51 35 51 51 35 51 51 35 51 51 35 51 51 35 51 51 35 51 51 35 51 51 35 48 48 36 43 43 48 45 45 51 47 47 36 37 37 35 37 37 36 40 40 37 42 43 36 40 40 38 42 42 42 45 54 51 53 76 57 58 81 57 59 86 57 59 85 56 57 81 57 55 78 50 50 71 43 45 60 42 42 55 51 51 68 54 55 75 47 49 62 41 43 54 45 48 60 50 52 69 39 42 49 35 38 38 35 40 40 35 44 44 35 43 43 34 48 48 34 48 48 
40 62 62 40 62 62 40 62 62 40 62 62 40 62 62 40 63 63 40 63 63 40 63 63 40 63 63 40 63 63 40 63 63 40 63 63 40 63 63 40 63 63 40 64 64 40 64 64 41 64 64 41 64 64 41 64 64 41 64 64 41 64 64 41 64 64 41 64 64 41 64 64 41 65 65 41 65 65 41 65 65 41 65 65 41 65 65 41 65 65 41 65 65 41 65 65 41 65 65 41 65 65 41 66 66 41 66 66 41 66 66 41 66 66 41 66 66 44 69 69 47 71 71 48 73 73 47 71 71 47 71 71 47 71 71 47 72 72 47 72 72 47 72 72 52 77 77 58 83 85 62 87 92 66 91 99 69 94 105 72 97 111 72 97 115 72 97 117 71 96 113 69 96 108 76 99 114 70 95 112 67 92 111 65 90 106 69 94 110 72 98 116 74 99 120 74 99 122 70 95 120 56 81 94 46 72 77 42 68 68 42 68 68 42 68 68 42 68 68 42 68 68 42 68 68 42 68 68 42 68 68 42 68 68 42 68 68 42 68 68 42 68 68 42 68 68 42 68 68 42 68 68 42 68 68 42 68 68 42 68 68 42 68 68 42 68 68 42 68 68 42 68 68 42 68 68 42 68 68 42 68 68 42 68 68 46 72 73 49 75 78 48 74 74 53 76 76 50 75 75 52 76 76 52 76 76 56 79 79 54 77 77 45 71 71 46 72 72 46 72 72 46 72 72 45 71 71 43 69 69 42 68 68 42 68 68 42 68 68 41 62 62 38 45 45 37 44 44 37 43 43 37 43 43 37 42 42 36 42 42 36 42 42 36 42 42 36 42 42 36 42 42 36 42 42 36 42 42 38 43 43 39 44 44 42 46 46 37 43 43 36 40 40 37 40 41 43 56 57 49 69 72 93 105 142 116 124 167 115 117 154 113 114 147 109 110 136 103 104 125 96 95 112 87 86 98 75 75 83 59 59 64 47 47 50 35 35 36 33 33 33 25 25 25 40 35 35 88 66 68 33 29 29 25 25 25 41 41 53 28 28 29 46 46 61 40 41 48 42 43 52 63 63 85 64 62 80 75 75 98 43 66 66 43 67 67 89 105 145 141 149 225 144 145 214 152 152 216 244 184 225 255 197 200 255 216 217 255 207 207 255 204 204 255 197 197 241 189 189 224 180 180 207 171 171 189 160 160 172 149 149 155 138 138 138 127 127 104 98 98 74 72 72 48 47 47 25 25 25 25 25 25 25 25 25 25 25 25 25 25 25 25 25 25 25 25 25 25 25 25 25 25 25 25 25 25 25 25 25 25 25 25 25 25 25 51 51 65 37 37 42 35 35 38 36 35 37 25 25 25 55 39 39 73 50 50 83 58 58 31 28 28 58 50 68 38 29 29 39 29 29 78 52 52 63 41 41 55 42 42 35 38 38 36 40 40 36 41 41 37 46 46 38 58 58 38 58 58 38 58 58 38 57 57 38 57 57 38 57 57 38 57 57 38 57 57 38 57 57 38 57 57 38 57 57 38 57 57 38 56 56 38 56 56 38 56 56 37 56 56 37 56 56 37 56 56 37 56 56 37 56 56 37 56 56 37 56 56 37 55 55 37 55 55 37 55 55 37 55 55 37 55 55 37 55 55 37 55 55 37 55 55 37 55 55 37 55 55 37 54 54 37 54 54 37 54 54 37 54 54 37 54 54 37 54 54 37 54 54 36 54 54 36 54 54 36 54 54 36 53 53 36 53 53 36 53 53 36 53 53 36 53 53 36 53 53 36 53 53 36 53 53 36 53 53 36 53 53 36 52 52 36 52 52 36 52 52 36 52 52 36 52 52 36 52 52 36 52 52 36 52 52 36 52 52 36 52 52 36 52 52 36 51 51 36 51 51 36 51 51 35 51 51 35 51 51 35 51 51 35 51 51 35 51 51 35 51 51 35 51 51 35 51 51 35 51 51 35 48 48 36 44 44 65 53 53 72 53 53 51 47 47 37 41 41 39 43 44 38 42 43 36 40 40 38 42 43 40 43 51 52 51 60 43 46 59 47 49 62 43 46 58 43 44 54 40 42 51 38 42 46 45 48 57 46 49 58 38 41 47 35 39 39 35 39 39 35 39 39 35 39 39 35 41 41 56 54 54 62 61 62 34 48 48 34 48 48 34 48 48 
40 62 62 40 62 62 40 62 62 40 62 62 40 62 62 40 62 62 40 63 63 40 63 63 40 63 63 40 63 63 40 63 63 40 63 63 40 63 63 40 63 63 40 63 63 40 64 64 40 64 64 41 64 64 41 64 64 41 64 64 41 64 64 41 64 64 41 64 64 41 64 64 41 64 64 41 65 65 41 65 65 41 65 65 41 65 65 41 65 65 41 65 65 41 65 65 41 65 65 41 65 65 41 65 65 41 65 65 41 66 66 41 66 66 41 66 66 44 68 68 46 71 71 48 73 73 48 73 73 47 71 71 47 71 71 47 71 71 47 71 71 51 76 76 55 80 82 60 85 90 64 89 96 67 92 102 69 95 108 72 97 115 74 99 117 72 97 117 75 96 113 75 101 117 74 99 115 73 98 117 69 95 116 65 91 112 66 92 108 69 94 113 70 95 116 67 92 115 56 81 93 47 72 79 42 68 68 42 68 68 42 68 68 42 68 68 42 68 68 42 68 68 42 68 68 42 68 68 42 68 68 42 68 68 42 68 68 42 68 68 42 68 68 42 68 68 42 68 68 42 68 68 42 68 68 42 68 68 42 68 68 42 68 68 42 68 68 42 68 68 42 68 68 42 68 68 42 68 68 42 68 68 45 71 72 47 73 74 50 76 77 52 77 78 52 77 77 53 77 77 49 75 75 49 75 75 49 75 75 51 76 76 49 76 76 49 76 76 49 76 76 49 75 75 48 74 74 47 73 73 46 71 72 43 69 69 42 68 68 42 67 67 41 62 62 38 50 50 37 44 44 37 43 43 37 43 43 37 43 43 37 42 42 37 42 42 37 42 42 36 42 42 36 42 42 37 42 42 37 42 42 42 47 47 40 46 46 41 46 47 44 54 54 42 56 57 48 68 70 48 73 73 102 110 152 107 114 148 104 106 134 100 102 124 95 97 113 89 90 102 77 77 85 61 61 66 46 46 48 35 35 35 25 25 25 25 25 25 25 25 25 25 25 25 32 28 28 72 53 53 30 30 30 35 35 47 27 27 27 44 44 56 31 29 29 31 28 28 28 28 28 43 41 49 56 53 66 66 66 84 50 64 70 47 71 71 124 132 208 141 144 211 146 147 210 137 137 193 216 165 193 255 199 200 255 204 204 255 199 199 250 192 192 234 184 184 216 175 175 199 165 165 180 154 154 162 143 143 145 132 132 108 101 101 77 73 73 48 47 47 25 25 25 25 25 25 25 25 25 25 25 25 25 25 25 25 25 25 25 25 25 25 25 25 25 25 25 25 25 25 25 25 25 25 25 25 25 25 25 31 31 37 42 42 52 36 36 39 41 41 48 32 33 34 32 33 33 31 32 32 27 28 28 42 35 35 106 68 68 68 48 49 91 65 70 83 52 59 58 45 54 99 62 62 59 44 44 35 39 39 35 40 40 36 41 41 36 41 41 37 50 50 38 58 58 38 58 58 38 58 58 38 57 57 38 57 57 38 57 57 38 57 57 38 57 57 38 57 57 38 57 57 38 57 57 38 57 57 38 56 56 38 56 56 37 56 56 37 56 56 37 56 56 37 56 56 37 56 56 37 56 56 37 56 56 37 55 55 37 55 55 37 55 55 37 55 55 37 55 55 37 55 55 37 55 55 37 55 55 37 55 55 37 55 55 37 54 54 37 54 54 37 54 54 37 54 54 37 54 54 37 54 54 37 54 54 37 54 54 36 54 54 36 54 54 36 53 53 36 53 53 36 53 53 36 53 53 36 53 53 36 53 53 36 53 53 36 53 53 36 53 53 36 53 53 36 53 53 36 52 52 36 52 52 36 52 52 36 52 52 36 52 52 36 52 52 36 52 52 36 52 52 36 52 52 36 52 52 36 52 52 36 51 51 36 51 51 36 51 51 35 51 51 35 51 51 35 51 51 35 51 51 35 51 51 35 51 51 35 51 51 35 51 51 35 51 51 35 50 50 35 50 50 35 48 48 58 54 54 82 65 65 50 45 45 48 45 45 36 39 39 35 39 39 35 40 40 35 40 40 35 39 39 41 43 44 40 43 43 39 43 44 37 41 41 36 40 40 35 39 39 37 40 41 36 40 40 35 38 38 41 40 40 35 40 40 35 44 44 45 45 45 46 50 50 34 48 48 34 48 48 34 48 48 34 48 48 34 48 48 
40 62 62 40 62 62 40 62 62 40 62 62 40 62 62 40 62 62 40 62 62 40 63 63 40 63 63 40 63 63 40 63 63 40 63 63 40 63 63 40 63 63 40 63 63 40 63 63 40 64 64 40 64 64 40 64 64 41 64 64 41 64 64 41 64 64 41 64 64 41 64 64 41 64 64 41 64 64 41 65 65 41 65 65 41 65 65 41 65 65 41 65 65 41 65 65 41 65 65 41 65 65 41 65 65 41 65 65 41 65 65 41 66 66 41 66 66 41 66 66 46 71 71 46 71 71 48 73 73 48 73 73 47 72 72 48 73 73 50 75 76 54 78 80 58 83 87 61 86 93 64 89 99 68 93 104 69 94 108 74 98 115 73 98 117 73 98 118 72 97 117 74 99 114 76 101 119 74 99 120 70 96 118 58 83 102 60 86 102 62 87 105 58 83 99 53 79 90 46 72 78 42 67 67 42 67 67 42 67 67 42 68 68 42 68 68 42 68 68 42 68 68 42 68 68 42 68 68 42 68 68 42 68 68 42 68 68 42 68 68 42 68 68 42 68 68 42 68 68 42 68 68 42 68 68 42 68 68 42 68 68 42 68 68 42 68 68 42 68 68 42 68 68 42 68 68 42 68 68 45 70 70 47 72 72 52 76 76 51 76 77 52 77 77 50 76 76 48 75 75 49 75 76 49 75 76 49 76 76 50 76 76 50 77 77 49 76 76 49 76 76 49 76 76 49 76 76 49 75 75 48 74 74 47 72 72 43 69 69 42 67 67 42 67 67 42 67 67 40 56 56 40 51 51 37 44 44 37 43 43 37 43 43 37 43 43 37 43 43 37 43 43 37 43 43 37 43 43 37 43 43 41 46 46 41 52 52 43 60 60 43 59 59 48 74 74 48 73 73 47 72 72 95 102 135 97 104 129 92 96 114 87 89 102 81 82 90 64 65 69 49 49 51 34 34 35 25 25 25 25 25 25 25 25 25 25 25 25 25 25 25 25 25 25 57 38 38 106 70 70 57 39 39 37 37 45 47 47 62 40 32 32 73 51 51 25 25 25 29 30 30 37 36 36 38 38 46 58 58 72 57 70 80 72 87 120 123 130 196 127 133 190 133 134 188 168 140 180 255 181 183 255 200 200 255 196 196 245 188 188 227 179 179 210 170 170 191 160 160 173 149 149 154 138 138 136 126 126 80 75 75 71 69 69 45 45 45 25 25 25 25 25 25 25 25 25 25 25 25 25 25 25 25 25 25 25 25 25 25 25 25 25 25 25 25 25 25 25 25 25 25 25 25 25 25 25 25 25 25 26 26 27 49 49 63 41 41 52 31 31 32 33 32 32 32 33 33 32 34 34 34 37 37 32 35 35 59 47 47 42 39 39 74 45 45 92 65 65 42 39 39 67 51 51 35 39 39 36 40 40 36 40 40 36 41 41 36 42 42 38 54 54 38 58 58 38 58 58 38 57 57 38 57 57 38 57 57 38 57 57 38 57 57 38 57 57 38 57 57 38 57 57 38 57 57 38 56 56 38 56 56 38 56 56 37 56 56 37 56 56 37 56 56 37 56 56 37 56 56 37 56 56 37 56 56 37 55 55 37 55 55 37 55 55 37 55 55 37 55 55 37 55 55 37 55 55 37 55 55 37 55 55 37 55 55 37 54 54 37 54 54 37 54 54 37 54 54 37 54 54 37 54 54 37 54 54 37 54 54 36 54 54 36 54 54 36 53 53 36 53 53 36 53 53 36 53 53 36 53 53 36 53 53 36 53 53 36 53 53 36 53 53 36 53 53 36 53 53 36 52 52 36 52 52 36 52 52 36 52 52 36 52 52 36 52 52 36 52 52 36 52 52 36 52 52 36 52 52 36 52 52 36 51 51 36 51 51 36 51 51 35 51 51 35 51 51 35 51 51 35 51 51 35 51 51 35 51 51 35 51 51 35 51 51 35 51 51 35 50 50 35 50 50 35 50 50 35 50 50 35 48 48 55 56 56 51 47 47 38 41 41 42 42 43 35 38 38 48 42 42 55 58 81 59 62 86 64 65 88 60 63 85 58 61 82 56 59 78 54 57 75 55 56 73 53 53 68 49 52 67 35 43 43 35 44 44 35 46 46 34 49 49 34 49 49 34 48 48 34 48 48 34 48 48 34 48 48 34 48 48 
40 62 62 40 62 62 40 62 62 40 62 62 40 62 62 40 62 62 40 62 62 40 63 63 40 63 63 40 63 63 40 63 63 40 63 63 40 63 63 40 63 63 40 63 63 40 63 63 40 63 63 40 64 64 40 64 64 40 64 64 41 64 64 41 64 64 41 64 64 41 64 64 41 64 64 41 64 64 41 64 64 41 64 64 41 65 65 41 65 65 41 65 65 41 65 65 41 65 65 41 65 65 41 65 65 41 65 65 41 65 65 41 65 65 41 65 65 41 66 66 46 71 71 46 71 71 47 71 71 47 72 72 48 73 73 47 72 72 49 73 74 52 77 78 59 83 89 61 86 92 66 90 99 68 93 105 71 96 110 75 100 116 74 99 118 71 96 118 70 95 112 75 100 116 76 101 120 74 100 121 68 93 117 48 73 82 49 74 82 50 75 83 46 71 76 42 67 67 42 67 67 42 67 67 42 67 67 42 67 67 42 67 67 42 67 67 42 67 67 42 67 67 42 67 67 42 67 67 42 67 67 42 67 67 42 68 68 42 68 68 42 68 68 42 68 68 42 68 68 42 68 68 42 68 68 42 68 68 42 68 68 42 68 68 42 68 68 42 68 68 42 68 68 42 68 68 42 68 68 46 72 73 52 76 77 49 75 75 51 76 76 49 75 75 50 75 75 48 75 75 49 75 75 49 76 76 49 76 76 49 76 76 50 76 76 49 75 75 49 76 76 49 75 75 49 75 75 49 75 75 49 75 75 48 74 74 47 72 72 43 68 68 42 67 67 42 67 67 42 67 67 45 66 66 43 59 59 40 51 51 40 51 51 40 51 51 41 52 52 41 52 52 41 52 52 41 53 53 43 59 59 43 59 59 44 59 59 47 68 68 49 75 75 48 73 73 48 73 73 47 72 72 87 95 118 86 93 110 81 86 96 66 68 73 50 51 54 37 37 38 25 25 25 25 25 25 25 25 25 25 25 25 25 25 25 25 25 25 25 25 25 25 25 25 31 28 28 85 61 61 78 51 51 43 43 59 52 41 42 64 43 44 59 43 43 75 50 50 30 31 31 35 37 37 36 36 41 52 51 62 55 67 75 70 86 114 114 122 179 117 119 167 124 125 172 205 157 184 255 184 185 255 193 193 245 188 188 222 175 175 204 166 166 185 156 156 166 145 145 147 133 133 108 101 101 76 72 72 47 47 47 25 25 25 25 25 25 25 25 25 25 25 25 25 25 25 25 25 25 25 25 25 25 25 25 25 25 25 25 25 25 25 25 25 25 25 25 25 25 25 25 25 25 25 25 25 25 25 25 29 29 34 37 37 43 41 42 49 32 29 29 30 31 31 31 33 33 32 35 35 36 40 40 35 40 40 35 39 39 35 39 39 44 40 40 48 44 46 36 41 42 37 42 43 36 41 41 36 41 41 36 41 41 36 41 41 37 50 50 38 58 58 38 58 58 38 57 57 38 57 57 38 57 57 38 57 57 38 57 57 38 57 57 38 57 57 38 57 57 38 57 57 38 57 57 38 56 56 38 56 56 37 56 56 37 56 56 37 56 56 37 56 56 37 56 56 37 56 56 37 56 56 37 55 55 37 55 55 37 55 55 37 55 55 37 55 55 37 55 55 37 55 55 37 55 55 37 55 55 37 55 55 37 54 54 37 54 54 37 54 54 37 54 54 37 54 54 37 54 54 37 54 54 37 54 54 36 54 54 36 54 54 36 54 54 36 53 53 36 53 53 36 53 53 36 53 53 36 53 53 36 53 53 36 53 53 36 53 53 36 53 53 36 53 53 36 53 53 36 52 52 36 52 52 36 52 52 36 52 52 36 52 52 36 52 52 36 52 52 36 52 52 36 52 52 36 52 52 36 52 52 36 51 51 36 51 51 36 51 51 35 51 51 35 51 51 35 51 51 35 51 51 35 51 51 35 51 51 35 51 51 35 51 51 35 51 51 35 50 50 35 50 50 35 50 50 35 50 50 35 50 50 35 50 50 35 50 50 58 67 92 68 71 95 84 86 135 104 93 143 99 93 140 109 110 177 109 110 173 107 108 168 104 105 161 100 101 154 96 97 147 92 92 139 88 88 132 92 87 129 67 74 98 64 71 94 48 59 70 47 57 67 34 49 49 34 48 48 34 48 48 34 48 48 34 48 48 34 48 48 
40 62 62 40 62 62 40 62 62 40 62 62 40 62 62 40 62 62 40 62 62 40 62 62 40 63 63 40 63 63 40 63 63 40 63 63 40 63 63 40 63 63 40 63 63 40 63 63 40 63 63 40 63 63 40 64 64 40 64 64 40 64 64 41 64 64 41 64 64 41 64 64 41 64 64 41 64 64 41 64 64 41 64 64 41 64 64 41 65 65 41 65 65 41 65 65 41 65 65 41 65 65 41 65 65 41 65 65 41 65 65 41 65 65 41 65 65 41 65 65 44 68 68 46 71 71 46 71 71 46 71 71 47 71 71 47 71 71 47 71 71 50 74 75 57 82 86 61 86 93 65 90 98 73 95 106 74 99 113 74 99 116 73 98 119 71 96 114 72 97 112 74 99 117 75 100 120 73 98 121 56 81 93 42 67 67 42 67 67 42 67 67 42 67 67 42 67 67 42 67 67 42 67 67 42 67 67 42 67 67 42 67 67 42 67 67 42 67 67 42 67 67 42 67 67 42 67 67 42 67 67 42 67 67 42 67 67 42 67 67 42 67 67 42 67 67 42 67 67 42 67 67 42 67 67 42 67 67 42 67 67 42 67 67 42 67 67 42 67 67 42 67 67 42 67 67 43 69 69 50 75 77 50 74 74 50 75 75 50 75 77 48 74 74 49 74 74 49 75 75 49 76 76 49 75 75 49 75 75 49 75 75 49 75 75 49 75 75 49 75 75 49 75 75 49 75 75 49 75 75 49 75 75 48 74 74 49 74 74 47 72 72 42 67 67 42 67 67 42 67 67 46 71 71 48 73 73 48 73 73 45 65 65 45 66 66 46 67 67 48 69 70 46 67 67 46 67 67 46 67 68 48 74 74 49 74 74 49 74 74 48 73 73 49 73 74 48 72 73 46 71 71 79 87 102 75 83 91 57 63 67 44 48 49 31 32 32 25 25 25 25 25 25 25 25 25 25 25 25 25 25 25 25 25 25 25 25 25 25 25 25 25 25 25 25 25 25 47 35 35 102 71 71 58 43 54 25 25 25 25 25 25 41 30 30 86 59 59 35 37 37 37 38 38 36 36 39 43 43 50 52 65 72 67 82 106 104 112 159 106 108 148 108 108 145 183 142 161 253 181 181 242 185 185 224 177 177 200 162 162 181 152 152 161 141 141 141 129 129 103 97 97 72 70 70 45 45 45 25 25 25 25 25 25 25 25 25 25 25 25 25 25 25 25 25 25 25 25 25 25 25 25 25 25 25 25 25 25 25 25 25 25 25 25 25 25 25 25 25 25 25 25 25 25 25 25 28 28 31 42 42 53 31 31 36 33 33 36 25 25 25 29 29 29 31 33 33 32 35 35 35 40 40 36 41 41 36 40 40 37 41 42 39 44 46 36 41 41 40 44 45 42 44 44 41 44 44 36 41 41 36 41 41 37 46 46 38 54 54 38 58 58 38 57 57 38 57 57 38 57 57 38 57 57 38 57 57 38 57 57 38 57 57 38 57 57 38 57 57 38 57 57 38 56 56 38 56 56 37 56 56 37 56 56 37 56 56 37 56 56 37 56 56 37 56 56 37 56 56 37 56 56 37 55 55 37 55 55 37 55 55 37 55 55 37 55 55 37 55 55 37 55 55 37 55 55 37 55 55 37 55 55 37 54 54 37 54 54 37 54 54 37 54 54 37 54 54 37 54 54 37 54 54 37 54 54 36 54 54 36 54 54 36 53 53 36 53 53 36 53 53 36 53 53 36 53 53 36 53 53 36 53 53 36 53 53 36 53 53 36 53 53 36 53 53 36 52 52 36 52 52 36 52 52 36 52 52 36 52 52 36 52 52 36 52 52 36 52 52 36 52 52 36 52 52 36 52 52 36 52 52 36 51 51 36 51 51 36 51 51 35 51 51 35 51 51 35 51 51 35 51 51 35 51 51 35 51 51 35 51 51 35 51 51 35 51 51 35 50 50 35 50 50 35 50 50 35 50 50 35 50 50 62 73 99 88 96 146 90 98 146 115 119 189 135 136 227 142 143 234 143 143 230 139 139 219 136 136 211 132 132 204 128 128 196 124 124 188 120 120 180 115 115 171 111 111 163 106 106 155 101 101 147 96 97 140 99 96 137 74 78 105 66 69 85 50 59 65 43 55 62 34 48 48 34 48 48 34 48 48 
40 62 62 40 62 62 40 62 62 40 62 62 40 62 62 40 62 62 40 62 62 40 62 62 40 62 62 40 63 63 40 63 63 40 63 63 40 63 63 40 63 63 40 63 63 40 63 63 40 63 63 40 63 63 40 63 63 40 63 63 40 64 64 40 64 64 41 64 64 41 64 64 41 64 64 41 64 64 41 64 64 41 64 64 41 64 64 41 64 64 41 64 64 41 65 65 41 65 65 41 65 65 41 65 65 41 65 65 41 65 65 41 65 65 41 65 65 41 65 65 41 65 65 46 70 70 46 71 71 46 71 71 46 71 71 46 71 71 46 71 71 51 75 77 57 81 85 61 86 93 66 90 100 69 94 106 72 96 112 72 97 116 69 94 113 70 94 115 71 96 112 73 98 117 73 98 119 63 88 106 53 78 90 42 67 67 42 67 67 42 67 67 42 67 67 42 67 67 42 67 67 42 67 67 42 67 67 42 67 67 42 67 67 42 67 67 42 67 67 42 67 67 42 67 67 42 67 67 42 67 67 42 67 67 42 67 67 42 67 67 42 67 67 42 67 67 42 67 67 42 67 67 42 67 67 42 67 67 42 67 67 42 67 67 42 67 67 42 67 67 42 67 67 42 67 67 44 70 70 47 72 72 50 75 78 49 75 76 48 74 75 48 74 75 49 75 75 49 75 75 49 75 75 49 75 75 49 75 75 49 75 75 49 75 75 49 75 75 49 75 75 49 75 75 49 75 75 49 75 75 49 75 75 48 74 74 48 73 73 53 77 77 45 70 70 42 66 66 42 66 66 57 80 80 48 73 73 48 73 73 48 73 73 47 72 72 48 73 73 48 73 73 48 73 73 48 73 73 48 73 73 48 73 73 48 73 73 48 73 73 51 75 77 51 75 76 49 74 76 46 70 70 73 80 88 55 62 64 45 51 52 36 42 42 35 38 38 31 32 32 27 27 27 25 25 25 25 25 25 25 25 25 25 25 25 25 25 25 25 25 25 25 25 25 25 25 25 33 28 28 101 64 64 102 63 63 78 52 52 64 43 43 57 39 39 79 58 58 35 39 39 36 39 40 36 35 35 39 39 45 48 66 69 61 76 96 95 102 139 95 97 127 92 93 120 207 146 154 237 176 176 222 176 176 203 165 165 178 149 149 158 138 138 137 126 126 80 75 75 69 68 68 25 25 25 25 25 25 25 25 25 25 25 25 25 25 25 25 25 25 25 25 25 25 25 25 25 25 25 25 25 25 25 25 25 25 25 25 25 25 25 25 25 25 25 25 25 25 25 25 25 25 25 25 25 25 29 29 32 52 52 70 53 54 74 27 27 27 25 25 25 29 29 29 31 33 33 32 35 35 35 39 39 38 42 42 37 42 42 42 45 45 41 45 45 40 43 45 42 44 44 39 43 43 45 46 46 36 41 41 37 46 46 37 50 50 38 58 58 38 58 58 38 57 57 38 57 57 38 57 57 38 57 57 38 57 57 38 57 57 38 57 57 38 57 57 38 57 57 38 56 56 38 56 56 38 56 56 37 56 56 37 56 56 37 56 56 37 56 56 37 56 56 37 56 56 37 56 56 37 55 55 37 55 55 37 55 55 37 55 55 37 55 55 37 55 55 37 55 55 37 55 55 37 55 55 37 55 55 37 54 54 37 54 54 37 54 54 37 54 54 37 54 54 37 54 54 37 54 54 37 54 54 36 54 54 36 54 54 36 54 54 36 53 53 36 53 53 36 53 53 36 53 53 36 53 53 36 53 53 36 53 53 36 53 53 36 53 53 36 53 53 36 53 53 36 52 52 36 52 52 36 52 52 36 52 52 36 52 52 36 52 52 36 52 52 36 52 52 36 52 52 36 52 52 36 52 52 36 52 52 36 51 51 36 51 51 36 51 51 35 51 51 35 51 51 35 51 51 35 51 51 35 51 51 35 51 51 35 51 51 35 51 51 35 51 51 35 50 50 35 50 50 35 50 50 85 94 149 92 100 152 130 130 206 152 152 251 155 155 249 155 155 244 148 148 232 146 146 225 143 143 218 140 140 212 137 137 205 133 133 197 130 130 190 125 125 182 121 121 174 117 117 167 112 112 159 108 108 151 103 103 143 98 98 135 97 94 128 89 89 120 91 88 117 82 81 107 65 70 86 52 61 70 42 54 57 34 48 48 
40 62 62 40 62 62 40 62 62 40 62 62 40 62 62 40 62 62 40 62 62 40 62 62 40 62 62 40 62 62 40 63 63 40 63 63 40 63 63 40 63 63 40 63 63 40 63 63 40 63 63 40 63 63 40 63 63 40 63 63 40 63 63 40 64 64 40 64 64 40 64 64 41 64 64 41 64 64 41 64 64 41 64 64 41 64 64 41 64 64 41 64 64 41 64 64 41 64 64 41 65 65 41 65 65 41 65 65 41 65 65 41 65 65 41 65 65 41 65 65 41 65 65 42 66 66 46 70 70 46 70 70 46 70 70 46 71 71 48 73 73 53 77 80 58 82 87 62 87 95 66 90 101 68 93 107 70 94 111 67 92 109 66 91 108 67 92 106 69 94 111 70 94 114 62 87 104 54 79 91 42 66 66 42 66 66 42 66 66 42 66 66 42 66 66 42 66 66 42 67 67 42 67 67 42 67 67 42 67 67 42 67 67 42 67 67 42 67 67 42 67 67 42 67 67 42 67 67 42 67 67 42 67 67 42 67 67 42 67 67 42 67 67 42 67 67 42 67 67 42 67 67 42 67 67 42 67 67 42 67 67 42 67 67 42 67 67 42 67 67 42 67 67 42 67 67 44 69 69 47 72 72 50 76 78 50 75 77 49 74 75 49 74 75 48 74 74 49 75 75 49 75 75 49 75 75 49 75 75 49 75 75 49 75 75 49 75 75 49 75 75 49 75 75 49 75 75 49 75 75 48 74 74 48 73 73 48 73 73 50 75 75 53 76 76 41 66 66 41 66 66 41 66 66 49 73 73 48 73 73 48 72 72 46 71 71 47 71 71 47 71 71 47 72 72 47 72 72 47 72 72 47 72 72 49 74 75 52 74 75 52 75 76 51 73 74 49 73 74 46 71 71 49 60 63 37 44 44 37 44 44 37 43 43 36 41 41 35 38 38 32 34 34 29 30 30 27 27 27 25 25 25 25 25 25 25 25 25 25 25 25 25 25 25 25 25 25 25 25 25 50 39 39 66 43 43 106 65 65 69 45 45 83 59 59 60 49 49 36 40 40 36 39 39 36 37 37 41 48 50 47 69 69 47 70 70 84 91 120 83 89 112 80 82 98 229 157 157 220 170 170 202 165 165 182 154 154 158 138 138 135 124 124 78 73 73 48 47 47 25 25 25 25 25 25 25 25 25 25 25 25 25 25 25 25 25 25 25 25 25 25 25 25 25 25 25 25 25 25 25 25 25 25 25 25 25 25 25 25 25 25 25 25 25 25 25 25 25 25 25 25 25 25 25 25 25 26 26 26 38 39 48 45 46 58 25 25 25 25 25 25 30 31 31 31 33 33 32 35 35 33 36 36 45 47 47 37 42 42 40 45 47 43 45 45 37 42 42 42 45 45 41 44 44 36 42 42 37 46 46 37 50 50 38 58 58 38 58 58 38 57 57 38 57 57 38 57 57 38 57 57 38 57 57 38 57 57 38 57 57 38 57 57 38 57 57 38 57 57 38 56 56 38 56 56 37 56 56 37 56 56 37 56 56 37 56 56 37 56 56 37 56 56 37 56 56 37 56 56 37 55 55 37 55 55 37 55 55 37 55 55 37 55 55 37 55 55 37 55 55 37 55 55 37 55 55 37 55 55 37 54 54 37 54 54 37 54 54 37 54 54 37 54 54 37 54 54 37 54 54 37 54 54 36 54 54 36 54 54 36 54 54 36 53 53 36 53 53 36 53 53 36 53 53 36 53 53 36 53 53 36 53 53 36 53 53 36 53 53 36 53 53 36 53 53 36 52 52 36 52 52 36 52 52 36 52 52 36 52 52 36 52 52 36 52 52 36 52 52 36 52 52 36 52 52 36 52 52 36 51 51 36 51 51 36 51 51 35 51 51 35 51 51 35 51 51 35 51 51 35 51 51 35 51 51 35 51 51 35 51 51 35 51 51 35 51 51 35 50 50 62 75 103 101 110 169 138 143 227 168 169 255 172 172 255 172 171 255 168 169 255 166 166 251 163 163 244 154 154 230 151 151 223 147 147 216 135 135 197 131 131 189 126 126 182 122 122 174 117 117 166 113 113 158 108 108 150 103 103 141 98 98 133 94 94 125 89 89 118 84 84 110 79 79 102 74 74 95 71 71 89 68 70 85 58 63 72 48 57 61 
40 61 61 40 62 62 40 62 62 40 62 62 40 62 62 40 62 62 40 62 62 40 62 62 40 62 62 40 62 62 40 62 62 40 63 63 40 63 63 40 63 63 40 63 63 40 63 63 40 63 63 40 63 63 40 63 63 40 63 63 40 63 63 40 63 63 40 64 64 40 64 64 40 64 64 41 64 64 41 64 64 41 64 64 41 64 64 41 64 64 41 64 64 41 64 64 41 64 64 41 64 64 41 64 64 41 65 65 41 65 65 41 65 65 41 65 65 41 65 65 41 65 65 41 65 65 42 66 66 45 69 69 46 70 70 46 70 70 49 73 74 54 78 82 58 82 89 62 86 95 64 88 101 62 86 99 61 85 97 61 86 101 61 86 97 64 88 103 63 88 105 58 83 98 53 78 89 41 66 66 41 66 66 41 66 66 41 66 66 41 66 66 42 66 66 42 66 66 42 66 66 42 66 66 42 66 66 42 66 66 42 66 66 42 66 66 42 67 67 42 67 67 42 67 67 42 67 67 42 67 67 42 67 67 42 67 67 42 67 67 42 67 67 42 67 67 42 67 67 42 67 67 42 67 67 42 67 67 42 67 67 42 67 67 42 67 67 42 67 67 42 67 67 42 67 67 43 68 68 47 72 72 47 72 72 48 73 73 49 75 75 48 73 73 48 74 74 48 74 74 48 74 74 48 74 74 48 74 74 48 74 74 48 74 74 49 75 75 48 74 74 49 75 75 49 75 75 48 74 74 48 74 74 48 73 73 48 73 73 48 73 73 57 79 79 43 67 67 41 66 66 41 66 66 68 91 92 48 72 72 48 73 73 46 71 71 46 71 71 46 71 71 46 71 71 46 71 71 47 71 71 47 71 71 51 74 76 48 72 73 48 72 74 46 70 70 48 72 74 49 72 72 49 71 71 38 45 45 37 44 44 37 43 43 36 42 42 36 41 41 35 39 39 35 37 37 32 34 34 30 31 31 29 30 30 29 30 30 27 28 28 29 30 30 29 30 30 29 30 30 30 31 31 32 34 34 67 51 51 43 41 41 56 47 47 38 41 41 36 41 41 36 40 40 36 38 38 42 54 55 47 69 70 47 70 70 74 80 101 71 78 92 66 69 77 219 160 161 202 163 163 183 155 155 161 142 142 139 128 128 77 72 72 47 46 46 25 25 25 25 25 25 25 25 25 25 25 25 25 25 25 25 25 25 25 25 25 25 25 25 25 25 25 25 25 25 25 25 25 25 25 25 25 25 25 25 25 25 25 25 25 25 25 25 25 25 25 25 25 25 25 25 25 25 25 25 29 29 34 32 32 37 45 37 41 63 46 46 52 38 38 31 31 31 31 33 33 32 35 35 32 36 36 37 42 42 40 44 44 38 43 44 40 46 47 39 44 44 37 43 43 37 43 43 38 50 50 37 50 50 38 58 58 38 58 58 38 57 57 38 57 57 38 57 57 38 57 57 38 57 57 38 57 57 38 57 57 38 57 57 38 57 57 38 57 57 38 56 56 38 56 56 38 56 56 37 56 56 37 56 56 37 56 56 37 56 56 37 56 56 37 56 56 37 56 56 37 55 55 37 55 55 37 55 55 37 55 55 37 55 55 37 55 55 37 55 55 37 55 55 37 55 55 37 55 55 37 55 55 37 54 54 37 54 54 37 54 54 37 54 54 37 54 54 37 54 54 37 54 54 37 54 54 36 54 54 36 54 54 36 53 53 36 53 53 36 53 53 36 53 53 36 53 53 36 53 53 36 53 53 36 53 53 36 53 53 36 53 53 36 53 53 36 52 52 36 52 52 36 52 52 36 52 52 36 52 52 36 52 52 36 52 52 36 52 52 36 52 52 36 52 52 36 52 52 36 52 52 36 51 51 36 51 51 36 51 51 35 51 51 35 51 51 35 51 51 35 51 51 35 51 51 35 51 51 35 51 51 35 51 51 35 51 51 35 50 50 91 100 157 127 134 221 153 156 255 164 166 255 174 175 255 174 174 255 162 162 249 160 160 243 158 158 237 155 155 230 152 152 223 148 148 215 144 144 207 130 130 188 126 126 180 121 121 172 117 117 164 112 112 156 107 107 147 102 102 139 97 97 131 92 92 123 87 87 115 82 82 107 78 78 99 73 73 91 68 68 84 64 64 76 61 61 71 60 60 68 59 60 66 
40 61 61 40 61 61 40 62 62 40 62 62 40 62 62 40 62 62 40 62 62 40 62 62 40 62 62 40 62 62 40 62 62 40 62 62 40 62 62 40 63 63 40 63 63 40 63 63 40 63 63 40 63 63 40 63 63 40 63 63 40 63 63 40 63 63 40 63 63 40 63 63 40 64 64 40 64 64 40 64 64 41 64 64 41 64 64 41 64 64 41 64 64 41 64 64 41 64 64 41 64 64 41 64 64 41 64 64 41 64 64 41 65 65 41 65 65 41 65 65 41 65 65 41 65 65 41 65 65 41 65 65 42 66 66 44 68 68 47 71 73 50 74 78 53 77 82 55 79 87 52 76 82 54 78 87 51 75 83 51 75 82 53 77 86 51 76 83 51 76 84 46 71 76 41 66 66 41 66 66 41 66 66 41 66 66 41 66 66 41 66 66 41 66 66 41 66 66 41 66 66 41 66 66 41 66 66 41 66 66 41 66 66 42 66 66 42 66 66 42 66 66 42 66 66 42 66 66 42 66 66 42 66 66 42 66 66 42 66 66 42 66 66 42 66 66 42 66 66 42 66 66 42 66 66 42 66 66 42 66 66 42 66 66 42 66 66 42 66 66 42 66 66 42 66 66 42 66 66 47 72 72 47 72 72 47 72 72 47 72 72 47 72 72 48 74 74 48 74 74 48 74 74 48 74 74 48 74 74 48 74 74 48 74 74 48 74 74 49 74 75 49 74 75 48 74 74 49 74 75 48 74 74 48 73 73 48 72 72 48 72 72 56 78 78 45 70 70 41 66 66 41 66 66 41 66 66 51 75 75 47 71 71 46 71 71 46 71 71 46 70 70 46 70 70 47 71 71 48 72 74 48 72 73 48 72 73 54 75 76 49 72 73 47 71 72 49 72 72 47 70 70 49 72 74 42 48 48 37 44 44 37 43 43 37 43 43 36 42 42 36 41 41 36 40 40 35 39 39 35 38 38 35 37 37 34 37 37 32 34 34 32 34 34 34 37 37 34 37 37 35 38 38 35 39 39 36 40 40 36 40 40 41 44 47 41 43 43 42 44 44 37 42 42 37 40 40 42 55 56 47 70 70 47 70 70 60 67 80 57 64 70 49 56 59 202 153 153 185 154 154 164 144 144 142 131 131 83 79 79 47 46 46 25 25 25 25 25 25 25 25 25 25 25 25 25 25 25 25 25 25 25 25 25 25 25 25 25 25 25 25 25 25 25 25 25 25 25 25 25 25 25 25 25 25 25 25 25 25 25 25 25 25 25 25 25 25 25 25 25 25 25 25 30 30 37 42 42 54 30 30 35 72 50 52 44 35 35 51 37 37 74 51 51 31 33 33 32 35 35 32 36 36 37 43 43 37 42 42 38 44 44 38 43 43 38 47 48 38 47 47 38 51 51 38 54 54 38 58 58 38 58 58 38 57 57 38 57 57 38 57 57 38 57 57 38 57 57 38 57 57 38 57 57 38 57 57 38 57 57 38 57 57 38 56 56 38 56 56 38 56 56 37 56 56 37 56 56 37 56 56 37 56 56 37 56 56 37 56 56 37 56 56 37 55 55 37 55 55 37 55 55 37 55 55 37 55 55 37 55 55 37 55 55 37 55 55 37 55 55 37 55 55 37 55 55 37 54 54 37 54 54 37 54 54 37 54 54 37 54 54 37 54 54 37 54 54 37 54 54 36 54 54 36 54 54 36 54 54 36 53 53 36 53 53 36 53 53 36 53 53 36 53 53 36 53 53 36 53 53 36 53 53 36 53 53 36 53 53 36 53 53 36 52 52 36 52 52 36 52 52 36 52 52 36 52 52 36 52 52 36 52 52 36 52 52 36 52 52 36 52 52 36 52 52 36 52 52 36 51 51 36 51 51 36 51 51 35 51 51 35 51 51 35 51 51 35 51 51 35 51 51 35 51 51 35 51 51 35 51 51 61 73 103 101 109 168 126 133 215 158 161 255 163 166 255 160 161 255 160 160 250 155 155 240 154 154 234 151 151 228 148 148 221 145 145 213 141 141 206 137 137 198 133 133 190 129 129 182 124 124 174 119 119 165 114 114 157 109 109 148 104 104 140 99 99 132 94 94 123 89 89 115 84 84 107 79 79 99 74 74 91 69 69 83 64 64 75 60 60 68 55 55 61 46 46 49 40 40 42 
40 61 61 40 61 61 40 61 61 40 62 62 40 62 62 40 62 62 40 62 62 40 62 62 40 62 62 40 62 62 40 62 62 40 62 62 40 62 62 40 62 62 40 63 63 40 63 63 40 63 63 40 63 63 40 63 63 40 63 63 40 63 63 40 63 63 40 63 63 40 63 63 40 63 63 40 63 63 40 64 64 40 64 64 40 64 64 41 64 64 41 64 64 41 64 64 41 64 64 41 64 64 41 64 64 41 64 64 41 64 64 41 64 64 41 64 64 41 65 65 41 65 65 41 65 65 41 65 65 41 65 65 41 65 65 41 65 65 43 67 67 44 68 69 44 69 70 45 69 72 44 68 72 41 65 65 43 67 68 43 68 70 44 68 71 44 68 72 41 66 66 41 66 66 41 66 66 41 66 66 41 66 66 41 66 66 41 66 66 41 66 66 41 66 66 41 66 66 41 66 66 41 66 66 41 66 66 41 66 66 41 66 66 41 66 66 41 66 66 41 66 66 41 66 66 41 66 66 41 66 66 41 66 66 41 66 66 41 66 66 41 66 66 41 66 66 41 66 66 41 66 66 41 66 66 41 66 66 41 66 66 41 66 66 43 68 68 43 68 68 43 68 68 41 66 66 41 66 66 47 71 71 47 71 71 47 71 71 49 74 76 47 71 71 48 73 73 48 74 74 48 74 74 48 74 74 48 74 74 48 74 74 48 74 74 48 74 74 49 74 74 49 74 74 48 74 74 49 74 74 48 73 73 48 73 73 48 72 72 49 73 73 56 78 78 44 68 68 41 66 66 41 65 65 41 65 65 42 67 67 47 71 71 46 70 70 46 70 70 46 70 70 46 70 70 47 71 72 48 72 74 48 72 73 47 71 71 48 71 71 52 73 73 49 71 71 50 72 72 49 72 75 47 72 72 50 74 75 37 44 44 37 44 44 37 43 43 37 42 42 36 42 42 36 41 41 36 41 41 36 40 40 36 40 40 35 39 39 35 39 39 35 39 39 35 39 39 35 39 39 35 40 40 36 40 40 38 43 44 43 46 47 37 42 42 45 46 46 38 44 44 39 45 45 44 55 55 46 68 68 46 69 69 47 70 70 47 70 70 46 53 55 37 44 44 187 147 147 168 144 144 146 134 134 105 102 102 53 54 54 30 31 31 25 25 25 25 25 25 25 25 25 25 25 25 25 25 25 25 25 25 25 25 25 25 25 25 25 25 25 25 25 25 25 25 25 25 25 25 25 25 25 25 25 25 25 25 25 25 25 25 25 25 25 25 25 25 25 25 25 25 25 25 31 31 37 55 55 76 53 51 72 53 38 38 29 28 28 37 33 33 76 52 52 41 35 35 32 35 35 32 36 36 38 47 47 37 47 47 39 52 52 39 52 52 38 51 51 38 54 54 38 58 58 38 58 58 38 58 58 38 57 57 38 57 57 38 57 57 38 57 57 38 57 57 38 57 57 38 57 57 38 57 57 38 57 57 38 57 57 38 57 57 38 56 56 38 56 56 37 56 56 37 56 56 37 56 56 37 56 56 37 56 56 37 56 56 37 56 56 37 56 56 37 55 55 37 55 55 37 55 55 37 55 55 37 55 55 37 55 55 37 55 55 37 55 55 37 55 55 37 55 55 37 54 54 37 54 54 37 54 54 37 54 54 37 54 54 37 54 54 37 54 54 37 54 54 37 54 54 36 54 54 36 54 54 36 53 53 36 53 53 36 53 53 36 53 53 36 53 53 36 53 53 36 53 53 36 53 53 36 53 53 36 53 53 36 53 53 36 53 53 36 52 52 36 52 52 36 52 52 36 52 52 36 52 52 36 52 52 36 52 52 36 52 52 36 52 52 36 52 52 36 52 52 36 52 52 36 51 51 36 51 51 36 51 51 35 51 51 35 51 51 35 51 51 35 51 51 35 51 51 35 51 51 35 51 51 61 74 104 104 113 176 153 157 255 166 168 255 167 169 255 165 166 255 161 161 250 158 158 242 156 156 236 154 154 230 151 151 222 147 147 215 144 144 207 140 140 199 135 135 191 131 131 183 126 126 175 121 121 166 116 116 158 111 111 149 106 106 141 101 101 132 95 95 124 90 90 115 85 85 107 79 79 98 74 74 90 69 69 82 64 64 74 59 59 66 54 54 58 39 39 41 37 37 38 25 25 25 
39 61 61 40 61 61 40 61 61 40 61 61 40 62 62 40 62 62 40 62 62 40 62 62 40 62 62 40 62 62 40 62 62 40 62 62 40 62 62 40 62 62 40 62 62 40 63 63 40 63 63 40 63 63 40 63 63 40 63 63 40 63 63 40 63 63 40 63 63 40 63 63 40 63 63 40 63 63 40 63 63 40 64 64 40 64 64 40 64 64 40 64 64 41 64 64 41 64 64 41 64 64 41 64 64 41 64 64 41 64 64 41 64 64 41 64 64 41 64 64 41 64 64 41 65 65 41 65 65 41 65 65 41 65 65 41 65 65 41 65 65 41 65 65 41 65 65 41 65 65 41 65 65 41 65 65 41 65 65 41 65 65 41 65 65 41 65 65 41 65 65 41 65 65 41 65 65 41 65 65 41 66 66 41 66 66 41 66 66 41 66 66 41 66 66 41 66 66 41 66 66 41 66 66 41 66 66 41 66 66 41 66 66 41 66 66 41 66 66 41 66 66 41 66 66 41 66 66 41 66 66 41 66 66 41 66 66 41 66 66 41 66 66 41 66 66 41 66 66 41 66 66 41 66 66 43 67 67 46 70 71 44 69 69 48 72 72 47 72 73 46 70 70 46 70 70 44 69 69 43 67 67 46 71 71 46 71 71 47 72 72 46 71 71 47 72 72 48 73 73 48 74 74 48 74 74 48 74 74 48 74 74 48 73 73 48 73 73 48 73 73 48 74 74 48 73 74 48 73 73 48 73 73 48 72 73 47 71 71 51 74 74 50 74 74 44 68 68 41 65 65 41 65 65 41 65 65 41 65 65 42 66 66 56 79 79 46 70 70 46 70 70 46 70 70 47 71 71 48 72 72 46 70 70 46 70 70 46 70 70 46 70 70 46 70 70 47 70 72 47 71 71 49 73 75 49 74 74 40 51 51 37 44 44 37 43 43 37 43 43 37 42 42 36 42 42 36 42 42 36 41 41 36 41 41 36 41 41 36 41 41 36 41 41 36 41 41 36 41 41 36 41 41 38 43 45 40 44 46 37 42 42 44 46 46 37 43 43 38 44 44 50 59 59 46 63 63 45 68 68 46 68 68 46 69 69 46 69 69 40 46 46 37 44 44 173 140 140 152 135 135 128 124 124 76 77 77 32 34 34 31 32 32 29 29 29 25 25 25 25 25 25 25 25 25 25 25 25 25 25 25 25 25 25 25 25 25 25 25 25 25 25 25 25 25 25 25 25 25 25 25 25 25 25 25 25 25 25 25 25 25 25 25 25 25 25 25 25 25 25 25 25 25 29 29 31 46 46 61 43 44 57 29 28 28 28 28 28 31 32 32 35 33 33 50 37 37 32 35 35 34 41 41 38 54 54 38 54 54 38 54 54 38 58 58 38 58 58 38 58 58 38 58 58 38 58 58 38 57 57 38 57 57 38 57 57 38 57 57 38 57 57 38 57 57 38 57 57 38 57 57 38 57 57 38 57 57 38 57 57 38 56 56 38 56 56 37 56 56 37 56 56 37 56 56 37 56 56 37 56 56 37 56 56 37 56 56 37 56 56 37 55 55 37 55 55 37 55 55 37 55 55 37 55 55 37 55 55 37 55 55 37 55 55 37 55 55 37 55 55 37 55 55 37 54 54 37 54 54 37 54 54 37 54 54 37 54 54 37 54 54 37 54 54 37 54 54 36 54 54 36 54 54 36 54 54 36 53 53 36 53 53 36 53 53 36 53 53 36 53 53 36 53 53 36 53 53 36 53 53 36 53 53 36 53 53 36 53 53 36 52 52 36 52 52 36 52 52 36 52 52 36 52 52 36 52 52 36 52 52 36 52 52 36 52 52 36 52 52 36 52 52 36 52 52 36 51 51 36 51 51 36 51 51 35 51 51 35 51 51 35 51 51 35 51 51 35 51 51 35 51 51 35 51 51 61 74 103 96 105 161 161 162 255 176 178 255 172 173 255 169 169 255 169 169 255 160 160 244 158 158 238 156 156 231 153 153 224 149 149 216 146 146 209 141 141 201 137 137 192 132 132 184 128 128 176 123 123 167 118 118 159 112 112 150 107 107 141 102 102 132 96 96 124 91 91 115 85 85 106 80 80 98 74 74 89 69 69 81 64 64 72 59 59 64 48 48 51 39 39 40 31 31 31 25 25 25 25 25 25 
39 61 61 39 61 61 40 61 61 40 61 61 40 61 61 40 62 62 40 62 62 40 62 62 40 62 62 40 62 62 40 62 62 40 62 62 40 62 62 40 62 62 40 62 62 40 62 62 40 62 62 40 63 63 40 63 63 40 63 63 40 63 63 40 63 63 40 63 63 40 63 63 40 63 63 40 63 63 40 63 63 40 63 63 40 63 63 40 64 64 40 64 64 40 64 64 40 64 64 41 64 64 41 64 64 41 64 64 41 64 64 41 64 64 41 64 64 41 64 64 41 64 64 41 64 64 41 64 64 41 64 64 41 65 65 41 65 65 41 65 65 41 65 65 41 65 65 41 65 65 41 65 65 41 65 65 41 65 65 41 65 65 41 65 65 41 65 65 41 65 65 41 65 65 41 65 65 41 65 65 41 65 65 41 65 65 41 65 65 41 65 65 41 65 65 41 65 65 41 66 66 41 66 66 41 66 66 41 66 66 41 66 66 41 66 66 41 66 66 41 66 66 41 66 66 41 66 66 41 66 66 41 66 66 41 66 66 41 66 66 41 66 66 41 66 66 41 66 66 43 67 67 44 69 69 47 71 72 49 74 75 49 74 75 51 75 75 49 74 75 49 75 76 48 73 73 48 73 73 47 72 73 47 71 71 48 72 72 48 72 72 46 71 71 46 71 71 47 72 72 48 73 73 48 73 73 48 73 73 48 73 73 48 73 73 48 73 73 48 73 73 48 73 73 49 73 73 48 73 73 51 74 75 50 74 78 46 70 70 50 73 73 48 72 72 44 68 68 41 65 65 41 65 65 41 65 65 41 65 65 41 65 65 51 75 75 54 78 78 56 79 79 46 70 70 48 72 73 47 71 71 47 71 71 46 70 70 47 70 70 52 75 77 46 69 69 47 71 72 49 73 76 48 73 73 48 73 73 50 73 73 43 51 51 37 43 43 37 43 43 37 43 43 37 42 42 36 42 42 36 42 42 36 42 42 36 41 41 36 41 41 36 41 41 36 41 41 36 41 41 36 41 41 39 44 45 43 46 49 40 44 46 36 42 42 40 46 47 40 50 52 62 74 74 60 82 82 45 67 67 45 67 67 45 67 67 47 70 70 47 70 71 39 45 45 160 131 131 137 127 127 80 80 80 32 36 36 32 35 35 31 33 33 31 32 32 29 29 29 25 25 25 25 25 25 25 25 25 25 25 25 25 25 25 25 25 25 25 25 25 25 25 25 25 25 25 25 25 25 25 25 25 25 25 25 25 25 25 25 25 25 25 25 25 25 25 25 25 25 25 25 25 25 30 30 35 43 41 52 33 33 39 28 28 28 31 31 31 31 32 32 31 32 32 55 43 43 32 35 35 35 47 47 38 58 58 38 58 58 38 58 58 38 58 58 38 58 58 38 58 58 38 58 58 38 58 58 38 57 57 38 57 57 38 57 57 38 57 57 38 57 57 38 57 57 38 57 57 38 57 57 38 57 57 38 57 57 38 56 56 38 56 56 38 56 56 37 56 56 37 56 56 37 56 56 37 56 56 37 56 56 37 56 56 37 56 56 37 56 56 37 55 55 37 55 55 37 55 55 37 55 55 37 55 55 37 55 55 37 55 55 37 55 55 37 55 55 37 55 55 37 54 54 37 54 54 37 54 54 37 54 54 37 54 54 37 54 54 37 54 54 37 54 54 37 54 54 36 54 54 36 54 54 36 53 53 36 53 53 36 53 53 36 53 53 36 53 53 36 53 53 36 53 53 36 53 53 36 53 53 36 53 53 36 53 53 36 53 53 36 52 52 36 52 52 36 52 52 36 52 52 36 52 52 36 52 52 36 52 52 36 52 52 36 52 52 36 52 52 36 52 52 36 52 52 36 51 51 36 51 51 36 51 51 35 51 51 35 51 51 35 51 51 35 51 51 35 51 51 35 51 51 57 70 100 99 107 165 156 161 255 166 169 255 170 173 255 171 172 255 171 171 255 165 165 249 159 159 239 157 157 232 154 154 225 151 151 217 147 147 210 143 143 202 138 138 193 134 134 185 129 129 176 124 124 168 119 119 159 113 113 150 108 108 141 103 103 133 97 97 124 91 91 115 86 86 106 80 80 97 75 75 88 69 69 80 63 63 71 58 58 62 41 41 43 38 38 39 25 25 25 25 25 25 25 25 25 25 25 25 
39 61 61 39 61 61 39 61 61 40 61 61 40 61 61 40 61 61 40 62 62 40 62 62 40 62 62 40 62 62 40 62 62 40 62 62 40 62 62 40 62 62 40 62 62 40 62 62 40 62 62 40 62 62 40 63 63 40 63 63 40 63 63 40 63 63 40 63 63 40 63 63 40 63 63 40 63 63 40 63 63 40 63 63 40 63 63 40 63 63 40 63 63 40 64 64 40 64 64 40 64 64 40 64 64 41 64 64 41 64 64 41 64 64 41 64 64 41 64 64 41 64 64 41 64 64 41 64 64 41 64 64 41 64 64 41 64 64 41 64 64 41 65 65 41 65 65 41 65 65 41 65 65 41 65 65 41 65 65 41 65 65 41 65 65 41 65 65 41 65 65 41 65 65 41 65 65 41 65 65 41 65 65 41 65 65 41 65 65 41 65 65 41 65 65 41 65 65 41 65 65 41 65 65 41 65 65 41 65 65 41 65 65 41 65 65 41 65 65 41 65 65 41 65 65 41 66 66 41 66 66 41 66 66 41 66 66 41 66 66 41 66 66 41 66 66 44 68 68 45 70 70 50 75 76 50 75 75 48 73 73 48 74 74 48 74 74 48 74 74 48 74 74 48 74 74 48 74 74 48 73 73 48 72 73 47 72 72 48 72 72 47 72 72 46 71 71 47 71 71 47 72 72 48 72 72 48 73 73 48 73 73 48 73 73 48 73 73 48 72 72 48 72 72 48 72 73 49 73 75 55 76 78 49 73 76 46 70 70 47 71 71 46 70 70 45 69 69 41 65 65 41 65 65 41 65 65 41 65 65 41 65 65 41 65 65 41 65 65 42 66 66 52 76 76 55 77 77 55 78 78 55 78 78 44 67 67 44 67 67 56 79 84 67 88 89 47 71 72 48 72 72 49 72 72 50 73 73 56 75 75 54 74 74 40 51 51 37 43 43 37 43 43 37 43 43 37 43 43 37 42 42 36 42 42 36 42 42 36 42 42 36 42 42 36 42 42 36 42 42 38 43 43 37 42 42 41 45 45 39 44 44 40 46 47 40 50 50 39 54 54 95 106 106 79 99 99 45 67 67 46 68 69 48 70 72 48 70 72 45 67 67 41 55 55 119 103 103 123 120 120 53 57 57 33 36 36 32 35 35 32 34 34 31 33 33 31 32 32 29 29 29 26 26 26 25 25 25 25 25 25 25 25 25 25 25 25 25 25 25 25 25 25 25 25 25 25 25 25 25 25 25 25 25 25 25 25 25 25 25 25 25 25 25 25 25 25 25 25 25 29 29 33 44 44 60 45 46 64 28 28 28 31 31 31 31 32 32 31 33 33 33 33 33 62 50 50 32 35 35 35 47 47 38 58 58 38 58 58 38 58 58 38 58 58 38 58 58 38 58 58 38 58 58 38 57 57 38 57 57 38 57 57 38 57 57 38 57 57 38 57 57 38 57 57 38 57 57 38 57 57 38 57 57 38 56 56 38 56 56 38 56 56 37 56 56 37 56 56 37 56 56 37 56 56 37 56 56 37 56 56 37 56 56 37 56 56 37 55 55 37 55 55 37 55 55 37 55 55 37 55 55 37 55 55 37 55 55 37 55 55 37 55 55 37 55 55 37 55 55 37 54 54 37 54 54 37 54 54 37 54 54 37 54 54 37 54 54 37 54 54 37 54 54 36 54 54 36 54 54 36 54 54 36 53 53 36 53 53 36 53 53 36 53 53 36 53 53 36 53 53 36 53 53 36 53 53 36 53 53 36 53 53 36 53 53 36 53 53 36 52 52 36 52 52 36 52 52 36 52 52 36 52 52 36 52 52 36 52 52 36 52 52 36 52 52 36 52 52 36 52 52 36 52 52 36 51 51 36 51 51 36 51 51 35 51 51 35 51 51 35 51 51 35 51 51 35 51 51 35 51 51 92 101 158 153 159 255 166 171 255 170 173 255 181 177 255 172 172 255 171 171 254 162 162 241 158 158 233 155 155 226 152 152 218 148 148 210 144 144 202 140 140 194 135 135 186 130 130 177 125 125 168 120 120 159 114 114 151 109 109 142 103 103 133 98 98 124 92 92 115 86 86 106 80 80 97 74 74 88 69 69 79 63 63 70 57 57 61 41 41 42 32 32 32 25 25 25 25 25 25 25 25 25 25 25 25 25 25 25 
39 61 61 39 61 61 39 61 61 39 61 61 40 61 61 40 61 61 40 61 61 40 62 62 40 62 62 40 62 62 40 62 62 40 62 62 40 62 62 40 62 62 40 62 62 40 62 62 40 62 62 40 62 62 40 62 62 40 62 62 40 63 63 40 63 63 40 63 63 40 63 63 40 63 63 40 63 63 40 63 63 40 63 63 40 63 63 40 63 63 40 63 63 40 63 63 40 63 63 40 64 64 40 64 64 40 64 64 40 64 64 41 64 64 41 64 64 41 64 64 41 64 64 41 64 64 41 64 64 41 64 64 41 64 64 41 64 64 41 64 64 41 64 64 41 64 64 41 64 64 41 65 65 41 65 65 41 65 65 41 65 65 41 65 65 41 65 65 41 65 65 41 65 65 41 65 65 41 65 65 41 65 65 41 65 65 41 65 65 41 65 65 41 65 65 41 65 65 41 65 65 41 65 65 41 65 65 41 65 65 41 65 65 41 65 65 41 65 65 41 65 65 41 65 65 41 65 65 41 65 65 41 65 65 41 65 65 41 65 65 41 65 65 45 68 68 46 70 70 48 73 73 49 73 74 48 74 74 48 74 74 48 74 74 49 74 74 49 74 74 48 73 73 48 74 74 48 73 73 49 74 74 51 74 74 50 74 74 47 71 71 48 72 72 46 70 70 46 70 70 46 70 70 46 71 71 47 71 71 47 71 71 47 71 71 47 71 71 47 71 71 47 71 71 48 72 73 50 74 76 47 71 72 47 71 71 48 71 71 52 73 73 45 69 69 42 66 66 41 65 65 41 65 65 41 65 65 41 65 65 41 64 64 41 64 64 41 64 64 41 64 64 41 64 64 41 64 64 52 74 74 51 74 74 41 64 64 41 64 64 48 71 74 70 92 95 52 73 73 53 74 74 54 74 74 57 76 76 50 72 72 48 72 72 50 73 75 44 52 52 37 43 43 38 44 44 37 43 43 37 43 43 37 42 42 37 42 42 36 42 42 36 42 42 36 42 42 40 45 45 42 46 46 39 44 44 37 43 43 37 43 43 39 53 53 39 53 53 40 62 62 69 83 83 90 105 105 62 84 85 47 69 70 46 68 68 46 68 68 45 67 67 45 66 66 64 69 69 79 78 78 33 37 37 33 36 36 32 36 36 32 35 35 32 34 34 31 33 33 31 32 32 29 30 30 28 28 28 26 26 26 25 25 25 25 25 25 25 25 25 25 25 25 25 25 25 25 25 25 25 25 25 25 25 25 25 25 25 25 25 25 25 25 25 25 25 25 25 25 25 30 30 35 50 50 70 48 48 64 31 31 31 31 32 32 31 33 33 31 34 34 37 34 34 49 39 39 32 35 35 35 47 47 38 58 58 38 58 58 38 58 58 38 58 58 38 58 58 38 58 58 38 57 57 38 57 57 38 57 57 38 57 57 38 57 57 38 57 57 38 57 57 38 57 57 38 57 57 38 57 57 38 56 56 38 56 56 38 56 56 37 56 56 37 56 56 37 56 56 37 56 56 37 56 56 37 56 56 37 56 56 37 56 56 37 55 55 37 55 55 37 55 55 37 55 55 37 55 55 37 55 55 37 55 55 37 55 55 37 55 55 37 55 55 37 55 55 37 54 54 37 54 54 37 54 54 37 54 54 37 54 54 37 54 54 37 54 54 37 54 54 37 54 54 36 54 54 36 54 54 36 53 53 36 53 53 36 53 53 36 53 53 36 53 53 36 53 53 36 53 53 36 53 53 36 53 53 36 53 53 36 53 53 36 53 53 36 52 52 36 52 52 36 52 52 36 52 52 36 52 52 36 52 52 36 52 52 36 52 52 36 52 52 36 52 52 36 52 52 36 52 52 36 52 52 36 51 51 36 51 51 36 51 51 35 51 51 35 51 51 35 51 51 35 51 51 35 51 51 86 97 155 131 138 223 165 169 255 170 176 255 185 182 255 175 176 255 171 171 255 165 165 244 159 159 233 156 156 226 153 153 219 149 149 211 145 145 203 140 140 195 136 136 186 131 131 178 126 126 169 120 120 160 115 115 151 109 109 142 104 104 133 98 98 124 92 92 114 86 86 105 80 80 96 74 74 87 68 68 78 62 62 68 50 50 53 40 40 41 32 32 32 25 25 25 25 25 25 25 25 25 25 25 25 25 25 25 25 25 25 
39 61 61 39 61 61 39 61 61 39 61 61 39 61 61 39 61 61 40 61 61 40 61 61 40 61 61 40 62 62 40 62 62 40 62 62 40 62 62 40 62 62 40 62 62 40 62 62 40 62 62 40 62 62 40 62 62 40 62 62 40 62 62 40 63 63 40 63 63 40 63 63 40 63 63 40 63 63 40 63 63 40 63 63 40 63 63 40 63 63 40 63 63 40 63 63 40 63 63 40 63 63 40 63 63 40 63 63 40 64 64 40 64 64 40 64 64 40 64 64 41 64 64 41 64 64 41 64 64 41 64 64 41 64 64 41 64 64 41 64 64 41 64 64 41 64 64 41 64 64 41 64 64 41 64 64 41 64 64 41 64 64 41 65 65 41 65 65 41 65 65 41 65 65 41 65 65 41 65 65 41 65 65 41 65 65 41 65 65 41 65 65 41 65 65 41 65 65 41 65 65 41 65 65 41 65 65 41 65 65 41 65 65 41 65 65 41 65 65 41 65 65 41 65 65 41 65 65 41 65 65 41 65 65 41 65 65 41 65 65 41 65 65 44 68 68 48 72 72 48 73 73 48 73 73 48 73 73 48 73 73 48 73 73 48 73 73 48 73 73 48 73 73 49 74 74 48 73 73 48 72 72 52 75 75 54 76 76 51 73 74 48 72 72 47 71 71 46 70 70 46 70 70 46 70 70 46 70 70 46 70 70 46 70 70 46 70 70 46 70 70 48 72 73 48 72 73 49 72 74 49 71 72 47 71 72 49 72 72 47 70 70 44 68 68 41 65 65 41 64 64 41 64 64 41 64 64 41 64 64 41 64 64 41 64 64 41 64 64 41 64 64 41 64 64 41 64 64 41 64 64 41 64 64 41 64 64 41 64 64 40 64 64 68 91 96 54 75 75 47 69 69 50 71 71 47 70 70 47 71 71 49 72 74 49 72 74 49 71 71 45 64 65 44 53 53 41 47 47 37 44 44 38 44 44 37 43 43 37 43 43 37 43 43 37 43 43 40 46 46 42 47 47 40 46 46 38 48 48 41 55 56 39 57 57 40 62 62 40 62 62 40 62 62 81 94 94 84 101 101 55 76 77 46 67 68 45 66 66 45 66 66 45 66 66 54 71 71 74 76 76 33 37 37 33 37 37 32 36 36 32 35 35 32 35 35 32 34 34 31 33 33 31 32 32 31 32 32 29 30 30 28 28 28 26 26 26 26 26 26 25 25 25 25 25 25 25 25 25 25 25 25 25 25 25 25 25 25 25 25 25 26 26 26 26 26 26 28 28 28 28 28 29 47 47 64 42 43 59 31 32 32 43 44 55 31 33 33 32 34 34 58 47 47 67 52 52 34 41 41 38 58 58 38 58 58 38 58 58 38 58 58 38 58 58 38 58 58 38 57 57 38 57 57 38 57 57 38 57 57 38 57 57 38 57 57 38 57 57 38 57 57 38 57 57 38 57 57 38 56 56 38 56 56 38 56 56 37 56 56 37 56 56 37 56 56 37 56 56 37 56 56 37 56 56 37 56 56 37 56 56 37 55 55 37 55 55 37 55 55 37 55 55 37 55 55 37 55 55 37 55 55 37 55 55 37 55 55 37 55 55 37 55 55 37 55 55 37 54 54 37 54 54 37 54 54 37 54 54 37 54 54 37 54 54 37 54 54 37 54 54 36 54 54 36 54 54 36 54 54 36 53 53 36 53 53 36 53 53 36 53 53 36 53 53 36 53 53 36 53 53 36 53 53 36 53 53 36 53 53 36 53 53 36 53 53 36 52 52 36 52 52 36 52 52 36 52 52 36 52 52 36 52 52 36 52 52 36 52 52 36 52 52 36 52 52 36 52 52 36 52 52 36 51 51 36 51 51 36 51 51 35 51 51 35 51 51 35 51 51 35 51 51 35 51 51 35 51 51 102 105 160 158 162 255 188 183 255 192 188 255 172 174 255 176 175 255 169 169 250 162 162 237 156 156 227 153 153 219 149 149 211 145 145 203 141 141 195 136 136 187 131 131 178 126 126 169 121 121 160 116 116 151 110 110 142 104 104 133 98 98 123 92 92 114 86 86 105 80 80 95 74 74 86 68 68 77 62 62 67 50 50 52 40 40 41 25 25 25 25 25 25 25 25 25 25 25 25 25 25 25 25 25 25 25 25 25 25 25 25 
39 61 61 39 61 61 39 61 61 39 61 61 39 61 61 39 61 61 39 61 61 40 61 61 40 61 61 40 61 61 40 62 62 40 62 62 40 62 62 40 62 62 40 62 62 40 62 62 40 62 62 40 62 62 40 62 62 40 62 62 40 62 62 40 62 62 40 62 62 40 63 63 40 63 63 40 63 63 40 63 63 40 63 63 40 63 63 40 63 63 40 63 63 40 63 63 40 63 63 40 63 63 40 63 63 40 63 63 40 63 63 40 63 63 40 64 64 40 64 64 40 64 64 40 64 64 40 64 64 41 64 64 41 64 64 41 64 64 41 64 64 41 64 64 41 64 64 41 64 64 41 64 64 41 64 64 41 64 64 41 64 64 41 64 64 41 64 64 41 64 64 41 64 64 41 64 64 41 65 65 41 65 65 41 65 65 41 65 65 41 65 65 41 65 65 41 65 65 41 65 65 41 65 65 41 65 65 41 65 65 41 65 65 41 65 65 41 65 65 41 65 65 41 65 65 41 65 65 41 65 65 41 65 65 41 65 65 41 65 65 46 70 71 49 73 74 48 72 72 48 73 73 48 73 73 48 73 73 48 73 73 48 73 73 48 73 73 48 73 73 48 73 73 48 73 73 47 72 72 47 72 72 50 73 73 55 77 77 59 79 79 48 72 72 47 71 72 47 70 70 46 70 70 46 70 70 46 70 70 46 70 70 46 70 70 46 70 70 46 70 70 48 72 72 49 73 75 52 73 73 49 72 72 51 72 73 46 70 70 43 67 67 42 66 66 41 64 64 41 64 64 41 64 64 41 64 64 41 64 64 41 64 64 41 64 64 41 64 64 41 64 64 41 64 64 41 64 64 41 64 64 40 64 64 40 64 64 40 64 64 40 64 64 69 93 102 65 88 90 45 68 68 45 68 68 46 69 69 48 71 72 48 71 73 46 69 69 53 72 72 53 73 76 50 70 70 45 64 64 42 57 57 40 50 50 38 48 48 40 50 50 40 50 50 38 48 48 38 48 48 42 56 56 39 53 53 39 57 57 40 62 62 40 62 62 40 62 62 40 62 62 40 62 62 40 62 62 78 92 92 81 99 99 53 74 74 45 66 66 45 66 66 45 66 66 48 68 68 72 75 75 33 37 37 33 37 37 33 36 36 32 36 36 32 35 35 32 35 35 32 34 34 31 33 33 31 33 33 31 32 32 31 32 32 31 31 31 29 30 30 29 29 29 28 28 28 28 28 28 28 28 28 28 28 28 28 28 28 28 28 28 29 30 30 29 30 30 31 31 31 33 34 40 48 49 66 52 52 75 43 44 55 36 37 44 33 35 39 32 34 34 56 41 41 49 43 43 35 47 47 38 58 58 38 58 58 38 58 58 38 58 58 38 58 58 38 57 57 38 57 57 38 57 57 38 57 57 38 57 57 38 57 57 38 57 57 38 57 57 38 57 57 38 57 57 38 57 57 38 56 56 38 56 56 37 56 56 37 56 56 37 56 56 37 56 56 37 56 56 37 56 56 37 56 56 37 56 56 37 56 56 37 55 55 37 55 55 37 55 55 37 55 55 37 55 55 37 55 55 37 55 55 37 55 55 37 55 55 37 55 55 37 55 55 37 54 54 37 54 54 37 54 54 37 54 54 37 54 54 37 54 54 37 54 54 37 54 54 37 54 54 36 54 54 36 54 54 36 53 53 36 53 53 36 53 53 36 53 53 36 53 53 36 53 53 36 53 53 36 53 53 36 53 53 36 53 53 36 53 53 36 53 53 36 52 52 36 52 52 36 52 52 36 52 52 36 52 52 36 52 52 36 52 52 36 52 52 36 52 52 36 52 52 36 52 52 36 52 52 36 52 52 36 51 51 36 51 51 36 51 51 35 51 51 35 51 51 35 51 51 35 51 51 35 51 51 88 99 154 151 157 255 177 181 255 169 175 255 203 192 255 190 181 255 187 184 255 162 162 237 156 156 227 153 153 219 149 149 212 146 146 204 141 141 195 137 137 187 132 132 178 127 127 169 121 121 160 116 116 151 110 110 142 105 105 133 99 99 123 93 93 114 86 86 105 80 80 95 74 74 86 68 68 76 61 61 66 49 49 51 39 39 40 25 25 25 25 25 25 25 25 25 25 25 25 25 25 25 25 25 25 25 25 25 25 25 25 25 25 25 
39 61 61 39 61 61 39 61 61 39 61 61 39 61 61 39 61 61 39 61 61 39 61 61 40 61 61 40 61 61 40 61 61 40 62 62 40 62 62 40 62 62 40 62 62 40 62 62 40 62 62 40 62 62 40 62 62 40 62 62 40 62 62 40 62 62 40 62 62 40 62 62 40 62 62 40 63 63 40 63 63 40 63 63 40 63 63 40 63 63 40 63 63 40 63 63 40 63 63 40 63 63 40 63 63 40 63 63 40 63 63 40 63 63 40 63 63 40 63 63 40 63 63 40 64 64 40 64 64 40 64 64 40 64 64 40 64 64 41 64 64 41 64 64 41 64 64 41 64 64 41 64 64 41 64 64 41 64 64 41 64 64 41 64 64 41 64 64 41 64 64 41 64 64 41 64 64 41 64 64 41 64 64 41 64 64 41 64 64 41 64 64 41 64 64 41 65 65 41 65 65 41 65 65 41 65 65 41 65 65 41 65 65 41 65 65 41 65 65 41 65 65 41 65 65 41 65 65 41 65 65 41 65 65 41 65 65 41 65 65 43 67 67 47 71 71 48 72 72 48 73 73 48 73 73 48 73 73 48 73 73 48 73 73 48 73 73 48 73 73 48 73 73 48 73 73 47 71 71 47 71 71 48 71 71 53 75 75 58 78 78 46 70 70 48 71 71 47 71 71 46 70 70 46 70 70 46 70 70 46 70 70 46 70 70 46 70 70 47 70 71 49 73 74 49 72 73 46 69 69 46 69 69 47 71 71 45 68 68 44 67 67 41 64 64 41 64 64 41 64 64 41 64 64 41 64 64 41 64 64 41 64 64 41 64 64 41 64 64 40 64 64 40 64 64 40 64 64 40 64 64 40 64 64 40 63 63 40 63 63 40 63 63 40 63 63 68 91 96 54 77 78 45 68 68 46 69 69 46 69 69 51 73 75 46 69 69 47 69 69 47 69 69 51 71 71 45 68 68 45 68 68 42 61 61 40 59 59 39 58 58 41 59 59 39 57 57 39 57 57 39 57 57 40 62 62 40 62 62 40 62 62 40 62 62 40 62 62 40 62 62 40 61 61 40 61 61 40 61 61 64 81 81 69 88 88 61 81 81 51 73 73 44 66 66 44 66 66 47 68 68 33 37 37 33 37 37 33 36 36 32 36 36 32 35 35 32 35 35 32 35 35 32 34 34 32 34 34 31 33 33 31 33 33 31 33 33 31 32 32 31 32 32 31 32 32 31 32 32 31 32 32 31 32 32 31 32 32 31 32 32 31 32 32 31 32 32 31 32 32 31 33 33 44 45 62 44 45 59 39 40 55 35 36 43 32 34 34 49 41 41 40 35 35 32 36 36 35 47 47 38 58 58 38 58 58 38 58 58 38 58 58 38 57 57 38 57 57 38 57 57 38 57 57 38 57 57 38 57 57 38 57 57 38 57 57 38 57 57 38 57 57 38 57 57 38 56 56 38 56 56 37 56 56 37 56 56 37 56 56 37 56 56 37 56 56 37 56 56 37 56 56 37 56 56 37 56 56 37 55 55 37 55 55 37 55 55 37 55 55 37 55 55 37 55 55 37 55 55 37 55 55 37 55 55 37 55 55 37 55 55 37 54 54 37 54 54 37 54 54 37 54 54 37 54 54 37 54 54 37 54 54 37 54 54 37 54 54 36 54 54 36 54 54 36 54 54 36 53 53 36 53 53 36 53 53 36 53 53 36 53 53 36 53 53 36 53 53 36 53 53 36 53 53 36 53 53 36 53 53 36 53 53 36 52 52 36 52 52 36 52 52 36 52 52 36 52 52 36 52 52 36 52 52 36 52 52 36 52 52 36 52 52 36 52 52 36 52 52 36 52 52 36 51 51 36 51 51 36 51 51 35 51 51 35 51 51 35 51 51 35 51 51 35 51 51 93 101 154 158 162 255 165 169 255 191 183 255 179 180 255 172 171 251 171 169 244 157 157 228 153 153 219 149 149 212 146 146 204 141 141 196 137 137 187 132 132 178 127 127 170 122 122 161 116 116 151 111 111 142 105 105 133 99 99 123 93 93 114 87 87 104 80 80 95 74 74 85 67 67 75 61 61 65 42 42 44 39 39 39 25 25 25 25 25 25 25 25 25 25 25 25 25 25 25 25 25 25 25 25 25 25 25 25 25 25 25 25 25 25 
39 61 61 39 61 61 39 61 61 39 61 61 39 61 61 39 61 61 39 61 61 39 61 61 39 61 61 39 61 61 40 61 61 40 61 61 40 61 61 40 62 62 40 62 62 40 62 62 40 62 62 40 62 62 40 62 62 40 62 62 40 62 62 40 62 62 40 62 62 40 62 62 40 62 62 40 62 62 40 62 62 40 63 63 40 63 63 40 63 63 40 63 63 40 63 63 40 63 63 40 63 63 40 63 63 40 63 63 40 63 63 40 63 63 40 63 63 40 63 63 40 63 63 40 63 63 40 63 63 40 63 63 40 64 64 40 64 64 40 64 64 40 64 64 40 64 64 41 64 64 41 64 64 41 64 64 41 64 64 41 64 64 41 64 64 41 64 64 41 64 64 41 64 64 41 64 64 41 64 64 41 64 64 41 64 64 41 64 64 41 64 64 41 64 64 41 64 64 41 64 64 41 64 64 41 64 64 41 64 64 41 64 64 41 64 64 41 64 64 41 64 64 41 64 64 41 64 64 41 65 65 41 65 65 41 65 65 42 66 66 47 70 71 47 71 71 47 72 72 48 72 72 48 72 72 48 72 72 48 72 72 48 72 72 48 72 72 48 73 73 48 73 73 48 72 73 48 72 72 47 71 71 47 71 71 51 73 73 56 77 77 53 74 74 46 70 70 54 77 77 47 70 70 46 69 69 46 69 69 46 69 69 46 69 69 46 69 69 46 70 70 49 73 74 48 71 72 46 70 70 46 70 70 55 78 78 44 68 68 41 64 64 41 64 64 41 64 64 41 64 64 41 64 64 41 64 64 40 64 64 40 64 64 40 64 64 40 64 64 40 64 64 40 63 63 40 63 63 40 63 63 40 63 63 40 63 63 40 63 63 40 63 63 40 63 63 62 85 93 66 89 93 50 73 73 49 72 73 47 70 71 47 70 70 47 70 70 47 69 69 46 68 68 45 68 68 45 68 68 45 67 67 42 65 65 40 62 62 40 62 62 40 62 62 40 62 62 40 62 62 40 62 62 40 62 62 40 62 62 40 62 62 40 62 62 40 61 61 40 61 61 40 61 61 39 61 61 39 61 61 39 61 61 52 71 71 49 70 70 50 71 71 42 63 63 42 63 63 42 63 63 33 37 37 33 37 37 33 36 36 32 36 36 32 36 36 32 35 35 32 35 35 32 35 35 32 34 34 32 34 34 31 34 34 31 33 33 31 33 33 31 33 33 31 33 33 31 33 33 31 33 33 31 33 33 31 33 33 31 33 33 31 33 33 31 33 33 31 33 33 31 33 33 33 35 37 41 42 53 38 40 47 32 34 34 34 33 34 51 43 43 62 48 48 35 47 47 38 58 58 38 58 58 38 58 58 38 57 57 38 57 57 38 57 57 38 57 57 38 57 57 38 57 57 38 57 57 38 57 57 38 57 57 38 57 57 38 57 57 38 57 57 38 56 56 38 56 56 37 56 56 37 56 56 37 56 56 37 56 56 37 56 56 37 56 56 37 56 56 37 56 56 37 56 56 37 55 55 37 55 55 37 55 55 37 55 55 37 55 55 37 55 55 37 55 55 37 55 55 37 55 55 37 55 55 37 55 55 37 55 55 37 54 54 37 54 54 37 54 54 37 54 54 37 54 54 37 54 54 37 54 54 37 54 54 36 54 54 36 54 54 36 54 54 36 53 53 36 53 53 36 53 53 36 53 53 36 53 53 36 53 53 36 53 53 36 53 53 36 53 53 36 53 53 36 53 53 36 53 53 36 53 53 36 52 52 36 52 52 36 52 52 36 52 52 36 52 52 36 52 52 36 52 52 36 52 52 36 52 52 36 52 52 36 52 52 36 52 52 36 51 51 36 51 51 36 51 51 35 51 51 35 51 51 35 51 51 35 51 51 35 51 51 84 94 148 147 150 255 168 173 255 195 189 255 182 186 255 181 172 253 166 166 243 158 158 230 152 152 219 149 149 211 145 145 204 141 141 196 137 137 187 132 132 178 127 127 170 122 122 161 116 116 151 111 111 142 105 105 133 99 99 123 93 93 114 87 87 104 80 80 94 74 74 85 67 67 75 60 60 65 42 42 44 32 32 33 25 25 25 25 25 25 25 25 25 25 25 25 25 25 25 25 25 25 25 25 25 25 25 25 25 25 25 25 25 25 25 25 25 
39 60 60 39 60 60 39 61 61 39 61 61 39 61 61 39 61 61 39 61 61 39 61 61 39 61 61 39 61 61 39 61 61 40 61 61 40 61 61 40 61 61 40 61 61 40 62 62 40 62 62 40 62 62 40 62 62 40 62 62 40 62 62 40 62 62 40 62 62 40 62 62 40 62 62 40 62 62 40 62 62 40 62 62 40 62 62 40 63 63 40 63 63 40 63 63 40 63 63 40 63 63 40 63 63 40 63 63 40 63 63 40 63 63 40 63 63 40 63 63 40 63 63 40 63 63 40 63 63 40 63 63 40 63 63 40 63 63 40 63 63 40 63 63 40 64 64 40 64 64 40 64 64 40 64 64 40 64 64 40 64 64 41 64 64 41 64 64 41 64 64 41 64 64 41 64 64 41 64 64 41 64 64 41 64 64 41 64 64 41 64 64 41 64 64 41 64 64 41 64 64 41 64 64 41 64 64 41 64 64 41 64 64 41 64 64 41 64 64 41 64 64 41 64 64 41 64 64 41 64 64 42 66 66 42 66 66 43 67 67 46 69 69 46 70 70 47 72 72 47 72 72 47 72 72 48 72 72 48 72 72 48 72 72 48 72 72 48 72 72 48 73 73 48 73 73 48 72 72 47 71 71 47 71 71 50 72 72 55 75 75 52 73 73 47 70 70 61 83 83 78 95 95 44 68 68 46 69 69 46 69 69 46 69 69 46 69 69 46 69 69 47 70 70 57 80 81 46 70 71 43 66 66 42 65 65 41 64 64 41 64 64 40 64 64 40 64 64 40 64 64 40 64 64 40 64 64 40 64 64 40 63 63 40 63 63 40 63 63 40 63 63 40 63 63 40 63 63 40 63 63 40 63 63 40 63 63 40 63 63 40 63 63 40 63 63 40 63 63 61 84 91 66 88 92 57 79 80 51 73 74 48 70 70 47 70 70 47 70 70 46 68 68 45 67 67 44 66 66 42 65 65 41 63 63 40 62 62 40 62 62 40 62 62 40 62 62 40 62 62 40 62 62 40 62 62 40 62 62 40 61 61 40 61 61 40 61 61 39 61 61 39 61 61 39 61 61 39 61 61 39 61 61 39 61 61 39 61 61 39 61 61 39 61 61 39 61 61 39 60 60 69 81 81 33 37 37 33 36 36 33 36 36 32 36 36 32 35 35 32 35 35 32 35 35 32 35 35 32 34 34 32 34 34 32 34 34 32 34 34 31 34 34 31 33 33 31 33 33 31 33 33 31 33 33 31 33 33 31 33 33 31 33 33 31 33 33 31 34 34 32 34 34 32 34 34 32 34 34 34 36 37 33 36 36 34 33 33 53 38 38 38 41 41 37 52 52 38 58 58 38 58 58 38 57 57 38 57 57 38 57 57 38 57 57 38 57 57 38 57 57 38 57 57 38 57 57 38 57 57 38 57 57 38 57 57 38 57 57 38 56 56 38 56 56 38 56 56 37 56 56 37 56 56 37 56 56 37 56 56 37 56 56 37 56 56 37 56 56 37 56 56 37 55 55 37 55 55 37 55 55 37 55 55 37 55 55 37 55 55 37 55 55 37 55 55 37 55 55 37 55 55 37 55 55 37 55 55 37 54 54 37 54 54 37 54 54 37 54 54 37 54 54 37 54 54 37 54 54 37 54 54 37 54 54 36 54 54 36 54 54 36 54 54 36 53 53 36 53 53 36 53 53 36 53 53 36 53 53 36 53 53 36 53 53 36 53 53 36 53 53 36 53 53 36 53 53 36 53 53 36 52 52 36 52 52 36 52 52 36 52 52 36 52 52 36 52 52 36 52 52 36 52 52 36 52 52 36 52 52 36 52 52 36 52 52 36 52 52 36 51 51 36 51 51 36 51 51 35 51 51 35 51 51 35 51 51 35 51 51 35 51 51 89 99 150 166 169 255 162 170 255 187 182 255 166 170 251 164 165 242 162 162 234 155 155 222 148 148 211 145 145 203 141 141 195 137 137 187 132 132 179 127 127 170 122 122 161 117 117 152 111 111 142 105 105 133 99 99 123 93 93 114 87 87 104 80 80 94 74 74 84 67 67 74 60 60 64 42 42 43 32 32 32 25 25 25 25 25 25 25 25 25 25 25 25 25 25 25 25 25 25 25 25 25 25 25 25 25 25 25 25 25 25 25 25 25 25 25 25 
39 60 60 39 60 60 39 60 60 39 61 61 39 61 61 39 61 61 39 61 61 39 61 61 39 61 61 39 61 61 39 61 61 39 61 61 39 61 61 40 61 61 40 61 61 40 61 61 40 62 62 40 62 62 40 62 62 40 62 62 40 62 62 40 62 62 40 62 62 40 62 62 40 62 62 40 62 62 40 62 62 40 62 62 40 62 62 40 62 62 40 62 62 40 62 62 40 63 63 40 63 63 40 63 63 40 63 63 40 63 63 40 63 63 40 63 63 40 63 63 40 63 63 40 63 63 40 63 63 40 63 63 40 63 63 40 63 63 40 63 63 40 63 63 40 63 63 40 63 63 40 63 63 40 63 63 40 64 64 40 64 64 40 64 64 40 64 64 40 64 64 40 64 64 40 64 64 41 64 64 41 64 64 41 64 64 41 64 64 41 64 64 41 64 64 41 64 64 41 64 64 41 64 64 41 64 64 41 64 64 41 64 64 41 64 64 41 64 64 41 64 64 41 64 64 42 65 65 45 68 69 44 68 69 46 69 69 47 70 70 46 69 69 46 70 70 47 71 71 47 72 72 47 72 72 47 72 72 47 72 72 47 72 72 47 72 72 47 72 72 47 72 72 48 72 73 48 72 72 48 72 72 47 71 71 47 70 70 56 75 75 46 69 69 46 69 69 64 85 85 91 104 104 42 65 65 42 65 65 43 66 66 54 77 77 53 77 77 43 66 66 43 66 66 43 66 66 42 65 65 40 64 64 40 64 64 40 64 64 40 64 64 40 64 64 40 63 63 40 63 63 40 63 63 40 63 63 40 63 63 40 63 63 40 63 63 40 63 63 40 63 63 40 63 63 40 63 63 40 63 63 40 63 63 40 63 63 40 63 63 40 63 63 40 63 63 40 63 63 40 63 63 47 69 71 59 81 84 56 79 80 53 75 77 51 73 74 45 67 67 44 67 67 42 65 65 42 65 65 40 62 62 40 62 62 40 62 62 40 62 62 40 62 62 40 62 62 40 62 62 40 62 62 40 61 61 40 61 61 40 61 61 39 61 61 39 61 61 39 61 61 39 61 61 39 61 61 39 61 61 39 61 61 39 61 61 39 61 61 39 61 61 39 60 60 39 60 60 39 60 60 70 82 82 62 70 70 33 37 37 33 36 36 32 36 36 32 36 36 32 35 35 32 35 35 32 35 35 32 35 35 32 35 35 32 34 34 32 34 34 32 34 34 32 34 34 32 34 34 32 34 34 32 34 34 32 34 34 32 34 34 32 34 34 32 34 34 32 34 34 32 34 34 33 35 36 33 35 37 36 35 35 36 35 35 42 35 35 48 39 40 51 51 51 38 58 58 38 58 58 38 57 57 38 57 57 38 57 57 38 57 57 38 57 57 38 57 57 38 57 57 38 57 57 38 57 57 38 57 57 38 57 57 38 57 57 38 56 56 38 56 56 38 56 56 37 56 56 37 56 56 37 56 56 37 56 56 37 56 56 37 56 56 37 56 56 37 56 56 37 55 55 37 55 55 37 55 55 37 55 55 37 55 55 37 55 55 37 55 55 37 55 55 37 55 55 37 55 55 37 55 55 37 55 55 37 54 54 37 54 54 37 54 54 37 54 54 37 54 54 37 54 54 37 54 54 37 54 54 37 54 54 36 54 54 36 54 54 36 54 54 36 53 53 36 53 53 36 53 53 36 53 53 36 53 53 36 53 53 36 53 53 36 53 53 36 53 53 36 53 53 36 53 53 36 53 53 36 53 53 36 52 52 36 52 52 36 52 52 36 52 52 36 52 52 36 52 52 36 52 52 36 52 52 36 52 52 36 52 52 36 52 52 36 52 52 36 51 51 36 51 51 36 51 51 36 51 51 35 51 51 35 51 51 35 51 51 35 51 51 35 51 51 113 121 196 153 157 251 163 171 255 162 166 248 204 189 255 167 164 236 158 159 226 155 155 218 144 144 203 141 141 195 136 136 187 132 132 179 127 127 170 122 122 161 117 117 152 111 111 142 105 105 133 99 99 123 93 93 114 87 87 104 80 80 94 73 73 84 67 67 74 60 60 64 42 42 43 32 32 32 25 25 25 25 25 25 25 25 25 25 25 25 25 25 25 25 25 25 25 25 25 25 25 25 25 25 25 25 25 25 25 25 25 25 25 25 25 25 25 
39 60 60 39 60 60 39 60 60 39 60 60 39 61 61 39 61 61 39 61 61 39 61 61 39 61 61 39 61 61 39 61 61 39 61 61 39 61 61 39 61 61 40 61 61 40 61 61 40 61 61 40 61 61 40 62 62 40 62 62 40 62 62 40 62 62 40 62 62 40 62 62 40 62 62 40 62 62 40 62 62 40 62 62 40 62 62 40 62 62 40 62 62 40 62 62 40 62 62 40 62 62 40 63 63 40 63 63 40 63 63 40 63 63 40 63 63 40 63 63 40 63 63 40 63 63 40 63 63 40 63 63 40 63 63 40 63 63 40 63 63 40 63 63 40 63 63 40 63 63 40 63 63 40 63 63 40 63 63 40 63 63 40 63 63 40 63 63 40 63 63 40 64 64 40 64 64 40 64 64 40 64 64 40 64 64 40 64 64 40 64 64 40 64 64 40 64 64 41 64 64 41 64 64 41 64 64 41 64 64 41 64 64 41 64 64 41 64 64 41 64 64 42 66 66 44 67 67 49 71 72 52 75 76 47 72 72 48 71 71 46 69 69 46 69 69 47 71 71 47 71 71 47 71 71 47 71 71 47 71 71 47 72 72 47 71 71 47 71 71 47 71 71 48 72 72 48 72 72 49 73 75 48 71 73 46 69 69 53 73 73 46 69 69 46 69 69 81 100 100 97 105 105 40 64 64 40 64 64 40 64 64 40 64 64 51 74 74 51 74 74 40 64 64 40 64 64 40 64 64 40 63 63 40 63 63 40 63 63 40 63 63 40 63 63 40 63 63 40 63 63 40 63 63 40 63 63 40 63 63 40 63 63 40 63 63 40 63 63 40 63 63 40 63 63 40 63 63 40 63 63 40 63 63 40 63 63 40 63 63 40 63 63 40 63 63 40 62 62 40 62 62 40 62 62 40 62 62 46 68 69 47 69 70 47 69 70 48 70 70 41 63 63 41 63 63 40 62 62 40 62 62 40 62 62 40 62 62 40 62 62 40 62 62 40 61 61 40 61 61 40 61 61 40 61 61 39 61 61 39 61 61 39 61 61 39 61 61 39 61 61 39 61 61 39 61 61 39 61 61 39 61 61 39 61 61 39 60 60 39 60 60 39 60 60 39 60 60 39 60 60 70 82 82 93 103 103 46 53 53 33 37 37 33 36 36 32 36 36 32 36 36 32 35 35 32 35 35 32 35 35 32 35 35 32 35 35 32 35 35 32 34 34 32 34 34 32 34 34 32 34 34 32 34 34 32 34 34 32 34 34 32 34 34 32 34 34 32 34 34 32 34 34 32 33 33 35 36 38 35 32 32 44 36 36 62 46 47 53 54 54 38 58 58 38 58 58 38 57 57 38 57 57 38 57 57 38 57 57 38 57 57 38 57 57 38 57 57 38 57 57 38 57 57 38 57 57 38 57 57 38 57 57 38 56 56 38 56 56 38 56 56 37 56 56 37 56 56 37 56 56 37 56 56 37 56 56 37 56 56 37 56 56 37 56 56 37 55 55 37 55 55 37 55 55 37 55 55 37 55 55 37 55 55 37 55 55 37 55 55 37 55 55 37 55 55 37 55 55 37 55 55 37 54 54 37 54 54 37 54 54 37 54 54 37 54 54 37 54 54 37 54 54 37 54 54 37 54 54 36 54 54 36 54 54 36 54 54 36 54 54 36 53 53 36 53 53 36 53 53 36 53 53 36 53 53 36 53 53 36 53 53 36 53 53 36 53 53 36 53 53 36 53 53 36 53 53 36 52 52 36 52 52 36 52 52 36 52 52 36 52 52 36 52 52 36 52 52 36 52 52 36 52 52 36 52 52 36 52 52 36 52 52 36 52 52 36 51 51 36 51 51 36 51 51 35 51 51 35 51 51 35 51 51 35 51 51 35 51 51 57 69 95 140 143 240 154 154 244 173 178 255 159 160 238 190 185 255 166 163 232 155 156 220 151 152 211 140 140 195 136 136 187 131 131 178 127 127 170 122 122 161 116 116 152 111 111 142 105 105 133 99 99 123 93 93 114 87 87 104 80 80 94 73 73 84 67 67 74 60 60 63 41 41 43 32 32 32 25 25 25 25 25 25 25 25 25 25 25 25 25 25 25 25 25 25 25 25 25 25 25 25 25 25 25 25 25 25 25 25 25 25 25 25 25 25 25 25 25 25 
39 60 60 39 60 60 39 60 60 39 60 60 39 60 60 39 60 60 39 61 61 39 61 61 39 61 61 39 61 61 39 61 61 39 61 61 39 61 61 39 61 61 39 61 61 39 61 61 40 61 61 40 61 61 40 61 61 40 61 61 40 62 62 40 62 62 40 62 62 40 62 62 40 62 62 40 62 62 40 62 62 40 62 62 40 62 62 40 62 62 40 62 62 40 62 62 40 62 62 40 62 62 40 62 62 40 62 62 40 62 62 40 63 63 40 63 63 40 63 63 40 63 63 40 63 63 40 63 63 40 63 63 40 63 63 40 63 63 40 63 63 40 63 63 40 63 63 40 63 63 40 63 63 40 63 63 40 63 63 40 63 63 40 63 63 40 63 63 40 63 63 40 63 63 40 63 63 40 63 63 40 63 63 40 63 63 40 63 63 40 64 64 40 64 64 40 64 64 40 64 64 40 64 64 40 64 64 40 64 64 40 64 64 40 64 64 40 64 64 42 65 66 44 68 68 50 73 75 48 72 73 48 71 71 48 72 72 48 72 72 46 69 69 46 69 69 46 69 69 47 70 70 47 71 71 47 71 71 47 71 71 47 71 71 47 71 71 47 71 71 47 71 71 47 71 71 47 71 71 47 70 71 48 71 72 47 71 73 46 69 69 46 69 69 66 88 88 88 103 103 68 85 85 40 64 64 40 64 64 40 63 63 40 63 63 40 63 63 40 63 63 40 63 63 40 63 63 40 63 63 40 63 63 40 63 63 40 63 63 40 63 63 40 63 63 40 63 63 40 63 63 40 63 63 40 63 63 40 63 63 40 63 63 40 63 63 40 63 63 40 63 63 40 63 63 40 63 63 40 63 63 40 63 63 40 63 63 40 62 62 40 62 62 40 62 62 40 62 62 41 64 64 44 67 67 45 68 68 45 67 67 43 66 66 44 66 66 41 64 64 40 62 62 40 62 62 40 62 62 40 62 62 40 62 62 40 62 62 40 61 61 40 61 61 40 61 61 40 61 61 39 61 61 39 61 61 39 61 61 39 61 61 39 61 61 39 61 61 39 61 61 39 61 61 39 61 61 39 61 61 39 60 60 39 60 60 39 60 60 39 60 60 39 60 60 39 60 60 39 60 60 70 82 82 91 102 102 77 95 95 38 46 46 33 37 37 32 36 36 32 36 36 32 36 36 32 35 35 32 35 35 32 35 35 32 35 35 32 35 35 32 35 35 32 35 35 32 35 35 32 34 34 32 34 34 32 34 34 32 34 34 32 34 34 32 34 34 31 33 33 32 33 33 34 32 32 38 33 34 49 40 41 66 51 52 200 124 130 193 127 133 177 124 128 167 117 118 156 108 108 145 99 99 89 77 77 38 57 57 38 57 57 38 57 57 38 57 57 38 57 57 38 57 57 38 57 57 38 57 57 38 56 56 38 56 56 38 56 56 37 56 56 37 56 56 37 56 56 37 56 56 37 56 56 37 56 56 37 56 56 37 56 56 37 56 56 37 55 55 37 55 55 37 55 55 37 55 55 37 55 55 37 55 55 37 55 55 37 55 55 37 55 55 37 55 55 37 55 55 37 55 55 37 54 54 37 54 54 37 54 54 37 54 54 37 54 54 37 54 54 37 54 54 37 54 54 37 54 54 36 54 54 36 54 54 36 54 54 36 53 53 36 53 53 36 53 53 36 53 53 36 53 53 36 53 53 36 53 53 36 53 53 36 53 53 36 53 53 36 53 53 36 53 53 36 53 53 36 52 52 36 52 52 36 52 52 36 52 52 36 52 52 36 52 52 36 52 52 36 52 52 36 52 52 36 52 52 36 52 52 36 52 52 36 52 52 36 51 51 36 51 51 36 51 51 35 51 51 35 51 51 35 51 51 35 51 51 35 51 51 80 91 139 142 145 237 155 153 238 166 168 249 163 166 240 154 154 223 185 182 246 151 153 213 147 148 203 135 135 186 131 131 178 126 126 170 121 121 161 116 116 152 111 111 142 105 105 133 99 99 123 93 93 114 87 87 104 80 80 94 73 73 84 66 66 73 59 59 63 41 41 43 32 32 32 25 25 25 25 25 25 25 25 25 25 25 25 25 25 25 25 25 25 25 25 25 25 25 25 25 25 25 25 25 25 25 25 25 25 25 25 25 25 25 25 25 25 25 25 25 
39 60 60 39 60 60 39 60 60 39 60 60 39 60 60 39 60 60 39 60 60 39 61 61 39 61 61 39 61 61 39 61 61 39 61 61 39 61 61 39 61 61 39 61 61 39 61 61 39 61 61 39 61 61 40 61 61 40 61 61 40 61 61 40 61 61 40 62 62 40 62 62 40 62 62 40 62 62 40 62 62 40 62 62 40 62 62 40 62 62 40 62 62 40 62 62 40 62 62 40 62 62 40 62 62 40 62 62 40 62 62 40 62 62 40 62 62 40 62 62 40 63 63 40 63 63 40 63 63 40 63 63 40 63 63 40 63 63 40 63 63 40 63 63 40 63 63 40 63 63 40 63 63 40 63 63 40 63 63 40 63 63 40 63 63 40 63 63 40 63 63 40 63 63 40 63 63 40 63 63 40 63 63 40 63 63 40 63 63 40 63 63 40 63 63 40 63 63 40 63 63 40 63 63 40 63 63 40 63 63 40 63 63 40 63 63 40 63 63 43 66 66 48 72 74 47 71 71 47 71 71 48 72 72 47 72 72 47 72 72 46 69 69 46 69 69 46 69 69 46 69 69 46 70 70 47 70 70 47 70 70 47 70 70 47 70 70 47 70 70 47 70 70 46 70 70 49 72 74 50 73 76 51 72 72 48 71 72 50 71 71 46 69 69 69 88 89 95 105 105 72 85 85 40 63 63 40 63 63 40 63 63 40 63 63 40 63 63 40 63 63 40 63 63 40 63 63 40 63 63 40 63 63 40 63 63 40 63 63 40 63 63 40 63 63 40 63 63 40 63 63 40 63 63 40 63 63 40 63 63 40 63 63 40 63 63 40 63 63 40 63 63 40 63 63 40 62 62 40 62 62 40 62 62 40 62 62 40 62 62 40 62 62 46 68 69 43 65 65 45 67 67 50 72 74 50 72 73 49 71 71 48 70 70 47 69 69 45 67 67 43 65 65 41 63 63 40 62 62 40 61 61 40 61 61 40 61 61 40 61 61 39 61 61 39 61 61 39 61 61 39 61 61 39 61 61 39 61 61 39 61 61 39 61 61 39 61 61 39 61 61 39 61 61 39 60 60 39 60 60 39 60 60 39 60 60 39 60 60 39 60 60 39 60 60 39 60 60 39 60 60 70 81 81 95 104 104 82 97 97 44 65 65 36 44 44 33 37 37 32 36 36 32 36 36 32 36 36 32 35 35 32 35 35 32 35 35 32 35 35 32 35 35 32 35 35 32 35 35 32 35 35 32 35 35 32 35 35 32 34 34 31 33 33 32 32 32 33 32 32 35 31 31 43 36 36 55 43 43 133 90 90 204 133 133 255 172 172 255 196 197 255 194 199 255 186 188 255 171 171 255 160 160 201 134 135 189 124 126 132 98 100 78 72 72 38 57 57 38 57 57 38 57 57 38 57 57 38 56 56 38 56 56 38 56 56 37 56 56 37 56 56 37 56 56 37 56 56 37 56 56 37 56 56 37 56 56 37 56 56 37 56 56 37 55 55 37 55 55 37 55 55 37 55 55 37 55 55 37 55 55 37 55 55 37 55 55 37 55 55 37 55 55 37 55 55 37 55 55 37 54 54 37 54 54 37 54 54 37 54 54 37 54 54 37 54 54 37 54 54 37 54 54 37 54 54 36 54 54 36 54 54 36 54 54 36 53 53 36 53 53 36 53 53 36 53 53 36 53 53 36 53 53 36 53 53 36 53 53 36 53 53 36 53 53 36 53 53 36 53 53 36 53 53 36 52 52 36 52 52 36 52 52 36 52 52 36 52 52 36 52 52 36 52 52 36 52 52 36 52 52 36 52 52 36 52 52 36 52 52 36 52 52 36 51 51 36 51 51 36 51 51 36 51 51 35 51 51 35 51 51 35 51 51 35 51 51 35 51 51 82 92 138 142 148 236 148 150 232 159 158 233 164 163 239 149 149 215 149 152 212 147 150 206 142 144 196 138 138 186 126 126 169 121 121 161 116 116 152 111 111 143 105 105 133 99 99 124 93 93 114 87 87 104 80 80 94 73 73 84 66 66 73 59 59 63 41 41 43 32 32 32 25 25 25 25 25 25 25 25 25 25 25 25 25 25 25 25 25 25 25 25 25 25 25 25 25 25 25 25 25 25 25 25 25 25 25 25 25 25 25 25 25 25 25 25 25 25 25 25 
39 60 60 39 60 60 39 60 60 39 60 60 39 60 60 39 60 60 39 60 60 39 60 60 39 60 60 39 61 61 39 61 61 39 61 61 39 61 61 39 61 61 39 61 61 39 61 61 39 61 61 39 61 61 39 61 61 39 61 61 40 61 61 40 61 61 40 61 61 40 61 61 40 62 62 40 62 62 40 62 62 40 62 62 40 62 62 40 62 62 40 62 62 40 62 62 40 62 62 40 62 62 40 62 62 40 62 62 40 62 62 40 62 62 40 62 62 40 62 62 40 62 62 40 62 62 40 62 62 40 62 62 40 63 63 40 63 63 40 63 63 40 63 63 40 63 63 40 63 63 40 63 63 40 63 63 40 63 63 40 63 63 40 63 63 40 63 63 40 63 63 40 63 63 40 63 63 40 63 63 40 63 63 40 63 63 40 63 63 40 63 63 40 63 63 40 63 63 40 63 63 40 63 63 40 63 63 40 63 63 40 63 63 40 63 63 43 66 66 46 69 69 47 70 70 47 71 71 47 71 71 47 71 71 47 71 71 47 71 71 47 70 70 45 68 68 45 68 68 45 68 68 45 68 68 46 69 69 46 69 69 46 69 69 46 69 69 46 69 69 46 69 69 46 69 69 48 71 72 50 72 74 46 69 69 49 70 70 46 69 69 55 78 78 80 95 95 68 85 85 40 63 63 40 63 63 40 63 63 40 63 63 40 63 63 40 63 63 40 63 63 40 63 63 40 63 63 40 63 63 40 63 63 40 63 63 40 63 63 40 63 63 40 63 63 40 63 63 40 63 63 40 63 63 40 63 63 40 63 63 40 63 63 40 62 62 40 62 62 40 62 62 40 62 62 40 62 62 40 62 62 40 62 62 40 62 62 40 62 62 46 68 69 44 65 65 58 76 77 48 70 70 50 73 76 48 70 71 47 70 70 47 70 70 49 71 71 47 69 69 46 68 68 43 65 65 41 63 63 40 61 61 40 61 61 39 61 61 39 61 61 39 61 61 39 61 61 39 61 61 39 61 61 39 61 61 39 61 61 39 61 61 39 61 61 39 61 61 39 60 60 39 60 60 39 60 60 39 60 60 39 60 60 39 60 60 39 60 60 39 60 60 39 60 60 39 60 60 39 60 60 55 70 70 95 103 103 81 96 96 44 65 65 44 65 65 43 59 60 36 44 44 33 36 36 32 36 36 32 36 36 32 36 36 32 35 35 32 35 35 32 35 35 32 35 35 32 35 35 32 34 34 32 34 34 33 33 33 33 32 32 35 32 32 38 33 33 43 36 36 53 42 42 65 51 51 146 101 101 216 146 146 255 220 220 255 216 217 255 209 209 255 201 201 255 190 190 255 181 181 255 172 172 249 164 164 241 160 164 227 148 151 162 113 113 110 86 86 38 57 57 38 56 56 38 56 56 38 56 56 38 56 56 37 56 56 37 56 56 37 56 56 37 56 56 37 56 56 37 56 56 37 56 56 37 56 56 37 56 56 37 55 55 37 55 55 37 55 55 37 55 55 37 55 55 37 55 55 37 55 55 37 55 55 37 55 55 37 55 55 37 55 55 37 55 55 37 54 54 37 54 54 37 54 54 37 54 54 37 54 54 37 54 54 37 54 54 37 54 54 37 54 54 36 54 54 36 54 54 36 54 54 36 54 54 36 53 53 36 53 53 36 53 53 36 53 53 36 53 53 36 53 53 36 53 53 36 53 53 36 53 53 36 53 53 36 53 53 36 53 53 36 52 52 36 52 52 36 52 52 36 52 52 36 52 52 36 52 52 36 52 52 36 52 52 36 52 52 36 52 52 36 52 52 36 52 52 36 52 52 36 52 52 36 51 51 36 51 51 36 51 51 35 51 51 35 51 51 35 51 51 35 51 51 35 51 51 35 51 51 81 92 135 140 146 230 148 150 228 150 150 223 148 149 215 145 145 207 145 148 205 143 146 199 138 140 188 133 134 178 120 120 161 116 116 152 110 110 143 105 105 133 99 99 124 93 93 114 87 87 104 80 80 94 73 73 84 67 67 73 59 59 63 41 41 43 32 32 32 25 25 25 25 25 25 25 25 25 25 25 25 25 25 25 25 25 25 25 25 25 25 25 25 25 25 25 25 25 25 25 25 25 25 25 25 25 25 25 25 25 25 25 25 25 25 25 25 25 25 25 
39 60 60 39 60 60 39 60 60 39 60 60 39 60 60 39 60 60 39 60 60 39 60 60 39 60 60 39 60 60 39 61 61 39 61 61 39 61 61 39 61 61 39 61 61 39 61 61 39 61 61 39 61 61 39 61 61 39 61 61 39 61 61 39 61 61 40 61 61 40 61 61 40 61 61 40 61 61 40 61 61 40 62 62 40 62 62 40 62 62 40 62 62 40 62 62 40 62 62 40 62 62 40 62 62 40 62 62 40 62 62 40 62 62 40 62 62 40 62 62 40 62 62 40 62 62 40 62 62 40 62 62 40 62 62 40 62 62 40 62 62 40 62 62 40 63 63 40 63 63 40 63 63 40 63 63 40 63 63 40 63 63 40 63 63 40 63 63 40 63 63 40 63 63 40 63 63 40 63 63 40 63 63 40 63 63 40 63 63 40 63 63 40 63 63 40 63 63 40 63 63 40 63 63 40 63 63 40 63 63 40 63 63 40 63 63 43 66 66 46 69 69 47 70 70 47 71 71 47 71 71 47 71 71 47 71 71 47 71 71 47 71 71 46 69 69 45 68 68 45 68 68 45 68 68 45 68 68 45 68 68 45 68 68 45 68 68 45 68 68 45 68 68 46 68 68 48 71 72 49 72 73 49 71 71 47 70 71 47 70 70 69 85 85 65 83 83 55 73 73 40 63 63 40 63 63 40 63 63 40 63 63 40 63 63 40 63 63 40 63 63 40 63 63 40 63 63 40 63 63 40 63 63 40 63 63 40 63 63 40 63 63 40 63 63 40 63 63 40 62 62 40 62 62 40 62 62 40 62 62 40 62 62 40 62 62 40 62 62 40 62 62 40 62 62 40 62 62 40 62 62 40 62 62 40 62 62 40 62 62 43 65 65 53 75 77 50 72 73 49 71 73 49 71 73 49 72 73 47 71 71 47 71 71 47 70 70 47 70 70 47 69 69 46 68 68 45 66 66 39 61 61 39 61 61 39 61 61 39 61 61 39 61 61 39 61 61 39 61 61 39 61 61 39 61 61 39 61 61 39 61 61 39 60 60 39 60 60 39 60 60 39 60 60 39 60 60 39 60 60 39 60 60 39 60 60 39 60 60 39 60 60 39 60 60 39 60 60 39 60 60 39 60 60 97 103 103 86 100 100 66 86 86 47 67 68 47 68 69 42 59 59 38 50 50 38 44 44 32 36 36 32 36 36 32 36 36 32 36 36 32 35 35 35 35 35 36 34 34 37 35 35 38 34 34 41 35 35 44 36 36 50 40 40 57 45 45 67 52 52 146 102 102 221 151 151 255 196 196 255 232 232 255 225 225 255 220 220 255 211 211 255 203 203 255 190 190 255 180 180 247 171 171 234 162 162 220 152 152 208 143 143 201 139 141 191 132 136 136 100 100 65 68 68 38 56 56 37 56 56 37 56 56 37 56 56 37 56 56 37 56 56 37 56 56 37 56 56 37 56 56 37 56 56 37 56 56 37 55 55 37 55 55 37 55 55 37 55 55 37 55 55 37 55 55 37 55 55 37 55 55 37 55 55 37 55 55 37 55 55 37 55 55 37 54 54 37 54 54 37 54 54 37 54 54 37 54 54 37 54 54 37 54 54 37 54 54 37 54 54 37 54 54 36 54 54 36 54 54 36 54 54 36 53 53 36 53 53 36 53 53 36 53 53 36 53 53 36 53 53 36 53 53 36 53 53 36 53 53 36 53 53 36 53 53 36 53 53 36 53 53 36 52 52 36 52 52 36 52 52 36 52 52 36 52 52 36 52 52 36 52 52 36 52 52 36 52 52 36 52 52 36 52 52 36 52 52 36 52 52 36 51 51 36 51 51 36 51 51 36 51 51 35 51 51 35 51 51 35 51 51 35 51 51 35 51 51 35 51 51 80 90 132 137 143 222 143 147 221 169 162 231 146 145 207 142 142 200 140 143 197 138 143 192 133 136 181 128 129 170 123 123 160 110 110 143 105 105 133 99 99 124 93 93 114 87 87 104 80 80 94 74 74 84 67 67 74 59 59 63 41 41 43 32 32 32 25 25 25 25 25 25 25 25 25 25 25 25 25 25 25 25 25 25 25 25 25 25 25 25 25 25 25 25 25 25 25 25 25 25 25 25 25 25 25 25 25 25 25 25 25 25 25 25 25 25 25 25 25 25 
39 60 60 39 60 60 39 60 60 39 60 60 39 60 60 39 60 60 39 60 60 39 60 60 39 60 60 39 60 60 39 60 60 39 60 60 39 61 61 39 61 61 39 61 61 39 61 61 39 61 61 39 61 61 39 61 61 39 61 61 39 61 61 39 61 61 39 61 61 39 61 61 39 61 61 40 61 61 40 61 61 40 61 61 40 61 61 40 62 62 40 62 62 40 62 62 40 62 62 40 62 62 40 62 62 40 62 62 40 62 62 40 62 62 40 62 62 40 62 62 40 62 62 40 62 62 40 62 62 40 62 62 40 62 62 40 62 62 40 62 62 40 62 62 40 62 62 40 62 62 40 62 62 40 62 62 40 63 63 40 63 63 40 63 63 40 63 63 40 63 63 40 63 63 40 63 63 40 63 63 40 63 63 40 63 63 40 63 63 40 63 63 40 63 63 40 63 63 40 63 63 40 63 63 40 63 63 40 63 63 40 63 63 43 65 65 45 68 68 46 69 69 47 70 70 47 71 71 47 71 71 47 71 71 47 71 71 47 71 71 47 71 71 47 70 70 45 68 68 45 68 68 45 68 68 45 68 68 45 68 68 45 68 68 45 68 68 45 68 68 45 68 68 45 68 68 47 70 71 47 70 71 48 70 71 46 69 69 55 77 78 53 73 73 54 73 73 40 63 63 40 63 63 40 63 63 40 63 63 40 63 63 40 63 63 40 63 63 40 63 63 40 63 63 40 63 63 40 63 63 40 63 63 40 62 62 40 62 62 40 62 62 40 62 62 40 62 62 40 62 62 40 62 62 40 62 62 40 62 62 40 62 62 40 62 62 40 62 62 40 62 62 40 62 62 40 62 62 40 62 62 40 62 62 40 62 62 53 75 76 56 78 80 51 72 74 48 70 72 50 73 75 49 72 73 48 71 71 47 71 71 47 71 71 47 70 70 47 70 70 47 70 70 46 69 69 45 66 66 43 65 65 39 61 61 39 61 61 39 61 61 39 61 61 39 61 61 39 61 61 39 61 61 39 60 60 39 60 60 39 60 60 39 60 60 39 60 60 39 60 60 39 60 60 39 60 60 39 60 60 39 60 60 39 60 60 39 60 60 39 60 60 39 60 60 39 60 60 39 59 59 39 59 59 69 80 80 89 100 100 76 94 95 46 66 68 44 64 64 44 64 64 44 64 64 44 59 59 38 50 50 35 43 43 35 43 43 36 38 38 33 37 37 48 40 40 54 43 43 57 44 44 60 46 46 64 49 49 70 53 53 142 97 97 222 147 147 226 154 154 255 200 200 255 243 243 255 238 238 255 232 232 255 224 224 255 216 216 255 207 207 255 199 200 255 184 184 243 175 175 229 165 165 216 156 156 203 147 147 190 137 137 177 128 128 185 140 155 163 120 122 147 105 105 59 66 66 37 56 56 37 56 56 37 56 56 37 56 56 37 56 56 37 56 56 37 56 56 37 56 56 37 56 56 37 55 55 37 55 55 37 55 55 37 55 55 37 55 55 37 55 55 37 55 55 37 55 55 37 55 55 37 55 55 37 55 55 37 55 55 37 54 54 37 54 54 37 54 54 37 54 54 37 54 54 37 54 54 37 54 54 37 54 54 37 54 54 37 54 54 36 54 54 36 54 54 36 54 54 36 53 53 36 53 53 36 53 53 36 53 53 36 53 53 36 53 53 36 53 53 36 53 53 36 53 53 36 53 53 36 53 53 36 53 53 36 53 53 36 52 52 36 52 52 36 52 52 36 52 52 36 52 52 36 52 52 36 52 52 36 52 52 36 52 52 36 52 52 36 52 52 36 52 52 36 52 52 36 52 52 36 51 51 36 51 51 36 51 51 35 51 51 35 51 51 35 51 51 35 51 51 35 51 51 35 51 51 35 51 51 78 89 129 134 140 216 140 146 216 173 170 234 151 148 207 138 141 195 137 144 194 133 138 184 129 132 173 123 125 162 118 118 152 108 108 137 99 99 124 93 93 114 87 87 105 80 80 95 74 74 84 67 67 74 60 60 63 41 41 43 32 32 32 25 25 25 25 25 25 25 25 25 25 25 25 25 25 25 25 25 25 25 25 25 25 25 25 25 25 25 25 25 25 25 25 25 25 25 25 25 25 25 25 25 25 25 25 25 25 25 25 25 25 25 25 25 25 25 25 25 
39 60 60 39 60 60 39 60 60 39 60 60 39 60 60 39 60 60 39 60 60 39 60 60 39 60 60 39 60 60 39 60 60 39 60 60 39 60 60 39 60 60 39 61 61 39 61 61 39 61 61 39 61 61 39 61 61 39 61 61 39 61 61 39 61 61 39 61 61 39 61 61 39 61 61 39 61 61 39 61 61 40 61 61 40 61 61 40 61 61 40 61 61 40 61 61 40 62 62 40 62 62 40 62 62 40 62 62 40 62 62 40 62 62 40 62 62 40 62 62 40 62 62 40 62 62 40 62 62 40 62 62 40 62 62 40 62 62 40 62 62 40 62 62 40 62 62 40 62 62 40 62 62 40 62 62 40 62 62 40 62 62 40 62 62 40 62 62 40 62 62 40 62 62 40 63 63 40 63 63 40 63 63 40 63 63 40 63 63 40 63 63 40 63 63 40 63 63 40 63 63 40 63 63 40 63 63 40 63 63 40 63 63 43 65 65 45 68 68 46 69 69 47 70 70 47 70 70 47 70 70 47 70 70 47 70 70 47 71 71 47 71 71 47 69 69 46 69 69 45 68 68 45 68 68 45 68 68 45 68 68 45 68 68 45 68 68 45 68 68 45 68 68 45 68 68 45 68 68 46 69 69 46 69 69 55 77 78 52 74 74 40 63 63 40 63 63 40 63 63 40 63 63 40 63 63 40 63 63 40 63 63 40 63 63 40 62 62 40 62 62 40 62 62 40 62 62 40 62 62 40 62 62 40 62 62 40 62 62 40 62 62 40 62 62 40 62 62 40 62 62 40 62 62 40 62 62 40 62 62 40 62 62 40 62 62 40 62 62 40 62 62 40 62 62 40 62 62 40 62 62 40 62 62 40 62 62 58 78 81 56 74 76 50 71 75 48 71 73 48 71 71 48 72 72 52 72 72 48 72 72 51 72 72 51 72 72 47 70 70 47 69 69 46 69 69 45 67 67 44 66 66 39 61 61 39 61 61 39 61 61 39 61 61 39 61 61 39 60 60 39 60 60 39 60 60 39 60 60 39 60 60 39 60 60 39 60 60 39 60 60 39 60 60 39 60 60 39 60 60 39 60 60 39 60 60 39 60 60 39 60 60 39 59 59 39 59 59 39 59 59 39 59 59 39 59 59 79 89 89 81 95 95 57 77 77 44 64 64 44 64 64 44 64 64 50 68 68 45 65 65 41 57 57 41 57 57 41 52 52 42 53 53 52 52 52 54 54 54 55 55 55 206 120 120 226 145 146 230 152 155 255 195 198 255 199 199 255 244 244 255 243 243 255 238 238 255 231 231 255 224 224 255 216 217 255 207 207 255 201 201 255 189 189 238 177 177 222 165 165 208 156 156 195 146 146 181 137 137 169 128 128 157 120 120 152 119 123 152 121 127 131 102 103 122 97 97 53 64 64 37 56 56 37 56 56 37 56 56 37 56 56 37 56 56 37 56 56 37 56 56 37 55 55 37 55 55 37 55 55 37 55 55 37 55 55 37 55 55 37 55 55 37 55 55 37 55 55 37 55 55 37 55 55 37 55 55 37 54 54 37 54 54 37 54 54 37 54 54 37 54 54 37 54 54 37 54 54 37 54 54 37 54 54 37 54 54 36 54 54 36 54 54 36 54 54 36 53 53 36 53 53 36 53 53 36 53 53 36 53 53 36 53 53 36 53 53 36 53 53 36 53 53 36 53 53 36 53 53 36 53 53 36 53 53 36 53 53 36 52 52 36 52 52 36 52 52 36 52 52 36 52 52 36 52 52 36 52 52 36 52 52 36 52 52 36 52 52 36 52 52 36 52 52 36 52 52 36 51 51 36 51 51 36 51 51 36 51 51 35 51 51 35 51 51 35 51 51 35 51 51 35 51 51 35 51 51 35 51 51 76 86 124 130 135 208 136 142 208 169 163 224 186 172 228 135 140 191 132 139 185 128 134 176 124 128 166 118 121 155 112 114 144 106 107 133 95 95 117 87 87 105 80 80 95 74 74 85 67 67 74 60 60 64 41 41 43 32 32 32 25 25 25 25 25 25 25 25 25 25 25 25 25 25 25 25 25 25 25 25 25 25 25 25 25 25 25 25 25 25 25 25 25 25 25 25 25 25 25 25 25 25 25 25 25 25 25 25 25 25 25 25 25 25 25 25 25 25 25 25 
39 60 60 39 60 60 39 60 60 39 60 60 39 60 60 39 60 60 39 60 60 39 60 60 39 60 60 39 60 60 39 60 60 39 60 60 39 60 60 39 60 60 39 60 60 39 60 60 39 61 61 39 61 61 39 61 61 39 61 61 39 61 61 39 61 61 39 61 61 39 61 61 39 61 61 39 61 61 39 61 61 39 61 61 39 61 61 39 61 61 40 61 61 40 61 61 40 61 61 40 61 61 40 61 61 40 62 62 40 62 62 40 62 62 40 62 62 40 62 62 40 62 62 40 62 62 40 62 62 40 62 62 40 62 62 40 62 62 40 62 62 40 62 62 40 62 62 40 62 62 40 62 62 40 62 62 40 62 62 40 62 62 40 62 62 40 62 62 40 62 62 40 62 62 40 62 62 40 62 62 40 62 62 40 62 62 40 62 62 40 62 62 40 62 62 40 62 62 40 62 62 40 63 63 40 63 63 40 63 63 40 63 63 43 65 65 45 68 68 46 69 69 47 70 70 47 70 70 47 70 70 47 70 70 47 70 70 47 70 70 47 70 70 47 70 70 47 69 69 47 69 69 46 68 68 45 68 68 45 68 68 45 68 68 45 68 68 45 68 68 45 68 68 45 68 68 45 68 68 57 77 77 43 65 65 41 64 64 40 62 62 40 62 62 40 62 62 40 62 62 40 62 62 40 62 62 40 62 62 40 62 62 40 62 62 40 62 62 40 62 62 40 62 62 40 62 62 40 62 62 40 62 62 40 62 62 40 62 62 40 62 62 40 62 62 40 62 62 40 62 62 40 62 62 40 62 62 40 62 62 40 62 62 40 62 62 40 62 62 40 62 62 40 62 62 40 62 62 40 62 62 40 61 61 47 69 70 60 81 83 47 69 70 48 71 72 47 70 70 47 70 70 53 72 72 52 73 73 49 71 71 54 72 72 53 72 72 53 71 71 48 69 69 46 69 69 45 67 67 44 66 66 42 63 63 39 61 61 39 60 60 39 60 60 39 60 60 39 60 60 39 60 60 39 60 60 39 60 60 39 60 60 39 60 60 39 60 60 39 60 60 39 60 60 39 60 60 39 60 60 39 60 60 39 60 60 39 59 59 39 59 59 39 59 59 39 59 59 39 59 59 39 59 59 39 59 59 39 59 59 74 87 87 75 92 92 44 64 64 44 64 64 44 64 64 50 68 68 46 66 66 45 65 65 45 64 64 44 64 64 44 64 64 43 63 63 41 61 61 180 117 117 255 166 168 255 228 234 255 235 235 255 234 234 255 240 240 255 239 239 255 234 234 255 228 228 255 221 221 255 212 212 255 205 206 255 195 195 249 186 186 232 176 176 215 164 164 198 152 152 184 143 143 171 134 134 158 125 125 145 116 116 134 108 108 136 114 125 137 118 129 113 97 98 105 89 89 97 86 86 48 61 61 37 56 56 37 56 56 37 56 56 37 56 56 37 56 56 37 55 55 37 55 55 37 55 55 37 55 55 37 55 55 37 55 55 37 55 55 37 55 55 37 55 55 37 55 55 37 55 55 37 55 55 37 55 55 37 54 54 37 54 54 37 54 54 37 54 54 37 54 54 37 54 54 37 54 54 37 54 54 37 54 54 36 54 54 36 54 54 36 54 54 36 54 54 36 53 53 36 53 53 36 53 53 36 53 53 36 53 53 36 53 53 36 53 53 36 53 53 36 53 53 36 53 53 36 53 53 36 53 53 36 53 53 36 52 52 36 52 52 36 52 52 36 52 52 36 52 52 36 52 52 36 52 52 36 52 52 36 52 52 36 52 52 36 52 52 36 52 52 36 52 52 36 52 52 36 51 51 36 51 51 36 51 51 35 51 51 35 51 51 35 51 51 35 51 51 35 51 51 35 51 51 35 51 51 35 51 51 73 83 119 126 132 200 134 140 203 128 128 186 139 138 190 130 136 184 127 133 176 123 129 167 118 123 158 113 117 147 107 110 136 101 102 125 95 95 114 82 82 97 74 74 85 67 67 75 60 60 64 42 42 43 32 32 32 25 25 25 25 25 25 25 25 25 25 25 25 25 25 25 25 25 25 25 25 25 25 25 25 25 25 25 25 25 25 25 25 25 25 25 25 25 25 25 25 25 25 25 25 25 25 25 25 25 25 25 25 25 25 25 25 25 25 25 25 25 25 25 
39 59 59 39 59 59 39 60 60 39 60 60 39 60 60 39 60 60 39 60 60 39 60 60 39 60 60 39 60 60 39 60 60 39 60 60 39 60 60 39 60 60 39 60 60 39 60 60 39 60 60 39 60 60 39 61 61 39 61 61 39 61 61 39 61 61 39 61 61 39 61 61 39 61 61 39 61 61 39 61 61 39 61 61 39 61 61 39 61 61 39 61 61 39 61 61 39 61 61 40 61 61 40 61 61 40 61 61 40 61 61 40 61 61 40 62 62 40 62 62 40 62 62 40 62 62 40 62 62 40 62 62 40 62 62 40 62 62 40 62 62 40 62 62 40 62 62 40 62 62 40 62 62 40 62 62 40 62 62 40 62 62 40 62 62 40 62 62 40 62 62 40 62 62 40 62 62 40 62 62 40 62 62 40 62 62 40 62 62 40 62 62 40 62 62 40 62 62 40 62 62 40 62 62 40 62 62 40 62 62 40 62 62 43 65 65 45 67 67 45 67 67 46 69 69 46 70 70 47 70 70 47 70 70 47 70 70 47 70 70 47 70 70 47 70 70 47 70 70 47 70 70 47 70 71 46 68 68 45 68 68 45 68 68 45 68 68 47 70 70 47 69 70 45 67 67 61 83 83 70 87 87 41 64 64 40 62 62 40 62 62 40 62 62 40 62 62 40 62 62 40 62 62 40 62 62 40 62 62 40 62 62 40 62 62 40 62 62 40 62 62 40 62 62 40 62 62 40 62 62 40 62 62 40 62 62 40 62 62 40 62 62 40 62 62 40 62 62 40 62 62 40 62 62 40 62 62 40 62 62 40 62 62 40 62 62 40 62 62 40 61 61 40 61 61 40 61 61 40 61 61 40 61 61 54 75 78 55 77 78 47 69 69 48 69 69 47 69 69 50 70 70 55 72 72 47 70 70 50 71 71 50 70 70 48 70 70 55 72 72 54 71 71 46 68 68 45 67 67 44 66 66 42 63 63 39 60 60 39 60 60 39 60 60 39 60 60 39 60 60 39 60 60 39 60 60 39 60 60 39 60 60 39 60 60 39 60 60 39 60 60 39 60 60 39 60 60 39 60 60 39 59 59 39 59 59 39 59 59 39 59 59 39 59 59 39 59 59 39 59 59 39 59 59 39 59 59 39 59 59 39 59 59 71 85 85 66 83 83 49 70 70 49 67 67 47 66 66 46 65 65 45 65 65 45 65 65 45 65 65 44 64 64 43 63 63 105 85 85 252 149 149 255 209 213 255 222 223 255 234 239 255 232 232 255 232 232 255 229 229 255 223 223 255 216 216 255 208 208 255 200 200 253 193 195 237 182 182 222 171 171 209 163 164 190 149 149 173 137 137 159 128 128 146 119 119 133 110 110 120 102 102 109 94 94 103 92 94 94 85 90 78 72 72 59 55 55 59 57 57 58 58 58 36 51 51 37 56 56 37 56 56 37 56 56 37 55 55 37 55 55 37 55 55 37 55 55 37 55 55 37 55 55 37 55 55 37 55 55 37 55 55 37 55 55 37 55 55 37 55 55 37 55 55 37 54 54 37 54 54 37 54 54 37 54 54 37 54 54 37 54 54 37 54 54 37 54 54 37 54 54 37 54 54 36 54 54 36 54 54 36 54 54 36 53 53 36 53 53 36 53 53 36 53 53 36 53 53 36 53 53 36 53 53 36 53 53 36 53 53 36 53 53 36 53 53 36 53 53 36 53 53 36 52 52 36 52 52 36 52 52 36 52 52 36 52 52 36 52 52 36 52 52 36 52 52 36 52 52 36 52 52 36 52 52 36 52 52 36 52 52 36 52 52 36 51 51 36 51 51 36 51 51 36 51 51 35 51 51 35 51 51 35 51 51 35 51 51 35 51 51 35 51 51 35 51 51 35 51 51 52 65 83 120 126 192 127 133 193 124 124 178 123 123 172 125 131 175 122 128 167 118 123 159 113 118 149 108 112 139 102 105 128 96 98 117 89 90 106 82 83 94 70 70 78 61 61 65 42 42 44 32 32 32 25 25 25 25 25 25 25 25 25 25 25 25 25 25 25 25 25 25 25 25 25 25 25 25 25 25 25 25 25 25 25 25 25 25 25 25 25 25 25 25 25 25 25 25 25 25 25 25 25 25 25 25 25 25 25 25 25 25 25 25 25 25 25 25 25 25 
39 59 59 39 59 59 39 59 59 39 60 60 39 60 60 39 60 60 39 60 60 39 60 60 39 60 60 39 60 60 39 60 60 39 60 60 39 60 60 39 60 60 39 60 60 39 60 60 39 60 60 39 60 60 39 60 60 39 60 60 39 61 61 39 61 61 39 61 61 39 61 61 39 61 61 39 61 61 39 61 61 39 61 61 39 61 61 39 61 61 39 61 61 39 61 61 39 61 61 39 61 61 39 61 61 39 61 61 40 61 61 40 61 61 40 61 61 40 61 61 40 61 61 40 61 61 40 62 62 40 62 62 40 62 62 40 62 62 40 62 62 40 62 62 40 62 62 40 62 62 40 62 62 40 62 62 40 62 62 40 62 62 40 62 62 40 62 62 40 62 62 40 62 62 40 62 62 40 62 62 40 62 62 40 62 62 40 62 62 40 62 62 40 62 62 40 62 62 40 62 62 40 62 62 40 62 62 40 62 62 40 62 62 42 65 65 45 67 67 45 67 67 46 68 68 46 69 69 46 69 69 46 69 69 46 69 69 46 69 69 46 69 69 46 69 69 46 69 69 47 69 70 48 71 73 49 70 71 47 69 70 49 69 69 46 69 69 67 87 87 48 70 71 45 67 67 71 92 92 77 93 93 40 62 62 40 62 62 40 62 62 40 62 62 40 62 62 40 62 62 40 62 62 40 62 62 40 62 62 40 62 62 40 62 62 40 62 62 40 62 62 40 62 62 40 62 62 40 62 62 40 62 62 40 62 62 40 62 62 40 62 62 40 62 62 40 62 62 40 62 62 40 62 62 40 62 62 40 61 61 40 61 61 40 61 61 40 61 61 40 61 61 40 61 61 39 61 61 39 61 61 39 61 61 53 75 78 54 76 77 53 72 72 52 71 71 55 72 73 54 72 72 47 70 70 47 70 70 47 70 71 49 71 73 50 72 73 48 70 71 64 76 76 46 67 67 45 66 66 44 65 65 42 63 63 39 60 60 39 60 60 39 60 60 39 60 60 39 60 60 39 60 60 39 60 60 39 60 60 39 60 60 39 60 60 39 60 60 39 60 60 39 60 60 39 59 59 39 59 59 39 59 59 39 59 59 39 59 59 39 59 59 39 59 59 39 59 59 39 59 59 39 59 59 39 59 59 38 59 59 38 59 59 38 59 59 48 67 67 48 67 67 49 66 66 49 67 67 58 74 74 55 73 73 51 70 70 45 64 64 49 69 69 42 62 62 178 121 121 255 199 201 255 213 213 255 222 222 255 226 226 255 225 225 255 222 222 255 217 217 255 210 210 255 203 203 255 194 194 241 185 185 226 176 177 213 167 169 198 157 159 178 143 143 161 130 130 146 121 121 132 111 111 119 102 102 106 94 94 94 85 85 74 68 68 72 69 79 67 66 72 52 47 48 38 38 38 28 28 28 32 34 34 32 36 36 37 56 56 37 55 55 37 55 55 37 55 55 37 55 55 37 55 55 37 55 55 37 55 55 37 55 55 37 55 55 37 55 55 37 55 55 37 55 55 37 55 55 37 55 55 37 54 54 37 54 54 37 54 54 37 54 54 37 54 54 37 54 54 37 54 54 37 54 54 37 54 54 37 54 54 36 54 54 36 54 54 36 54 54 36 53 53 36 53 53 36 53 53 36 53 53 36 53 53 36 53 53 36 53 53 36 53 53 36 53 53 36 53 53 36 53 53 36 53 53 36 53 53 36 53 53 36 52 52 36 52 52 36 52 52 36 52 52 36 52 52 36 52 52 36 52 52 36 52 52 36 52 52 36 52 52 36 52 52 36 52 52 36 52 52 36 52 52 36 51 51 36 51 51 36 51 51 35 51 51 35 51 51 35 51 51 35 51 51 35 51 51 35 51 51 35 51 51 35 51 51 35 51 51 35 51 51 116 121 183 167 152 208 123 121 172 118 118 164 119 123 164 116 122 158 112 118 150 108 113 141 102 107 131 96 100 120 90 93 109 83 86 98 76 78 86 69 70 75 44 44 46 32 32 32 25 25 25 25 25 25 25 25 25 25 25 25 25 25 25 25 25 25 25 25 25 25 25 25 25 25 25 25 25 25 25 25 25 25 25 25 25 25 25 25 25 25 25 25 25 25 25 25 25 25 25 25 25 25 25 25 25 25 25 25 25 25 25 25 25 25 25 25 25 
39 59 59 39 59 59 39 59 59 39 59 59 39 59 59 39 60 60 39 60 60 39 60 60 39 60 60 39 60 60 39 60 60 39 60 60 39 60 60 39 60 60 39 60 60 39 60 60 39 60 60 39 60 60 39 60 60 39 60 60 39 60 60 39 60 60 39 60 60 39 61 61 39 61 61 39 61 61 39 61 61 39 61 61 39 61 61 39 61 61 39 61 61 39 61 61 39 61 61 39 61 61 39 61 61 39 61 61 39 61 61 39 61 61 39 61 61 40 61 61 40 61 61 40 61 61 40 61 61 40 61 61 40 61 61 40 61 61 40 62 62 40 62 62 40 62 62 40 62 62 40 62 62 40 62 62 40 62 62 40 62 62 40 62 62 40 62 62 40 62 62 40 62 62 40 62 62 40 62 62 40 62 62 40 62 62 40 62 62 40 62 62 40 62 62 40 62 62 40 62 62 40 62 62 40 62 62 40 62 62 40 62 62 42 65 65 45 67 67 45 67 67 45 67 67 45 68 68 46 68 68 46 69 69 46 69 69 46 69 69 46 69 69 46 68 68 46 68 68 46 69 69 50 72 75 54 73 73 46 68 68 46 68 68 46 68 68 57 76 76 45 68 68 45 67 67 65 84 84 65 83 83 40 62 62 40 62 62 40 62 62 40 62 62 40 62 62 40 62 62 40 62 62 40 62 62 40 62 62 40 62 62 40 62 62 40 62 62 40 62 62 40 62 62 40 62 62 40 62 62 40 62 62 40 62 62 40 62 62 40 62 62 40 61 61 40 61 61 40 61 61 40 61 61 40 61 61 40 61 61 40 61 61 39 61 61 39 61 61 39 61 61 39 61 61 39 61 61 39 61 61 39 61 61 53 75 79 54 76 76 47 68 68 51 70 70 49 69 69 46 69 69 47 69 69 48 70 72 47 69 71 50 71 73 52 71 74 47 68 69 53 69 69 47 67 67 44 65 65 44 65 65 42 63 63 39 60 60 39 60 60 39 60 60 39 60 60 39 60 60 39 60 60 39 60 60 39 60 60 39 60 60 39 60 60 39 59 59 39 59 59 39 59 59 39 59 59 39 59 59 39 59 59 39 59 59 39 59 59 39 59 59 39 59 59 39 59 59 39 59 59 38 59 59 38 59 59 38 59 59 38 59 59 45 65 66 40 60 60 38 58 58 46 66 66 55 71 71 65 80 81 69 86 86 53 72 72 50 70 70 44 64 64 164 108 108 255 175 175 255 201 201 255 213 213 255 221 222 255 218 218 255 215 215 255 211 211 255 204 204 255 197 197 245 188 188 230 178 178 215 168 168 199 158 158 184 148 148 166 136 136 150 124 124 134 113 113 119 103 103 105 94 94 81 74 74 60 56 56 54 52 52 38 38 38 41 41 49 40 40 46 28 28 28 25 25 25 25 25 25 31 32 32 32 35 35 35 46 46 37 55 55 37 55 55 37 55 55 37 55 55 37 55 55 37 55 55 37 55 55 37 55 55 37 55 55 37 55 55 37 55 55 37 55 55 37 55 55 37 54 54 37 54 54 37 54 54 37 54 54 37 54 54 37 54 54 37 54 54 37 54 54 37 54 54 37 54 54 36 54 54 36 54 54 36 54 54 36 53 53 36 53 53 36 53 53 36 53 53 36 53 53 36 53 53 36 53 53 36 53 53 36 53 53 36 53 53 36 53 53 36 53 53 36 53 53 36 53 53 36 52 52 36 52 52 36 52 52 36 52 52 36 52 52 36 52 52 36 52 52 36 52 52 36 52 52 36 52 52 36 52 52 36 52 52 36 52 52 36 52 52 36 51 51 36 51 51 36 51 51 36 51 51 35 51 51 35 51 51 35 51 51 35 51 51 35 51 51 35 51 51 35 51 51 35 51 51 35 51 51 35 51 51 107 112 172 143 137 190 160 138 186 114 114 157 113 116 154 111 116 149 107 112 141 102 107 132 97 101 122 91 95 112 85 88 101 78 81 90 71 73 78 57 59 61 40 41 41 29 29 29 25 25 25 25 25 25 25 25 25 25 25 25 25 25 25 25 25 25 25 25 25 25 25 25 25 25 25 25 25 25 25 25 25 25 25 25 25 25 25 25 25 25 25 25 25 25 25 25 25 25 25 25 25 25 25 25 25 25 25 25 25 25 25 25 25 25 25 25 25 
39 59 59 39 59 59 39 59 59 39 59 59 39 59 59 39 59 59 39 59 59 39 60 60 39 60 60 39 60 60 39 60 60 39 60 60 39 60 60 39 60 60 39 60 60 39 60 60 39 60 60 39 60 60 39 60 60 39 60 60 39 60 60 39 60 60 39 60 60 39 60 60 39 60 60 39 61 61 39 61 61 39 61 61 39 61 61 39 61 61 39 61 61 39 61 61 39 61 61 39 61 61 39 61 61 39 61 61 39 61 61 39 61 61 39 61 61 39 61 61 39 61 61 39 61 61 39 61 61 39 61 61 40 61 61 40 61 61 40 61 61 40 61 61 40 61 61 40 61 61 40 61 61 40 61 61 40 62 62 40 62 62 40 62 62 40 62 62 40 62 62 40 62 62 40 62 62 40 62 62 40 62 62 40 62 62 40 62 62 40 62 62 40 62 62 40 62 62 40 62 62 40 62 62 40 62 62 40 62 62 40 62 62 42 64 64 45 67 67 45 67 67 45 67 67 45 67 67 45 67 67 45 67 67 45 68 68 45 68 68 45 68 68 45 68 68 45 67 67 45 67 67 48 71 73 47 70 71 49 70 71 47 69 70 55 76 76 63 84 84 45 67 67 53 74 74 71 89 89 53 72 72 40 62 62 40 62 62 40 62 62 40 62 62 40 62 62 40 62 62 40 62 62 40 62 62 40 62 62 40 62 62 40 62 62 40 62 62 40 62 62 40 62 62 40 61 61 40 61 61 40 61 61 40 61 61 40 61 61 40 61 61 40 61 61 40 61 61 39 61 61 39 61 61 39 61 61 39 61 61 39 61 61 39 61 61 39 61 61 39 61 61 39 61 61 39 61 61 39 61 61 39 61 61 39 61 61 54 76 77 44 66 66 44 66 66 46 67 67 46 68 68 47 68 69 49 70 71 48 70 72 50 69 69 52 71 73 52 69 69 51 68 68 44 65 65 44 65 65 44 65 65 42 63 63 39 60 60 39 60 60 39 60 60 39 60 60 39 60 60 39 60 60 39 60 60 39 60 60 39 59 59 39 59 59 39 59 59 39 59 59 39 59 59 39 59 59 39 59 59 39 59 59 39 59 59 39 59 59 39 59 59 39 59 59 38 59 59 38 59 59 38 59 59 40 60 60 46 66 66 41 62 62 41 61 61 43 63 63 43 63 63 41 61 61 41 61 61 74 87 87 64 81 81 46 65 65 45 64 64 45 64 65 168 120 120 255 192 192 255 205 205 255 204 204 255 205 205 255 206 206 255 203 203 255 197 197 249 190 190 235 181 181 219 172 172 204 162 162 188 151 151 171 140 140 154 128 128 137 116 116 121 105 105 106 95 95 81 74 74 60 56 56 53 51 51 38 37 37 25 25 25 25 25 25 31 31 34 38 38 42 32 32 33 25 25 25 25 25 25 29 29 29 32 34 34 32 36 36 43 61 61 40 58 58 40 58 58 40 58 58 40 58 58 38 56 56 37 55 55 37 55 55 37 55 55 37 55 55 37 55 55 37 55 55 37 54 54 37 54 54 37 54 54 37 54 54 37 54 54 37 54 54 37 54 54 37 54 54 37 54 54 37 54 54 36 54 54 36 54 54 36 54 54 36 54 54 36 53 53 36 53 53 36 53 53 36 53 53 36 53 53 36 53 53 36 53 53 36 53 53 36 53 53 36 53 53 36 53 53 36 53 53 36 53 53 36 52 52 36 52 52 36 52 52 36 52 52 36 52 52 36 52 52 36 52 52 36 52 52 36 52 52 36 52 52 36 52 52 36 52 52 36 52 52 36 52 52 36 52 52 36 51 51 36 51 51 36 51 51 35 51 51 35 51 51 35 51 51 35 51 51 35 51 51 35 51 51 35 51 51 35 51 51 35 51 51 35 51 51 35 51 51 82 90 133 122 122 172 172 153 198 110 112 152 108 111 145 105 111 141 101 106 132 96 101 123 91 96 113 85 89 103 79 83 92 72 75 81 59 61 64 48 50 51 34 35 35 33 34 34 31 31 31 27 27 27 25 25 25 25 25 25 25 25 25 25 25 25 25 25 25 25 25 25 25 25 25 25 25 25 25 25 25 25 25 25 25 25 25 25 25 25 25 25 25 25 25 25 25 25 25 25 25 25 25 25 25 25 25 25 25 25 25 25 25 25 25 25 25 
39 59 59 39 59 59 39 59 59 39 59 59 39 59 59 39 59 59 39 59 59 39 59 59 39 59 59 39 60 60 39 60 60 39 60 60 39 60 60 39 60 60 39 60 60 39 60 60 39 60 60 39 60 60 39 60 60 39 60 60 39 60 60 39 60 60 39 60 60 39 60 60 39 60 60 39 60 60 39 60 60 39 60 60 39 61 61 39 61 61 39 61 61 39 61 61 39 61 61 39 61 61 39 61 61 39 61 61 39 61 61 39 61 61 39 61 61 39 61 61 39 61 61 39 61 61 39 61 61 39 61 61 39 61 61 39 61 61 39 61 61 39 61 61 40 61 61 40 61 61 40 61 61 40 61 61 40 61 61 40 61 61 40 61 61 40 61 61 40 61 61 40 61 61 40 62 62 40 62 62 40 62 62 40 62 62 40 62 62 40 62 62 40 62 62 40 62 62 40 62 62 40 62 62 40 62 62 40 62 62 40 62 62 40 62 62 45 67 67 45 67 67 45 67 67 45 67 67 45 67 67 45 67 67 45 67 67 45 67 67 45 67 67 45 67 67 45 67 67 45 67 67 45 67 67 47 69 71 46 68 68 46 68 69 66 85 85 68 85 85 45 67 67 52 73 73 61 81 81 40 62 62 40 62 62 40 62 62 40 62 62 40 62 62 40 62 62 40 62 62 40 62 62 40 61 61 40 61 61 40 61 61 40 61 61 40 61 61 40 61 61 40 61 61 40 61 61 40 61 61 40 61 61 39 61 61 39 61 61 39 61 61 39 61 61 39 61 61 39 61 61 39 61 61 39 61 61 39 61 61 39 61 61 39 61 61 39 61 61 39 61 61 39 61 61 39 61 61 39 61 61 39 61 61 39 61 61 65 86 88 44 66 66 44 66 66 46 67 68 47 68 69 46 68 68 47 69 70 48 68 69 47 67 67 50 68 68 48 67 67 54 70 70 44 65 65 44 65 65 43 64 64 40 61 61 39 60 60 39 60 60 39 60 60 39 60 60 39 60 60 39 60 60 39 59 59 39 59 59 39 59 59 39 59 59 39 59 59 39 59 59 39 59 59 39 59 59 39 59 59 39 59 59 39 59 59 39 59 59 38 59 59 38 59 59 38 59 59 45 65 65 46 66 66 52 72 72 49 70 71 45 66 66 45 66 66 45 66 66 45 66 66 45 65 65 44 64 64 56 73 73 52 71 71 44 64 64 45 64 64 97 82 83 255 163 163 255 194 195 255 199 199 255 197 197 255 192 192 255 189 189 251 187 187 237 181 181 224 174 174 208 164 164 191 153 153 175 143 143 158 131 131 142 120 120 125 108 108 108 96 96 82 75 75 60 56 56 53 51 51 37 37 37 25 25 25 25 25 25 25 25 25 30 30 34 45 43 53 35 35 40 29 29 29 25 25 25 25 25 25 25 25 25 31 33 33 32 35 35 42 53 53 43 62 62 43 62 62 43 62 62 43 62 62 41 59 59 41 59 59 38 56 56 37 55 55 37 55 55 37 55 55 37 54 54 37 54 54 37 54 54 37 54 54 37 54 54 37 54 54 37 54 54 37 54 54 37 54 54 37 54 54 36 54 54 36 54 54 36 54 54 36 54 54 36 53 53 36 53 53 36 53 53 36 53 53 36 53 53 36 53 53 36 53 53 36 53 53 36 53 53 36 53 53 36 53 53 36 53 53 36 53 53 36 53 53 36 52 52 36 52 52 36 52 52 36 52 52 36 52 52 36 52 52 36 52 52 36 52 52 36 52 52 36 52 52 36 52 52 36 52 52 36 52 52 36 52 52 36 51 51 36 51 51 36 51 51 36 51 51 35 51 51 35 51 51 35 51 51 35 51 51 35 51 51 35 51 51 35 51 51 35 51 51 35 51 51 35 51 51 35 51 51 35 50 50 127 119 167 121 117 161 116 115 152 103 107 138 100 105 132 96 101 123 91 96 114 85 90 105 79 84 94 73 77 84 60 64 67 49 52 53 34 37 37 34 36 36 34 35 35 33 35 35 33 34 34 29 29 29 27 27 27 25 25 25 25 25 25 25 25 25 25 25 25 25 25 25 25 25 25 25 25 25 25 25 25 25 25 25 25 25 25 25 25 25 25 25 25 25 25 25 25 25 25 25 25 25 25 25 25 25 25 25 25 25 25 25 25 25 
39 59 59 39 59 59 39 59 59 39 59 59 39 59 59 39 59 59 39 59 59 39 59 59 39 59 59 39 59 59 39 59 59 39 60 60 39 60 60 39 60 60 39 60 60 39 60 60 39 60 60 39 60 60 39 60 60 39 60 60 39 60 60 39 60 60 39 60 60 39 60 60 39 60 60 39 60 60 39 60 60 39 60 60 39 60 60 39 60 60 39 60 60 39 61 61 39 61 61 39 61 61 39 61 61 39 61 61 39 61 61 39 61 61 39 61 61 39 61 61 39 61 61 39 61 61 39 61 61 39 61 61 39 61 61 39 61 61 39 61 61 39 61 61 39 61 61 39 61 61 39 61 61 39 61 61 39 61 61 39 61 61 40 61 61 40 61 61 40 61 61 40 61 61 40 61 61 40 61 61 40 61 61 40 61 61 40 61 61 40 61 61 40 61 61 40 61 61 40 61 61 40 61 61 40 61 61 40 61 61 40 62 62 40 62 62 45 67 67 45 67 67 45 67 67 45 67 67 45 67 67 45 67 67 45 67 67 45 67 67 45 67 67 45 67 67 45 67 67 45 67 67 45 67 67 45 67 67 45 67 67 54 75 75 75 93 93 45 67 67 51 72 72 50 71 71 40 61 61 40 61 61 40 61 61 40 61 61 40 61 61 40 61 61 40 61 61 40 61 61 40 61 61 40 61 61 40 61 61 40 61 61 39 61 61 39 61 61 39 61 61 39 61 61 39 61 61 39 61 61 39 61 61 39 61 61 39 61 61 39 61 61 39 61 61 39 61 61 39 61 61 39 61 61 39 61 61 39 61 61 39 61 61 39 61 61 39 61 61 39 61 61 39 61 61 39 61 61 39 61 61 39 60 60 39 60 60 53 74 77 44 65 65 44 65 65 49 70 72 51 72 75 48 70 71 47 68 68 47 68 68 44 65 65 50 68 68 50 68 68 44 65 65 44 65 65 44 65 65 41 62 62 39 60 60 39 60 60 39 60 60 39 60 60 39 59 59 39 59 59 39 59 59 39 59 59 39 59 59 39 59 59 39 59 59 39 59 59 39 59 59 39 59 59 39 59 59 39 59 59 39 59 59 38 59 59 38 59 59 38 59 59 38 59 59 55 74 76 48 68 70 50 71 71 45 66 66 45 66 66 46 67 67 46 67 67 46 67 67 46 67 67 46 67 67 46 67 67 45 66 66 44 64 64 43 63 63 45 64 64 150 107 107 255 174 175 255 191 191 255 193 193 255 186 186 248 180 180 236 175 175 222 169 169 209 162 162 195 154 154 179 144 144 162 133 133 145 122 122 128 110 110 112 99 99 84 77 77 61 57 57 54 52 52 37 37 37 25 25 25 25 25 25 25 25 25 25 25 25 25 25 25 30 30 33 51 51 66 46 47 59 25 25 25 25 25 25 25 25 25 25 25 25 31 32 32 32 34 34 32 36 36 44 64 64 44 64 64 44 64 64 44 63 63 44 63 63 44 62 62 42 60 60 41 58 58 37 55 55 37 54 54 37 54 54 37 54 54 37 54 54 37 54 54 37 54 54 37 54 54 37 54 54 37 54 54 37 54 54 36 54 54 36 54 54 36 54 54 36 54 54 36 53 53 36 53 53 36 53 53 36 53 53 36 53 53 36 53 53 36 53 53 36 53 53 36 53 53 36 53 53 36 53 53 36 53 53 36 53 53 36 53 53 36 52 52 36 52 52 36 52 52 36 52 52 36 52 52 36 52 52 36 52 52 36 52 52 36 52 52 36 52 52 36 52 52 36 52 52 36 52 52 36 52 52 36 52 52 36 51 51 36 51 51 36 51 51 35 51 51 35 51 51 35 51 51 35 51 51 35 51 51 35 51 51 35 51 51 35 51 51 35 51 51 35 51 51 35 51 51 35 51 51 35 50 50 149 125 170 96 96 135 103 102 135 98 103 131 94 100 124 90 95 115 85 90 106 80 85 96 74 78 86 67 71 75 50 54 55 35 39 39 35 38 38 34 37 37 34 37 37 34 36 36 34 35 35 33 34 34 31 32 32 29 29 29 27 27 27 25 25 25 25 25 25 25 25 25 25 25 25 25 25 25 25 25 25 25 25 25 25 25 25 25 25 25 25 25 25 25 25 25 25 25 25 25 25 25 25 25 25 25 25 25 25 25 25 25 25 25 
39 59 59 39 59 59 39 59 59 39 59 59 39 59 59 39 59 59 39 59 59 39 59 59 39 59 59 39 59 59 39 59 59 39 59 59 39 59 59 39 60 60 39 60 60 39 60 60 39 60 60 39 60 60 39 60 60 39 60 60 39 60 60 39 60 60 39 60 60 39 60 60 39 60 60 39 60 60 39 60 60 39 60 60 39 60 60 39 60 60 39 60 60 39 60 60 39 60 60 39 60 60 39 60 60 39 61 61 39 61 61 39 61 61 39 61 61 39 61 61 39 61 61 39 61 61 39 61 61 39 61 61 39 61 61 39 61 61 39 61 61 39 61 61 39 61 61 39 61 61 39 61 61 39 61 61 39 61 61 39 61 61 39 61 61 39 61 61 39 61 61 39 61 61 39 61 61 39 61 61 39 61 61 39 61 61 39 61 61 40 61 61 40 61 61 40 61 61 40 61 61 40 61 61 40 61 61 40 61 61 40 61 61 40 61 61 42 64 64 45 66 66 45 66 66 45 66 66 45 66 66 45 66 66 45 66 66 45 66 66 45 66 66 45 66 66 45 66 66 45 66 66 45 66 66 45 66 66 54 75 75 72 91 91 62 82 82 42 64 64 49 71 71 40 61 61 40 61 61 40 61 61 40 61 61 40 61 61 39 61 61 39 61 61 39 61 61 39 61 61 39 61 61 39 61 61 39 61 61 39 61 61 39 61 61 39 61 61 39 61 61 39 61 61 39 61 61 39 61 61 39 61 61 39 61 61 39 61 61 39 61 61 39 61 61 39 61 61 39 61 61 39 61 61 39 61 61 39 61 61 39 61 61 39 61 61 39 61 61 39 60 60 39 60 60 39 60 60 39 60 60 39 60 60 39 60 60 39 60 60 52 74 74 44 65 65 46 67 69 53 74 79 52 73 76 48 69 71 47 68 68 46 66 66 44 65 65 44 65 65 44 65 65 44 65 65 41 62 62 40 61 61 39 60 60 39 59 59 39 59 59 39 59 59 39 59 59 39 59 59 39 59 59 39 59 59 39 59 59 39 59 59 39 59 59 39 59 59 39 59 59 39 59 59 39 59 59 38 59 59 38 59 59 38 59 59 38 59 59 38 58 58 52 72 74 51 71 73 54 74 75 46 67 67 46 68 68 46 67 67 46 67 67 46 67 67 46 67 67 46 67 67 46 67 67 46 66 66 46 66 66 45 66 66 45 65 65 43 63 63 147 110 110 255 173 173 255 184 184 254 183 183 240 174 174 225 167 167 212 161 161 197 153 153 182 144 144 166 134 134 150 124 124 133 113 113 117 102 102 100 91 91 63 59 59 55 53 53 38 38 38 25 25 25 25 25 25 25 25 25 25 25 25 25 25 25 25 25 25 25 25 25 25 25 25 37 37 44 38 39 43 28 28 29 25 25 25 25 25 25 25 25 25 31 31 31 32 34 34 32 35 35 44 64 64 44 64 64 44 63 63 44 63 63 44 63 63 44 63 63 44 63 63 42 60 60 41 58 58 37 54 54 37 54 54 37 54 54 37 54 54 37 54 54 37 54 54 37 54 54 37 54 54 37 54 54 36 54 54 36 54 54 36 54 54 36 54 54 36 53 53 36 53 53 36 53 53 36 53 53 36 53 53 36 53 53 36 53 53 36 53 53 36 53 53 36 53 53 36 53 53 36 53 53 36 53 53 36 53 53 36 52 52 36 52 52 36 52 52 36 52 52 36 52 52 36 52 52 36 52 52 36 52 52 36 52 52 36 52 52 36 52 52 36 52 52 36 52 52 36 52 52 36 52 52 36 51 51 36 51 51 36 51 51 36 51 51 35 51 51 35 51 51 35 51 51 35 51 51 35 51 51 35 51 51 35 51 51 82 57 57 82 59 59 79 58 58 74 55 55 35 50 50 35 50 50 103 84 107 135 121 158 94 94 127 92 97 123 89 94 115 85 90 107 80 85 97 74 79 88 68 73 77 51 55 57 42 46 46 35 39 39 35 38 38 35 38 38 35 37 37 34 37 37 34 36 36 34 36 36 34 35 35 33 34 34 31 32 32 31 31 31 29 29 29 27 27 27 25 25 25 25 25 25 25 25 25 25 25 25 25 25 25 25 25 25 25 25 25 25 25 25 25 25 25 25 25 25 25 25 25 25 25 25 25 25 25 25 25 25 
38 59 59 39 59 59 39 59 59 39 59 59 39 59 59 39 59 59 39 59 59 39 59 59 39 59 59 39 59 59 39 59 59 39 59 59 39 59 59 39 59 59 39 59 59 39 60 60 39 60 60 39 60 60 39 60 60 39 60 60 39 60 60 39 60 60 39 60 60 39 60 60 39 60 60 39 60 60 39 60 60 39 60 60 39 60 60 39 60 60 39 60 60 39 60 60 39 60 60 39 60 60 39 60 60 39 60 60 39 60 60 39 60 60 39 60 60 39 61 61 39 61 61 39 61 61 39 61 61 39 61 61 39 61 61 39 61 61 39 61 61 39 61 61 39 61 61 39 61 61 39 61 61 39 61 61 39 61 61 39 61 61 39 61 61 39 61 61 39 61 61 39 61 61 39 61 61 39 61 61 39 61 61 39 61 61 39 61 61 39 61 61 39 61 61 39 61 61 39 61 61 39 61 61 39 61 61 39 61 61 39 61 61 39 61 61 39 61 61 45 66 66 45 66 66 45 67 67 45 66 66 45 66 66 45 66 66 45 66 66 45 66 66 45 66 66 45 66 66 45 66 66 45 66 66 45 66 66 52 74 74 42 64 64 53 72 72 41 62 62 39 61 61 39 61 61 39 61 61 39 61 61 39 61 61 39 61 61 39 61 61 39 61 61 39 61 61 39 61 61 39 61 61 39 61 61 39 61 61 39 61 61 39 61 61 39 61 61 39 61 61 39 61 61 39 61 61 39 61 61 39 61 61 39 61 61 39 61 61 39 61 61 39 61 61 39 61 61 39 61 61 39 61 61 39 61 61 39 60 60 39 60 60 39 60 60 39 60 60 39 60 60 39 60 60 39 60 60 39 60 60 39 60 60 39 60 60 39 60 60 39 60 60 43 64 64 44 65 65 49 70 73 51 72 74 49 70 72 46 67 68 45 66 66 44 65 65 44 65 65 44 65 65 41 62 62 40 61 61 39 59 59 39 59 59 39 59 59 39 59 59 39 59 59 39 59 59 39 59 59 39 59 59 39 59 59 39 59 59 39 59 59 39 59 59 39 59 59 38 59 59 38 59 59 38 59 59 38 59 59 38 59 59 38 58 58 38 58 58 52 72 75 58 77 79 50 71 71 45 66 66 46 68 68 48 68 68 46 67 67 46 67 67 46 67 67 46 67 67 46 67 67 46 66 66 45 66 66 45 66 66 45 66 66 45 66 66 44 64 64 187 125 125 246 168 168 243 174 174 233 171 171 218 162 162 202 153 153 187 146 146 172 137 137 156 127 127 140 117 117 123 106 106 106 95 95 79 73 73 58 55 55 39 38 38 25 25 25 25 25 25 25 25 25 25 25 25 25 25 25 25 25 25 25 25 25 25 25 25 25 25 25 28 28 33 34 34 40 30 30 32 28 28 28 25 25 25 36 28 28 58 42 42 49 41 41 31 34 34 32 35 35 38 50 50 44 63 63 44 63 63 44 63 63 44 63 63 44 63 63 44 63 63 44 63 63 42 60 60 41 58 58 37 54 54 37 54 54 37 54 54 37 54 54 37 54 54 37 54 54 37 54 54 36 54 54 36 54 54 36 54 54 36 54 54 36 53 53 36 53 53 36 53 53 36 53 53 36 53 53 36 53 53 36 53 53 36 53 53 36 53 53 36 53 53 36 53 53 36 53 53 36 53 53 36 53 53 36 53 53 36 52 52 36 52 52 36 52 52 36 52 52 36 52 52 36 52 52 36 52 52 36 52 52 36 52 52 36 52 52 36 52 52 36 52 52 36 52 52 36 52 52 36 51 51 36 51 51 36 51 51 36 51 51 35 51 51 35 51 51 35 51 51 35 51 51 96 65 65 153 79 79 162 91 91 163 95 95 206 101 101 201 101 101 192 97 97 180 90 90 165 82 82 115 71 71 102 62 62 127 111 146 87 88 116 86 87 110 84 89 107 80 85 99 75 80 89 69 74 79 51 56 58 42 46 47 35 40 40 35 39 39 35 39 39 35 38 38 35 38 38 35 37 37 34 37 37 34 36 36 34 36 36 34 35 35 34 35 35 33 34 34 33 34 34 31 32 32 31 31 31 29 29 29 27 27 27 27 27 27 27 27 27 27 27 27 25 25 25 25 25 25 25 25 25 27 27 27 27 27 27 27 27 27 27 27 27 29 29 29 
38 59 59 38 59 59 38 59 59 39 59 59 39 59 59 39 59 59 39 59 59 39 59 59 39 59 59 39 59 59 39 59 59 39 59 59 39 59 59 39 59 59 39 59 59 39 59 59 39 59 59 39 59 59 39 60 60 39 60 60 39 60 60 39 60 60 39 60 60 39 60 60 39 60 60 39 60 60 39 60 60 39 60 60 39 60 60 39 60 60 39 60 60 39 60 60 39 60 60 39 60 60 39 60 60 39 60 60 39 60 60 39 60 60 39 60 60 39 60 60 39 60 60 39 60 60 39 60 60 39 61 61 39 61 61 39 61 61 39 61 61 39 61 61 39 61 61 39 61 61 39 61 61 39 61 61 39 61 61 39 61 61 39 61 61 39 61 61 39 61 61 39 61 61 39 61 61 39 61 61 39 61 61 39 61 61 39 61 61 39 61 61 39 61 61 39 61 61 39 61 61 39 61 61 39 61 61 39 61 61 39 61 61 39 61 61 39 61 61 41 62 62 45 66 66 45 66 66 45 66 66 45 66 66 45 66 66 45 66 66 45 66 66 45 66 66 45 66 66 45 66 66 45 66 66 45 66 66 53 73 73 61 80 80 39 61 61 39 61 61 39 61 61 39 61 61 39 61 61 39 61 61 39 61 61 39 61 61 39 61 61 39 61 61 39 61 61 39 61 61 39 61 61 39 61 61 39 61 61 39 61 61 39 61 61 39 61 61 39 61 61 39 61 61 39 61 61 39 61 61 39 61 61 39 61 61 39 61 61 39 61 61 39 60 60 39 60 60 39 60 60 39 60 60 39 60 60 39 60 60 39 60 60 39 60 60 39 60 60 39 60 60 39 60 60 39 60 60 39 60 60 39 60 60 39 60 60 46 67 68 45 66 67 41 62 62 44 65 65 49 70 70 46 67 68 46 67 67 45 66 66 44 65 65 43 63 63 43 63 63 41 62 62 40 61 61 39 59 59 39 59 59 39 59 59 39 59 59 39 59 59 39 59 59 39 59 59 39 59 59 39 59 59 39 59 59 39 59 59 39 59 59 38 59 59 38 59 59 38 59 59 38 59 59 38 58 58 38 58 58 38 58 58 38 58 58 45 65 68 53 72 73 55 75 77 46 67 67 46 68 68 47 68 68 46 67 67 46 67 67 46 67 67 46 66 66 46 66 66 46 67 67 46 67 67 46 66 66 45 66 66 45 66 66 45 66 66 45 66 66 227 145 145 228 160 160 223 164 164 212 160 160 196 150 150 178 138 138 163 130 130 147 121 121 130 110 110 113 99 99 84 77 77 61 57 57 52 51 51 25 25 25 25 25 25 25 25 25 25 25 25 25 25 25 25 25 25 25 25 25 25 25 25 25 25 25 25 25 25 25 25 25 37 37 47 49 50 66 37 37 49 25 25 25 25 25 25 70 49 49 74 51 51 78 52 52 61 44 44 32 35 35 38 50 50 44 63 63 44 63 63 44 63 63 44 63 63 44 63 63 44 63 63 44 63 63 44 62 62 42 59 59 39 57 57 37 54 54 37 54 54 37 54 54 37 54 54 37 54 54 37 54 54 36 54 54 36 54 54 36 54 54 36 53 53 36 53 53 36 53 53 36 53 53 36 53 53 36 53 53 36 53 53 36 53 53 36 53 53 36 53 53 36 53 53 36 53 53 36 53 53 36 53 53 36 53 53 36 52 52 36 52 52 36 52 52 36 52 52 36 52 52 36 52 52 36 52 52 36 52 52 36 52 52 36 52 52 36 52 52 36 52 52 36 52 52 36 52 52 36 52 52 36 51 51 36 51 51 36 51 51 36 51 51 35 51 51 35 51 51 102 70 70 175 97 97 237 116 116 250 132 132 255 149 149 255 156 156 255 155 155 255 151 151 255 143 143 255 133 133 237 121 121 214 107 107 189 92 92 176 99 108 117 103 129 81 82 102 79 84 99 75 80 91 70 75 81 58 63 66 49 53 54 36 40 40 35 40 40 35 39 39 35 39 39 35 39 39 35 38 38 35 38 38 35 38 38 34 37 37 34 37 37 34 36 36 34 36 36 34 36 36 34 35 35 33 35 35 33 34 34 33 34 34 33 34 34 31 32 32 31 31 31 31 31 31 31 31 31 29 29 29 29 29 29 29 29 29 31 31 31 31 31 31 31 32 32 33 34 34 
38 58 58 38 59 59 38 59 59 38 59 59 38 59 59 39 59 59 39 59 59 39 59 59 39 59 59 39 59 59 39 59 59 39 59 59 39 59 59 39 59 59 39 59 59 39 59 59 39 59 59 39 59 59 39 59 59 39 59 59 39 60 60 39 60 60 39 60 60 39 60 60 39 60 60 39 60 60 39 60 60 39 60 60 39 60 60 39 60 60 39 60 60 39 60 60 39 60 60 39 60 60 39 60 60 39 60 60 39 60 60 39 60 60 39 60 60 39 60 60 39 60 60 39 60 60 39 60 60 39 60 60 39 60 60 39 60 60 39 60 60 39 60 60 39 60 60 39 61 61 39 61 61 39 61 61 39 61 61 39 61 61 39 61 61 39 61 61 39 61 61 39 61 61 39 61 61 39 61 61 39 61 61 39 61 61 39 61 61 39 61 61 39 61 61 39 61 61 39 61 61 39 61 61 39 61 61 39 61 61 39 61 61 39 61 61 39 61 61 39 61 61 41 62 62 43 65 65 44 66 66 44 66 66 44 66 66 44 66 66 44 66 66 44 66 66 45 66 66 44 66 66 52 73 73 42 63 63 41 62 62 39 61 61 39 61 61 39 61 61 39 61 61 39 61 61 39 61 61 39 61 61 39 61 61 39 61 61 39 61 61 39 61 61 39 61 61 39 61 61 39 61 61 39 61 61 39 61 61 39 61 61 39 61 61 39 61 61 39 61 61 39 61 61 39 60 60 39 60 60 39 60 60 39 60 60 39 60 60 39 60 60 39 60 60 39 60 60 39 60 60 39 60 60 39 60 60 39 60 60 39 60 60 39 60 60 39 60 60 39 60 60 39 60 60 39 60 60 39 60 60 45 66 67 47 68 68 42 63 63 51 72 73 45 66 66 44 65 65 46 67 68 45 65 65 43 64 64 41 62 62 41 62 62 41 62 62 40 61 61 39 59 59 39 59 59 39 59 59 39 59 59 39 59 59 39 59 59 39 59 59 39 59 59 39 59 59 39 59 59 39 59 59 38 59 59 38 59 59 38 59 59 38 59 59 38 59 59 38 58 58 38 58 58 38 58 58 38 58 58 38 58 58 38 58 58 52 72 75 63 82 86 50 70 70 46 67 67 46 68 68 46 67 67 46 67 67 46 67 67 46 67 67 46 66 66 46 67 67 46 67 67 46 66 67 46 67 67 46 66 66 45 66 66 45 66 66 45 66 66 210 138 138 210 151 151 202 152 152 190 147 147 175 138 138 154 123 123 138 114 114 121 104 104 104 93 93 77 72 72 56 54 54 38 38 38 25 25 25 25 25 25 25 25 25 25 25 25 25 25 25 25 25 25 25 25 25 25 25 25 25 25 25 25 25 25 25 25 25 25 25 25 31 31 37 52 52 69 48 47 61 33 29 29 61 43 43 49 38 38 34 30 30 41 33 33 82 56 56 32 35 35 32 36 36 45 64 64 44 63 63 44 63 63 44 63 63 44 63 63 44 63 63 44 63 63 44 62 62 43 60 60 42 59 59 37 54 54 37 54 54 37 54 54 37 54 54 37 54 54 36 54 54 36 54 54 36 54 54 36 53 53 36 53 53 36 53 53 36 53 53 36 53 53 36 53 53 36 53 53 36 53 53 36 53 53 36 53 53 36 53 53 36 53 53 36 53 53 36 53 53 36 53 53 36 52 52 36 52 52 36 52 52 36 52 52 36 52 52 36 52 52 36 52 52 36 52 52 36 52 52 36 52 52 36 52 52 36 52 52 36 52 52 36 52 52 36 52 52 36 51 51 36 51 51 36 51 51 36 51 51 35 51 51 95 62 62 176 95 95 249 123 123 255 157 157 255 177 177 255 188 188 255 189 189 255 189 189 255 182 182 255 174 174 255 165 165 255 154 154 252 141 141 230 127 127 207 112 112 183 97 97 124 92 111 79 79 97 79 83 96 70 75 83 65 70 74 49 54 55 36 40 40 36 40 40 35 40 40 35 39 39 35 39 39 35 39 39 35 39 39 35 38 38 35 38 38 35 38 38 35 37 37 34 37 37 34 37 37 34 36 36 34 36 36 34 36 36 34 35 35 34 35 35 34 35 35 33 35 35 33 35 35 33 34 34 33 34 34 33 34 34 33 34 34 33 34 34 33 34 34 33 34 34 33 35 35 34 35 35 
38 58 58 38 58 58 38 59 59 38 59 59 38 59 59 38 59 59 38 59 59 39 59 59 39 59 59 39 59 59 39 59 59 39 59 59 39 59 59 39 59 59 39 59 59 39 59 59 39 59 59 39 59 59 39 59 59 39 59 59 39 59 59 39 59 59 39 59 59 39 60 60 39 60 60 39 60 60 39 60 60 39 60 60 39 60 60 39 60 60 39 60 60 39 60 60 39 60 60 39 60 60 39 60 60 39 60 60 39 60 60 39 60 60 39 60 60 39 60 60 39 60 60 39 60 60 39 60 60 39 60 60 39 60 60 39 60 60 39 60 60 39 60 60 39 60 60 39 60 60 39 60 60 39 60 60 39 60 60 39 60 60 39 60 60 39 61 61 39 61 61 39 61 61 39 61 61 39 61 61 39 61 61 39 61 61 39 61 61 39 61 61 39 61 61 39 61 61 39 61 61 39 61 61 39 61 61 39 61 61 39 61 61 39 61 61 39 61 61 39 61 61 39 61 61 41 62 62 42 63 63 43 65 65 44 66 66 44 66 66 44 66 66 44 66 66 43 65 65 42 63 63 42 63 63 41 62 62 39 61 61 39 61 61 39 61 61 39 61 61 39 61 61 39 61 61 39 61 61 39 61 61 39 61 61 39 61 61 39 61 61 39 61 61 39 61 61 39 61 61 39 60 60 39 60 60 39 60 60 39 60 60 39 60 60 39 60 60 39 60 60 39 60 60 39 60 60 39 60 60 39 60 60 39 60 60 39 60 60 39 60 60 39 60 60 39 60 60 39 60 60 39 60 60 39 60 60 39 60 60 39 60 60 39 60 60 39 60 60 39 60 60 39 60 60 39 60 60 57 76 77 56 74 77 57 77 78 50 72 72 46 67 68 47 68 69 47 68 68 46 67 67 47 67 67 45 65 65 40 61 61 39 59 59 39 59 59 39 59 59 39 59 59 39 59 59 39 59 59 39 59 59 39 59 59 39 59 59 39 59 59 39 59 59 39 59 59 38 59 59 38 59 59 38 59 59 38 59 59 38 58 58 38 58 58 38 58 58 38 58 58 38 58 58 38 58 58 38 58 58 38 58 58 38 58 58 59 79 83 56 76 78 46 66 66 46 67 67 46 67 67 46 67 67 46 66 66 46 67 67 46 67 67 46 66 66 46 67 67 46 66 66 45 66 66 46 66 66 46 66 66 45 66 66 45 66 66 45 65 65 194 131 131 191 141 141 181 140 140 168 135 135 152 125 125 131 110 110 114 98 98 96 88 88 60 56 56 52 51 51 25 25 25 25 25 25 25 25 25 25 25 25 25 25 25 25 25 25 25 25 25 25 25 25 25 25 25 25 25 25 25 25 25 25 25 25 25 25 25 25 25 25 28 28 30 41 42 51 46 41 48 34 28 28 53 41 41 26 26 26 28 28 28 31 32 32 57 42 42 55 40 40 56 44 44 112 85 85 114 89 89 174 106 106 173 109 109 168 108 108 162 104 104 152 98 98 97 81 81 91 76 76 42 59 59 40 58 58 37 54 54 37 54 54 37 54 54 36 54 54 36 54 54 36 54 54 36 53 53 36 53 53 36 53 53 36 53 53 36 53 53 36 53 53 36 53 53 36 53 53 36 53 53 36 53 53 36 53 53 36 53 53 36 53 53 36 53 53 36 53 53 36 52 52 36 52 52 36 52 52 36 52 52 36 52 52 36 52 52 36 52 52 36 52 52 36 52 52 36 52 52 36 52 52 36 52 52 36 52 52 36 52 52 36 52 52 36 52 52 36 51 51 36 51 51 36 51 51 35 51 51 101 68 68 186 105 105 255 143 143 255 186 186 255 200 200 255 207 207 255 211 211 255 212 212 255 208 208 255 201 201 255 193 193 255 183 183 255 168 168 255 154 154 236 139 139 213 124 124 189 107 107 163 90 90 81 74 91 70 74 85 70 74 80 50 55 57 42 46 46 36 40 40 36 40 40 35 40 40 35 40 40 35 39 39 35 39 39 35 39 39 35 39 39 35 38 38 35 38 38 35 38 38 35 37 37 34 37 37 34 37 37 34 37 37 34 36 36 34 36 36 34 36 36 34 36 36 34 36 36 34 35 35 34 35 35 34 35 35 34 35 35 34 35 35 34 35 35 34 35 35 34 35 35 34 35 35 34 36 36 
38 58 58 38 58 58 38 58 58 38 58 58 38 59 59 38 59 59 38 59 59 38 59 59 38 59 59 39 59 59 39 59 59 39 59 59 39 59 59 39 59 59 39 59 59 39 59 59 39 59 59 39 59 59 39 59 59 39 59 59 39 59 59 39 59 59 39 59 59 39 59 59 39 59 59 39 59 59 39 60 60 39 60 60 39 60 60 39 60 60 39 60 60 39 60 60 39 60 60 39 60 60 39 60 60 39 60 60 39 60 60 39 60 60 39 60 60 39 60 60 39 60 60 39 60 60 39 60 60 39 60 60 39 60 60 39 60 60 39 60 60 39 60 60 39 60 60 39 60 60 39 60 60 39 60 60 39 60 60 39 60 60 39 60 60 39 60 60 39 60 60 39 60 60 39 60 60 39 60 60 39 60 60 39 60 60 39 60 60 39 60 60 39 60 60 39 60 60 39 61 61 39 61 61 39 61 61 39 61 61 39 61 61 39 61 61 39 61 61 39 61 61 39 61 61 39 61 61 39 61 61 40 62 62 40 62 62 42 63 63 42 63 63 42 63 63 40 62 62 40 62 62 39 61 61 39 61 61 39 61 61 39 61 61 39 61 61 39 60 60 39 60 60 39 60 60 39 60 60 39 60 60 39 60 60 39 60 60 39 60 60 39 60 60 39 60 60 39 60 60 39 60 60 39 60 60 39 60 60 39 60 60 39 60 60 39 60 60 39 60 60 39 60 60 39 60 60 39 60 60 39 60 60 39 60 60 39 60 60 39 60 60 39 60 60 39 60 60 39 60 60 39 60 60 39 60 60 39 60 60 39 60 60 39 60 60 39 60 60 39 60 60 39 60 60 52 72 73 49 70 72 52 73 73 50 70 71 49 71 72 47 69 71 47 68 69 46 68 68 46 68 68 46 67 67 46 67 67 45 65 65 41 62 62 39 59 59 39 59 59 39 59 59 39 59 59 39 59 59 39 59 59 39 59 59 39 59 59 38 59 59 38 59 59 38 59 59 38 59 59 38 59 59 38 58 58 38 58 58 38 58 58 38 58 58 38 58 58 38 58 58 38 58 58 38 58 58 38 58 58 38 58 58 46 65 68 65 85 89 51 71 73 44 65 65 46 67 67 46 67 67 46 66 66 45 66 66 46 67 67 46 66 66 46 66 66 47 67 67 46 66 66 45 66 66 46 66 67 45 66 66 45 66 66 45 65 65 45 65 65 177 123 123 172 130 130 161 128 128 146 122 122 130 112 112 112 99 99 79 72 72 57 54 54 38 38 38 25 25 25 25 25 25 25 25 25 25 25 25 25 25 25 25 25 25 25 25 25 25 25 25 25 25 25 25 25 25 25 25 25 25 25 25 25 25 25 25 25 25 25 25 25 25 25 25 37 37 46 34 32 34 69 49 49 27 27 27 25 25 25 28 28 28 31 32 32 34 31 31 84 55 55 60 49 49 255 151 152 255 154 154 255 168 168 255 172 172 255 175 177 255 163 163 255 161 163 255 141 141 198 121 121 180 107 107 123 84 84 73 65 65 37 54 54 36 54 54 36 54 54 36 54 54 36 53 53 36 53 53 36 53 53 36 53 53 36 53 53 36 53 53 36 53 53 36 53 53 36 53 53 36 53 53 36 53 53 36 53 53 36 53 53 36 53 53 36 53 53 36 52 52 36 52 52 36 52 52 36 52 52 36 52 52 36 52 52 36 52 52 36 52 52 36 52 52 36 52 52 36 52 52 36 52 52 36 52 52 36 52 52 36 52 52 36 52 52 36 51 51 36 51 51 36 51 51 36 51 51 100 67 67 188 108 108 255 165 165 255 199 199 255 216 216 255 230 230 255 226 226 255 226 226 255 223 223 255 217 217 255 214 215 255 204 204 255 194 195 255 177 177 255 159 159 235 144 144 211 128 128 187 112 112 163 95 95 138 88 92 66 66 77 71 74 78 49 54 55 36 40 40 36 40 40 36 40 40 35 40 40 35 40 40 35 39 39 35 39 39 35 39 39 35 39 39 35 39 39 35 38 38 35 38 38 35 38 38 35 38 38 35 37 37 34 37 37 34 37 37 34 37 37 34 37 37 34 36 36 34 36 36 34 36 36 34 36 36 34 36 36 34 36 36 34 36 36 34 36 36 34 36 36 34 36 36 34 36 36 34 36 36 
38 58 58 38 58 58 38 58 58 38 58 58 38 58 58 38 58 58 38 59 59 38 59 59 38 59 59 38 59 59 38 59 59 38 59 59 39 59 59 39 59 59 39 59 59 39 59 59 39 59 59 39 59 59 39 59 59 39 59 59 39 59 59 39 59 59 39 59 59 39 59 59 39 59 59 39 59 59 39 59 59 39 59 59 39 59 59 39 59 59 39 60 60 39 60 60 39 60 60 39 60 60 39 60 60 39 60 60 39 60 60 39 60 60 39 60 60 39 60 60 39 60 60 39 60 60 39 60 60 39 60 60 39 60 60 39 60 60 39 60 60 39 60 60 39 60 60 39 60 60 39 60 60 39 60 60 39 60 60 39 60 60 39 60 60 39 60 60 39 60 60 39 60 60 39 60 60 39 60 60 39 60 60 39 60 60 39 60 60 39 60 60 39 60 60 39 60 60 39 60 60 39 60 60 39 60 60 39 60 60 39 60 60 39 60 60 39 60 60 39 60 60 39 60 60 39 60 60 39 60 60 39 60 60 39 60 60 39 60 60 39 60 60 39 60 60 39 60 60 39 60 60 39 60 60 39 60 60 39 60 60 39 60 60 39 60 60 39 60 60 39 60 60 39 60 60 39 60 60 39 60 60 39 60 60 39 60 60 39 60 60 39 60 60 39 60 60 39 60 60 39 60 60 39 60 60 39 60 60 39 60 60 39 60 60 39 60 60 39 60 60 39 60 60 39 60 60 39 60 60 39 60 60 39 60 60 39 60 60 39 60 60 39 60 60 39 60 60 39 60 60 39 60 60 39 60 60 39 60 60 39 60 60 39 60 60 39 60 60 39 60 60 52 73 74 49 70 71 55 74 74 47 68 72 47 68 68 50 71 72 47 69 69 46 69 69 46 69 69 46 68 68 46 68 68 46 67 67 45 66 66 44 64 64 40 60 60 39 59 59 39 59 59 39 59 59 39 59 59 38 59 59 38 59 59 46 66 66 47 67 68 44 64 64 41 61 61 42 62 62 41 61 61 41 61 61 40 60 60 38 58 58 38 58 58 38 58 58 38 58 58 38 58 58 38 58 58 38 58 58 38 58 58 53 73 76 69 86 88 45 64 65 45 65 65 46 67 67 46 66 66 45 66 66 45 66 66 45 66 66 45 66 66 45 66 66 46 66 66 45 66 66 45 66 66 46 66 66 45 66 66 46 66 66 45 65 65 45 65 65 160 114 114 153 119 119 140 116 116 125 109 109 108 99 99 81 76 76 56 54 54 25 25 25 25 25 25 25 25 25 25 25 25 25 25 25 25 25 25 25 25 25 25 25 25 25 25 25 25 25 25 25 25 25 25 25 25 25 25 25 25 25 25 25 25 25 25 25 25 25 25 25 34 34 43 48 48 66 40 39 54 36 31 31 25 25 25 26 26 26 29 30 30 31 33 33 32 32 32 85 59 59 69 52 52 255 204 205 255 205 205 255 204 204 255 198 198 255 198 201 255 187 188 255 177 177 255 166 166 255 166 170 241 144 144 219 129 129 158 101 101 104 77 77 64 61 61 36 54 54 36 53 53 36 53 53 36 53 53 36 53 53 36 53 53 36 53 53 36 53 53 36 53 53 36 53 53 36 53 53 36 53 53 36 53 53 36 53 53 36 53 53 36 53 53 36 53 53 36 52 52 36 52 52 36 52 52 36 52 52 36 52 52 36 52 52 36 52 52 36 52 52 36 52 52 36 52 52 36 52 52 36 52 52 36 52 52 36 52 52 36 52 52 36 51 51 36 51 51 36 51 51 36 51 51 91 59 59 184 105 105 255 167 167 255 204 204 255 222 222 255 231 231 255 234 234 255 244 244 255 233 233 255 225 225 255 219 219 255 210 210 255 207 208 255 205 208 255 181 181 253 162 162 228 144 144 204 128 128 181 112 112 156 95 95 131 79 79 93 61 64 48 50 52 38 43 43 36 41 41 36 40 40 36 40 40 36 40 40 35 40 40 35 39 39 35 39 39 35 39 39 35 39 39 35 39 39 35 38 38 35 38 38 35 38 38 35 38 38 35 38 38 35 38 38 35 37 37 34 37 37 34 37 37 34 37 37 34 37 37 34 37 37 34 37 37 34 37 37 34 36 36 34 36 36 34 36 36 34 36 36 34 36 36 34 37 37 34 37 37 
38 58 58 38 58 58 38 58 58 38 58 58 38 58 58 38 58 58 38 58 58 38 58 58 38 58 58 38 59 59 38 59 59 38 59 59 38 59 59 38 59 59 39 59 59 39 59 59 39 59 59 39 59 59 39 59 59 39 59 59 39 59 59 39 59 59 39 59 59 39 59 59 39 59 59 39 59 59 39 59 59 39 59 59 39 59 59 39 59 59 39 59 59 39 59 59 39 59 59 39 60 60 39 60 60 39 60 60 39 60 60 39 60 60 39 60 60 39 60 60 39 60 60 39 60 60 39 60 60 39 60 60 39 60 60 39 60 60 39 60 60 39 60 60 39 60 60 39 60 60 39 60 60 39 60 60 39 60 60 39 60 60 39 60 60 39 60 60 39 60 60 39 60 60 39 60 60 39 60 60 39 60 60 39 60 60 39 60 60 39 60 60 39 60 60 39 60 60 39 60 60 39 60 60 39 60 60 39 60 60 39 60 60 39 60 60 39 60 60 39 60 60 39 60 60 39 60 60 39 60 60 39 60 60 39 60 60 39 60 60 39 60 60 39 60 60 39 60 60 39 60 60 39 60 60 39 60 60 39 60 60 39 60 60 39 60 60 39 60 60 39 60 60 39 60 60 39 60 60 39 60 60 39 60 60 39 60 60 39 60 60 39 60 60 39 60 60 39 60 60 39 60 60 39 60 60 39 60 60 39 60 60 39 60 60 39 60 60 39 60 60 39 60 60 39 60 60 39 60 60 39 60 60 39 60 60 39 60 60 39 60 60 39 60 60 39 60 60 39 60 60 39 60 60 39 60 60 39 60 60 39 60 60 39 59 59 39 59 59 46 66 68 50 70 72 58 74 75 48 69 70 47 69 71 47 68 69 49 69 69 51 71 71 47 68 68 55 72 72 49 69 69 48 68 68 46 67 67 46 66 66 44 64 64 44 64 64 39 59 59 38 59 59 38 59 59 38 59 59 45 65 65 50 69 69 49 70 71 44 64 65 50 71 71 45 66 66 45 66 66 45 65 65 45 65 65 47 66 66 43 62 62 44 62 62 38 58 58 38 58 58 38 58 58 38 58 58 38 58 58 38 58 58 53 73 76 60 79 80 44 64 64 44 64 64 46 66 66 45 66 66 45 66 66 45 66 66 45 66 66 45 66 66 45 66 66 45 66 66 46 66 66 45 66 66 46 66 66 46 66 66 46 66 66 45 65 65 45 65 65 144 106 106 134 109 109 121 105 105 104 96 96 78 76 76 58 59 59 31 32 32 26 26 26 25 25 25 25 25 25 25 25 25 25 25 25 25 25 25 25 25 25 25 25 25 25 25 25 25 25 25 25 25 25 25 25 25 25 25 25 25 25 25 25 25 25 25 25 25 25 25 25 32 32 39 54 54 74 49 49 67 25 25 25 26 26 26 28 28 28 31 32 32 31 33 33 31 33 33 54 40 40 227 144 144 255 222 222 255 221 222 255 218 219 255 209 209 255 201 201 255 192 192 255 182 182 255 171 171 255 167 170 250 163 169 219 138 138 201 126 126 180 111 111 127 86 86 60 61 61 36 53 53 36 53 53 36 53 53 36 53 53 36 53 53 36 53 53 36 53 53 36 53 53 36 53 53 36 53 53 36 53 53 36 53 53 36 53 53 36 53 53 36 53 53 92 66 66 93 68 68 90 67 67 87 65 65 81 61 61 36 52 52 36 52 52 36 52 52 36 52 52 36 52 52 36 52 52 36 52 52 36 52 52 36 52 52 36 52 52 36 52 52 36 51 51 36 51 51 36 51 51 36 51 51 173 95 95 255 155 155 255 200 200 255 221 221 255 239 245 255 242 243 255 241 241 255 242 242 255 239 239 255 229 229 255 218 218 255 208 208 255 197 197 255 199 202 255 180 181 250 164 164 218 142 142 194 124 124 170 108 108 145 91 91 121 75 75 96 58 58 65 44 45 36 39 39 37 42 42 36 40 40 36 40 40 36 40 40 35 40 40 35 40 40 35 39 39 35 39 39 35 39 39 35 39 39 35 39 39 37 40 45 37 40 45 37 40 44 37 39 44 36 38 42 36 38 43 36 38 42 35 37 40 35 36 38 35 36 37 34 36 37 34 36 36 34 36 36 35 37 37 34 37 37 34 37 37 34 37 37 34 37 37 34 37 37 34 37 37 
38 58 58 38 58 58 38 58 58 38 58 58 38 58 58 38 58 58 38 58 58 38 58 58 38 58 58 38 58 58 38 58 58 38 59 59 38 59 59 38 59 59 38 59 59 38 59 59 38 59 59 39 59 59 39 59 59 39 59 59 39 59 59 39 59 59 39 59 59 39 59 59 39 59 59 39 59 59 39 59 59 39 59 59 39 59 59 39 59 59 39 59 59 39 59 59 39 59 59 39 59 59 39 59 59 39 59 59 39 59 59 39 59 59 39 60 60 39 60 60 39 60 60 39 60 60 39 60 60 39 60 60 39 60 60 39 60 60 39 60 60 39 60 60 39 60 60 39 60 60 39 60 60 39 60 60 39 60 60 39 60 60 39 60 60 39 60 60 39 60 60 39 60 60 39 60 60 39 60 60 39 60 60 39 60 60 39 60 60 39 60 60 39 60 60 39 60 60 39 60 60 39 60 60 39 60 60 39 60 60 39 60 60 39 60 60 39 60 60 39 60 60 39 60 60 39 60 60 39 60 60 39 60 60 39 60 60 39 60 60 39 60 60 39 60 60 39 60 60 39 60 60 39 60 60 39 60 60 39 60 60 39 60 60 39 60 60 39 60 60 39 60 60 39 60 60 39 60 60 39 60 60 39 60 60 39 60 60 39 60 60 39 60 60 39 60 60 39 60 60 39 60 60 39 60 60 39 60 60 39 60 60 39 60 60 39 60 60 39 60 60 39 60 60 39 60 60 39 60 60 39 60 60 39 60 60 39 60 60 39 60 60 39 60 60 39 60 60 39 59 59 39 59 59 39 59 59 39 59 59 39 59 59 39 59 59 39 59 59 51 72 73 59 78 79 51 70 73 51 70 71 52 71 71 46 68 68 50 69 69 47 68 68 53 70 70 52 69 69 47 68 68 55 70 70 55 71 71 46 66 66 44 65 65 44 64 64 38 59 59 38 59 59 38 59 59 47 67 69 42 62 62 51 71 72 45 66 67 46 66 66 46 67 67 46 67 67 46 67 67 46 67 67 46 67 67 45 66 66 44 64 64 44 63 63 42 62 62 38 58 58 38 58 58 38 58 58 38 58 58 38 58 58 53 73 75 57 76 78 45 65 65 43 62 62 45 66 66 45 66 66 45 66 66 45 66 66 45 66 66 45 66 66 45 66 66 45 65 65 47 66 66 46 66 66 46 66 66 46 65 65 47 66 66 46 65 65 45 65 65 128 96 96 117 99 99 102 93 93 66 64 64 46 48 48 32 35 35 31 33 33 31 32 32 26 26 26 25 25 25 25 25 25 25 25 25 25 25 25 25 25 25 25 25 25 25 25 25 25 25 25 25 25 25 25 25 25 25 25 25 25 25 25 25 25 25 25 25 25 25 25 25 29 29 32 43 44 56 42 41 55 26 26 26 28 28 28 31 32 32 31 33 33 32 34 34 32 32 32 50 37 37 216 143 143 255 238 238 255 235 235 255 226 227 255 218 219 255 203 203 255 193 193 255 183 183 255 172 172 242 160 160 232 155 160 226 155 161 198 130 130 170 110 110 154 100 100 136 88 88 93 67 67 36 53 53 36 53 53 36 53 53 36 53 53 36 53 53 36 53 53 36 53 53 36 53 53 36 53 53 36 53 53 99 68 68 107 77 77 174 101 101 176 107 107 229 118 118 227 122 122 220 120 120 210 114 114 196 106 106 177 93 93 124 78 78 76 64 64 67 56 56 36 52 52 36 52 52 36 52 52 36 52 52 36 52 52 36 52 52 36 51 51 36 51 51 36 51 51 36 51 51 95 66 66 245 124 124 255 186 186 255 214 214 255 233 234 255 247 254 255 255 255 255 243 243 255 235 235 255 238 238 255 226 226 255 214 214 255 203 203 255 191 191 255 178 178 255 181 185 235 159 159 204 135 135 180 117 117 156 101 101 132 84 84 107 68 68 83 52 52 60 37 37 40 31 31 37 41 42 37 41 41 36 40 40 36 40 40 35 40 40 35 40 40 35 39 39 35 39 39 35 39 39 40 44 51 44 47 61 45 47 60 46 47 65 44 45 62 43 44 59 41 42 56 40 40 55 39 39 51 38 38 48 37 37 45 36 36 43 35 36 41 35 35 38 34 35 37 34 35 36 34 35 35 34 36 36 35 37 37 34 37 37 35 37 37 35 37 37 
38 58 58 38 58 58 38 58 58 38 58 58 38 58 58 38 58 58 38 58 58 38 58 58 38 58 58 38 58 58 38 58 58 38 58 58 38 58 58 38 58 58 38 59 59 38 59 59 38 59 59 38 59 59 38 59 59 38 59 59 39 59 59 39 59 59 39 59 59 39 59 59 39 59 59 39 59 59 39 59 59 39 59 59 39 59 59 39 59 59 39 59 59 39 59 59 39 59 59 39 59 59 39 59 59 39 59 59 39 59 59 39 59 59 39 59 59 39 59 59 39 59 59 39 59 59 39 59 59 39 60 60 39 60 60 39 60 60 39 60 60 39 60 60 39 60 60 39 60 60 39 60 60 39 60 60 39 60 60 39 60 60 39 60 60 39 60 60 39 60 60 39 60 60 39 60 60 39 60 60 39 60 60 39 60 60 39 60 60 39 60 60 39 60 60 39 60 60 39 60 60 39 60 60 39 60 60 39 60 60 39 60 60 39 60 60 39 60 60 39 60 60 39 60 60 39 60 60 39 60 60 39 60 60 39 60 60 39 60 60 39 60 60 39 60 60 39 60 60 39 60 60 39 60 60 39 60 60 39 60 60 39 60 60 39 60 60 39 60 60 39 60 60 39 60 60 39 60 60 39 60 60 39 60 60 39 60 60 39 60 60 39 60 60 39 60 60 39 60 60 39 60 60 39 60 60 39 60 60 39 60 60 39 60 60 39 60 60 39 60 60 39 60 60 39 60 60 39 60 60 39 59 59 39 59 59 39 59 59 39 59 59 39 59 59 39 59 59 39 59 59 39 59 59 39 59 59 39 59 59 39 59 59 39 59 59 39 59 59 41 62 62 44 65 65 46 66 66 50 69 69 49 68 68 51 69 69 53 71 71 47 69 69 47 68 69 46 68 68 46 68 68 47 67 67 53 69 69 49 67 67 44 65 65 44 64 64 41 61 61 38 58 58 46 66 67 49 69 72 54 72 73 46 67 67 46 67 67 46 68 68 46 68 68 46 67 67 46 67 67 46 67 67 46 67 67 46 67 67 46 67 67 45 65 65 44 63 63 45 64 64 38 58 58 38 58 58 38 58 58 38 57 57 53 72 75 56 76 77 45 65 65 45 65 65 44 64 64 45 66 66 45 66 66 45 66 66 45 66 66 45 65 65 45 65 65 45 65 65 45 65 65 46 66 66 46 66 66 47 66 66 47 66 66 45 65 65 45 64 64 60 69 69 101 90 90 76 74 74 56 59 59 32 36 36 32 35 35 32 34 34 31 33 33 31 32 32 28 28 28 25 25 25 25 25 25 25 25 25 25 25 25 25 25 25 25 25 25 25 25 25 25 25 25 25 25 25 25 25 25 25 25 25 25 25 25 25 25 25 25 25 25 25 25 25 44 44 57 49 50 69 28 28 28 29 30 30 49 48 60 31 33 33 32 34 34 33 33 33 51 41 41 215 146 146 255 229 229 255 227 228 255 223 223 255 213 213 255 199 199 255 189 189 255 179 179 245 167 167 228 156 156 210 144 144 216 154 163 183 127 128 160 110 110 139 94 94 126 86 86 110 77 77 76 61 61 38 54 54 36 53 53 36 53 53 36 53 53 36 53 53 36 53 53 36 53 53 101 69 69 178 99 99 190 115 115 255 143 143 255 167 167 255 179 181 255 180 181 255 181 183 255 170 170 255 162 162 255 151 151 251 136 136 229 123 123 203 104 104 148 85 85 96 66 66 60 55 55 36 52 52 36 52 52 36 52 52 36 51 51 36 51 51 36 51 51 36 51 51 35 51 51 166 94 94 255 163 163 255 202 202 255 222 222 255 228 228 255 250 254 255 242 248 255 241 241 255 231 231 255 231 231 255 223 224 255 207 207 255 196 196 255 183 183 253 170 170 246 170 173 221 152 154 190 128 128 163 108 108 139 92 92 115 75 75 91 59 59 67 43 43 48 32 32 36 27 27 54 39 39 48 47 47 37 41 41 38 42 43 36 40 40 35 40 40 35 40 40 35 39 39 49 51 69 55 57 82 61 62 92 60 61 90 59 60 87 57 57 82 54 54 77 51 51 73 48 48 68 45 45 63 42 42 58 40 40 54 38 38 51 37 37 48 37 37 46 36 36 43 35 35 40 34 34 38 34 34 36 33 34 35 35 36 36 35 38 38 35 38 38 
38 58 58 38 58 58 38 58 58 38 58 58 38 58 58 38 58 58 38 58 58 38 58 58 38 58 58 38 58 58 38 58 58 38 58 58 38 58 58 38 58 58 38 58 58 38 58 58 38 59 59 38 59 59 38 59 59 38 59 59 38 59 59 38 59 59 38 59 59 39 59 59 39 59 59 39 59 59 39 59 59 39 59 59 39 59 59 39 59 59 39 59 59 39 59 59 39 59 59 39 59 59 39 59 59 39 59 59 39 59 59 39 59 59 39 59 59 39 59 59 39 59 59 39 59 59 39 59 59 39 59 59 39 59 59 39 59 59 39 59 59 39 59 59 39 59 59 39 60 60 39 60 60 39 60 60 39 60 60 39 60 60 39 60 60 39 60 60 39 60 60 39 60 60 39 60 60 39 60 60 39 60 60 39 60 60 39 60 60 39 60 60 39 60 60 39 60 60 39 60 60 39 60 60 39 60 60 39 60 60 39 60 60 39 60 60 39 60 60 39 60 60 39 60 60 39 60 60 39 60 60 39 60 60 39 60 60 39 60 60 39 60 60 39 60 60 39 60 60 39 60 60 39 60 60 39 60 60 39 60 60 39 60 60 39 60 60 39 60 60 39 60 60 39 60 60 39 60 60 39 60 60 39 60 60 39 60 60 39 60 60 39 60 60 39 60 60 39 60 60 39 60 60 39 60 60 39 60 60 39 60 60 39 59 59 39 59 59 39 59 59 39 59 59 39 59 59 39 59 59 39 59 59 39 59 59 39 59 59 39 59 59 39 59 59 39 59 59 39 59 59 39 59 59 39 59 59 39 59 59 39 59 59 39 59 59 39 59 59 54 75 77 44 64 64 53 70 70 52 68 68 46 67 67 46 67 67 46 68 68 46 68 68 46 68 68 47 68 69 46 67 69 48 69 70 46 66 66 56 70 70 44 64 64 43 63 63 43 63 63 51 71 72 51 71 71 48 68 69 47 68 69 46 68 68 47 68 69 46 67 67 46 67 67 46 67 67 46 67 67 46 67 67 46 67 67 46 67 67 46 67 67 46 66 66 47 67 69 45 65 66 43 62 62 38 57 57 38 57 57 38 57 57 45 64 66 56 75 77 45 65 65 45 65 65 43 62 62 44 64 64 45 65 65 45 65 65 45 65 65 45 65 65 45 65 65 45 65 65 45 65 65 45 65 65 46 66 66 46 66 66 45 65 65 46 64 64 48 66 66 43 61 61 88 83 83 57 59 59 33 36 36 32 36 36 32 35 35 32 35 35 32 34 34 31 33 33 31 32 32 29 30 30 26 27 27 25 25 25 25 25 25 25 25 25 25 25 25 25 25 25 25 25 25 25 25 25 25 25 25 25 25 25 25 25 25 25 25 25 25 25 25 26 26 26 42 43 59 53 53 73 47 47 67 43 43 55 37 39 47 32 34 34 32 34 34 37 34 34 60 47 47 255 192 192 255 227 227 255 223 223 255 217 217 255 205 205 255 192 192 255 182 182 244 171 171 227 159 159 210 147 147 192 135 135 193 142 150 172 126 129 144 103 103 123 88 88 107 76 76 95 70 70 82 64 64 57 53 53 39 56 56 36 53 53 36 53 53 36 53 53 36 53 53 110 78 78 193 116 116 255 151 151 255 188 188 255 200 200 255 205 205 255 211 212 255 201 201 255 204 209 255 191 191 255 179 179 255 168 168 255 155 155 240 139 139 218 124 124 195 110 110 171 94 94 119 74 74 75 56 56 36 52 52 36 51 51 36 51 51 36 51 51 36 51 51 35 51 51 83 57 57 228 114 114 255 179 179 255 210 210 255 221 221 255 245 248 255 242 244 255 237 242 255 237 240 255 223 223 255 230 230 255 211 211 255 197 197 255 186 186 255 173 173 235 159 159 226 157 161 197 135 135 177 119 119 144 97 97 121 80 80 97 64 64 73 48 48 52 35 35 37 27 27 65 45 45 89 61 61 52 41 43 41 40 40 36 41 41 36 41 41 38 42 43 36 40 40 41 44 54 63 64 100 70 71 105 72 73 106 71 71 102 69 69 98 67 67 95 65 65 91 62 62 87 59 59 82 55 55 77 51 51 71 47 47 65 43 43 60 40 40 55 38 38 52 38 38 49 37 37 47 36 36 45 35 35 42 46 40 44 35 36 37 35 36 37 36 38 41 
38 58 58 38 58 58 38 58 58 38 58 58 38 58 58 38 58 58 38 58 58 38 58 58 38 58 58 38 58 58 38 58 58 38 58 58 38 58 58 38 58 58 38 58 58 38 58 58 38 58 58 38 58 58 38 58 58 38 59 59 38 59 59 38 59 59 38 59 59 38 59 59 38 59 59 38 59 59 39 59 59 39 59 59 39 59 59 39 59 59 39 59 59 39 59 59 39 59 59 39 59 59 39 59 59 39 59 59 39 59 59 39 59 59 39 59 59 39 59 59 39 59 59 39 59 59 39 59 59 39 59 59 39 59 59 39 59 59 39 59 59 39 59 59 39 59 59 39 59 59 39 59 59 39 59 59 39 59 59 39 59 59 39 59 59 39 59 59 39 59 59 39 60 60 39 60 60 39 60 60 39 60 60 39 60 60 39 60 60 39 60 60 39 60 60 39 60 60 39 60 60 39 60 60 39 60 60 39 60 60 39 60 60 39 60 60 39 60 60 39 60 60 39 60 60 39 60 60 39 60 60 39 60 60 39 60 60 39 60 60 39 60 60 39 60 60 39 60 60 39 60 60 39 60 60 39 60 60 39 60 60 39 60 60 39 60 60 39 60 60 39 60 60 39 60 60 39 60 60 39 60 60 39 60 60 39 59 59 39 59 59 39 59 59 39 59 59 39 59 59 39 59 59 39 59 59 39 59 59 39 59 59 39 59 59 39 59 59 39 59 59 39 59 59 39 59 59 39 59 59 39 59 59 39 59 59 39 59 59 39 59 59 39 59 59 39 59 59 39 59 59 39 59 59 39 59 59 39 59 59 39 59 59 39 59 59 39 59 59 53 74 74 44 64 64 45 66 66 46 67 67 46 67 67 46 67 67 46 67 67 46 67 67 47 68 70 46 67 69 48 69 71 51 69 71 46 66 66 54 68 68 44 64 64 43 63 63 49 69 70 49 69 70 47 65 65 46 67 67 47 68 68 47 68 68 46 67 67 46 67 67 46 67 67 46 67 67 46 67 67 47 67 67 46 67 67 46 66 66 46 66 66 45 66 66 47 67 68 51 71 74 50 70 73 41 61 61 38 57 57 38 57 57 38 57 57 66 85 88 45 65 65 45 65 65 45 64 64 43 62 62 44 64 64 45 65 65 45 65 65 45 65 65 45 65 65 45 65 65 45 65 65 45 65 65 45 65 65 45 64 64 47 64 64 53 67 67 53 67 67 45 62 62 60 59 59 33 36 36 32 36 36 32 36 36 32 36 36 32 35 35 32 35 35 32 34 34 31 33 33 31 33 33 31 32 32 29 30 30 28 28 28 26 26 26 26 26 26 25 25 25 25 25 25 25 25 25 25 25 25 25 25 25 26 26 26 26 26 26 28 28 28 28 28 28 35 36 44 50 51 70 48 49 69 44 44 59 36 37 48 32 34 34 31 33 33 36 33 34 193 136 136 255 230 230 255 224 224 255 216 216 255 208 208 255 195 195 255 182 182 241 171 171 224 160 160 207 148 148 189 136 136 172 124 124 169 127 135 149 113 116 128 95 95 104 78 78 88 67 67 74 58 58 64 54 54 52 48 48 39 44 44 40 57 57 37 54 54 36 53 53 180 100 100 255 139 139 255 185 185 255 208 208 255 217 217 255 222 222 255 221 221 255 222 222 255 211 211 255 204 204 255 203 204 255 187 187 255 190 193 255 170 170 243 150 150 218 132 132 195 116 116 173 101 101 150 86 86 127 73 73 84 56 56 45 49 49 36 51 51 36 51 51 36 51 51 35 51 51 141 75 75 255 143 143 255 184 184 255 211 212 255 224 224 255 230 231 255 238 238 255 234 234 255 221 221 255 221 221 255 221 221 255 205 205 255 186 186 255 174 174 236 160 160 215 146 146 208 147 153 180 126 128 150 102 102 124 84 84 100 67 67 77 51 51 55 37 37 39 28 28 30 26 26 68 46 46 64 44 44 46 35 36 51 39 40 45 39 39 38 39 39 36 41 41 38 42 43 39 43 45 65 66 103 74 75 111 77 78 113 77 77 110 75 75 106 73 73 103 72 72 100 69 69 96 67 67 92 64 64 87 60 60 82 57 57 77 53 53 72 48 48 66 44 44 60 40 40 55 38 38 52 38 38 50 43 39 50 44 40 49 37 37 43 38 39 45 42 44 53 
38 58 58 38 58 58 38 58 58 38 58 58 38 58 58 38 58 58 38 58 58 38 58 58 38 58 58 38 58 58 38 58 58 38 58 58 38 58 58 38 58 58 38 58 58 38 58 58 38 58 58 38 58 58 38 58 58 38 58 58 38 58 58 38 58 58 38 59 59 38 59 59 38 59 59 38 59 59 38 59 59 38 59 59 38 59 59 38 59 59 39 59 59 39 59 59 39 59 59 39 59 59 39 59 59 39 59 59 39 59 59 39 59 59 39 59 59 39 59 59 39 59 59 39 59 59 39 59 59 39 59 59 39 59 59 39 59 59 39 59 59 39 59 59 39 59 59 39 59 59 39 59 59 39 59 59 39 59 59 39 59 59 39 59 59 39 59 59 39 59 59 39 59 59 39 59 59 39 59 59 39 59 59 39 59 59 39 59 59 39 59 59 39 59 59 39 59 59 39 59 59 39 59 59 39 59 59 39 59 59 39 59 59 39 59 59 39 59 59 39 59 59 39 59 59 39 59 59 39 59 59 39 59 59 39 59 59 39 59 59 39 59 59 39 59 59 39 59 59 39 59 59 39 59 59 39 59 59 39 59 59 39 59 59 39 59 59 39 59 59 39 59 59 39 59 59 39 59 59 39 59 59 39 59 59 39 59 59 39 59 59 39 59 59 39 59 59 39 59 59 39 59 59 39 59 59 39 59 59 39 59 59 39 59 59 39 59 59 39 59 59 39 59 59 39 59 59 39 59 59 39 59 59 39 59 59 39 59 59 39 59 59 39 59 59 39 59 59 39 59 59 39 59 59 39 59 59 39 59 59 39 59 59 38 59 59 38 59 59 44 64 64 44 64 64 44 64 64 45 66 66 46 66 66 47 67 68 46 67 68 48 68 70 50 69 72 48 68 70 50 68 69 50 68 68 48 67 69 53 68 68 43 63 63 43 63 63 49 69 69 50 69 70 46 66 66 46 67 67 46 67 67 46 67 67 46 67 67 46 67 67 46 67 67 46 67 67 46 67 67 46 67 67 46 67 67 46 67 68 46 66 66 45 66 66 46 65 66 49 68 70 52 71 74 48 67 69 38 57 57 38 57 57 38 57 57 66 86 89 45 64 65 45 65 65 45 64 64 43 62 62 43 62 62 44 63 63 44 64 64 44 64 64 45 64 64 45 64 64 45 64 64 45 64 64 44 63 63 46 64 64 56 69 69 46 63 64 58 69 69 52 66 66 46 65 66 33 36 36 32 36 36 32 36 36 32 36 36 32 35 35 32 35 35 32 35 35 32 34 34 32 34 34 31 33 33 31 33 33 31 32 32 29 30 30 29 30 30 29 30 30 28 28 28 28 28 28 28 28 28 28 28 28 29 30 30 29 30 30 31 32 32 31 32 32 32 33 33 35 36 42 47 48 59 41 42 51 32 35 35 32 34 34 32 33 33 51 43 43 196 139 139 255 221 221 255 214 215 255 207 208 255 195 195 252 180 180 235 170 170 219 158 158 201 147 147 184 135 135 167 123 123 149 111 111 151 118 128 128 101 105 100 78 78 83 66 66 68 56 56 51 44 44 39 36 36 39 40 40 35 38 38 54 57 57 41 58 58 180 101 101 255 145 145 255 196 196 255 217 217 255 226 226 255 239 239 255 235 236 255 235 235 255 227 227 255 217 217 255 209 209 255 199 199 255 188 188 255 183 187 255 177 182 243 158 158 213 135 135 189 118 118 167 103 103 144 87 87 122 73 73 102 61 61 78 48 48 52 51 51 36 51 51 35 51 51 35 51 51 145 82 82 255 150 150 255 184 185 255 207 208 255 214 214 255 220 221 255 222 222 255 216 216 255 208 208 255 203 203 255 201 202 255 186 186 253 172 172 234 160 160 214 146 146 192 132 132 177 123 124 163 118 121 135 93 93 102 69 69 79 53 53 57 39 39 40 29 29 30 26 26 62 45 45 60 39 39 63 49 49 41 35 35 37 31 31 42 35 36 41 36 38 37 36 36 37 43 43 36 41 41 42 45 55 72 71 108 81 81 117 79 80 115 80 80 114 78 78 109 76 77 106 75 75 103 73 73 100 70 70 96 67 67 92 64 64 87 60 60 82 56 56 77 52 52 71 50 49 66 42 42 58 39 39 54 42 40 53 50 45 57 37 39 43 41 43 51 37 40 45 
38 58 58 38 58 58 38 58 58 38 58 58 38 58 58 38 58 58 38 58 58 38 58 58 38 58 58 38 58 58 38 58 58 38 58 58 38 58 58 38 58 58 38 58 58 38 58 58 38 58 58 38 58 58 38 58 58 38 58 58 38 58 58 38 58 58 38 58 58 38 58 58 38 58 58 38 58 58 38 59 59 38 59 59 38 59 59 38 59 59 38 59 59 38 59 59 38 59 59 38 59 59 39 59 59 39 59 59 39 59 59 39 59 59 39 59 59 39 59 59 39 59 59 39 59 59 39 59 59 39 59 59 39 59 59 39 59 59 39 59 59 39 59 59 39 59 59 39 59 59 39 59 59 39 59 59 39 59 59 39 59 59 39 59 59 39 59 59 39 59 59 39 59 59 39 59 59 39 59 59 39 59 59 39 59 59 39 59 59 39 59 59 39 59 59 39 59 59 39 59 59 39 59 59 39 59 59 39 59 59 39 59 59 39 59 59 39 59 59 39 59 59 39 59 59 39 59 59 39 59 59 39 59 59 39 59 59 39 59 59 39 59 59 39 59 59 39 59 59 39 59 59 39 59 59 39 59 59 39 59 59 39 59 59 39 59 59 39 59 59 39 59 59 39 59 59 39 59 59 39 59 59 39 59 59 39 59 59 39 59 59 39 59 59 39 59 59 39 59 59 39 59 59 39 59 59 39 59 59 39 59 59 39 59 59 39 59 59 39 59 59 39 59 59 39 59 59 39 59 59 39 59 59 39 59 59 39 59 59 39 59 59 39 59 59 39 59 59 38 59 59 38 59 59 38 59 59 38 59 59 38 59 59 38 59 59 38 59 59 44 64 64 44 64 64 43 64 64 45 65 65 48 69 72 49 70 74 49 69 72 48 68 72 47 67 69 49 66 66 52 67 69 47 66 66 50 66 66 52 67 67 43 63 63 49 69 70 51 71 72 49 67 67 45 66 66 46 67 67 46 67 67 46 67 67 46 67 67 46 67 67 46 67 67 46 67 67 46 67 67 46 67 67 46 67 67 46 66 66 46 67 67 45 66 66 45 65 65 46 65 66 49 69 70 52 71 75 46 64 64 38 57 57 38 57 57 51 70 74 46 65 66 46 65 65 45 64 64 43 62 62 43 62 62 43 62 62 43 62 62 43 62 62 44 63 63 44 63 63 44 63 63 44 63 63 49 66 66 46 63 63 52 67 67 50 64 65 43 61 61 48 64 65 43 61 61 33 36 36 32 36 36 32 36 36 32 36 36 32 35 35 32 35 35 32 35 35 32 35 35 32 34 34 32 34 34 31 34 34 31 33 33 31 33 33 31 33 33 31 32 32 31 32 32 31 32 32 31 32 32 31 32 32 31 32 32 31 32 32 31 33 33 31 33 33 31 33 33 32 34 35 33 35 37 32 35 35 32 35 35 34 35 37 35 32 34 177 127 127 255 221 221 255 212 212 255 202 202 255 192 192 250 182 182 228 166 166 212 155 155 195 144 144 177 132 132 160 120 120 142 108 108 125 96 96 121 97 104 104 86 89 83 69 69 57 49 49 43 38 38 36 34 34 28 28 28 28 28 28 32 34 34 56 42 42 174 98 98 255 142 142 255 199 199 255 225 226 255 236 236 255 249 251 255 237 237 255 234 234 255 243 243 255 231 231 255 219 219 255 208 208 255 197 197 255 185 185 255 173 173 255 173 177 233 157 159 208 137 137 178 116 116 156 100 100 134 85 85 112 70 70 90 55 55 73 47 47 87 52 52 51 55 55 35 51 51 35 51 51 143 84 84 255 151 151 255 179 179 255 198 198 255 216 216 255 226 226 255 227 227 255 211 211 255 194 194 255 199 199 255 195 197 248 169 169 230 157 157 211 144 144 190 131 131 169 116 116 154 108 114 136 98 103 105 74 74 79 54 54 57 39 39 40 30 30 30 26 26 41 31 31 41 31 31 68 51 52 36 32 32 30 30 30 30 30 30 33 31 31 35 32 32 37 33 33 35 42 42 35 43 43 36 43 43 42 45 55 65 65 92 67 68 95 76 77 110 81 81 113 78 78 109 78 78 108 77 77 107 75 75 104 72 72 100 69 69 95 65 65 90 62 62 84 58 58 79 53 53 73 56 52 70 44 43 60 48 45 57 38 40 47 35 38 41 34 38 38 33 36 36 
38 57 57 38 57 57 38 57 57 38 58 58 38 58 58 38 58 58 38 58 58 38 58 58 38 58 58 38 58 58 38 58 58 38 58 58 38 58 58 38 58 58 38 58 58 38 58 58 38 58 58 38 58 58 38 58 58 38 58 58 38 58 58 38 58 58 38 58 58 38 58 58 38 58 58 38 58 58 38 58 58 38 58 58 38 58 58 38 58 58 38 59 59 38 59 59 38 59 59 38 59 59 38 59 59 38 59 59 38 59 59 38 59 59 38 59 59 39 59 59 39 59 59 39 59 59 39 59 59 39 59 59 39 59 59 39 59 59 39 59 59 39 59 59 39 59 59 39 59 59 39 59 59 39 59 59 39 59 59 39 59 59 39 59 59 39 59 59 39 59 59 39 59 59 39 59 59 39 59 59 39 59 59 39 59 59 39 59 59 39 59 59 39 59 59 39 59 59 39 59 59 39 59 59 39 59 59 39 59 59 39 59 59 39 59 59 39 59 59 39 59 59 39 59 59 39 59 59 39 59 59 39 59 59 39 59 59 39 59 59 39 59 59 39 59 59 39 59 59 39 59 59 39 59 59 39 59 59 39 59 59 39 59 59 39 59 59 39 59 59 39 59 59 39 59 59 39 59 59 39 59 59 39 59 59 39 59 59 39 59 59 39 59 59 39 59 59 39 59 59 39 59 59 39 59 59 39 59 59 39 59 59 39 59 59 39 59 59 39 59 59 39 59 59 39 59 59 39 59 59 39 59 59 38 59 59 38 59 59 38 59 59 38 59 59 38 59 59 38 59 59 38 59 59 38 59 59 38 59 59 38 58 58 38 58 58 38 58 58 46 66 66 43 63 63 43 63 63 43 63 63 51 71 76 53 73 79 51 71 76 49 68 72 47 67 69 45 65 65 55 69 69 47 65 65 55 70 70 43 63 63 43 63 63 54 73 74 57 75 75 45 64 64 46 66 66 46 67 67 46 67 67 46 66 66 46 66 66 45 66 66 46 66 66 46 66 66 46 67 67 46 66 66 46 66 66 46 67 67 46 66 66 46 66 66 45 65 65 45 65 65 46 65 66 51 70 72 45 65 66 38 57 57 38 57 57 38 57 57 63 82 84 45 64 64 49 66 66 44 62 62 43 62 62 43 62 62 43 62 62 43 61 61 43 61 61 43 61 61 43 62 62 46 63 63 53 68 69 48 64 64 44 62 62 43 62 62 44 62 62 45 63 65 44 62 63 43 61 61 33 36 36 32 36 36 32 36 36 32 36 36 32 35 35 32 35 35 32 35 35 32 35 35 32 34 34 32 34 34 32 34 34 32 34 34 31 33 33 31 33 33 31 33 33 31 33 33 31 33 33 31 33 33 31 33 33 31 33 33 31 33 33 31 34 34 32 34 34 32 34 34 32 35 35 33 36 37 34 36 38 31 32 32 49 42 43 176 127 127 255 207 207 255 197 197 255 187 187 242 177 177 227 168 169 204 151 151 187 139 139 169 128 128 152 116 116 134 104 104 117 92 92 100 80 80 99 85 93 76 67 70 54 49 51 38 36 36 30 29 29 25 25 25 25 25 25 25 25 25 31 32 32 32 35 35 145 93 93 255 190 190 255 215 215 255 236 242 255 246 251 255 239 239 255 243 243 255 233 233 255 230 231 255 227 227 255 214 214 255 203 203 255 191 191 255 179 179 247 166 166 227 152 152 216 148 150 194 130 130 165 110 110 142 94 94 120 79 79 99 65 65 78 51 51 57 38 38 57 38 38 106 70 70 48 53 53 35 51 51 220 92 92 255 147 147 255 172 172 255 193 193 255 208 208 255 220 221 255 227 227 255 213 213 255 197 197 255 195 196 247 168 168 225 154 154 206 141 141 186 128 128 166 114 114 145 100 100 137 100 107 115 85 91 83 59 60 56 39 39 40 30 30 30 26 26 26 25 25 50 37 37 59 43 43 40 34 34 28 28 28 27 27 27 26 26 26 30 30 30 34 33 35 33 32 33 33 34 34 35 49 49 35 49 49 36 48 48 36 45 45 43 49 58 53 55 72 67 67 92 65 66 90 69 70 100 73 73 104 73 73 103 71 71 100 69 69 97 64 65 90 60 60 84 53 54 71 54 53 69 45 46 56 39 40 50 37 39 44 34 37 37 33 37 37 33 35 35 32 34 34 
38 57 57 38 57 57 38 57 57 38 57 57 38 57 57 38 58 58 38 58 58 38 58 58 38 58 58 38 58 58 38 58 58 38 58 58 38 58 58 38 58 58 38 58 58 38 58 58 38 58 58 38 58 58 38 58 58 38 58 58 38 58 58 38 58 58 38 58 58 38 58 58 38 58 58 38 58 58 38 58 58 38 58 58 38 58 58 38 58 58 38 58 58 38 58 58 38 58 58 38 58 58 38 59 59 38 59 59 38 59 59 38 59 59 38 59 59 38 59 59 38 59 59 38 59 59 38 59 59 38 59 59 38 59 59 39 59 59 39 59 59 39 59 59 39 59 59 39 59 59 39 59 59 39 59 59 39 59 59 39 59 59 39 59 59 39 59 59 39 59 59 39 59 59 39 59 59 39 59 59 39 59 59 39 59 59 39 59 59 39 59 59 39 59 59 39 59 59 39 59 59 39 59 59 39 59 59 39 59 59 39 59 59 39 59 59 39 59 59 39 59 59 39 59 59 39 59 59 39 59 59 39 59 59 39 59 59 39 59 59 39 59 59 39 59 59 39 59 59 39 59 59 39 59 59 39 59 59 39 59 59 39 59 59 39 59 59 39 59 59 39 59 59 39 59 59 39 59 59 39 59 59 39 59 59 39 59 59 39 59 59 39 59 59 39 59 59 39 59 59 39 59 59 39 59 59 39 59 59 39 59 59 39 59 59 38 59 59 38 59 59 38 59 59 38 59 59 38 59 59 38 59 59 38 59 59 38 59 59 38 59 59 38 59 59 38 58 58 38 58 58 38 58 58 38 58 58 38 58 58 38 58 58 45 65 67 52 72 75 51 71 72 49 69 70 51 70 70 50 70 70 54 74 78 57 77 82 53 73 78 49 69 73 47 67 69 44 64 64 47 64 64 49 66 66 43 63 63 43 63 63 43 63 63 43 63 63 45 64 64 44 64 64 46 66 66 46 66 66 46 66 66 45 66 66 45 66 66 45 66 66 45 66 66 45 66 66 45 66 66 46 66 66 45 66 66 45 66 66 46 66 66 45 66 66 45 65 65 45 65 65 45 64 64 49 68 69 47 66 68 38 57 57 38 57 57 38 57 57 38 57 57 48 67 67 44 63 63 43 62 62 43 62 62 43 61 61 43 61 61 43 61 61 43 61 61 43 61 61 51 66 66 48 64 64 48 64 64 50 67 69 46 64 66 49 65 67 44 62 62 45 64 66 43 61 61 43 62 62 41 55 55 32 36 36 32 36 36 32 36 36 32 35 35 32 35 35 32 35 35 32 35 35 32 35 35 32 34 34 32 34 34 32 34 34 32 34 34 32 34 34 32 34 34 32 34 34 32 34 34 32 34 34 32 34 34 32 34 34 32 34 34 32 34 34 32 34 34 32 35 35 33 36 37 33 35 35 31 32 32 38 34 34 159 115 115 255 200 200 255 191 191 250 182 182 232 171 171 222 165 165 201 151 152 178 134 134 160 122 122 143 110 110 126 98 98 108 86 86 91 75 75 74 63 63 78 72 85 66 60 68 32 32 32 25 25 25 25 25 25 25 25 25 25 25 25 37 28 28 39 31 31 44 37 37 94 66 67 255 207 207 255 223 223 255 229 229 255 242 244 255 244 245 255 237 237 255 229 229 255 227 228 255 221 221 255 207 207 255 195 195 255 183 183 249 170 170 229 157 157 223 157 166 202 143 144 172 119 119 147 101 101 124 85 85 103 70 70 82 56 56 62 43 43 44 32 32 32 26 26 94 64 64 99 71 71 35 51 51 208 89 89 255 138 138 255 162 162 255 179 179 255 192 192 255 193 193 255 186 186 255 189 189 255 183 183 252 174 175 220 150 150 199 136 136 180 124 124 161 111 111 140 97 97 119 82 82 100 70 71 93 70 76 59 43 43 39 30 30 30 26 26 26 25 25 25 25 25 40 33 33 57 46 46 27 27 27 25 25 25 25 25 25 25 25 25 25 25 25 32 32 33 32 33 33 32 33 33 35 49 49 35 49 49 35 49 49 35 49 49 35 49 49 35 47 47 33 40 40 43 46 54 43 46 54 49 51 66 50 52 67 51 53 67 50 52 66 48 50 64 45 47 59 42 44 55 38 41 47 36 38 44 34 37 38 35 38 39 33 35 35 32 35 35 32 34 34 32 34 34 
38 57 57 38 57 57 38 57 57 38 57 57 38 57 57 38 57 57 38 57 57 38 57 57 38 58 58 38 58 58 38 58 58 38 58 58 38 58 58 38 58 58 38 58 58 38 58 58 38 58 58 38 58 58 38 58 58 38 58 58 38 58 58 38 58 58 38 58 58 38 58 58 38 58 58 38 58 58 38 58 58 38 58 58 38 58 58 38 58 58 38 58 58 38 58 58 38 58 58 38 58 58 38 58 58 38 58 58 38 58 58 38 58 58 38 58 58 38 59 59 38 59 59 38 59 59 38 59 59 38 59 59 38 59 59 38 59 59 38 59 59 38 59 59 38 59 59 38 59 59 38 59 59 38 59 59 39 59 59 39 59 59 39 59 59 39 59 59 39 59 59 39 59 59 39 59 59 39 59 59 39 59 59 39 59 59 39 59 59 39 59 59 39 59 59 39 59 59 39 59 59 39 59 59 39 59 59 39 59 59 39 59 59 39 59 59 39 59 59 39 59 59 39 59 59 39 59 59 39 59 59 39 59 59 39 59 59 39 59 59 39 59 59 39 59 59 39 59 59 39 59 59 39 59 59 39 59 59 39 59 59 39 59 59 39 59 59 39 59 59 39 59 59 39 59 59 39 59 59 39 59 59 39 59 59 39 59 59 39 59 59 38 59 59 38 59 59 38 59 59 38 59 59 38 59 59 38 59 59 38 59 59 38 59 59 38 59 59 38 59 59 38 59 59 38 59 59 38 59 59 38 58 58 38 58 58 38 58 58 38 58 58 38 58 58 38 58 58 38 58 58 38 58 58 38 58 58 38 58 58 52 72 74 53 71 73 50 69 70 55 75 77 51 71 72 51 71 73 50 70 71 57 76 79 52 72 74 58 78 82 53 73 76 51 71 73 49 69 70 44 63 63 44 63 63 43 63 63 43 63 63 42 61 61 55 74 77 43 63 63 43 63 63 45 66 66 45 66 66 45 66 66 45 66 66 45 66 66 45 66 66 45 66 66 45 66 66 45 66 66 48 67 67 46 66 66 46 66 67 46 66 66 47 66 66 45 65 65 45 64 64 45 64 64 47 66 67 46 65 67 39 58 58 38 57 57 38 57 57 38 57 57 44 63 63 44 63 63 43 61 61 43 61 61 43 61 61 43 61 61 43 61 61 46 63 63 46 64 64 51 66 66 50 66 66 43 62 62 46 64 67 44 62 63 43 61 62 45 64 65 43 62 62 44 62 62 44 62 62 44 62 62 35 43 43 32 36 36 32 36 36 32 36 36 32 35 35 32 35 35 32 35 35 32 35 35 32 35 35 32 35 35 32 34 34 32 34 34 32 34 34 32 34 34 32 34 34 32 34 34 32 34 34 32 34 34 32 34 34 32 34 34 32 34 34 32 35 35 32 35 35 35 37 38 31 33 33 35 32 32 149 109 109 212 152 152 255 183 183 240 175 175 225 167 169 207 155 156 194 146 146 176 136 138 151 116 116 134 104 104 116 92 92 99 80 80 81 68 68 60 53 53 45 41 41 46 45 49 39 37 39 29 29 29 25 25 25 25 25 25 25 25 25 50 36 36 46 34 34 60 40 40 66 44 44 74 52 52 255 179 179 255 225 226 255 255 255 255 253 255 255 233 233 255 229 229 255 231 231 255 237 237 255 210 210 255 196 196 255 184 184 249 172 172 229 159 159 209 145 145 189 131 131 188 137 143 159 112 113 127 89 89 105 73 73 84 59 59 63 46 46 45 34 34 32 27 27 27 25 25 57 39 39 92 68 68 77 63 63 190 80 80 234 126 126 254 150 151 255 159 159 255 164 164 255 167 167 250 163 163 238 158 158 227 154 154 218 151 151 193 132 133 172 118 118 154 106 106 134 93 93 114 79 79 93 64 64 78 56 62 71 56 65 42 34 34 29 26 26 26 25 25 25 25 25 33 28 28 59 45 45 28 27 27 25 25 25 25 25 25 25 25 25 25 25 25 25 25 25 29 30 30 31 32 32 32 34 34 35 49 49 35 49 49 35 49 49 35 49 49 35 49 49 35 49 49 35 49 49 34 45 45 33 39 39 33 36 36 34 37 37 33 36 36 33 36 36 33 36 36 39 39 39 34 36 36 32 35 35 32 34 34 33 35 36 34 36 37 33 35 36 32 34 34 32 34 34 32 34 34 
38 57 57 38 57 57 38 57 57 38 57 57 38 57 57 38 57 57 38 57 57 38 57 57 38 57 57 38 57 57 38 58 58 38 58 58 38 58 58 38 58 58 38 58 58 38 58 58 38 58 58 38 58 58 38 58 58 38 58 58 38 58 58 38 58 58 38 58 58 38 58 58 38 58 58 38 58 58 38 58 58 38 58 58 38 58 58 38 58 58 38 58 58 38 58 58 38 58 58 38 58 58 38 58 58 38 58 58 38 58 58 38 58 58 38 58 58 38 58 58 38 58 58 38 58 58 38 58 58 38 58 58 38 58 58 38 59 59 38 59 59 38 59 59 38 59 59 38 59 59 38 59 59 38 59 59 38 59 59 38 59 59 38 59 59 38 59 59 38 59 59 38 59 59 38 59 59 38 59 59 38 59 59 38 59 59 38 59 59 38 59 59 38 59 59 38 59 59 39 59 59 39 59 59 39 59 59 39 59 59 39 59 59 39 59 59 39 59 59 39 59 59 39 59 59 39 59 59 39 59 59 39 59 59 39 59 59 39 59 59 39 59 59 39 59 59 39 59 59 38 59 59 38 59 59 38 59 59 38 59 59 38 59 59 38 59 59 38 59 59 38 59 59 38 59 59 38 59 59 38 59 59 38 59 59 38 59 59 38 59 59 38 59 59 38 59 59 38 59 59 38 59 59 38 59 59 38 59 59 38 58 58 38 58 58 38 58 58 38 58 58 38 58 58 38 58 58 38 58 58 38 58 58 38 58 58 38 58 58 38 58 58 38 58 58 38 58 58 38 58 58 38 58 58 45 65 67 52 71 72 49 69 71 55 75 76 52 72 73 49 68 69 46 67 67 52 72 75 53 72 74 53 70 70 50 70 70 44 64 64 54 72 73 50 70 70 50 70 70 49 69 70 44 63 63 49 68 69 43 63 63 41 60 60 56 75 76 43 63 63 43 63 63 45 65 65 45 66 66 45 66 66 45 66 66 45 66 66 45 66 66 45 66 66 45 66 66 45 66 66 45 66 66 46 66 66 45 66 66 47 66 66 48 67 67 45 65 65 45 64 64 45 64 64 45 64 64 46 65 66 46 63 63 38 57 57 38 56 56 38 56 56 38 56 56 39 58 58 41 60 60 43 61 61 43 61 61 43 61 61 43 61 61 44 62 62 53 68 68 46 63 63 42 61 61 42 61 61 42 61 61 42 61 61 44 62 62 43 62 62 43 62 62 44 63 63 44 62 62 44 62 62 44 62 62 35 43 43 32 36 36 32 36 36 32 36 36 32 35 35 32 35 35 32 35 35 32 35 35 32 35 35 32 35 35 32 35 35 32 35 35 32 34 34 32 34 34 32 34 34 32 34 34 32 34 34 32 34 34 32 34 34 34 37 38 35 37 38 36 38 38 32 34 34 34 33 33 139 103 103 197 142 142 242 174 174 228 167 167 213 158 158 198 149 150 181 138 139 166 129 131 144 112 112 124 98 98 106 86 86 89 74 74 71 62 62 53 48 48 40 38 38 30 30 30 43 43 54 36 36 41 27 27 27 25 25 25 25 25 25 50 36 36 41 32 32 75 53 53 77 56 56 78 55 55 68 48 48 158 108 108 255 224 226 255 243 245 255 248 248 255 235 235 255 227 227 255 223 223 255 209 210 255 204 204 255 183 183 246 171 171 227 159 159 207 145 145 187 132 132 173 124 130 157 114 118 130 94 95 107 77 77 83 60 60 63 46 46 44 34 34 32 27 27 26 25 25 62 45 45 90 59 59 74 54 54 87 66 66 170 71 71 213 115 115 229 135 135 234 141 141 239 149 149 239 153 153 229 149 149 212 141 141 203 136 136 185 126 126 168 116 116 146 99 99 127 87 87 107 74 74 87 60 60 66 46 46 57 44 51 59 52 67 41 38 44 25 25 25 25 25 25 25 25 25 25 25 25 46 37 37 28 28 28 25 25 25 25 25 25 25 25 25 25 25 25 25 25 25 29 30 30 32 33 33 32 33 33 35 49 49 35 49 49 35 49 49 35 49 49 35 49 49 35 49 49 35 49 49 34 49 49 34 49 49 34 45 45 33 39 39 33 38 38 32 35 35 32 35 35 36 37 37 37 38 38 33 36 36 32 35 35 32 35 35 32 35 35 32 35 35 32 35 35 32 38 38 33 41 41 
38 57 57 38 57 57 38 57 57 38 57 57 38 57 57 38 57 57 38 57 57 38 57 57 38 57 57 38 57 57 38 57 57 38 57 57 38 57 57 38 58 58 38 58 58 38 58 58 38 58 58 38 58 58 38 58 58 38 58 58 38 58 58 38 58 58 38 58 58 38 58 58 38 58 58 38 58 58 38 58 58 38 58 58 38 58 58 38 58 58 38 58 58 38 58 58 38 58 58 38 58 58 38 58 58 38 58 58 38 58 58 38 58 58 38 58 58 38 58 58 38 58 58 38 58 58 38 58 58 38 58 58 38 58 58 38 58 58 38 58 58 38 58 58 38 58 58 38 58 58 38 58 58 38 58 58 38 58 58 38 59 59 38 59 59 38 59 59 38 59 59 38 59 59 38 59 59 38 59 59 38 59 59 38 59 59 38 59 59 38 59 59 38 59 59 38 59 59 38 59 59 38 59 59 38 59 59 38 59 59 38 59 59 38 59 59 38 59 59 38 59 59 38 59 59 38 59 59 38 59 59 38 59 59 38 59 59 38 59 59 38 59 59 38 59 59 38 59 59 38 59 59 38 59 59 38 59 59 38 59 59 38 59 59 38 59 59 38 59 59 38 59 59 38 59 59 38 59 59 38 59 59 38 58 58 38 58 58 38 58 58 38 58 58 38 58 58 38 58 58 38 58 58 38 58 58 38 58 58 38 58 58 38 58 58 38 58 58 38 58 58 38 58 58 38 58 58 38 58 58 38 58 58 38 58 58 38 58 58 38 58 58 38 58 58 38 58 58 38 58 58 38 58 58 46 66 66 55 75 78 57 74 76 48 68 69 47 68 68 46 67 67 51 71 72 50 71 71 51 71 73 50 70 70 50 69 70 48 68 68 45 66 66 45 66 66 45 66 66 45 65 65 46 66 66 47 66 66 50 69 69 47 66 66 57 76 76 43 62 62 43 62 62 45 64 64 45 66 66 45 66 66 45 66 66 45 66 66 45 66 66 45 66 66 45 65 65 45 65 65 45 65 65 45 65 65 46 66 67 47 66 66 46 66 66 46 65 65 44 63 63 43 62 62 48 67 70 44 63 63 41 60 60 38 56 56 38 56 56 38 56 56 38 56 56 37 56 56 39 57 57 41 60 60 41 60 60 43 61 61 42 61 61 49 66 66 53 67 68 48 64 64 42 61 61 43 61 61 49 68 68 45 63 63 43 61 61 44 63 63 44 63 63 44 63 63 44 63 63 44 63 63 44 63 63 44 62 62 38 49 49 32 36 36 32 36 36 32 35 35 32 35 35 32 35 35 32 35 35 32 35 35 32 35 35 32 35 35 32 35 35 32 35 35 32 35 35 32 35 35 32 35 35 32 35 35 32 35 35 34 37 37 32 35 36 33 36 36 32 34 34 39 37 37 132 98 98 184 133 133 228 164 164 215 158 158 201 150 150 186 141 141 170 130 130 153 119 120 134 106 106 116 93 93 96 79 79 78 67 67 58 52 52 43 40 40 32 31 31 25 25 25 30 30 37 46 47 59 48 48 62 27 27 29 25 25 25 39 31 31 38 31 31 68 51 51 43 36 36 40 35 35 56 43 44 66 48 48 82 62 62 255 225 225 255 219 220 255 228 228 255 225 226 255 218 218 255 201 201 255 205 206 255 183 184 241 169 169 223 157 157 204 144 144 184 131 131 164 117 117 155 114 121 138 104 110 110 83 84 81 60 60 61 46 46 43 34 34 31 27 27 26 25 25 59 42 42 46 35 35 72 49 49 52 37 37 72 55 55 77 58 58 187 98 98 202 117 117 208 125 125 211 131 131 213 136 136 202 132 132 187 124 124 173 116 116 157 107 107 142 98 100 118 80 80 100 68 68 80 55 55 61 42 42 45 33 33 33 27 27 42 41 48 37 38 44 25 25 25 25 25 25 25 25 25 25 25 25 25 25 25 25 25 25 25 25 25 25 25 25 25 25 25 25 25 25 28 28 28 31 32 32 32 34 34 32 34 34 35 49 49 35 49 49 35 49 49 35 49 49 35 49 49 35 49 49 63 69 96 55 67 93 56 68 93 57 68 93 56 68 92 72 76 122 69 75 119 53 59 80 52 58 78 50 53 73 57 56 74 32 38 38 32 38 38 33 41 41 33 41 41 33 41 41 34 45 45 34 45 45 
38 57 57 38 57 57 38 57 57 38 57 57 38 57 57 38 57 57 38 57 57 38 57 57 38 57 57 38 57 57 38 57 57 38 57 57 38 57 57 38 57 57 38 57 57 38 57 57 38 58 58 38 58 58 38 58 58 38 58 58 38 58 58 38 58 58 38 58 58 38 58 58 38 58 58 38 58 58 38 58 58 38 58 58 38 58 58 38 58 58 38 58 58 38 58 58 38 58 58 38 58 58 38 58 58 38 58 58 38 58 58 38 58 58 38 58 58 38 58 58 38 58 58 38 58 58 38 58 58 38 58 58 38 58 58 38 58 58 38 58 58 38 58 58 38 58 58 38 58 58 38 58 58 38 58 58 38 58 58 38 58 58 38 58 58 38 58 58 38 58 58 38 58 58 38 58 58 38 58 58 38 58 58 38 58 58 38 58 58 38 58 58 38 58 58 38 58 58 38 58 58 38 58 58 38 58 58 38 58 58 38 58 58 38 58 58 38 59 59 38 59 59 38 59 59 38 58 58 38 58 58 38 58 58 38 58 58 38 58 58 38 58 58 38 58 58 38 58 58 38 58 58 38 58 58 38 58 58 38 58 58 38 58 58 38 58 58 38 58 58 38 58 58 38 58 58 38 58 58 38 58 58 38 58 58 38 58 58 38 58 58 38 58 58 38 58 58 38 58 58 38 58 58 38 58 58 38 58 58 38 58 58 38 58 58 38 58 58 38 58 58 38 58 58 38 58 58 38 58 58 38 58 58 38 58 58 38 58 58 38 58 58 38 58 58 38 58 58 38 58 58 51 70 71 52 70 70 46 65 65 50 68 68 50 69 70 49 68 68 55 73 74 49 70 72 51 71 74 49 68 68 48 68 68 46 67 67 46 67 67 46 67 67 46 67 67 46 67 67 46 67 67 46 66 66 45 66 66 45 64 64 43 62 62 55 75 76 43 63 63 43 62 62 43 62 62 45 65 65 45 65 65 45 65 65 45 65 65 45 65 65 45 65 65 45 65 65 45 65 65 45 65 65 45 65 65 46 66 66 45 65 65 47 65 66 54 69 69 54 68 68 43 62 62 47 65 67 43 61 61 48 65 65 38 56 56 37 56 56 37 56 56 37 56 56 37 56 56 37 56 56 37 56 56 39 57 57 40 58 58 41 60 60 51 66 66 65 75 75 60 73 73 57 71 71 60 76 76 51 69 69 43 62 62 46 64 65 44 63 63 44 63 63 44 63 63 44 63 63 44 63 63 44 62 62 44 62 62 43 62 62 40 55 55 37 43 43 36 38 38 32 36 36 32 35 35 32 35 35 32 35 35 32 35 35 32 35 35 32 35 35 32 35 35 32 35 35 32 35 35 32 35 35 33 36 36 34 37 38 33 36 37 33 35 35 33 34 34 81 63 63 126 94 94 174 125 125 214 154 154 202 148 148 189 141 141 175 133 133 159 123 123 142 112 112 124 99 99 106 86 86 86 72 72 68 60 60 47 43 43 38 37 37 25 25 25 25 25 25 25 25 25 25 25 25 41 41 50 41 42 49 34 32 33 25 25 25 32 27 27 65 45 45 35 32 32 26 26 26 26 26 26 37 35 36 52 40 41 68 52 52 255 216 216 255 211 211 255 207 207 255 204 204 255 197 197 255 198 198 255 181 182 236 166 166 217 153 153 198 141 141 179 128 128 159 114 114 139 101 101 119 86 86 114 88 93 83 64 64 58 45 45 40 33 33 30 27 27 25 25 25 41 33 33 43 33 33 75 53 53 66 51 51 58 44 44 56 44 45 68 53 53 158 79 79 175 100 100 182 110 110 181 112 112 181 114 114 172 111 111 159 105 106 144 96 96 133 90 90 113 78 78 90 61 61 72 49 49 55 38 38 41 31 31 31 26 26 27 25 25 42 42 53 51 51 68 32 31 36 25 25 25 25 25 25 25 25 25 25 25 25 25 25 25 25 25 25 25 25 25 25 25 25 26 26 26 28 29 29 31 33 33 32 34 34 32 35 35 35 49 49 35 49 49 35 49 49 58 70 98 80 89 145 84 94 147 86 95 146 129 121 198 108 113 187 110 115 189 110 115 186 123 125 217 121 122 211 102 107 171 98 103 165 94 99 156 100 94 150 82 84 137 66 72 105 60 68 100 47 59 73 34 48 48 34 48 48 34 48 48 
38 57 57 38 57 57 38 57 57 38 57 57 38 57 57 38 57 57 38 57 57 38 57 57 38 57 57 38 57 57 38 57 57 38 57 57 38 57 57 38 57 57 38 57 57 38 57 57 38 57 57 38 57 57 38 57 57 38 57 57 38 58 58 38 58 58 38 58 58 38 58 58 38 58 58 38 58 58 38 58 58 38 58 58 38 58 58 38 58 58 38 58 58 38 58 58 38 58 58 38 58 58 38 58 58 38 58 58 38 58 58 38 58 58 38 58 58 38 58 58 38 58 58 38 58 58 38 58 58 38 58 58 38 58 58 38 58 58 38 58 58 38 58 58 38 58 58 38 58 58 38 58 58 38 58 58 38 58 58 38 58 58 38 58 58 38 58 58 38 58 58 38 58 58 38 58 58 38 58 58 38 58 58 38 58 58 38 58 58 38 58 58 38 58 58 38 58 58 38 58 58 38 58 58 38 58 58 38 58 58 38 58 58 38 58 58 38 58 58 38 58 58 38 58 58 38 58 58 38 58 58 38 58 58 38 58 58 38 58 58 38 58 58 38 58 58 38 58 58 38 58 58 38 58 58 38 58 58 38 58 58 38 58 58 38 58 58 38 58 58 38 58 58 38 58 58 38 58 58 38 58 58 38 58 58 38 58 58 38 58 58 38 58 58 38 58 58 38 58 58 38 58 58 38 58 58 38 58 58 38 58 58 38 58 58 38 58 58 38 58 58 38 58 58 38 58 58 38 58 58 38 58 58 38 58 58 38 58 58 38 58 58 38 58 58 38 58 58 38 58 58 41 60 60 46 65 65 56 71 71 51 69 69 52 68 69 52 71 72 57 73 74 51 71 72 46 66 66 46 67 67 47 68 68 46 67 67 47 68 68 46 67 67 46 67 67 46 67 67 46 67 67 45 66 66 47 67 69 47 67 69 47 66 68 56 75 77 45 65 65 43 62 62 43 62 62 43 63 63 45 65 65 45 65 65 45 65 65 45 65 65 45 65 65 45 65 65 45 65 65 45 65 65 45 65 65 45 65 65 45 64 64 52 68 68 47 64 64 57 68 68 43 62 62 44 63 63 43 62 62 37 56 56 37 56 56 37 56 56 37 56 56 37 56 56 37 56 56 37 56 56 37 56 56 37 56 56 37 56 56 37 56 56 39 57 57 74 81 81 85 91 91 87 95 96 82 94 94 58 76 76 48 65 65 44 63 63 44 63 63 44 63 63 44 63 63 44 63 63 44 62 62 44 62 62 44 62 62 43 62 62 43 61 61 40 54 54 36 47 47 36 43 43 33 36 36 36 38 38 33 36 36 32 35 35 32 35 35 32 35 35 32 35 35 32 35 35 32 35 35 32 35 35 33 36 36 35 37 38 35 37 37 74 57 57 118 85 85 123 91 91 209 149 149 200 144 144 187 136 136 177 132 132 163 124 124 148 115 115 131 104 104 113 92 92 95 79 79 77 66 66 56 50 50 42 39 39 31 30 30 25 25 25 25 25 25 25 25 25 25 25 25 25 25 25 28 28 30 37 38 46 28 29 29 32 27 27 45 33 33 43 35 35 25 25 25 25 25 25 26 26 26 31 32 32 37 33 33 57 45 45 255 197 197 255 201 201 255 197 197 255 188 188 255 182 182 247 174 174 231 164 164 211 149 149 191 136 136 173 124 124 153 111 111 134 97 97 114 83 83 100 76 82 89 71 80 59 48 51 38 32 32 28 26 26 25 25 25 25 25 25 35 29 29 69 47 47 48 39 39 33 30 30 34 31 31 38 32 32 51 41 41 90 51 51 150 84 84 154 93 93 153 94 94 150 94 94 141 91 91 130 86 86 117 79 80 102 70 70 86 60 60 65 45 45 49 35 35 36 28 28 30 26 26 26 25 25 25 25 25 31 31 35 47 48 60 35 35 41 28 28 32 25 25 25 25 25 25 25 25 25 25 25 25 25 25 25 25 25 25 25 25 25 28 28 28 31 32 32 31 34 34 32 34 34 33 38 38 60 68 98 82 89 148 88 97 154 112 119 202 117 123 204 141 144 249 144 147 249 148 149 250 151 152 252 150 151 250 150 150 246 147 148 240 144 144 233 138 138 223 132 132 214 125 125 204 119 120 193 113 114 182 106 109 173 99 100 162 80 86 129 98 90 131 76 70 96 49 55 67 
38 57 57 38 57 57 38 57 57 38 57 57 38 57 57 38 57 57 38 57 57 38 57 57 38 57 57 38 57 57 38 57 57 38 57 57 38 57 57 38 57 57 38 57 57 38 57 57 38 57 57 38 57 57 38 57 57 38 57 57 38 57 57 38 57 57 38 57 57 38 58 58 38 58 58 38 58 58 38 58 58 38 58 58 38 58 58 38 58 58 38 58 58 38 58 58 38 58 58 38 58 58 38 58 58 38 58 58 38 58 58 38 58 58 38 58 58 38 58 58 38 58 58 38 58 58 38 58 58 38 58 58 38 58 58 38 58 58 38 58 58 38 58 58 38 58 58 38 58 58 38 58 58 38 58 58 38 58 58 38 58 58 38 58 58 38 58 58 38 58 58 38 58 58 38 58 58 38 58 58 38 58 58 38 58 58 38 58 58 38 58 58 38 58 58 38 58 58 38 58 58 38 58 58 38 58 58 38 58 58 38 58 58 38 58 58 38 58 58 38 58 58 38 58 58 38 58 58 38 58 58 38 58 58 38 58 58 38 58 58 38 58 58 38 58 58 38 58 58 38 58 58 38 58 58 38 58 58 38 58 58 38 58 58 38 58 58 38 58 58 38 58 58 38 58 58 38 58 58 38 58 58 38 58 58 38 58 58 38 58 58 38 58 58 38 58 58 38 58 58 38 58 58 38 58 58 38 58 58 38 58 58 38 58 58 38 58 58 38 58 58 38 58 58 38 58 58 38 58 58 38 58 58 38 58 58 38 58 58 38 58 58 38 58 58 38 58 58 46 65 66 48 68 68 44 64 64 46 65 65 46 66 66 48 67 67 48 68 68 49 69 69 45 66 66 46 66 66 47 67 67 46 67 67 46 66 66 46 67 67 46 66 66 46 66 67 46 66 66 46 66 67 47 67 68 49 69 72 52 71 76 51 70 74 52 71 73 45 65 65 43 62 62 43 62 62 43 62 62 43 62 62 44 64 64 45 64 64 45 65 65 45 65 65 45 65 65 45 65 65 45 64 64 45 64 64 44 64 64 50 66 66 47 65 67 52 66 66 43 61 61 46 65 67 45 64 66 40 59 59 37 56 56 37 56 56 37 56 56 37 56 56 37 56 56 37 56 56 37 56 56 37 56 56 37 56 56 37 56 56 37 56 56 37 56 56 69 77 77 96 99 99 86 96 96 73 89 89 50 68 68 44 63 63 44 63 63 44 63 63 45 63 64 46 65 67 44 63 63 46 65 67 44 62 62 43 62 62 43 62 62 43 61 61 42 60 60 42 60 60 36 50 50 37 47 47 34 41 41 34 41 41 34 37 37 33 36 36 33 36 36 32 36 36 33 36 36 33 36 36 33 36 36 34 40 40 35 42 42 64 51 51 113 77 77 154 105 105 192 134 134 186 135 135 176 130 130 163 121 121 146 110 110 133 103 103 118 94 94 102 83 83 83 70 70 61 54 54 45 42 42 37 36 36 25 25 25 25 25 25 25 25 25 25 25 25 25 25 25 25 25 25 25 25 25 40 40 51 50 50 67 33 33 43 25 25 25 66 49 49 25 25 25 25 25 25 25 25 25 28 28 28 31 33 33 30 30 30 46 37 37 180 124 124 255 189 189 255 186 186 255 175 175 237 166 166 222 157 157 207 149 150 183 131 131 165 119 119 146 106 106 127 93 93 107 79 79 87 65 65 77 62 69 72 63 77 50 45 51 27 25 25 25 25 25 25 25 25 44 31 31 58 39 39 50 41 41 28 28 28 27 27 27 28 28 28 33 32 32 39 33 34 51 41 41 118 63 64 129 77 77 126 78 78 121 77 77 113 73 73 102 68 68 89 60 61 76 53 55 61 45 45 49 39 39 36 30 30 30 27 27 25 25 25 25 25 25 25 25 25 25 25 25 32 33 37 47 48 62 42 42 57 28 28 30 25 25 25 25 25 25 25 25 25 28 28 33 34 34 43 28 28 28 30 31 31 31 33 33 32 34 34 51 52 83 86 86 146 91 100 158 118 125 210 146 148 255 152 156 255 158 158 255 156 158 255 155 156 254 160 161 255 164 164 255 163 163 255 160 160 253 157 157 247 152 152 238 146 146 229 140 140 218 132 132 208 126 126 198 122 122 190 115 116 178 110 110 167 103 104 159 96 97 149 105 99 148 95 91 125 
38 57 57 38 57 57 38 57 57 38 57 57 38 57 57 38 57 57 38 57 57 38 57 57 38 57 57 38 57 57 38 57 57 38 57 57 38 57 57 38 57 57 38 57 57 38 57 57 38 57 57 38 57 57 38 57 57 38 57 57 38 57 57 38 57 57 38 57 57 38 57 57 38 57 57 38 57 57 38 57 57 38 58 58 38 58 58 38 58 58 38 58 58 38 58 58 38 58 58 38 58 58 38 58 58 38 58 58 38 58 58 38 58 58 38 58 58 38 58 58 38 58 58 38 58 58 38 58 58 38 58 58 38 58 58 38 58 58 38 58 58 38 58 58 38 58 58 38 58 58 38 58 58 38 58 58 38 58 58 38 58 58 38 58 58 38 58 58 38 58 58 38 58 58 38 58 58 38 58 58 38 58 58 38 58 58 38 58 58 38 58 58 38 58 58 38 58 58 38 58 58 38 58 58 38 58 58 38 58 58 38 58 58 38 58 58 38 58 58 38 58 58 38 58 58 38 58 58 38 58 58 38 58 58 38 58 58 38 58 58 38 58 58 38 58 58 38 58 58 38 58 58 38 58 58 38 58 58 38 58 58 38 58 58 38 58 58 38 58 58 38 58 58 38 58 58 38 58 58 38 58 58 38 58 58 38 58 58 38 58 58 38 58 58 38 58 58 38 58 58 38 58 58 38 58 58 38 58 58 38 58 58 38 58 58 38 58 58 38 58 58 38 58 58 38 58 58 38 58 58 38 58 58 38 58 58 38 58 58 38 58 58 38 58 58 38 58 58 41 60 60 49 68 70 57 76 79 55 75 78 55 75 77 50 70 70 49 68 69 45 65 65 45 66 66 46 66 66 46 66 66 45 66 66 46 66 66 45 66 66 46 67 67 45 66 66 45 66 66 46 67 67 46 66 67 49 69 72 51 71 74 53 72 77 53 72 77 45 64 64 45 64 64 43 62 62 43 62 62 43 62 62 43 62 62 43 62 62 44 63 63 44 63 63 44 63 63 44 63 63 44 63 63 44 63 63 44 63 63 51 67 69 52 66 66 47 64 64 46 65 66 43 61 61 43 62 62 40 59 59 37 56 56 37 56 56 37 56 56 37 56 56 37 56 56 37 56 56 37 56 56 37 56 56 37 56 56 37 56 56 37 56 56 37 56 56 83 86 86 92 98 98 81 93 93 60 77 77 44 63 63 45 64 65 46 65 67 44 62 62 45 64 65 44 63 63 46 64 66 45 63 65 45 63 67 46 64 67 43 62 62 43 61 61 42 60 60 42 60 60 37 55 55 37 55 55 37 54 54 36 50 50 36 50 50 35 45 45 35 45 45 35 45 45 35 45 45 35 45 45 35 45 45 37 50 50 36 49 49 37 54 54 168 104 104 172 116 116 169 121 121 162 120 120 152 115 115 139 107 107 120 92 92 104 82 82 88 72 72 72 62 62 54 48 48 40 38 38 30 30 30 25 25 25 25 25 25 25 25 25 25 25 25 25 25 25 25 25 25 25 25 25 25 25 25 38 38 50 53 53 71 42 42 53 25 25 25 31 28 28 25 25 25 25 25 25 25 25 25 28 29 29 31 33 33 31 31 31 39 33 33 162 112 112 255 174 174 246 168 168 230 159 159 214 150 150 199 141 141 181 131 132 159 115 115 138 100 100 119 88 88 100 74 74 80 61 61 60 47 47 43 36 36 48 45 52 33 33 34 28 28 28 25 25 25 25 25 25 40 33 33 64 48 48 27 27 27 25 25 25 25 25 25 25 25 25 32 32 33 32 31 31 40 33 34 92 48 48 98 57 58 101 64 64 95 61 61 85 55 55 75 50 50 64 44 44 53 40 40 43 36 36 37 35 35 33 34 34 30 31 31 28 29 29 26 27 27 26 26 26 25 25 25 25 25 25 42 42 56 51 52 69 35 35 44 39 39 51 39 38 49 26 27 27 40 40 52 49 47 63 32 33 36 31 33 33 32 34 34 58 61 91 89 93 152 119 124 211 158 161 255 161 165 255 162 165 255 172 168 255 163 164 255 163 164 255 161 163 255 163 164 255 168 168 255 165 165 255 161 161 250 157 157 242 152 152 233 146 146 223 140 140 214 134 134 204 128 128 194 126 125 186 117 118 174 112 113 166 107 108 158 101 102 150 100 97 142 85 87 129 
38 57 57 38 57 57 38 57 57 38 57 57 38 57 57 38 57 57 38 57 57 38 57 57 38 57 57 38 57 57 38 57 57 38 57 57 38 57 57 38 57 57 38 57 57 38 57 57 38 57 57 38 57 57 38 57 57 38 57 57 38 57 57 38 57 57 38 57 57 38 57 57 38 57 57 38 57 57 38 57 57 38 57 57 38 57 57 38 57 57 38 57 57 38 57 57 38 58 58 38 58 58 38 58 58 38 58 58 38 58 58 38 58 58 38 58 58 38 58 58 38 58 58 38 58 58 38 58 58 38 58 58 38 58 58 38 58 58 38 58 58 38 58 58 38 58 58 38 58 58 38 58 58 38 58 58 38 58 58 38 58 58 38 58 58 38 58 58 38 58 58 38 58 58 38 58 58 38 58 58 38 58 58 38 58 58 38 58 58 38 58 58 38 58 58 38 58 58 38 58 58 38 58 58 38 58 58 38 58 58 38 58 58 38 58 58 38 58 58 38 58 58 38 58 58 38 58 58 38 58 58 38 58 58 38 58 58 38 58 58 38 58 58 38 58 58 38 58 58 38 58 58 38 58 58 38 58 58 38 58 58 38 58 58 38 58 58 38 58 58 38 58 58 38 58 58 38 58 58 38 58 58 38 58 58 38 58 58 38 58 58 38 58 58 38 58 58 38 58 58 38 58 58 38 58 58 38 58 58 38 58 58 38 58 58 38 58 58 38 58 58 38 58 58 38 58 58 38 58 58 38 58 58 38 58 58 38 58 58 38 57 57 38 57 57 45 64 66 51 71 72 63 82 84 54 74 75 68 84 88 56 76 79 54 73 74 44 63 63 44 64 64 45 66 66 45 66 66 45 66 66 45 66 66 45 66 66 45 66 66 46 67 67 45 66 66 46 66 67 46 66 66 46 65 66 47 66 68 49 68 71 51 70 74 53 72 76 48 67 70 45 64 64 43 62 62 43 62 62 43 62 62 43 62 62 43 62 62 43 62 62 43 62 62 43 62 62 43 62 62 43 62 62 43 61 61 49 65 65 52 65 65 47 63 63 48 64 65 43 61 61 43 61 61 41 60 60 39 57 57 37 56 56 37 56 56 37 56 56 37 56 56 37 56 56 37 56 56 37 56 56 37 56 56 37 56 56 37 55 55 37 55 55 37 55 55 97 95 95 89 96 96 78 92 92 56 74 74 46 64 64 45 63 64 44 63 63 45 63 64 44 63 64 44 62 62 44 62 63 46 63 63 46 63 63 47 65 69 43 61 61 43 60 60 42 60 60 42 60 60 37 54 54 37 54 54 37 54 54 37 54 54 37 54 54 37 54 54 37 54 54 37 54 54 37 54 54 37 54 54 37 54 54 37 54 54 37 54 54 37 54 54 146 92 92 151 104 104 147 107 107 138 105 105 127 100 100 114 92 92 99 81 81 78 65 65 59 51 51 44 40 40 32 31 31 25 25 25 25 25 25 25 25 25 25 25 25 25 25 25 25 25 25 25 25 25 25 25 25 25 25 25 25 25 25 32 32 39 42 43 53 38 38 48 25 25 25 25 25 25 25 25 25 25 25 25 28 28 28 31 32 32 31 33 33 31 32 32 37 33 34 145 101 101 228 154 154 216 149 149 202 141 141 184 131 131 168 121 121 153 112 113 131 96 96 111 81 81 92 69 69 72 55 55 53 42 42 39 33 33 29 27 27 42 42 54 39 39 49 25 25 25 25 25 25 25 25 25 66 47 47 29 27 27 25 25 25 25 25 25 25 25 25 25 25 25 31 32 32 32 32 33 35 32 32 57 48 48 75 44 44 77 49 49 74 51 51 62 44 44 54 40 40 46 37 37 39 35 35 35 35 35 32 35 35 32 34 34 32 34 34 31 33 33 31 32 32 30 31 31 29 30 30 28 28 28 36 37 44 39 40 48 37 37 47 47 47 64 53 53 73 34 35 42 42 42 58 47 48 62 33 34 37 32 34 34 101 97 157 113 116 205 169 161 255 162 167 255 167 171 255 165 168 255 177 179 255 168 169 255 167 169 255 166 168 255 164 166 254 162 163 249 162 163 247 160 161 244 157 157 237 153 153 232 149 149 223 143 143 214 138 138 205 133 133 196 128 128 188 123 123 179 118 118 170 112 113 162 107 108 154 107 104 148 105 102 143 83 83 121 
38 56 56 38 56 56 38 57 57 38 57 57 38 57 57 38 57 57 38 57 57 38 57 57 38 57 57 38 57 57 38 57 57 38 57 57 38 57 57 38 57 57 38 57 57 38 57 57 38 57 57 38 57 57 38 57 57 38 57 57 38 57 57 38 57 57 38 57 57 38 57 57 38 57 57 38 57 57 38 57 57 38 57 57 38 57 57 38 57 57 38 57 57 38 57 57 38 57 57 38 57 57 38 57 57 38 57 57 38 57 57 38 58 58 38 58 58 38 58 58 38 58 58 38 58 58 38 58 58 38 58 58 38 58 58 38 58 58 38 58 58 38 58 58 38 58 58 38 58 58 38 58 58 38 58 58 38 58 58 38 58 58 38 58 58 38 58 58 38 58 58 38 58 58 38 58 58 38 58 58 38 58 58 38 58 58 38 58 58 38 58 58 38 58 58 38 58 58 38 58 58 38 58 58 38 58 58 38 58 58 38 58 58 38 58 58 38 58 58 38 58 58 38 58 58 38 58 58 38 58 58 38 58 58 38 58 58 38 58 58 38 58 58 38 58 58 38 58 58 38 58 58 38 58 58 38 58 58 38 58 58 38 58 58 38 58 58 38 58 58 38 58 58 38 58 58 38 58 58 38 58 58 38 58 58 38 58 58 38 58 58 38 58 58 38 58 58 38 58 58 38 58 58 38 58 58 38 58 58 38 58 58 38 58 58 38 58 58 38 58 58 38 57 57 38 57 57 38 57 57 38 57 57 38 57 57 38 57 57 38 57 57 44 64 64 56 73 74 68 86 91 60 78 82 60 77 79 54 73 75 49 69 69 48 67 68 43 62 62 45 65 65 45 66 66 45 66 66 45 66 66 45 66 66 45 66 66 45 66 66 46 66 66 46 66 66 46 66 66 45 66 66 45 65 65 45 65 66 46 65 67 49 68 71 51 70 74 51 70 74 45 64 64 44 63 63 43 62 62 43 62 62 43 62 62 43 61 61 43 61 61 43 61 61 43 61 61 43 61 61 43 61 61 43 61 61 53 67 67 51 66 67 45 64 66 45 63 64 43 62 62 42 60 61 44 62 62 37 56 56 37 56 56 37 56 56 37 56 56 37 56 56 37 56 56 37 56 56 37 56 56 37 55 55 37 55 55 37 55 55 37 55 55 37 55 55 95 93 93 86 94 94 74 88 88 57 75 76 44 63 64 44 62 62 44 62 62 44 62 62 44 62 62 46 63 63 47 63 63 45 62 62 47 63 63 45 63 66 45 63 65 42 60 60 42 60 60 42 60 60 37 54 54 37 54 54 37 54 54 37 54 54 37 54 54 37 54 54 37 54 54 37 54 54 37 54 54 37 54 54 37 54 54 37 54 54 37 54 54 37 54 54 124 79 79 129 91 91 124 93 93 115 90 90 103 85 85 90 77 77 75 67 67 56 51 51 39 37 37 29 29 29 25 25 25 25 25 25 25 25 25 25 25 25 25 25 25 25 25 25 25 25 25 25 25 25 25 25 25 25 25 25 25 25 25 25 25 25 38 38 50 48 48 62 38 36 48 25 25 25 25 25 25 26 26 26 30 30 36 31 33 33 32 34 34 33 34 35 34 31 31 166 114 114 199 135 135 187 130 130 173 122 122 161 116 119 142 103 104 125 93 94 104 77 77 83 62 62 64 49 49 46 38 38 34 30 30 27 25 25 25 25 25 46 46 60 47 48 62 27 27 29 25 25 25 25 25 25 51 39 39 29 28 28 25 25 25 25 25 25 25 25 25 26 26 26 31 32 32 32 32 33 31 32 32 35 50 50 58 41 41 56 40 40 57 44 44 47 39 39 40 37 37 36 36 36 33 35 35 32 35 35 32 35 35 32 35 35 32 34 34 32 34 34 32 34 34 31 34 34 31 33 33 31 33 33 31 33 33 31 33 33 31 32 32 41 42 56 43 45 55 33 35 39 35 36 42 35 37 41 32 34 34 86 89 150 143 135 223 161 164 255 163 168 255 174 176 255 169 173 255 170 171 255 177 177 255 177 177 255 170 172 255 168 170 255 166 167 251 163 164 245 160 161 239 156 157 231 152 153 225 149 149 220 144 144 212 140 140 204 135 135 196 130 130 187 125 125 180 121 121 172 116 116 164 111 111 156 105 105 148 112 107 147 101 98 136 85 85 119 
38 56 56 38 56 56 38 56 56 38 56 56 38 57 57 38 57 57 38 57 57 38 57 57 38 57 57 38 57 57 38 57 57 38 57 57 38 57 57 38 57 57 38 57 57 38 57 57 38 57 57 38 57 57 38 57 57 38 57 57 38 57 57 38 57 57 38 57 57 38 57 57 38 57 57 38 57 57 38 57 57 38 57 57 38 57 57 38 57 57 38 57 57 38 57 57 38 57 57 38 57 57 38 57 57 38 57 57 38 57 57 38 57 57 38 57 57 38 57 57 38 57 57 38 57 57 38 57 57 38 57 57 38 58 58 38 58 58 38 58 58 38 58 58 38 58 58 38 58 58 38 58 58 38 58 58 38 58 58 38 58 58 38 58 58 38 58 58 38 58 58 38 58 58 38 58 58 38 58 58 38 58 58 38 58 58 38 58 58 38 58 58 38 58 58 38 58 58 38 58 58 38 58 58 38 58 58 38 58 58 38 58 58 38 58 58 38 58 58 38 58 58 38 58 58 38 58 58 38 58 58 38 58 58 38 58 58 38 58 58 38 58 58 38 58 58 38 58 58 38 58 58 38 58 58 38 58 58 38 58 58 38 58 58 38 58 58 38 58 58 38 58 58 38 58 58 38 58 58 38 58 58 38 58 58 38 58 58 38 58 58 38 58 58 38 58 58 38 58 58 38 57 57 38 57 57 38 57 57 38 57 57 38 57 57 38 57 57 38 57 57 38 57 57 38 57 57 38 57 57 38 57 57 38 57 57 38 57 57 44 64 64 46 65 66 61 78 79 59 77 79 50 69 69 52 70 72 50 68 68 45 65 65 43 62 62 43 62 62 45 65 65 45 66 66 45 66 66 45 66 66 45 66 66 45 66 66 45 66 66 45 65 65 45 65 65 47 66 66 45 65 66 45 65 65 45 64 64 45 64 65 47 66 67 49 68 70 51 69 73 44 62 63 46 64 64 43 62 62 43 61 61 43 61 61 43 61 61 43 61 61 43 61 61 43 61 61 43 61 61 43 61 61 47 64 64 55 68 68 48 64 64 42 61 61 43 61 61 43 61 61 41 59 59 37 56 56 37 56 56 37 56 56 37 56 56 37 56 56 37 56 56 37 56 56 37 55 55 37 55 55 37 55 55 37 55 55 37 55 55 37 55 55 37 55 55 64 73 73 84 92 92 71 86 86 43 61 61 43 61 61 43 62 62 43 62 62 43 62 62 45 62 62 45 62 62 46 63 63 47 63 65 44 62 62 49 64 66 44 62 64 42 60 60 42 60 60 41 58 58 37 54 54 37 54 54 37 54 54 37 54 54 37 54 54 37 54 54 37 54 54 37 54 54 37 54 54 37 54 54 37 54 54 37 54 54 36 54 54 36 54 54 87 64 64 108 79 79 102 80 80 92 76 76 80 70 70 63 58 58 49 48 48 38 39 39 29 30 30 26 26 26 25 25 25 25 25 25 25 25 25 25 25 25 25 25 25 25 25 25 25 25 25 25 25 25 25 25 25 25 25 25 25 25 25 25 25 25 35 35 44 55 56 77 46 46 63 35 33 39 26 26 26 30 30 35 42 43 57 31 33 33 32 34 34 32 33 34 37 33 33 179 121 121 171 118 118 159 112 112 145 104 104 130 95 95 116 86 88 98 74 75 75 57 57 55 43 43 41 34 34 31 28 28 26 25 25 25 25 25 25 25 25 41 42 52 43 44 52 29 29 30 25 25 25 25 25 25 25 25 25 25 25 25 25 25 25 25 25 25 25 25 25 28 28 28 31 33 33 31 32 32 32 32 32 35 50 50 35 50 50 44 40 42 43 41 41 38 38 38 35 37 37 32 35 35 32 35 35 32 35 35 32 35 35 32 35 35 32 35 35 32 34 34 32 34 34 32 34 34 32 34 34 32 34 34 32 34 34 32 34 34 31 34 34 33 35 37 33 35 37 32 34 34 32 34 34 32 34 34 86 90 150 120 125 213 158 163 255 166 171 255 170 173 255 172 175 255 172 173 255 174 175 255 172 172 255 174 171 255 170 171 255 168 168 252 165 165 246 161 162 239 158 158 232 154 155 226 150 150 218 146 146 211 141 141 203 137 137 196 133 133 189 128 128 181 123 123 174 118 118 166 113 113 158 108 108 150 103 103 142 101 99 135 93 93 126 83 83 114 
38 56 56 38 56 56 38 56 56 38 56 56 38 56 56 38 56 56 38 56 56 38 57 57 38 57 57 38 57 57 38 57 57 38 57 57 38 57 57 38 57 57 38 57 57 38 57 57 38 57 57 38 57 57 38 57 57 38 57 57 38 57 57 38 57 57 38 57 57 38 57 57 38 57 57 38 57 57 38 57 57 38 57 57 38 57 57 38 57 57 38 57 57 38 57 57 38 57 57 38 57 57 38 57 57 38 57 57 38 57 57 38 57 57 38 57 57 38 57 57 38 57 57 38 57 57 38 57 57 38 57 57 38 57 57 38 57 57 38 57 57 38 57 57 38 57 57 38 57 57 38 57 57 38 57 57 38 57 57 38 58 58 38 58 58 38 58 58 38 58 58 38 58 58 38 58 58 38 58 58 38 58 58 38 58 58 38 58 58 38 58 58 38 58 58 38 58 58 38 58 58 38 58 58 38 58 58 38 58 58 38 58 58 38 58 58 38 58 58 38 58 58 38 58 58 38 58 58 38 58 58 38 58 58 38 58 58 38 58 58 38 58 58 38 58 58 38 58 58 38 58 58 38 58 58 38 58 58 38 58 58 38 58 58 38 58 58 38 58 58 38 57 57 38 57 57 38 57 57 38 57 57 38 57 57 38 57 57 38 57 57 38 57 57 38 57 57 38 57 57 38 57 57 38 57 57 38 57 57 38 57 57 38 57 57 38 57 57 38 57 57 38 57 57 38 57 57 38 57 57 38 57 57 38 57 57 44 64 64 46 65 66 53 71 72 55 73 73 49 66 66 49 68 68 47 67 67 45 65 65 44 64 64 43 62 62 43 62 62 45 65 65 45 65 65 45 65 65 45 65 65 45 65 65 45 65 65 45 65 65 45 65 65 45 65 65 45 65 65 46 65 65 45 65 66 45 64 64 45 63 64 45 64 65 47 66 68 48 67 71 43 61 61 49 65 65 45 63 63 43 61 61 43 61 61 43 61 61 43 61 61 43 61 61 43 61 61 43 61 61 42 61 61 45 62 62 54 69 69 48 65 65 48 65 65 42 60 60 41 59 59 39 57 57 37 56 56 37 56 56 37 56 56 37 56 56 37 55 55 37 55 55 37 55 55 37 55 55 37 55 55 37 55 55 37 55 55 37 55 55 37 55 55 37 55 55 37 55 55 82 90 90 69 85 85 42 60 60 42 60 60 43 61 61 43 61 61 46 63 63 47 63 63 49 64 64 44 62 63 44 62 63 44 62 63 44 62 64 44 61 63 42 59 59 42 59 59 39 57 57 37 54 54 37 54 54 37 54 54 37 54 54 37 54 54 37 54 54 37 54 54 37 54 54 37 54 54 37 54 54 36 54 54 36 54 54 36 54 54 36 54 54 36 54 54 88 67 67 81 67 67 70 63 63 56 54 54 45 46 46 36 39 39 32 35 35 31 33 33 31 32 32 28 28 28 25 25 25 25 25 25 25 25 25 25 25 25 25 25 25 25 25 25 25 25 25 25 25 25 25 25 25 25 25 25 25 25 25 32 32 39 44 45 57 48 48 68 45 45 62 40 40 54 38 38 53 45 45 58 32 34 34 32 34 34 31 32 32 88 66 66 153 105 105 143 100 100 132 94 94 118 86 86 103 77 77 86 66 66 66 51 51 47 38 38 35 31 31 28 26 26 25 25 25 25 25 25 25 25 25 25 25 25 27 27 28 45 45 61 40 40 50 27 27 27 25 25 25 25 25 25 25 25 25 25 25 25 25 25 25 26 26 26 28 29 29 31 33 33 32 34 34 31 32 32 35 50 50 35 50 50 35 47 47 34 37 37 33 36 36 33 36 36 32 35 35 32 35 35 32 35 35 32 35 35 32 35 35 32 35 35 32 35 35 32 35 35 32 34 34 32 34 34 32 34 34 32 34 34 32 34 34 32 34 34 32 34 34 32 34 34 32 35 35 32 34 34 84 88 148 119 124 212 157 161 255 167 172 255 183 184 255 190 190 255 173 173 255 191 186 255 175 175 255 171 170 255 174 174 255 182 183 255 163 164 243 162 162 239 159 159 232 155 155 225 152 152 219 148 148 212 144 144 205 139 139 197 135 135 190 130 130 183 126 126 175 121 121 167 116 116 160 111 111 152 106 106 144 101 101 136 93 93 126 86 86 116 79 79 106 
37 56 56 37 56 56 37 56 56 38 56 56 38 56 56 38 56 56 38 56 56 38 56 56 38 56 56 38 56 56 38 57 57 38 57 57 38 57 57 38 57 57 38 57 57 38 57 57 38 57 57 38 57 57 38 57 57 38 57 57 38 57 57 38 57 57 38 57 57 38 57 57 38 57 57 38 57 57 38 57 57 38 57 57 38 57 57 38 57 57 38 57 57 38 57 57 38 57 57 38 57 57 38 57 57 38 57 57 38 57 57 38 57 57 38 57 57 38 57 57 38 57 57 38 57 57 38 57 57 38 57 57 38 57 57 38 57 57 38 57 57 38 57 57 38 57 57 38 57 57 38 57 57 38 57 57 38 57 57 38 57 57 38 57 57 38 57 57 38 57 57 38 57 57 38 57 57 38 57 57 38 57 57 38 57 57 38 57 57 38 57 57 38 57 57 38 57 57 38 57 57 38 57 57 38 57 57 38 57 57 38 57 57 38 57 57 38 57 57 38 57 57 38 57 57 38 57 57 38 57 57 38 57 57 38 57 57 38 57 57 38 57 57 38 57 57 38 57 57 38 57 57 38 57 57 38 57 57 38 57 57 38 57 57 38 57 57 38 57 57 38 57 57 38 57 57 38 57 57 38 57 57 38 57 57 38 57 57 38 57 57 38 57 57 38 57 57 38 57 57 38 57 57 38 57 57 38 57 57 38 57 57 38 57 57 38 57 57 38 57 57 38 57 57 38 57 57 38 57 57 38 57 57 38 57 57 40 60 60 48 67 68 49 68 69 48 67 67 45 65 65 46 66 66 46 66 67 46 66 66 45 64 64 43 62 62 43 62 62 45 64 64 45 65 65 45 65 65 45 65 65 45 65 65 45 65 65 45 65 65 45 65 65 45 65 65 45 65 65 46 66 66 46 66 66 46 65 65 45 64 64 45 64 64 44 63 64 48 67 70 43 61 61 43 62 62 39 58 58 42 61 61 43 61 61 43 61 61 43 61 61 42 61 61 42 61 61 42 61 61 42 61 61 47 63 63 44 62 62 53 68 68 42 60 60 42 60 60 37 56 56 37 56 56 37 56 56 37 56 56 37 55 55 37 55 55 37 55 55 37 55 55 37 55 55 37 55 55 37 55 55 37 55 55 37 55 55 37 55 55 37 55 55 37 55 55 37 55 55 81 88 88 69 84 84 42 60 60 42 60 60 44 61 61 45 61 61 43 61 61 49 63 63 44 61 61 42 60 60 46 63 65 44 61 63 43 61 62 42 59 59 42 59 59 42 59 59 39 57 57 37 54 54 37 54 54 37 54 54 37 54 54 37 54 54 37 54 54 37 54 54 37 54 54 37 54 54 36 54 54 36 54 54 36 54 54 36 54 54 36 54 54 36 53 53 68 56 56 61 56 56 48 47 47 38 40 40 32 36 36 32 35 35 32 35 35 32 34 34 32 34 34 31 32 32 29 30 30 26 27 27 26 26 26 25 25 25 25 25 25 25 25 25 25 25 25 25 25 25 25 25 25 25 25 25 25 25 25 25 25 25 31 32 34 41 41 55 52 53 72 43 44 62 45 46 59 37 39 45 32 34 34 32 35 35 31 32 32 76 58 58 127 90 90 117 83 83 104 76 76 91 68 68 75 58 58 56 45 45 41 35 35 31 28 28 26 25 25 25 25 25 25 25 25 25 25 25 25 25 25 25 25 25 25 25 25 45 45 60 55 55 73 41 37 45 25 25 25 25 25 25 25 25 25 25 25 25 28 28 33 28 28 28 31 32 32 32 34 34 32 34 34 32 33 33 35 50 50 35 50 50 35 50 50 34 46 46 39 43 43 35 38 38 35 38 39 32 35 35 32 35 35 32 35 35 32 35 35 32 35 35 32 35 35 32 35 35 32 35 35 32 35 35 32 34 34 32 34 34 32 35 35 32 35 35 32 34 34 34 37 38 33 36 36 90 89 148 141 134 221 155 158 255 166 172 255 173 176 255 173 176 255 190 188 255 177 178 255 172 172 255 173 173 255 166 166 251 161 161 242 158 158 237 165 165 240 164 164 236 162 162 232 151 151 217 147 147 211 143 143 204 141 141 198 137 137 191 132 132 184 127 127 176 122 122 168 118 118 161 111 111 151 106 106 143 100 100 135 93 93 125 88 88 117 81 81 107 74 74 97 
37 56 56 37 56 56 37 56 56 37 56 56 37 56 56 38 56 56 38 56 56 38 56 56 38 56 56 38 56 56 38 56 56 38 56 56 38 56 56 38 56 56 38 57 57 38 57 57 38 57 57 38 57 57 38 57 57 38 57 57 38 57 57 38 57 57 38 57 57 38 57 57 38 57 57 38 57 57 38 57 57 38 57 57 38 57 57 38 57 57 38 57 57 38 57 57 38 57 57 38 57 57 38 57 57 38 57 57 38 57 57 38 57 57 38 57 57 38 57 57 38 57 57 38 57 57 38 57 57 38 57 57 38 57 57 38 57 57 38 57 57 38 57 57 38 57 57 38 57 57 38 57 57 38 57 57 38 57 57 38 57 57 38 57 57 38 57 57 38 57 57 38 57 57 38 57 57 38 57 57 38 57 57 38 57 57 38 57 57 38 57 57 38 57 57 38 57 57 38 57 57 38 57 57 38 57 57 38 57 57 38 57 57 38 57 57 38 57 57 38 57 57 38 57 57 38 57 57 38 57 57 38 57 57 38 57 57 38 57 57 38 57 57 38 57 57 38 57 57 38 57 57 38 57 57 38 57 57 38 57 57 38 57 57 38 57 57 38 57 57 38 57 57 38 57 57 38 57 57 38 57 57 38 57 57 38 57 57 38 57 57 38 57 57 38 57 57 38 57 57 38 57 57 38 57 57 38 57 57 38 57 57 38 57 57 38 57 57 38 57 57 38 57 57 38 57 57 38 57 57 38 57 57 44 63 64 52 71 73 48 67 67 44 63 63 45 65 65 45 66 66 45 66 66 45 66 66 45 66 66 44 64 64 43 62 62 43 62 62 44 63 63 45 65 65 45 65 65 45 65 65 45 65 65 45 65 65 45 65 65 45 65 65 45 65 65 45 65 65 45 65 65 46 66 67 45 65 65 50 67 67 50 66 66 44 63 63 44 63 64 43 61 61 43 61 61 37 56 56 37 56 56 39 57 57 41 60 60 41 60 60 42 61 61 42 61 61 42 61 61 41 60 60 43 60 60 44 59 59 41 59 59 39 57 57 37 56 56 37 56 56 37 55 55 37 55 55 37 55 55 37 55 55 37 55 55 37 55 55 37 55 55 37 55 55 37 55 55 37 55 55 37 55 55 37 55 55 37 55 55 37 55 55 37 55 55 37 55 55 37 55 55 70 84 84 42 60 60 42 60 60 49 64 64 49 65 65 46 62 62 44 61 61 43 61 61 42 60 60 43 61 62 43 60 61 42 59 59 42 59 59 42 59 59 39 57 57 37 54 54 37 54 54 37 54 54 37 54 54 37 54 54 37 54 54 37 54 54 37 54 54 36 54 54 36 54 54 36 54 54 36 54 54 36 54 54 36 53 53 36 53 53 36 53 53 39 51 51 43 44 44 36 39 39 32 36 36 32 36 36 32 35 35 32 35 35 32 35 35 32 34 34 32 34 34 31 33 33 31 32 32 29 30 30 28 28 28 28 28 28 26 27 27 26 27 27 26 26 26 26 27 27 26 27 27 28 28 28 28 28 28 29 30 30 35 35 43 41 42 51 36 37 43 40 41 50 32 34 34 32 34 34 32 33 33 47 40 40 86 62 62 101 74 74 91 69 69 78 61 61 64 51 51 50 43 43 40 37 37 29 27 27 25 25 25 25 25 25 25 25 25 25 25 25 25 25 25 25 25 25 25 25 25 25 25 25 37 38 49 44 44 54 41 42 56 38 38 49 27 27 28 28 28 33 28 28 31 47 45 57 32 33 38 31 33 33 32 34 34 32 35 35 33 38 38 35 50 50 35 50 50 35 50 50 35 50 50 34 46 46 39 44 44 35 38 38 34 37 37 34 37 38 32 35 35 34 37 37 34 37 38 34 37 38 33 35 36 35 38 39 34 36 37 32 35 35 34 37 39 35 37 39 33 35 36 32 35 35 33 36 37 68 66 96 90 94 151 152 156 255 168 172 255 176 178 255 174 180 255 196 189 255 193 182 255 174 175 255 175 175 255 174 171 255 165 165 246 159 159 237 156 156 231 153 153 225 150 150 218 146 146 212 144 144 207 140 140 200 136 136 193 134 134 188 129 129 180 125 125 173 120 120 165 115 115 157 110 110 149 103 103 140 98 98 132 93 93 124 86 86 114 80 80 106 75 75 98 70 70 90 
37 56 56 37 56 56 37 56 56 37 56 56 37 56 56 37 56 56 37 56 56 37 56 56 38 56 56 38 56 56 38 56 56 38 56 56 38 56 56 38 56 56 38 56 56 38 56 56 38 56 56 38 57 57 38 57 57 38 57 57 38 57 57 38 57 57 38 57 57 38 57 57 38 57 57 38 57 57 38 57 57 38 57 57 38 57 57 38 57 57 38 57 57 38 57 57 38 57 57 38 57 57 38 57 57 38 57 57 38 57 57 38 57 57 38 57 57 38 57 57 38 57 57 38 57 57 38 57 57 38 57 57 38 57 57 38 57 57 38 57 57 38 57 57 38 57 57 38 57 57 38 57 57 38 57 57 38 57 57 38 57 57 38 57 57 38 57 57 38 57 57 38 57 57 38 57 57 38 57 57 38 57 57 38 57 57 38 57 57 38 57 57 38 57 57 38 57 57 38 57 57 38 57 57 38 57 57 38 57 57 38 57 57 38 57 57 38 57 57 38 57 57 38 57 57 38 57 57 38 57 57 38 57 57 38 57 57 38 57 57 38 57 57 38 57 57 38 57 57 38 57 57 38 57 57 38 57 57 38 57 57 38 57 57 38 57 57 38 57 57 38 57 57 38 57 57 38 57 57 38 57 57 38 57 57 38 57 57 38 57 57 38 57 57 38 57 57 38 57 57 38 57 57 38 57 57 38 57 57 38 57 57 38 57 57 38 57 57 38 57 57 38 57 57 38 57 57 38 57 57 38 57 57 40 59 59 43 62 62 43 62 62 44 63 63 45 65 65 45 66 66 45 66 66 45 66 66 45 66 66 45 65 65 43 62 62 43 62 62 43 62 62 45 64 64 45 65 65 45 65 65 45 65 65 45 65 65 45 65 65 45 65 65 45 65 65 45 65 65 45 64 64 45 64 64 46 65 65 52 67 67 51 65 65 51 66 66 45 64 65 43 61 61 43 62 62 37 56 56 37 56 56 37 56 56 37 56 56 39 57 57 39 57 57 40 58 58 40 58 58 40 58 58 39 57 57 39 57 57 37 56 56 37 56 56 37 55 55 37 55 55 37 55 55 37 55 55 37 55 55 37 55 55 37 55 55 37 55 55 37 55 55 37 55 55 37 55 55 37 55 55 37 55 55 37 55 55 37 55 55 37 55 55 37 55 55 37 55 55 37 55 55 55 69 69 47 65 65 42 60 60 56 68 68 55 69 69 50 65 65 45 61 61 43 61 61 43 61 61 42 59 59 42 59 59 42 59 59 42 59 59 40 58 58 38 55 55 37 54 54 37 54 54 37 54 54 37 54 54 37 54 54 37 54 54 37 54 54 36 54 54 36 54 54 36 54 54 36 54 54 36 54 54 36 53 53 36 53 53 36 53 53 36 53 53 36 53 53 35 39 39 32 36 36 32 36 36 32 36 36 32 35 35 32 35 35 32 35 35 32 35 35 32 34 34 32 34 34 32 34 34 31 33 33 31 33 33 31 32 32 29 31 31 29 30 30 29 30 30 29 30 30 29 30 30 30 31 31 31 32 32 31 33 33 31 33 33 32 34 34 32 34 34 32 34 34 32 35 36 32 35 35 32 33 33 53 42 42 84 60 60 76 57 57 65 52 52 54 46 46 44 41 41 37 36 36 32 34 34 31 32 32 28 28 28 26 26 26 25 25 25 25 25 25 25 25 25 25 25 25 25 25 25 25 25 25 27 27 29 29 30 32 47 47 64 53 53 75 38 38 52 42 42 55 36 36 49 43 44 60 41 42 53 32 34 34 32 34 34 32 35 35 34 43 43 35 50 50 35 50 50 35 50 50 35 50 50 35 50 50 35 50 50 34 43 43 35 41 42 33 36 36 34 37 38 34 37 38 33 36 36 34 37 37 34 36 36 33 36 37 34 37 38 34 36 36 33 36 37 35 38 40 33 36 36 32 35 35 33 35 37 108 99 155 145 150 255 159 164 255 170 171 255 171 177 255 212 202 255 200 189 255 191 184 255 175 173 255 170 168 252 165 165 245 159 159 236 156 156 230 153 153 224 150 150 218 147 147 212 143 143 205 139 139 198 135 135 191 131 131 184 126 126 176 122 122 169 117 117 161 112 112 154 107 107 146 102 102 138 97 97 130 92 92 122 86 86 114 81 81 106 76 76 98 70 70 90 65 65 82 
37 56 56 37 56 56 37 56 56 37 56 56 37 56 56 37 56 56 37 56 56 37 56 56 37 56 56 37 56 56 37 56 56 37 56 56 38 56 56 38 56 56 38 56 56 38 56 56 38 56 56 38 56 56 38 56 56 38 56 56 38 56 56 38 57 57 38 57 57 38 57 57 38 57 57 38 57 57 38 57 57 38 57 57 38 57 57 38 57 57 38 57 57 38 57 57 38 57 57 38 57 57 38 57 57 38 57 57 38 57 57 38 57 57 38 57 57 38 57 57 38 57 57 38 57 57 38 57 57 38 57 57 38 57 57 38 57 57 38 57 57 38 57 57 38 57 57 38 57 57 38 57 57 38 57 57 38 57 57 38 57 57 38 57 57 38 57 57 38 57 57 38 57 57 38 57 57 38 57 57 38 57 57 38 57 57 38 57 57 38 57 57 38 57 57 38 57 57 38 57 57 38 57 57 38 57 57 38 57 57 38 57 57 38 57 57 38 57 57 38 57 57 38 57 57 38 57 57 38 57 57 38 57 57 38 57 57 38 57 57 38 57 57 38 57 57 38 57 57 38 57 57 38 57 57 38 57 57 38 57 57 38 57 57 38 57 57 38 57 57 38 57 57 38 57 57 38 57 57 38 57 57 38 57 57 38 57 57 38 57 57 38 57 57 38 57 57 38 57 57 38 57 57 38 57 57 38 57 57 38 57 57 38 57 57 38 57 57 38 57 57 38 57 57 38 57 57 38 57 57 38 57 57 40 59 59 43 62 62 43 62 62 45 64 64 45 65 65 45 65 65 45 65 65 45 65 65 45 65 65 45 65 65 43 62 62 43 62 62 43 61 61 43 62 62 44 64 64 45 64 64 45 64 64 45 64 64 45 64 64 45 64 64 45 64 64 45 64 64 45 64 64 45 64 64 47 64 64 49 65 65 46 63 63 49 65 66 43 62 62 44 62 62 47 63 64 37 56 56 37 56 56 37 56 56 37 56 56 37 56 56 37 56 56 37 56 56 37 56 56 37 56 56 37 56 56 37 55 55 37 55 55 37 55 55 37 55 55 37 55 55 37 55 55 37 55 55 37 55 55 37 55 55 37 55 55 37 55 55 37 55 55 37 55 55 37 55 55 37 55 55 37 55 55 37 55 55 37 55 55 37 55 55 37 55 55 37 55 55 37 55 55 37 55 55 51 68 68 42 60 60 45 62 62 55 68 68 52 66 66 48 63 63 44 61 61 43 60 60 42 59 59 42 59 59 42 59 59 39 57 57 39 57 57 37 54 54 37 54 54 37 54 54 37 54 54 37 54 54 37 54 54 36 54 54 36 54 54 36 54 54 36 54 54 36 54 54 36 53 53 36 53 53 36 53 53 36 53 53 36 53 53 36 53 53 36 53 53 36 53 53 33 36 36 32 36 36 32 36 36 32 35 35 32 35 35 32 35 35 32 35 35 32 35 35 32 35 35 32 34 34 32 34 34 32 34 34 31 33 33 31 33 33 31 33 33 31 33 33 31 33 33 31 33 33 31 33 33 31 33 33 31 34 34 32 34 34 32 34 34 32 34 34 34 36 37 34 37 38 35 37 37 37 36 36 53 42 42 60 46 46 53 44 44 45 41 41 38 37 37 34 35 35 32 35 35 32 35 35 32 34 34 31 33 33 30 31 31 28 29 29 26 27 27 26 26 26 25 25 25 25 25 25 25 25 25 25 25 25 25 25 25 38 39 52 49 49 65 38 39 52 48 48 68 44 45 57 37 38 46 33 35 38 32 34 34 32 34 34 32 35 35 34 43 43 35 50 50 35 50 50 35 50 50 35 50 50 35 50 50 35 50 50 35 50 50 34 46 46 34 43 43 34 40 40 33 36 36 32 35 35 32 35 35 32 35 35 32 35 35 32 35 35 32 35 35 36 37 37 36 38 38 32 35 35 33 35 35 55 58 86 125 121 204 153 159 255 161 163 255 173 178 255 171 174 255 181 174 255 178 177 255 172 173 255 170 170 254 164 164 244 158 158 235 156 156 229 153 153 223 150 150 217 147 147 211 143 143 204 139 139 197 135 135 190 131 131 183 127 127 176 122 122 168 117 117 161 113 113 153 108 108 145 103 103 138 97 97 130 92 92 122 87 87 114 82 82 106 76 76 97 71 71 89 65 65 81 60 60 73 
37 56 56 37 56 56 37 56 56 37 56 56 37 56 56 37 56 56 37 56 56 37 56 56 37 56 56 37 56 56 37 56 56 37 56 56 37 56 56 37 56 56 37 56 56 38 56 56 38 56 56 38 56 56 38 56 56 38 56 56 38 56 56 38 56 56 38 56 56 38 56 56 38 56 56 38 56 56 38 57 57 38 57 57 38 57 57 38 57 57 38 57 57 38 57 57 38 57 57 38 57 57 38 57 57 38 57 57 38 57 57 38 57 57 38 57 57 38 57 57 38 57 57 38 57 57 38 57 57 38 57 57 38 57 57 38 57 57 38 57 57 38 57 57 38 57 57 38 57 57 38 57 57 38 57 57 38 57 57 38 57 57 38 57 57 38 57 57 38 57 57 38 57 57 38 57 57 38 57 57 38 57 57 38 57 57 38 57 57 38 57 57 38 57 57 38 57 57 38 57 57 38 57 57 38 57 57 38 57 57 38 57 57 38 57 57 38 57 57 38 57 57 38 57 57 38 57 57 38 57 57 38 57 57 38 57 57 38 57 57 38 57 57 38 57 57 38 57 57 38 57 57 38 57 57 38 57 57 38 57 57 38 57 57 38 57 57 38 57 57 38 57 57 38 57 57 38 57 57 38 57 57 38 57 57 38 57 57 38 57 57 38 57 57 38 57 57 38 57 57 38 57 57 38 57 57 38 57 57 38 57 57 38 57 57 38 57 57 38 57 57 38 57 57 38 57 57 38 57 57 38 57 57 51 70 70 43 62 62 43 62 62 45 64 64 45 65 65 45 65 65 45 65 65 45 65 65 45 65 65 45 65 65 43 61 61 43 61 61 43 61 61 43 61 61 43 62 62 44 63 63 44 64 64 45 64 64 45 64 64 45 64 64 45 64 64 44 64 64 44 63 63 44 63 63 53 67 67 51 66 66 46 63 64 50 66 68 44 62 63 46 63 63 40 58 58 37 56 56 37 56 56 37 56 56 37 56 56 37 56 56 37 56 56 37 56 56 37 55 55 37 55 55 37 55 55 37 55 55 37 55 55 37 55 55 37 55 55 37 55 55 37 55 55 37 55 55 37 55 55 37 55 55 37 55 55 37 55 55 37 55 55 37 55 55 37 55 55 37 55 55 37 55 55 37 55 55 37 55 55 37 55 55 37 55 55 37 55 55 37 55 55 37 55 55 37 54 54 38 56 56 41 58 58 45 61 61 47 63 63 46 62 62 44 60 60 43 60 60 42 59 59 40 58 58 39 57 57 38 55 55 37 54 54 37 54 54 37 54 54 37 54 54 37 54 54 36 54 54 36 54 54 36 54 54 36 54 54 36 54 54 36 54 54 36 53 53 36 53 53 36 53 53 36 53 53 36 53 53 36 53 53 36 53 53 36 53 53 36 53 53 35 45 45 33 36 36 32 36 36 32 35 35 32 35 35 32 35 35 32 35 35 32 35 35 32 35 35 32 35 35 32 34 34 32 34 34 32 34 34 32 34 34 32 34 34 32 34 34 32 34 34 32 34 34 32 34 34 32 34 34 32 34 34 32 34 34 32 35 35 33 36 37 33 35 36 34 36 36 32 35 35 38 46 46 47 39 39 44 40 40 38 37 37 34 36 36 32 35 35 32 35 35 32 35 35 32 35 35 32 35 35 32 34 34 32 34 34 31 33 33 31 32 32 30 31 31 29 30 30 28 29 29 28 29 29 28 29 29 28 29 29 32 33 36 33 35 39 32 33 34 39 40 49 36 38 44 32 34 34 32 34 34 32 34 34 32 35 35 34 43 43 35 50 50 35 50 50 35 50 50 35 50 50 35 50 50 35 50 50 35 50 50 35 50 50 35 50 50 35 50 50 34 46 46 34 46 46 34 43 43 36 41 41 34 40 40 33 39 39 33 39 39 33 39 39 34 39 39 37 41 42 34 43 43 34 43 43 100 96 151 170 163 255 157 162 255 170 173 255 175 178 255 178 177 255 170 171 255 174 174 255 170 168 250 163 163 242 159 159 235 155 155 228 153 153 222 150 150 216 147 147 210 143 143 203 139 139 197 135 135 190 131 131 183 127 127 175 122 122 168 118 118 160 113 113 153 108 108 145 103 103 137 98 98 129 92 92 121 87 87 113 82 82 105 76 76 97 71 71 89 65 65 80 59 59 72 54 54 64 
37 56 56 37 56 56 37 56 56 37 56 56 37 56 56 37 56 56 37 56 56 37 56 56 37 56 56 37 56 56 37 56 56 37 56 56 37 56 56 37 56 56 37 56 56 37 56 56 37 56 56 37 56 56 37 56 56 38 56 56 38 56 56 38 56 56 38 56 56 38 56 56 38 56 56 38 56 56 38 56 56 38 56 56 38 56 56 38 56 56 38 56 56 38 57 57 38 57 57 38 57 57 38 57 57 38 57 57 38 57 57 38 57 57 38 57 57 38 57 57 38 57 57 38 57 57 38 57 57 38 57 57 38 57 57 38 57 57 38 57 57 38 57 57 38 57 57 38 57 57 38 57 57 38 57 57 38 57 57 38 57 57 38 57 57 38 57 57 38 57 57 38 57 57 38 57 57 38 57 57 38 57 57 38 57 57 38 57 57 38 57 57 38 57 57 38 57 57 38 57 57 38 57 57 38 57 57 38 57 57 38 57 57 38 57 57 38 57 57 38 57 57 38 57 57 38 57 57 38 57 57 38 57 57 38 57 57 38 57 57 38 57 57 38 57 57 38 57 57 38 57 57 38 57 57 38 57 57 38 57 57 38 57 57 38 57 57 38 57 57 38 57 57 38 57 57 38 57 57 38 57 57 38 57 57 38 57 57 38 57 57 38 57 57 38 57 57 38 57 57 38 57 57 38 57 57 38 57 57 38 57 57 38 57 57 38 57 57 38 57 57 38 57 57 38 57 57 38 56 56 38 56 56 43 62 62 43 62 62 43 62 62 45 64 64 45 65 65 45 65 65 45 65 65 45 65 65 45 65 65 45 65 65 44 63 63 43 61 61 43 61 61 43 61 61 43 61 61 43 61 61 43 62 62 43 62 62 44 63 63 44 63 63 44 63 63 43 62 62 43 62 62 43 61 61 50 65 65 59 69 69 47 64 66 42 61 61 46 63 63 42 60 60 39 57 57 37 56 56 37 56 56 37 56 56 37 56 56 37 55 55 37 55 55 37 55 55 37 55 55 37 55 55 37 55 55 37 55 55 37 55 55 37 55 55 37 55 55 37 55 55 37 55 55 37 55 55 37 55 55 37 55 55 37 55 55 37 55 55 37 55 55 37 55 55 37 55 55 37 55 55 37 55 55 37 55 55 37 55 55 37 55 55 37 55 55 37 55 55 37 54 54 37 54 54 37 54 54 37 54 54 37 54 54 38 56 56 39 57 57 39 57 57 39 57 57 39 57 57 39 57 57 38 55 55 37 54 54 37 54 54 37 54 54 37 54 54 37 54 54 36 54 54 36 54 54 36 54 54 36 54 54 36 54 54 36 54 54 36 53 53 36 53 53 36 53 53 36 53 53 36 53 53 36 53 53 36 53 53 36 53 53 36 53 53 36 53 53 36 53 53 36 53 53 36 42 42 34 37 37 32 35 35 32 35 35 32 35 35 32 35 35 32 35 35 32 35 35 32 35 35 32 35 35 32 35 35 32 34 34 32 34 34 32 34 34 32 34 34 32 34 34 32 34 34 32 34 34 32 34 34 32 34 34 32 34 34 33 36 37 33 36 37 35 36 36 36 38 38 38 48 48 41 54 54 41 48 48 35 37 37 37 39 39 32 35 35 32 35 35 32 35 35 32 35 35 32 35 35 32 35 35 32 35 35 32 34 34 32 34 34 32 34 34 31 34 34 31 33 33 31 33 33 31 33 33 31 33 33 31 33 33 31 33 33 31 33 33 31 33 33 32 34 35 32 34 34 32 35 35 32 34 34 32 35 35 34 36 36 34 43 43 35 50 50 35 50 50 35 50 50 35 50 50 35 50 50 35 50 50 35 50 50 35 50 50 35 50 50 35 50 50 35 50 50 35 50 50 35 50 50 35 50 50 36 48 48 34 46 46 34 46 46 34 46 46 34 46 46 34 46 46 34 46 46 51 63 90 136 130 209 169 166 255 159 163 255 182 177 255 172 175 255 186 181 255 170 168 252 180 179 255 162 163 241 158 158 233 154 154 226 152 152 220 149 149 215 146 146 208 142 142 202 139 139 195 135 135 189 131 131 181 126 126 174 122 122 167 117 117 159 113 113 152 108 108 144 103 103 136 97 97 128 92 92 120 87 87 112 81 81 104 76 76 96 70 70 88 65 65 79 59 59 71 53 53 62 47 47 54 
37 56 56 37 56 56 37 56 56 37 56 56 37 56 56 37 56 56 37 56 56 37 56 56 37 56 56 37 56 56 37 56 56 37 56 56 37 56 56 37 56 56 37 56 56 37 56 56 37 56 56 37 56 56 37 56 56 37 56 56 37 56 56 37 56 56 37 56 56 37 56 56 38 56 56 38 56 56 38 56 56 38 56 56 38 56 56 38 56 56 38 56 56 38 56 56 38 56 56 38 56 56 38 56 56 38 56 56 38 56 56 38 57 57 38 57 57 38 57 57 38 57 57 38 57 57 38 57 57 38 57 57 38 57 57 38 57 57 38 57 57 38 57 57 38 57 57 38 57 57 38 57 57 38 57 57 38 57 57 38 57 57 38 57 57 38 57 57 38 57 57 38 57 57 38 57 57 38 57 57 38 57 57 38 57 57 38 57 57 38 57 57 38 57 57 38 57 57 38 57 57 38 57 57 38 57 57 38 57 57 38 57 57 38 57 57 38 57 57 38 57 57 38 57 57 38 57 57 38 57 57 38 57 57 38 57 57 38 57 57 38 57 57 38 57 57 38 57 57 38 57 57 38 57 57 38 57 57 38 57 57 38 57 57 38 57 57 38 57 57 38 57 57 38 57 57 38 57 57 38 57 57 38 57 57 38 57 57 38 57 57 38 57 57 38 57 57 38 57 57 38 57 57 38 57 57 38 56 56 38 56 56 38 56 56 38 56 56 38 56 56 38 56 56 38 56 56 38 56 56 38 56 56 43 61 61 43 61 61 43 61 61 44 63 63 45 64 64 45 65 65 45 65 65 45 65 65 45 65 65 45 65 65 45 65 65 43 61 61 43 61 61 43 61 61 43 61 61 42 61 61 42 61 61 42 61 61 43 61 61 43 61 61 43 61 61 42 61 61 42 61 61 42 61 61 53 67 67 52 65 65 52 67 68 46 64 64 44 62 62 40 58 58 37 56 56 37 56 56 37 55 55 37 55 55 37 55 55 37 55 55 37 55 55 37 55 55 37 55 55 37 55 55 37 55 55 37 55 55 37 55 55 37 55 55 37 55 55 37 55 55 37 55 55 37 55 55 37 55 55 37 55 55 37 55 55 37 55 55 37 55 55 37 55 55 37 55 55 37 55 55 37 55 55 37 55 55 37 55 55 37 55 55 37 54 54 37 54 54 37 54 54 51 63 63 52 65 65 61 71 71 59 71 71 56 69 69 45 61 61 44 60 60 37 54 54 37 54 54 37 54 54 37 54 54 37 54 54 37 54 54 37 54 54 36 54 54 36 54 54 36 54 54 36 54 54 36 54 54 36 54 54 36 53 53 36 53 53 36 53 53 36 53 53 36 53 53 36 53 53 36 53 53 36 53 53 36 53 53 36 53 53 36 53 53 36 53 53 36 53 53 36 53 53 36 53 53 34 40 40 35 38 38 32 36 36 32 35 35 32 35 35 32 35 35 32 35 35 32 35 35 32 35 35 32 35 35 32 35 35 32 35 35 32 35 35 32 34 34 32 34 34 32 34 34 32 34 34 32 35 35 33 36 36 32 35 35 33 36 37 35 38 39 33 36 36 41 50 50 45 57 57 43 60 60 43 60 60 35 41 41 39 41 41 33 36 36 32 35 35 32 35 35 32 35 35 32 35 35 32 35 35 32 35 35 32 35 35 32 35 35 32 34 34 32 34 34 32 34 34 32 34 34 32 34 34 32 34 34 32 34 34 32 34 34 32 34 34 32 34 34 32 34 34 34 36 37 33 36 37 32 35 35 32 35 35 34 43 43 35 50 50 35 50 50 35 50 50 35 50 50 35 50 50 35 50 50 35 50 50 35 50 50 35 50 50 35 50 50 35 50 50 35 50 50 35 50 50 35 50 50 35 50 50 35 50 50 35 49 49 35 49 49 35 49 49 35 49 49 35 49 49 35 49 49 78 84 136 146 145 248 204 190 255 159 162 255 160 160 252 208 196 255 166 166 250 166 166 248 163 163 241 154 154 229 152 152 224 150 150 218 148 148 213 145 145 207 142 142 200 138 138 194 134 134 187 130 130 180 126 126 173 122 122 166 117 117 158 112 112 151 107 107 143 102 102 135 97 97 127 92 92 119 87 87 111 81 81 103 76 76 95 70 70 86 64 64 78 58 58 70 53 53 61 46 46 52 38 38 41 
37 56 56 37 56 56 37 56 56 37 56 56 37 56 56 37 56 56 37 56 56 37 56 56 37 56 56 37 56 56 37 56 56 37 56 56 37 56 56 37 56 56 37 56 56 37 56 56 37 56 56 37 56 56 37 56 56 37 56 56 37 56 56 37 56 56 37 56 56 37 56 56 37 56 56 37 56 56 37 56 56 37 56 56 38 56 56 38 56 56 38 56 56 38 56 56 38 56 56 38 56 56 38 56 56 38 56 56 38 56 56 38 56 56 38 56 56 38 56 56 38 56 56 38 56 56 38 56 56 38 56 56 38 56 56 38 57 57 38 57 57 38 57 57 38 57 57 38 57 57 38 57 57 38 57 57 38 57 57 38 57 57 38 57 57 38 57 57 38 57 57 38 57 57 38 57 57 38 57 57 38 57 57 38 57 57 38 57 57 38 57 57 38 57 57 38 57 57 38 57 57 38 57 57 38 57 57 38 57 57 38 57 57 38 57 57 38 57 57 38 57 57 38 57 57 38 57 57 38 57 57 38 57 57 38 57 57 38 57 57 38 57 57 38 57 57 38 57 57 38 57 57 38 57 57 38 57 57 38 57 57 38 57 57 38 57 57 38 57 57 38 57 57 38 57 57 38 57 57 38 57 57 38 56 56 38 56 56 38 56 56 38 56 56 38 56 56 38 56 56 38 56 56 38 56 56 38 56 56 38 56 56 38 56 56 38 56 56 38 56 56 38 56 56 38 56 56 38 56 56 37 56 56 41 60 60 43 61 61 43 61 61 43 62 62 45 64 64 45 64 64 45 64 64 45 64 64 45 64 64 45 64 64 45 64 64 44 63 63 42 61 61 42 61 61 42 61 61 42 61 61 42 61 61 42 61 61 42 61 61 42 61 61 42 61 61 42 61 61 42 61 61 42 61 61 45 62 62 60 70 70 45 63 63 44 62 62 45 62 62 38 57 57 37 55 55 37 55 55 37 55 55 37 55 55 37 55 55 37 55 55 37 55 55 37 55 55 37 55 55 37 55 55 37 55 55 37 55 55 37 55 55 37 55 55 37 55 55 37 55 55 37 55 55 37 55 55 37 55 55 37 55 55 37 55 55 37 55 55 37 55 55 37 55 55 37 55 55 37 55 55 37 55 55 37 54 54 37 54 54 37 54 54 37 54 54 52 64 64 66 74 74 63 74 74 76 84 84 69 81 81 77 87 87 67 79 79 54 70 70 48 64 64 40 57 57 38 55 55 37 54 54 37 54 54 37 54 54 37 54 54 36 54 54 36 54 54 36 54 54 36 54 54 36 54 54 36 53 53 36 53 53 36 53 53 36 53 53 36 53 53 36 53 53 36 53 53 36 53 53 36 53 53 36 53 53 36 53 53 36 53 53 36 53 53 36 53 53 36 53 53 36 53 53 36 53 53 36 53 53 34 44 44 35 39 39 33 36 36 32 35 35 32 35 35 32 35 35 32 35 35 32 35 35 32 35 35 32 35 35 32 35 35 32 35 35 32 35 35 32 35 35 32 35 35 32 35 35 33 36 37 32 35 35 37 39 39 33 35 36 42 46 46 38 48 48 44 56 56 43 60 60 43 60 60 43 60 60 43 60 60 35 42 42 33 36 36 33 36 36 32 35 35 32 35 35 32 35 35 32 35 35 32 35 35 32 35 35 32 35 35 32 35 35 32 34 34 32 34 34 32 34 34 32 34 34 32 34 34 32 34 34 32 34 34 32 34 34 32 35 35 32 34 34 33 36 37 35 37 39 32 35 35 33 39 39 35 47 47 35 50 50 35 50 50 35 50 50 35 50 50 35 50 50 35 50 50 35 50 50 35 50 50 35 50 50 35 50 50 35 50 50 35 50 50 35 50 50 35 50 50 35 50 50 35 49 49 35 49 49 35 49 49 35 49 49 35 49 49 35 49 49 35 49 49 83 90 140 175 164 255 211 193 255 158 161 252 157 157 245 177 175 255 163 163 243 161 162 239 160 160 234 150 150 221 149 149 216 146 146 211 143 143 205 140 140 199 137 137 192 133 133 185 129 129 179 125 125 172 121 121 164 116 116 157 112 112 149 107 107 142 102 102 134 97 97 126 91 91 118 86 86 110 81 81 102 75 75 93 69 69 85 64 64 77 58 58 68 52 52 59 45 45 50 37 37 40 32 32 33 
37 55 55 37 56 56 37 56 56 37 56 56 37 56 56 37 56 56 37 56 56 37 56 56 37 56 56 37 56 56 37 56 56 37 56 56 37 56 56 37 56 56 37 56 56 37 56 56 37 56 56 37 56 56 37 56 56 37 56 56 37 56 56 37 56 56 37 56 56 37 56 56 37 56 56 37 56 56 37 56 56 37 56 56 37 56 56 37 56 56 37 56 56 37 56 56 37 56 56 37 56 56 38 56 56 38 56 56 38 56 56 38 56 56 38 56 56 38 56 56 38 56 56 38 56 56 38 56 56 38 56 56 38 56 56 38 56 56 38 56 56 38 56 56 38 56 56 38 56 56 38 56 56 38 56 56 38 56 56 38 56 56 38 56 56 38 56 56 38 56 56 38 57 57 38 57 57 38 57 57 38 57 57 38 57 57 38 57 57 38 57 57 38 57 57 38 57 57 38 57 57 38 57 57 38 57 57 38 57 57 38 57 57 38 57 57 38 57 57 38 57 57 38 57 57 38 57 57 38 57 57 38 57 57 38 57 57 38 57 57 38 56 56 38 56 56 38 56 56 38 56 56 38 56 56 38 56 56 38 56 56 38 56 56 38 56 56 38 56 56 38 56 56 38 56 56 38 56 56 38 56 56 38 56 56 38 56 56 38 56 56 38 56 56 38 56 56 38 56 56 38 56 56 38 56 56 38 56 56 37 56 56 37 56 56 37 56 56 37 56 56 37 56 56 37 56 56 37 56 56 37 56 56 39 57 57 43 61 61 43 61 61 43 61 61 44 63 63 44 64 64 45 64 64 45 64 64 45 64 64 45 64 64 45 64 64 45 64 64 44 62 62 42 61 61 42 61 61 42 61 61 42 61 61 42 61 61 42 61 61 42 61 61 42 61 61 42 61 61 42 61 61 42 61 61 42 61 61 45 62 62 48 64 64 42 59 59 38 57 57 37 55 55 37 55 55 37 55 55 37 55 55 37 55 55 37 55 55 37 55 55 37 55 55 37 55 55 37 55 55 37 55 55 37 55 55 37 55 55 37 55 55 37 55 55 37 55 55 37 55 55 37 55 55 37 55 55 37 55 55 37 55 55 37 55 55 37 55 55 37 55 55 37 55 55 37 55 55 37 54 54 37 54 54 37 54 54 37 54 54 37 54 54 53 65 65 67 76 76 79 85 85 88 94 94 84 93 93 80 91 92 58 74 74 55 72 72 49 66 66 43 60 60 43 60 61 41 58 58 38 55 55 37 54 54 36 54 54 36 54 54 36 54 54 36 54 54 36 54 54 36 53 53 36 53 53 36 53 53 36 53 53 36 53 53 36 53 53 36 53 53 36 53 53 36 53 53 36 53 53 36 53 53 36 53 53 36 53 53 36 53 53 36 53 53 36 53 53 36 53 53 36 53 53 36 53 53 36 53 53 36 53 53 35 48 48 34 40 40 33 36 36 32 36 36 32 35 35 32 35 35 32 35 35 32 35 35 32 35 35 32 35 35 32 35 35 32 35 35 33 36 36 33 36 36 33 36 37 33 36 37 34 37 38 33 36 36 39 45 46 43 54 54 43 56 56 43 60 60 43 60 60 43 60 60 43 60 60 43 60 60 44 60 60 35 41 41 36 39 39 33 36 36 32 35 35 32 35 35 32 35 35 32 35 35 32 35 35 32 35 35 32 35 35 32 35 35 32 35 35 32 35 35 32 34 34 32 34 34 32 34 34 32 34 34 34 37 38 34 36 37 33 35 36 34 36 37 32 35 35 33 39 39 37 45 45 35 50 50 35 50 50 35 50 50 35 50 50 35 50 50 35 50 50 35 50 50 35 50 50 35 50 50 35 50 50 35 50 50 35 50 50 35 50 50 35 50 50 35 50 50 35 49 49 35 49 49 35 49 49 35 49 49 35 49 49 35 49 49 35 49 49 35 49 49 122 121 194 162 154 250 166 168 255 156 155 243 156 156 240 160 164 244 160 162 239 158 159 233 156 156 226 146 146 213 144 144 208 142 142 202 139 139 196 135 135 190 132 132 184 128 128 177 124 124 170 120 120 163 115 115 155 111 111 148 106 106 140 101 101 132 96 96 125 91 91 117 85 85 109 80 80 100 74 74 92 69 69 84 63 63 75 57 57 66 51 51 58 44 44 49 36 36 39 31 31 32 25 25 25 
37 55 55 37 55 55 37 55 55 37 55 55 37 55 55 37 56 56 37 56 56 37 56 56 37 56 56 37 56 56 37 56 56 37 56 56 37 56 56 37 56 56 37 56 56 37 56 56 37 56 56 37 56 56 37 56 56 37 56 56 37 56 56 37 56 56 37 56 56 37 56 56 37 56 56 37 56 56 37 56 56 37 56 56 37 56 56 37 56 56 37 56 56 37 56 56 37 56 56 37 56 56 37 56 56 37 56 56 37 56 56 37 56 56 37 56 56 37 56 56 37 56 56 37 56 56 38 56 56 38 56 56 38 56 56 38 56 56 38 56 56 38 56 56 38 56 56 38 56 56 38 56 56 38 56 56 38 56 56 38 56 56 38 56 56 38 56 56 38 56 56 38 56 56 38 56 56 38 56 56 38 56 56 38 56 56 38 56 56 38 56 56 38 56 56 38 56 56 38 56 56 38 56 56 38 56 56 38 56 56 38 56 56 38 56 56 38 56 56 38 56 56 38 56 56 38 56 56 38 56 56 38 56 56 38 56 56 38 56 56 38 56 56 38 56 56 38 56 56 38 56 56 38 56 56 38 56 56 38 56 56 38 56 56 38 56 56 38 56 56 38 56 56 38 56 56 38 56 56 38 56 56 38 56 56 38 56 56 37 56 56 37 56 56 37 56 56 37 56 56 37 56 56 37 56 56 37 56 56 37 56 56 37 56 56 37 56 56 37 56 56 37 56 56 37 56 56 37 56 56 37 56 56 37 56 56 42 61 61 42 61 61 42 61 61 42 61 61 44 63 63 44 63 63 44 64 64 44 64 64 44 64 64 44 64 64 44 64 64 44 63 63 44 62 62 42 61 61 42 61 61 42 61 61 42 61 61 42 61 61 42 61 61 42 61 61 42 61 61 42 61 61 42 61 61 42 61 61 42 60 60 40 58 58 38 57 57 37 55 55 37 55 55 37 55 55 37 55 55 37 55 55 37 55 55 37 55 55 37 55 55 37 55 55 37 55 55 37 55 55 37 55 55 37 55 55 37 55 55 37 55 55 37 55 55 37 55 55 37 55 55 37 55 55 37 55 55 37 55 55 37 55 55 37 55 55 37 55 55 37 54 54 37 54 54 37 54 54 37 54 54 37 54 54 37 54 54 37 54 54 53 65 65 68 77 77 97 97 97 90 96 97 81 92 92 68 82 82 58 74 74 51 68 68 43 61 61 43 61 61 43 61 61 43 61 61 42 60 60 42 59 59 38 55 55 36 54 54 36 54 54 36 54 54 36 54 54 36 53 53 36 53 53 36 53 53 36 53 53 36 53 53 36 53 53 36 53 53 36 53 53 36 53 53 36 53 53 36 53 53 36 53 53 36 53 53 36 53 53 36 53 53 36 53 53 36 53 53 36 53 53 36 53 53 36 53 53 36 53 53 36 53 53 36 53 53 36 52 52 38 50 50 35 41 41 33 36 36 32 36 36 32 36 36 32 35 35 32 35 35 32 35 35 34 37 39 35 38 39 34 37 38 33 36 37 33 37 37 35 37 37 40 46 48 47 56 59 52 65 68 56 72 73 43 60 60 43 60 60 43 60 60 44 61 61 43 60 60 47 61 61 43 60 60 45 60 60 36 42 42 37 39 39 33 36 36 32 35 35 32 35 35 32 35 35 32 35 35 32 35 35 32 35 35 32 35 35 32 35 35 32 35 35 33 36 37 34 37 37 33 36 37 32 35 35 34 37 37 35 38 40 34 36 36 35 37 37 33 39 39 34 43 43 35 50 50 35 50 50 35 50 50 35 50 50 35 50 50 35 50 50 35 50 50 35 50 50 35 50 50 35 50 50 35 50 50 35 50 50 35 50 50 35 50 50 35 50 50 35 49 49 35 49 49 35 49 49 35 49 49 35 49 49 35 49 49 35 49 49 35 49 49 35 49 49 136 132 227 138 137 227 171 167 253 151 151 234 152 152 231 157 162 238 157 163 236 154 157 227 152 152 219 142 142 205 140 140 200 137 137 194 134 134 188 130 130 181 127 127 175 123 123 168 119 119 161 114 114 154 110 110 146 105 105 139 100 100 131 95 95 123 90 90 115 84 84 107 79 79 99 73 73 90 68 68 82 62 62 73 56 56 65 49 49 56 43 43 47 34 34 35 28 28 29 25 25 25 25 25 25 
37 55 55 37 55 55 37 55 55 37 55 55 37 55 55 37 55 55 37 55 55 37 55 55 37 56 56 37 56 56 37 56 56 37 56 56 37 56 56 37 56 56 37 56 56 37 56 56 37 56 56 37 56 56 37 56 56 37 56 56 37 56 56 37 56 56 37 56 56 37 56 56 37 56 56 37 56 56 37 56 56 37 56 56 37 56 56 37 56 56 37 56 56 37 56 56 37 56 56 37 56 56 37 56 56 37 56 56 37 56 56 37 56 56 37 56 56 37 56 56 37 56 56 37 56 56 37 56 56 37 56 56 37 56 56 37 56 56 37 56 56 37 56 56 37 56 56 37 56 56 37 56 56 37 56 56 38 56 56 38 56 56 38 56 56 38 56 56 38 56 56 38 56 56 38 56 56 38 56 56 38 56 56 38 56 56 38 56 56 38 56 56 38 56 56 38 56 56 38 56 56 38 56 56 38 56 56 38 56 56 38 56 56 38 56 56 38 56 56 38 56 56 38 56 56 38 56 56 38 56 56 38 56 56 38 56 56 38 56 56 38 56 56 38 56 56 38 56 56 38 56 56 37 56 56 37 56 56 37 56 56 37 56 56 37 56 56 37 56 56 37 56 56 37 56 56 37 56 56 37 56 56 37 56 56 37 56 56 37 56 56 37 56 56 37 56 56 37 56 56 37 56 56 37 56 56 37 56 56 37 56 56 37 56 56 37 56 56 37 56 56 37 56 56 37 56 56 37 56 56 37 56 56 37 56 56 42 61 61 42 61 61 42 61 61 42 61 61 42 61 61 43 62 62 44 62 62 44 63 63 44 63 63 44 63 63 44 63 63 44 62 62 43 62 62 44 61 61 43 61 61 42 61 61 42 61 61 42 61 61 42 61 61 42 61 61 42 60 60 42 60 60 41 59 59 41 59 59 40 58 58 38 57 57 37 55 55 37 55 55 37 55 55 37 55 55 37 55 55 37 55 55 37 55 55 37 55 55 37 55 55 37 55 55 37 55 55 37 55 55 37 55 55 37 55 55 37 55 55 37 55 55 37 55 55 37 55 55 37 55 55 37 55 55 37 55 55 37 55 55 37 55 55 37 54 54 37 54 54 37 54 54 37 54 54 37 54 54 37 54 54 37 54 54 37 54 54 37 54 54 69 77 77 99 98 98 93 97 98 85 94 94 70 84 84 57 73 73 52 68 68 43 61 61 43 61 61 43 61 61 43 61 61 43 61 61 43 60 60 42 59 59 42 59 59 36 54 54 36 54 54 36 53 53 36 53 53 36 53 53 36 53 53 36 53 53 36 53 53 36 53 53 36 53 53 36 53 53 36 53 53 36 53 53 36 53 53 36 53 53 36 53 53 36 53 53 36 53 53 36 53 53 36 53 53 36 53 53 36 53 53 36 53 53 36 53 53 36 53 53 36 52 52 36 52 52 36 52 52 36 52 52 36 52 52 35 48 48 36 46 46 33 40 40 34 40 40 33 40 40 33 39 39 35 38 39 36 42 43 36 42 43 35 41 41 49 58 66 49 59 65 55 68 75 60 76 82 57 73 76 49 66 66 43 60 60 43 60 60 43 60 60 52 64 64 43 59 59 54 65 66 44 59 59 54 65 65 47 59 59 44 55 55 36 42 42 33 36 36 32 35 35 32 35 35 33 36 36 32 35 35 33 36 37 34 37 38 34 37 38 32 35 35 32 35 35 34 37 37 34 37 37 35 37 37 33 35 35 32 35 35 34 39 39 34 43 43 35 47 47 35 50 50 35 50 50 35 50 50 35 50 50 35 50 50 35 50 50 35 50 50 35 50 50 35 50 50 35 50 50 35 50 50 35 50 50 35 50 50 35 50 50 35 50 50 35 50 50 35 49 49 35 49 49 35 49 49 35 49 49 35 49 49 35 49 49 35 49 49 35 49 49 67 76 122 124 124 215 135 135 221 163 163 246 148 149 228 150 154 230 154 161 234 153 159 228 150 153 219 147 148 211 137 137 197 135 135 191 132 132 185 129 129 179 125 125 172 121 121 166 117 117 159 113 113 152 108 108 144 104 104 137 99 99 129 94 94 121 89 89 113 83 83 105 78 78 97 72 72 89 66 66 80 61 61 72 54 54 63 48 48 54 39 39 42 33 33 34 28 28 28 25 25 25 25 25 25 25 25 25 
37 55 55 37 55 55 37 55 55 37 55 55 37 55 55 37 55 55 37 55 55 37 55 55 37 55 55 37 55 55 37 55 55 37 56 56 37 56 56 37 56 56 37 56 56 37 56 56 37 56 56 37 56 56 37 56 56 37 56 56 37 56 56 37 56 56 37 56 56 37 56 56 37 56 56 37 56 56 37 56 56 37 56 56 37 56 56 37 56 56 37 56 56 37 56 56 37 56 56 37 56 56 37 56 56 37 56 56 37 56 56 37 56 56 37 56 56 37 56 56 37 56 56 37 56 56 37 56 56 37 56 56 37 56 56 37 56 56 37 56 56 37 56 56 37 56 56 37 56 56 37 56 56 37 56 56 37 56 56 37 56 56 37 56 56 37 56 56 37 56 56 37 56 56 37 56 56 37 56 56 37 56 56 37 56 56 37 56 56 37 56 56 37 56 56 37 56 56 37 56 56 37 56 56 37 56 56 37 56 56 37 56 56 37 56 56 37 56 56 37 56 56 37 56 56 37 56 56 37 56 56 37 56 56 37 56 56 37 56 56 37 56 56 37 56 56 37 56 56 37 56 56 37 56 56 37 56 56 37 56 56 37 56 56 37 56 56 37 56 56 37 56 56 37 56 56 37 56 56 37 56 56 37 56 56 37 56 56 37 56 56 37 56 56 37 56 56 37 56 56 37 56 56 37 56 56 37 56 56 37 56 56 37 56 56 37 56 56 37 56 56 37 56 56 37 56 56 37 56 56 37 56 56 37 56 56 37 56 56 42 61 61 42 61 61 42 61 61 42 61 61 42 61 61 43 61 61 43 61 61 43 62 62 43 62 62 43 62 62 43 61 61 42 61 61 42 61 61 44 61 61 46 63 63 42 61 61 42 60 60 41 59 59 41 59 59 41 59 59 40 58 58 40 58 58 38 56 56 37 55 55 37 55 55 37 55 55 37 55 55 37 55 55 37 55 55 37 55 55 37 55 55 37 55 55 37 55 55 37 55 55 37 55 55 37 55 55 37 55 55 37 55 55 37 55 55 37 55 55 37 55 55 37 55 55 37 55 55 37 55 55 37 55 55 37 54 54 37 54 54 37 54 54 37 54 54 37 54 54 37 54 54 37 54 54 37 54 54 37 54 54 37 54 54 37 54 54 70 75 75 100 97 97 95 98 98 85 95 96 78 90 91 58 75 75 46 63 63 43 61 61 43 62 62 43 61 61 43 61 61 43 61 61 43 61 61 43 61 61 43 60 60 42 59 59 41 59 59 36 53 53 36 53 53 36 53 53 36 53 53 36 53 53 36 53 53 36 53 53 36 53 53 36 53 53 36 53 53 36 53 53 36 53 53 36 53 53 36 53 53 36 53 53 36 53 53 36 53 53 36 53 53 36 53 53 36 53 53 36 53 53 36 53 53 36 52 52 36 52 52 36 52 52 36 52 52 36 52 52 36 52 52 36 52 52 36 52 52 36 52 52 35 48 48 35 48 49 35 48 48 35 48 48 35 45 46 38 50 51 35 48 48 35 48 48 57 70 83 64 80 92 69 84 93 59 75 80 55 71 73 51 66 67 48 62 62 44 60 60 46 60 60 49 61 61 46 60 60 54 63 63 48 60 60 52 61 61 51 62 62 55 64 64 42 58 58 38 47 47 35 41 41 33 36 36 34 37 39 34 37 37 35 38 39 32 35 35 34 37 38 33 36 37 33 36 36 32 35 35 32 35 35 33 36 36 38 41 41 37 45 45 34 43 43 35 47 47 35 50 50 35 50 50 35 50 50 35 50 50 35 50 50 35 50 50 35 50 50 35 50 50 35 50 50 35 50 50 35 50 50 35 50 50 35 50 50 35 50 50 35 50 50 35 50 50 35 49 49 35 49 49 35 49 49 35 49 49 35 49 49 35 49 49 35 49 49 35 49 49 35 49 49 68 78 122 122 122 209 134 134 218 159 160 239 145 147 222 147 151 223 149 156 225 148 154 220 146 149 212 143 144 203 134 134 190 129 129 182 126 126 176 123 123 170 119 119 163 115 115 156 111 111 149 107 107 142 102 102 135 98 98 127 93 93 119 87 87 111 82 82 103 77 77 95 71 71 87 65 65 78 59 59 70 53 53 61 47 47 52 38 38 41 32 32 33 27 27 27 25 25 25 25 25 25 25 25 25 25 25 25 
37 55 55 37 55 55 37 55 55 37 55 55 37 55 55 37 55 55 37 55 55 37 55 55 37 55 55 37 55 55 37 55 55 37 55 55 37 55 55 37 55 55 37 55 55 37 56 56 37 56 56 37 56 56 37 56 56 37 56 56 37 56 56 37 56 56 37 56 56 37 56 56 37 56 56 37 56 56 37 56 56 37 56 56 37 56 56 37 56 56 37 56 56 37 56 56 37 56 56 37 56 56 37 56 56 37 56 56 37 56 56 37 56 56 37 56 56 37 56 56 37 56 56 37 56 56 37 56 56 37 56 56 37 56 56 37 56 56 37 56 56 37 56 56 37 56 56 37 56 56 37 56 56 37 56 56 37 56 56 37 56 56 37 56 56 37 56 56 37 56 56 37 56 56 37 56 56 37 56 56 37 56 56 37 56 56 37 56 56 37 56 56 37 56 56 37 56 56 37 56 56 37 56 56 37 56 56 37 56 56 37 56 56 37 56 56 37 56 56 37 56 56 37 56 56 37 56 56 37 56 56 37 56 56 37 56 56 37 56 56 37 56 56 37 56 56 37 56 56 37 56 56 37 56 56 37 56 56 37 56 56 37 56 56 37 56 56 37 56 56 37 56 56 37 56 56 37 56 56 37 56 56 37 56 56 37 56 56 37 56 56 37 56 56 37 56 56 37 56 56 37 56 56 37 56 56 37 56 56 37 56 56 37 56 56 37 56 56 37 56 56 37 56 56 37 56 56 37 56 56 37 56 56 37 56 56 37 56 56 41 59 59 42 61 61 42 61 61 42 61 61 42 61 61 42 61 61 42 61 61 42 61 61 42 61 61 42 61 61 42 61 61 42 60 60 42 60 60 42 60 60 46 62 62 42 60 60 41 59 59 40 58 58 38 56 56 38 56 56 37 55 55 37 55 55 37 55 55 37 55 55 37 55 55 37 55 55 37 55 55 37 55 55 37 55 55 37 55 55 37 55 55 37 55 55 37 55 55 37 55 55 37 55 55 37 55 55 37 55 55 37 55 55 37 55 55 37 55 55 37 55 55 37 55 55 37 55 55 37 54 54 37 54 54 37 54 54 37 54 54 37 54 54 37 54 54 37 54 54 37 54 54 37 54 54 37 54 54 37 54 54 37 54 54 37 54 54 68 76 76 96 98 98 89 96 97 82 93 95 58 75 75 51 68 68 43 62 62 43 62 62 43 61 61 45 63 64 43 61 62 45 63 65 43 61 61 43 61 61 43 60 60 42 59 59 41 58 58 36 53 53 36 53 53 36 53 53 36 53 53 36 53 53 36 53 53 36 53 53 36 53 53 36 53 53 36 53 53 36 53 53 36 53 53 36 53 53 36 53 53 36 53 53 36 53 53 36 53 53 36 53 53 36 53 53 36 53 53 36 53 53 36 52 52 36 52 52 36 52 52 36 52 52 36 52 52 36 52 52 36 52 52 36 52 52 36 52 52 36 52 52 36 52 52 36 52 52 36 52 52 36 52 52 36 52 52 36 52 52 36 52 52 36 52 52 61 77 94 63 79 90 61 77 85 60 75 80 59 73 76 53 67 67 45 60 60 45 60 60 52 64 64 43 59 59 44 59 59 43 59 60 46 61 65 46 61 63 45 59 59 57 64 64 49 59 59 41 57 57 40 56 56 39 51 51 34 44 44 35 41 42 34 40 40 33 39 39 33 39 39 33 39 39 33 39 39 33 39 39 34 43 43 34 43 43 34 46 46 35 47 47 35 50 50 35 50 50 35 50 50 35 50 50 35 50 50 35 50 50 35 50 50 35 50 50 35 50 50 35 50 50 35 50 50 35 50 50 35 50 50 35 50 50 35 50 50 35 50 50 35 50 50 35 49 49 35 49 49 35 49 49 35 49 49 35 49 49 35 49 49 35 49 49 35 49 49 35 49 49 35 49 49 69 78 121 120 121 204 131 131 210 147 151 226 142 147 218 144 151 219 145 151 216 144 150 211 141 145 204 138 140 195 135 135 187 124 124 173 121 121 167 117 117 161 114 114 154 110 110 147 105 105 140 101 101 133 96 96 125 91 91 117 86 86 109 81 81 101 75 75 93 70 70 85 64 64 76 58 58 68 52 52 59 45 45 50 37 37 39 31 31 32 25 25 25 25 25 25 25 25 25 25 25 25 25 25 25 25 25 25 
37 55 55 37 55 55 37 55 55 37 55 55 37 55 55 37 55 55 37 55 55 37 55 55 37 55 55 37 55 55 37 55 55 37 55 55 37 55 55 37 55 55 37 55 55 37 55 55 37 55 55 37 55 55 37 55 55 37 55 55 37 56 56 37 56 56 37 56 56 37 56 56 37 56 56 37 56 56 37 56 56 37 56 56 37 56 56 37 56 56 37 56 56 37 56 56 37 56 56 37 56 56 37 56 56 37 56 56 37 56 56 37 56 56 37 56 56 37 56 56 37 56 56 37 56 56 37 56 56 37 56 56 37 56 56 37 56 56 37 56 56 37 56 56 37 56 56 37 56 56 37 56 56 37 56 56 37 56 56 37 56 56 37 56 56 37 56 56 37 56 56 37 56 56 37 56 56 37 56 56 37 56 56 37 56 56 37 56 56 37 56 56 37 56 56 37 56 56 37 56 56 37 56 56 37 56 56 37 56 56 37 56 56 37 56 56 37 56 56 37 56 56 37 56 56 37 56 56 37 56 56 37 56 56 37 56 56 37 56 56 37 56 56 37 56 56 37 56 56 37 56 56 37 56 56 37 56 56 37 56 56 37 56 56 37 56 56 37 56 56 37 56 56 37 56 56 37 56 56 37 56 56 37 56 56 37 56 56 37 56 56 37 56 56 37 56 56 37 56 56 37 56 56 37 56 56 37 56 56 37 56 56 37 56 56 37 56 56 37 56 56 37 56 56 37 56 56 37 56 56 37 56 56 37 56 56 37 56 56 37 56 56 42 61 61 42 61 61 42 61 61 42 61 61 42 61 61 42 61 61 42 60 60 42 60 60 42 60 60 42 60 60 42 60 60 42 60 60 42 60 60 42 60 60 41 59 59 40 58 58 37 55 55 37 55 55 37 55 55 37 55 55 37 55 55 37 55 55 37 55 55 37 55 55 37 55 55 37 55 55 37 55 55 37 55 55 37 55 55 37 55 55 37 55 55 37 55 55 37 55 55 37 55 55 37 55 55 37 55 55 37 55 55 37 55 55 37 55 55 37 54 54 37 54 54 37 54 54 37 54 54 37 54 54 37 54 54 37 54 54 37 54 54 37 54 54 37 54 54 37 54 54 37 54 54 37 54 54 37 54 54 37 54 54 52 63 63 98 96 96 90 96 96 83 94 94 66 81 81 50 67 67 43 62 62 44 62 63 44 62 63 44 61 63 44 61 62 44 62 63 45 62 64 44 61 63 45 62 65 43 60 60 43 60 60 41 58 58 41 58 58 36 53 53 36 53 53 36 53 53 36 53 53 36 53 53 36 53 53 36 53 53 36 53 53 36 53 53 36 53 53 36 53 53 36 53 53 36 53 53 36 53 53 36 53 53 36 53 53 36 53 53 36 53 53 36 52 52 36 52 52 36 52 52 36 52 52 36 52 52 36 52 52 36 52 52 36 52 52 36 52 52 36 52 52 36 52 52 36 52 52 36 52 52 36 52 52 36 52 52 36 52 52 36 52 52 36 52 52 36 52 52 36 52 52 36 52 52 61 77 89 60 76 84 58 74 79 61 75 77 46 62 62 42 58 58 43 58 58 42 58 58 42 59 59 44 61 62 45 61 62 42 59 59 43 58 59 43 58 59 52 61 61 50 61 61 40 56 56 40 56 56 40 56 56 37 52 52 35 51 51 35 47 47 35 47 47 34 47 47 34 47 47 34 47 47 35 47 47 36 48 48 35 50 50 35 50 50 35 50 50 35 50 50 35 50 50 35 50 50 35 50 50 35 50 50 35 50 50 35 50 50 35 50 50 35 50 50 35 50 50 35 50 50 35 50 50 35 50 50 35 50 50 35 50 50 35 50 50 35 49 49 35 49 49 35 49 49 35 49 49 35 49 49 35 49 49 35 49 49 35 49 49 35 49 49 35 49 49 35 49 49 67 76 116 118 121 199 128 130 205 135 141 212 138 144 211 139 145 210 139 146 207 139 144 202 136 141 196 133 136 187 129 130 179 118 118 164 115 115 158 111 111 151 108 108 144 103 103 137 99 99 130 94 94 123 90 90 115 85 85 107 79 79 99 74 74 91 68 68 83 63 63 74 57 57 66 50 50 57 44 44 47 34 34 36 28 28 29 25 25 25 25 25 25 25 25 25 25 25 25 25 25 25 25 25 25 25 25 25 
37 55 55 37 55 55 37 55 55 37 55 55 37 55 55 37 55 55 37 55 55 37 55 55 37 55 55 37 55 55 37 55 55 37 55 55 37 55 55 37 55 55 37 55 55 37 55 55 37 55 55 37 55 55 37 55 55 37 55 55 37 55 55 37 55 55 37 55 55 37 55 55 37 55 55 37 56 56 37 56 56 37 56 56 37 56 56 37 56 56 37 56 56 37 56 56 37 56 56 37 56 56 37 56 56 37 56 56 37 56 56 37 56 56 37 56 56 37 56 56 37 56 56 37 56 56 37 56 56 37 56 56 37 56 56 37 56 56 37 56 56 37 56 56 37 56 56 37 56 56 37 56 56 37 56 56 37 56 56 37 56 56 37 56 56 37 56 56 37 56 56 37 56 56 37 56 56 37 56 56 37 56 56 37 56 56 37 56 56 37 56 56 37 56 56 37 56 56 37 56 56 37 56 56 37 56 56 37 56 56 37 56 56 37 56 56 37 56 56 37 56 56 37 56 56 37 56 56 37 56 56 37 56 56 37 56 56 37 56 56 37 56 56 37 56 56 37 56 56 37 56 56 37 56 56 37 56 56 37 56 56 37 56 56 37 56 56 37 56 56 37 56 56 37 56 56 37 56 56 37 56 56 37 56 56 37 56 56 37 56 56 37 56 56 37 56 56 37 56 56 37 56 56 37 56 56 37 56 56 37 56 56 37 56 56 37 56 56 37 56 56 37 56 56 37 56 56 37 55 55 37 55 55 37 55 55 37 55 55 37 55 55 38 57 57 41 59 59 42 60 60 42 60 60 42 60 60 42 60 60 42 60 60 42 60 60 42 60 60 42 60 60 42 60 60 42 60 60 42 60 60 41 59 59 40 58 58 37 55 55 37 55 55 37 55 55 37 55 55 37 55 55 37 55 55 37 55 55 37 55 55 37 55 55 37 55 55 37 55 55 37 55 55 37 55 55 37 55 55 37 55 55 37 55 55 37 55 55 37 55 55 37 55 55 37 55 55 37 55 55 37 54 54 37 54 54 37 54 54 37 54 54 37 54 54 37 54 54 37 54 54 37 54 54 37 54 54 37 54 54 37 54 54 37 54 54 37 54 54 37 54 54 37 54 54 37 54 54 37 54 54 37 54 54 66 73 73 94 95 95 84 92 92 75 88 88 58 75 76 44 62 63 43 61 61 44 62 63 43 61 61 45 62 64 43 61 61 43 61 61 44 61 61 43 61 61 46 63 65 45 62 64 43 60 60 41 58 58 41 58 58 36 53 53 36 53 53 36 53 53 36 53 53 36 53 53 36 53 53 36 53 53 36 53 53 36 53 53 36 53 53 36 53 53 36 53 53 36 53 53 36 53 53 36 53 53 36 53 53 36 53 53 36 52 52 36 52 52 36 52 52 36 52 52 36 52 52 36 52 52 36 52 52 36 52 52 36 52 52 36 52 52 36 52 52 36 52 52 36 52 52 36 52 52 36 52 52 36 52 52 36 52 52 36 52 52 36 52 52 36 52 52 36 52 52 36 52 52 59 75 87 59 75 83 56 72 77 53 68 70 41 57 57 41 56 56 41 56 56 41 57 57 41 57 57 43 59 61 43 59 60 42 58 59 41 57 57 42 58 58 53 63 63 50 60 60 40 56 56 40 56 56 38 53 53 35 51 51 35 51 51 35 51 51 35 51 51 35 51 51 35 50 50 35 50 50 35 50 50 35 50 50 35 50 50 35 50 50 47 58 58 57 65 65 55 65 65 53 64 64 51 63 63 49 62 62 47 61 61 42 57 57 36 51 51 36 51 51 35 50 50 35 50 50 35 50 50 35 50 50 35 50 50 35 50 50 35 49 49 35 49 49 35 49 49 35 49 49 35 49 49 35 49 49 46 56 56 45 56 56 52 61 61 50 60 60 48 59 59 46 58 58 66 75 113 117 122 197 124 127 198 131 137 204 133 138 202 134 140 201 134 140 198 133 139 193 131 136 187 128 131 179 124 126 171 120 120 163 109 109 148 105 105 142 101 101 135 97 97 128 93 93 120 88 88 113 83 83 105 78 78 97 72 72 89 67 67 81 61 61 72 55 55 63 49 49 54 40 40 43 33 33 35 28 28 28 25 25 25 25 25 25 25 25 25 25 25 25 25 25 25 25 25 25 25 25 25 25 25 25 
37 55 55 37 55 55 37 55 55 37 55 55 37 55 55 37 55 55 37 55 55 37 55 55 37 55 55 37 55 55 37 55 55 37 55 55 37 55 55 37 55 55 37 55 55 37 55 55 37 55 55 37 55 55 37 55 55 37 55 55 37 55 55 37 55 55 37 55 55 37 55 55 37 55 55 37 55 55 37 55 55 37 55 55 37 55 55 37 55 55 37 56 56 37 56 56 37 56 56 37 56 56 37 56 56 37 56 56 37 56 56 37 56 56 37 56 56 37 56 56 37 56 56 37 56 56 37 56 56 37 56 56 37 56 56 37 56 56 37 56 56 37 56 56 37 56 56 37 56 56 37 56 56 37 56 56 37 56 56 37 56 56 37 56 56 37 56 56 37 56 56 37 56 56 37 56 56 37 56 56 37 56 56 37 56 56 37 56 56 37 56 56 37 56 56 37 56 56 37 56 56 37 56 56 37 56 56 37 56 56 37 56 56 37 56 56 37 56 56 37 56 56 37 56 56 37 56 56 37 56 56 37 56 56 37 56 56 37 56 56 37 56 56 37 56 56 37 56 56 37 56 56 37 56 56 37 56 56 37 56 56 37 56 56 37 56 56 37 56 56 37 56 56 37 56 56 37 56 56 37 56 56 37 56 56 37 56 56 37 56 56 37 56 56 37 56 56 37 56 56 37 56 56 37 56 56 37 56 56 37 55 55 37 55 55 37 55 55 37 55 55 37 55 55 37 55 55 37 55 55 37 55 55 37 55 55 37 55 55 37 55 55 37 55 55 38 57 57 41 59 59 42 60 60 42 60 60 42 60 60 42 60 60 42 60 60 42 60 60 42 60 60 42 60 60 41 59 59 40 58 58 40 58 58 37 55 55 37 55 55 37 55 55 37 55 55 37 55 55 37 55 55 37 55 55 37 55 55 37 55 55 37 55 55 37 55 55 37 55 55 37 55 55 37 55 55 37 55 55 37 55 55 37 55 55 37 55 55 37 55 55 37 54 54 37 54 54 37 54 54 37 54 54 37 54 54 37 54 54 37 54 54 37 54 54 37 54 54 37 54 54 37 54 54 37 54 54 37 54 54 37 54 54 37 54 54 37 54 54 37 54 54 37 54 54 37 54 54 37 54 54 37 54 54 65 73 73 89 93 93 79 89 89 66 81 82 49 66 66 44 61 62 45 62 63 44 62 63 43 61 61 43 61 61 43 61 61 43 61 61 43 61 61 43 60 60 43 60 60 46 63 66 42 59 59 41 58 58 41 58 58 36 53 53 36 53 53 36 53 53 36 53 53 36 53 53 36 53 53 36 53 53 36 53 53 36 53 53 36 53 53 36 53 53 36 53 53 36 53 53 36 53 53 36 53 53 36 52 52 36 52 52 36 52 52 36 52 52 36 52 52 36 52 52 36 52 52 36 52 52 36 52 52 36 52 52 36 52 52 36 52 52 36 52 52 36 52 52 36 52 52 36 52 52 36 52 52 36 52 52 36 52 52 36 52 52 36 52 52 36 52 52 36 52 52 36 52 52 36 51 51 58 73 82 56 71 76 52 68 70 41 56 56 41 56 56 41 56 56 41 56 56 44 60 62 45 61 64 41 57 57 41 56 56 48 59 59 47 60 60 47 59 59 43 57 57 40 56 56 40 56 56 38 53 53 35 51 51 35 51 51 35 51 51 35 51 51 35 50 50 35 50 50 35 50 50 35 50 50 35 50 50 49 59 59 61 68 68 71 75 75 68 74 74 75 80 80 70 78 78 65 76 76 57 70 70 51 65 65 45 60 60 39 54 54 39 54 54 37 52 52 36 51 51 35 50 50 35 50 50 35 50 50 35 49 49 35 49 49 35 49 49 35 49 49 35 49 49 60 63 63 59 65 65 68 71 71 65 70 70 70 74 74 66 73 73 61 70 70 53 65 65 59 69 88 110 115 186 120 124 191 126 131 195 128 133 193 129 134 191 129 134 188 128 133 184 126 131 178 123 126 171 119 121 163 115 116 154 103 103 139 99 99 132 95 95 125 91 91 118 86 86 110 81 81 103 76 76 95 71 71 87 65 65 78 60 60 70 53 53 61 47 47 52 39 39 41 32 32 33 27 27 27 25 25 25 25 25 25 25 25 25 25 25 25 25 25 25 25 25 25 25 25 25 25 25 25 25 25 25 
37 55 55 37 55 55 37 55 55 37 55 55 37 55 55 37 55 55 37 55 55 37 55 55 37 55 55 37 55 55 37 55 55 37 55 55 37 55 55 37 55 55 37 55 55 37 55 55 37 55 55 37 55 55 37 55 55 37 55 55 37 55 55 37 55 55 37 55 55 37 55 55 37 55 55 37 55 55 37 55 55 37 55 55 37 55 55 37 55 55 37 55 55 37 55 55 37 55 55 37 55 55 37 55 55 37 55 55 37 55 55 37 55 55 37 56 56 37 56 56 37 56 56 37 56 56 37 56 56 37 56 56 37 56 56 37 56 56 37 56 56 37 56 56 37 56 56 37 56 56 37 56 56 37 56 56 37 56 56 37 56 56 37 56 56 37 56 56 37 56 56 37 56 56 37 56 56 37 56 56 37 56 56 37 56 56 37 56 56 37 56 56 37 56 56 37 56 56 37 56 56 37 56 56 37 56 56 37 56 56 37 56 56 37 56 56 37 56 56 37 56 56 37 56 56 37 56 56 37 56 56 37 56 56 37 56 56 37 56 56 37 56 56 37 56 56 37 56 56 37 56 56 37 56 56 37 56 56 37 56 56 37 56 56 37 56 56 37 56 56 37 56 56 37 56 56 37 56 56 37 56 56 37 56 56 37 55 55 37 55 55 37 55 55 37 55 55 37 55 55 37 55 55 37 55 55 37 55 55 37 55 55 37 55 55 37 55 55 37 55 55 37 55 55 37 55 55 37 55 55 37 55 55 37 55 55 37 55 55 37 55 55 37 55 55 37 55 55 37 55 55 38 56 56 40 58 58 41 59 59 41 59 59 41 59 59 41 59 59 41 59 59 40 58 58 40 58 58 38 56 56 37 55 55 37 55 55 37 55 55 37 55 55 37 55 55 37 55 55 37 55 55 37 55 55 37 55 55 37 55 55 37 55 55 37 55 55 37 55 55 37 55 55 37 55 55 37 55 55 37 55 55 37 54 54 37 54 54 37 54 54 37 54 54 37 54 54 37 54 54 37 54 54 37 54 54 37 54 54 37 54 54 37 54 54 37 54 54 37 54 54 37 54 54 37 54 54 37 54 54 37 54 54 37 54 54 37 54 54 37 54 54 37 54 54 37 54 54 37 54 54 36 54 54 63 72 72 85 91 91 74 86 86 55 71 71 43 60 60 43 61 61 43 60 60 43 61 61 43 61 61 43 61 61 43 61 61 47 61 62 45 61 61 46 61 61 48 62 62 45 62 64 42 59 59 41 58 58 41 58 58 36 53 53 36 53 53 36 53 53 36 53 53 36 53 53 36 53 53 36 53 53 36 53 53 36 53 53 36 53 53 36 53 53 36 53 53 36 53 53 36 52 52 36 52 52 36 52 52 36 52 52 36 52 52 36 52 52 36 52 52 36 52 52 36 52 52 36 52 52 36 52 52 36 52 52 36 52 52 36 52 52 36 52 52 36 52 52 36 52 52 36 52 52 36 52 52 36 52 52 36 52 52 36 52 52 36 52 52 36 52 52 36 51 51 36 51 51 36 51 51 41 57 59 55 71 76 52 68 70 41 56 56 41 56 56 41 56 56 42 58 59 46 61 64 44 59 60 40 56 56 40 56 56 40 56 56 43 57 57 42 56 56 40 56 56 40 56 56 38 53 53 35 51 51 35 51 51 35 51 51 35 51 51 35 50 50 35 50 50 35 50 50 35 50 50 35 50 50 65 69 69 77 78 78 87 86 86 82 85 85 77 83 83 71 81 81 66 78 78 53 67 67 50 65 65 41 57 57 41 56 56 41 56 56 41 56 56 40 55 55 39 53 53 37 52 52 35 50 50 35 50 50 35 49 49 35 49 49 35 49 49 49 57 57 63 67 67 75 75 75 84 82 82 80 81 81 75 79 79 69 76 76 64 73 73 58 70 70 48 62 62 44 58 58 104 108 176 115 119 183 120 125 185 122 127 184 123 129 182 123 128 179 122 127 174 120 125 169 117 121 162 113 116 154 109 111 146 105 105 137 93 93 122 89 89 115 84 84 108 79 79 100 74 74 92 69 69 84 64 64 76 58 58 68 52 52 59 45 45 50 37 37 39 31 31 32 25 25 25 25 25 25 25 25 25 25 25 25 25 25 25 25 25 25 25 25 25 25 25 25 25 25 25 25 25 25 25 25 25 
37 55 55 37 55 55 37 55 55 37 55 55 37 55 55 37 55 55 37 55 55 37 55 55 37 55 55 37 55 55 37 55 55 37 55 55 37 55 55 37 55 55 37 55 55 37 55 55 37 55 55 37 55 55 37 55 55 37 55 55 37 55 55 37 55 55 37 55 55 37 55 55 37 55 55 37 55 55 37 55 55 37 55 55 37 55 55 37 55 55 37 55 55 37 55 55 37 55 55 37 55 55 37 55 55 37 55 55 37 55 55 37 55 55 37 55 55 37 55 55 37 55 55 37 55 55 37 55 55 37 55 55 37 55 55 37 55 55 37 55 55 37 55 55 37 56 56 37 56 56 37 56 56 37 56 56 37 56 56 37 56 56 37 56 56 37 56 56 37 56 56 37 56 56 37 56 56 37 56 56 37 56 56 37 56 56 37 56 56 37 56 56 37 56 56 37 56 56 37 56 56 37 56 56 37 56 56 37 56 56 37 56 56 37 56 56 37 56 56 37 56 56 37 56 56 37 56 56 37 56 56 37 56 56 37 56 56 37 56 56 37 56 56 37 56 56 37 56 56 37 56 56 37 56 56 37 55 55 37 55 55 37 55 55 37 55 55 37 55 55 37 55 55 37 55 55 37 55 55 37 55 55 37 55 55 37 55 55 37 55 55 37 55 55 37 55 55 37 55 55 37 55 55 37 55 55 37 55 55 37 55 55 37 55 55 37 55 55 37 55 55 37 55 55 37 55 55 37 55 55 37 55 55 37 55 55 37 55 55 37 55 55 37 55 55 37 55 55 37 55 55 37 55 55 37 55 55 38 56 56 38 56 56 38 56 56 38 56 56 38 56 56 37 55 55 37 55 55 37 55 55 37 55 55 37 55 55 37 55 55 37 55 55 37 55 55 37 55 55 37 55 55 37 55 55 37 55 55 37 55 55 37 55 55 37 55 55 37 55 55 37 54 54 37 54 54 37 54 54 37 54 54 37 54 54 37 54 54 37 54 54 37 54 54 37 54 54 37 54 54 37 54 54 37 54 54 37 54 54 37 54 54 37 54 54 37 54 54 37 54 54 37 54 54 37 54 54 37 54 54 37 54 54 37 54 54 37 54 54 37 54 54 37 54 54 36 54 54 36 54 54 36 54 54 61 70 70 81 89 89 69 83 83 47 64 64 43 60 60 43 60 60 43 61 61 43 61 61 43 60 60 45 61 61 46 61 61 45 61 61 48 62 63 46 61 61 44 60 60 46 62 65 42 59 60 41 58 58 41 58 58 36 53 53 36 53 53 36 53 53 36 53 53 36 53 53 36 53 53 36 53 53 36 53 53 36 53 53 36 53 53 36 53 53 36 53 53 36 52 52 36 52 52 36 52 52 36 52 52 36 52 52 36 52 52 36 52 52 36 52 52 36 52 52 36 52 52 36 52 52 36 52 52 36 52 52 36 52 52 36 52 52 36 52 52 36 52 52 36 52 52 36 52 52 36 52 52 36 52 52 36 52 52 36 52 52 36 52 52 36 51 51 36 51 51 36 51 51 36 51 51 36 51 51 40 56 58 52 68 71 43 59 59 43 58 60 44 59 61 43 58 59 46 62 65 44 60 60 42 58 58 42 57 57 43 58 58 41 56 56 40 56 56 40 56 56 38 53 53 37 52 52 35 51 51 35 51 51 35 51 51 35 50 50 35 50 50 35 50 50 35 50 50 35 50 50 67 71 71 80 80 80 91 90 90 85 88 88 80 86 86 74 83 83 68 80 80 58 72 72 46 62 62 41 57 57 41 57 57 41 57 57 41 57 57 41 57 57 41 56 56 41 56 56 40 55 55 39 53 53 36 51 51 35 49 49 35 49 49 50 58 58 65 68 68 92 85 85 89 86 86 85 85 85 79 83 83 73 80 80 67 76 76 61 73 73 50 63 63 44 59 59 41 56 56 97 102 166 109 114 174 114 119 176 117 122 175 117 123 172 117 122 169 116 121 165 114 119 159 111 116 153 108 111 146 103 106 137 99 100 129 90 90 116 82 82 105 77 77 98 72 72 90 67 67 82 62 62 74 56 56 65 50 50 57 44 44 47 34 34 36 28 28 29 25 25 25 25 25 25 25 25 25 25 25 25 25 25 25 25 25 25 25 25 25 25 25 25 25 25 25 25 25 25 25 25 25 25 25 25 
37 55 55 37 55 55 37 55 55 37 55 55 37 55 55 37 55 55 37 55 55 37 55 55 37 55 55 37 55 55 37 55 55 37 55 55 37 55 55 37 55 55 37 55 55 37 55 55 37 55 55 37 55 55 37 55 55 37 55 55 37 55 55 37 55 55 37 55 55 37 55 55 37 55 55 37 55 55 37 55 55 37 55 55 37 55 55 37 55 55 37 55 55 37 55 55 37 55 55 37 55 55 37 55 55 37 55 55 37 55 55 37 55 55 37 55 55 37 55 55 37 55 55 37 55 55 37 55 55 37 55 55 37 55 55 37 55 55 37 55 55 37 55 55 37 55 55 37 55 55 37 55 55 37 55 55 37 55 55 37 55 55 37 55 55 37 55 55 37 55 55 37 55 55 37 55 55 37 55 55 37 55 55 37 55 55 37 55 55 37 55 55 37 55 55 37 55 55 37 55 55 37 55 55 37 55 55 37 55 55 37 55 55 37 55 55 37 55 55 37 55 55 37 55 55 37 55 55 37 55 55 37 55 55 37 55 55 37 55 55 37 55 55 37 55 55 37 55 55 37 55 55 37 55 55 37 55 55 37 55 55 37 55 55 37 55 55 37 55 55 37 55 55 37 55 55 37 55 55 37 55 55 37 55 55 37 55 55 37 55 55 37 55 55 37 55 55 37 55 55 37 55 55 37 55 55 37 55 55 37 55 55 37 55 55 37 55 55 37 55 55 37 55 55 37 55 55 37 55 55 37 55 55 37 55 55 37 55 55 37 55 55 37 55 55 37 55 55 37 55 55 37 55 55 37 55 55 37 55 55 37 55 55 37 55 55 37 55 55 37 55 55 37 55 55 37 55 55 37 55 55 37 55 55 37 55 55 37 55 55 37 55 55 37 55 55 37 55 55 37 55 55 37 55 55 37 55 55 37 55 55 37 54 54 37 54 54 37 54 54 37 54 54 37 54 54 37 54 54 37 54 54 37 54 54 37 54 54 37 54 54 37 54 54 37 54 54 37 54 54 37 54 54 37 54 54 37 54 54 37 54 54 37 54 54 37 54 54 37 54 54 37 54 54 37 54 54 37 54 54 37 54 54 37 54 54 36 54 54 36 54 54 36 54 54 36 54 54 36 54 54 36 54 54 36 54 54 78 86 86 61 76 76 41 59 59 42 59 59 43 60 60 43 60 60 44 60 60 43 60 60 47 62 62 48 62 62 46 61 61 43 60 61 43 60 60 43 60 61 43 60 61 43 60 61 41 58 58 41 58 58 36 53 53 36 53 53 36 53 53 36 53 53 36 53 53 36 53 53 36 53 53 36 53 53 36 53 53 36 53 53 36 52 52 36 52 52 36 52 52 36 52 52 36 52 52 36 52 52 36 52 52 36 52 52 36 52 52 36 52 52 36 52 52 36 52 52 36 52 52 36 52 52 36 52 52 36 52 52 36 52 52 36 52 52 36 52 52 36 52 52 36 52 52 36 52 52 36 52 52 36 52 52 36 52 52 36 51 51 36 51 51 36 51 51 36 51 51 36 51 51 36 51 51 35 51 51 40 55 56 46 62 62 45 61 64 50 65 69 47 63 66 45 61 63 44 59 60 44 59 59 44 59 59 44 59 59 42 58 58 39 55 55 38 53 53 37 52 52 35 51 51 35 51 51 35 50 50 35 50 50 35 50 50 35 50 50 35 50 50 35 50 50 69 72 72 83 83 83 95 93 93 89 90 90 83 88 88 77 85 85 70 81 81 59 73 73 51 66 66 41 57 57 41 57 57 41 57 57 41 57 57 41 57 57 41 57 57 41 57 57 41 57 57 41 56 56 40 55 55 40 55 55 36 51 51 51 58 58 67 69 69 97 88 88 94 89 89 89 88 88 84 86 86 78 83 83 71 79 79 64 75 75 54 68 68 48 62 62 41 56 56 41 56 56 92 97 157 107 111 168 108 113 166 111 116 165 112 117 163 111 116 159 110 115 155 108 113 150 105 110 144 102 106 137 97 101 129 93 95 120 88 89 111 77 77 97 70 70 87 65 65 79 60 60 71 54 54 63 48 48 54 40 40 43 33 33 35 28 28 28 25 25 25 25 25 25 25 25 25 25 25 25 25 25 25 25 25 25 25 25 25 25 25 25 25 25 25 25 25 25 25 25 25 25 25 25 25 25 25 
37 55 55 37 55 55 37 55 55 37 55 55 37 55 55 37 55 55 37 55 55 37 55 55 37 55 55 37 55 55 37 55 55 37 55 55 37 55 55 37 55 55 37 55 55 37 55 55 37 55 55 37 55 55 37 55 55 37 55 55 37 55 55 37 55 55 37 55 55 37 55 55 37 55 55 37 55 55 37 55 55 37 55 55 37 55 55 37 55 55 37 55 55 37 55 55 37 55 55 37 55 55 37 55 55 37 55 55 37 55 55 37 55 55 37 55 55 37 55 55 37 55 55 37 55 55 37 55 55 37 55 55 37 55 55 37 55 55 37 55 55 37 55 55 37 55 55 37 55 55 37 55 55 37 55 55 37 55 55 37 55 55 37 55 55 37 55 55 37 55 55 37 55 55 37 55 55 37 55 55 37 55 55 37 55 55 37 55 55 37 55 55 37 55 55 37 55 55 37 55 55 37 55 55 37 55 55 37 55 55 37 55 55 37 55 55 37 55 55 37 55 55 37 55 55 37 55 55 37 55 55 37 55 55 37 55 55 37 55 55 37 55 55 37 55 55 37 55 55 37 55 55 37 55 55 37 55 55 37 55 55 37 55 55 37 55 55 37 55 55 37 55 55 37 55 55 37 55 55 37 55 55 37 55 55 37 55 55 37 55 55 37 55 55 37 55 55 37 55 55 37 55 55 37 55 55 37 55 55 37 55 55 37 55 55 37 55 55 37 55 55 37 55 55 37 55 55 37 55 55 37 55 55 37 55 55 37 55 55 37 55 55 37 55 55 37 55 55 37 55 55 37 55 55 37 55 55 37 55 55 37 55 55 37 55 55 37 55 55 37 55 55 37 55 55 37 55 55 37 55 55 37 55 55 37 55 55 37 55 55 37 55 55 37 55 55 37 55 55 37 54 54 37 54 54 37 54 54 37 54 54 37 54 54 37 54 54 37 54 54 37 54 54 37 54 54 37 54 54 37 54 54 37 54 54 37 54 54 37 54 54 37 54 54 37 54 54 37 54 54 37 54 54 37 54 54 37 54 54 37 54 54 37 54 54 37 54 54 37 54 54 37 54 54 37 54 54 37 54 54 36 54 54 36 54 54 36 54 54 36 54 54 36 54 54 36 54 54 36 54 54 36 53 53 36 53 53 75 85 85 54 70 70 41 58 58 41 58 58 42 59 59 48 62 62 48 62 62 46 61 61 47 61 61 44 60 60 43 60 60 45 62 64 44 61 62 45 62 64 46 61 62 41 58 58 41 58 58 39 55 55 36 53 53 36 53 53 36 53 53 36 53 53 36 53 53 36 53 53 36 53 53 36 53 53 36 52 52 36 52 52 36 52 52 36 52 52 36 52 52 36 52 52 36 52 52 36 52 52 36 52 52 36 52 52 36 52 52 36 52 52 36 52 52 36 52 52 36 52 52 36 52 52 36 52 52 36 52 52 36 52 52 36 52 52 36 52 52 36 52 52 36 52 52 36 52 52 36 52 52 36 51 51 36 51 51 36 51 51 36 51 51 36 51 51 36 51 51 35 51 51 35 51 51 35 51 51 35 51 51 35 51 51 37 52 52 44 60 62 47 63 66 46 62 64 46 61 63 44 60 61 41 56 57 41 56 57 39 54 54 38 54 54 37 52 52 35 51 51 35 51 51 35 50 50 35 50 50 35 50 50 35 50 50 35 50 50 35 50 50 68 70 70 85 82 83 98 94 94 94 93 93 86 90 90 80 87 87 73 83 83 66 79 79 52 67 67 42 57 57 42 57 57 42 57 57 41 57 57 41 57 57 41 57 57 41 57 57 41 57 57 41 57 57 41 57 57 41 56 56 40 55 55 40 54 54 56 62 62 101 90 90 98 92 92 93 90 90 88 89 89 82 86 86 75 82 82 68 78 78 61 73 73 49 63 63 41 56 56 41 56 56 41 56 56 73 80 122 100 104 157 102 107 156 105 110 156 106 110 153 105 110 150 104 109 145 102 106 140 99 103 134 95 99 127 91 95 120 87 89 111 82 83 102 76 77 93 65 65 79 58 58 69 53 53 60 47 47 52 38 38 41 32 32 33 27 27 27 25 25 25 25 25 25 25 25 25 25 25 25 25 25 25 25 25 25 25 25 25 25 25 25 25 25 25 25 25 25 25 25 25 25 25 25 25 25 25 25 25 25 
37 54 54 37 55 55 37 55 55 37 55 55 37 55 55 37 55 55 37 55 55 37 55 55 37 55 55 37 55 55 37 55 55 37 55 55 37 55 55 37 55 55 37 55 55 37 55 55 37 55 55 37 55 55 37 55 55 37 55 55 37 55 55 37 55 55 37 55 55 37 55 55 37 55 55 37 55 55 37 55 55 37 55 55 37 55 55 37 