P2
# Image created with ppmlib.
640 480
256
0 0 0 0 0 0 0 0 3 60 255 59 3 0 0 0 0 0 0 0 0 0 0 0 0 0 0 0 0 0 0 0 0 0 0 0 0 0 0 0 3 56 255 56 3 0 0 0 0 0 0 0 0 0 0 0 0 0 0 0 0 0 0 0 0 0 0 0 0 0 0 0 0 0 0 0 0 0 0 0 3 57 255 58 3 0 0 0 0 0 0 0 0 0 0 0 0 0 0 0 0 0 0 0 0 0 0 0 0 0 0 0 0 0 0 3 59 255 61 3 0 0 0 0 0 0 0 0 0 0 0 0 0 0 0 0 0 0 0 0 0 0 0 0 0 0 0 0 0 0 0 0 0 0 0 0 0 0 0 3 57 255 58 3 0 0 0 0 0 0 0 0 0 0 0 0 0 0 0 0 0 0 0 0 0 0 0 0 0 0 3 57 255 57 3 0 0 0 0 0 0 0 0 0 0 0 0 0 0 0 0 0 0 0 0 0 0 0 0 0 0 0 0 3 60 255 58 3 0 0 0 0 0 0 0 0 0 0 0 0 0 0 0 0 0 0 0 0 0 0 0 0 0 0 0 0 0 0 0 0 0 0 0 0 0 0 0 0 0 0 0 0 0 0 0 0 0 0 3 56 255 57 3 0 0 0 0 0 0 0 0 0 0 0 0 0 0 0 0 0 0 0 0 0 0 0 0 0 0 0 0 0 0 0 0 0 0 0 0 0 0 0 0 0 0 0 0 0 0 0 3 57 255 56 3 0 0 0 0 0 0 0 0 0 0 0 0 0 0 0 0 3 58 255 58 3 0 0 0 0 0 0 0 0 0 0 0 0 0 0 0 0 0 0 0 0 0 0 0 0 0 0 0 0 0 0 0 0 0 0 0 0 0 0 0 0 0 0 0 0 0 0 0 0 0 0 0 3 57 255 58 3 0 0 0 0 0 0 0 0 0 0 0 0 0 0 0 0 0 0 0 0 0 0 0 0 0 0 0 0 0 0 0 0 0 0 0 0 0 0 0 0 0 0 0 0 0 0 0 0 0 0 0 0 0 0 0 3 57 255 58 3 0 0 0 0 0 0 0 0 0 0 0 0 0 0 0 0 0 0 0 0 0 0 0 0 0 0 0 0 0 3 58 255 59 3 0 0 0 0 0 0 0 0 0 0 0 0 0 0 0 0 0 0 0 0 0 0 0 0 0 0 0 0 0 0 0 0 0 0 0 0 0 0 0 0 0 0 0 0 0 0 0 0 0 0 3 57 255 56 3 0 0 0 0 0 0 0 0 0 0 0 0 0 0 0 0 0 0 0 0 0 0 0 0 0 0 0 0 0 0 0 0 0 0 0 0 0 0 0 0 0 0 0 0 0 0 0 3 59 255 58 3 0 0 0 0 0 0 0 0 0 0 0 0 0 0 0 0 0 0 0 0 0 0 3 58 255 57 3
0 0 0 0 0 0 0 1 15 250 178 238 15 1 0 0 0 0 0 0 0 0 0 0 0 0 0 0 0 0 0 0 0 0 0 0 0 0 0 1 13 204 172 207 13 1 0 0 0 0 0 0 0 0 0 0 0 0 0 0 0 0 0 0 0 0 0 0 0 0 0 0 0 0 0 0 0 0 0 1 13 209 174 221 14 1 0 0 0 0 0 0 0 0 0 0 0 0 0 0 0 0 0 0 0 0 0 0 0 0 0 0 0 0 1 15 238 180 255 16 1 0 0 0 0 0 0 0 0 0 0 0 0 0 0 0 0 0 0 0 0 0 0 0 0 0 0 0 0 0 0 0 0 0 0 0 0 0 1 13 209 175 237 15 1 0 0 0 0 0 0 0 0 0 0 0 0 0 0 0 0 0 0 0 0 0 0 0 0 1 14 232 174 222 14 1 0 0 0 0 0 0 0 0 0 0 0 0 0 0 0 0 0 0 0 0 0 0 0 0 0 0 1 16 255 178 218 14 1 0 0 0 0 0 0 0 0 0 0 0 0 0 0 0 0 0 0 0 0 0 0 0 0 0 0 0 0 0 0 0 0 0 0 0 0 0 0 0 0 0 0 0 0 0 0 0 0 1 13 195 172 208 13 1 0 0 0 0 0 0 0 0 0 0 0 0 0 0 0 0 0 0 0 0 0 0 0 0 0 0 0 0 0 0 0 0 0 0 0 0 0 0 0 0 0 0 0 0 0 1 13 213 173 202 13 1 0 0 0 0 0 0 0 0 0 0 0 0 0 0 1 14 227 175 223 14 1 0 0 0 0 0 0 0 0 0 0 0 0 0 0 0 0 0 0 0 0 0 0 0 0 0 0 0 0 0 0 0 0 0 0 0 0 0 0 0 0 0 0 0 0 0 0 0 0 0 1 13 205 175 230 14 1 0 0 0 0 0 0 0 0 0 0 0 0 0 0 0 0 0 0 0 0 0 0 0 0 0 0 0 0 0 0 0 0 0 0 0 0 0 0 0 0 0 0 0 0 0 0 0 0 0 0 0 0 0 1 13 211 175 242 15 1 0 0 0 0 0 0 0 0 0 0 0 0 0 0 0 0 0 0 0 0 0 0 0 0 0 0 0 1 14 214 177 243 15 1 0 0 0 0 0 0 0 0 0 0 0 0 0 0 0 0 0 0 0 0 0 0 0 0 0 0 0 0 0 0 0 0 0 0 0 0 0 0 0 0 0 0 0 0 0 0 0 0 1 14 222 173 199 13 1 0 0 0 0 0 0 0 0 0 0 0 0 0 0 0 0 0 0 0 0 0 0 0 0 0 0 0 0 0 0 0 0 0 0 0 0 0 0 0 0 0 0 0 0 0 1 14 217 176 211 14 1 0 0 0 0 0 0 0 0 0 0 0 0 0 0 0 0 0 0 0 0 1 15 247 175 226 15
0 0 0 0 0 0 0 6 124 255 255 255 107 5 0 0 0 0 0 0 0 0 0 0 0 0 0 0 0 0 0 0 0 0 0 0 0 0 0 4 88 255 255 255 90 5 0 0 0 0 0 0 0 0 0 0 0 0 0 0 0 0 0 0 0 0 0 0 0 0 0 0 0 0 0 0 0 0 0 5 94 255 255 255 100 5 0 0 0 0 0 0 0 0 0 0 0 0 0 0 0 0 0 0 0 0 0 0 0 0 0 0 0 0 5 109 255 255 255 136 6 0 0 0 0 0 0 0 0 0 0 0 0 0 0 0 0 0 0 0 0 0 0 0 0 0 0 0 0 0 0 0 0 0 0 0 0 0 5 98 255 255 255 116 5 0 0 0 0 0 0 0 0 0 0 0 0 0 0 0 0 0 0 0 0 0 0 0 0 5 117 255 255 255 103 5 0 0 0 0 0 0 0 0 0 0 0 0 0 0 0 0 0 0 0 0 0 0 0 0 0 0 6 123 255 255 255 95 5 0 0 0 0 0 0 0 0 0 0 0 0 0 0 0 0 0 0 0 0 0 0 0 0 0 0 0 0 0 0 0 0 0 0 0 0 0 0 0 0 0 0 0 0 0 0 0 0 4 87 255 255 255 92 5 0 0 0 0 0 0 0 0 0 0 0 0 0 0 0 0 0 0 0 0 0 0 0 0 0 0 0 0 0 0 0 0 0 0 0 0 0 0 0 0 0 0 0 0 0 5 95 255 255 255 87 4 0 0 0 0 0 0 0 0 0 0 0 0 0 0 5 110 255 255 255 99 5 0 0 0 0 0 0 0 0 0 0 0 0 0 0 0 0 0 0 0 0 0 0 0 0 0 0 0 0 0 0 0 0 0 0 0 0 0 0 0 0 0 0 0 0 0 0 0 0 0 5 95 255 255 255 107 5 0 0 0 0 0 0 0 0 0 0 0 0 0 0 0 0 0 0 0 0 0 0 0 0 0 0 0 0 0 0 0 0 0 0 0 0 0 0 0 0 0 0 0 0 0 0 0 0 0 0 0 0 0 5 91 255 255 255 119 6 0 0 0 0 0 0 0 0 0 0 0 0 0 0 0 0 0 0 0 0 0 0 0 0 0 0 0 5 92 255 255 255 109 5 0 0 0 0 0 0 0 0 0 0 0 0 0 0 0 0 0 0 0 0 0 0 0 0 0 0 0 0 0 0 0 0 0 0 0 0 0 0 0 0 0 0 0 0 0 0 0 0 5 99 255 255 255 85 4 0 0 0 0 0 0 0 0 0 0 0 0 0 0 0 0 0 0 0 0 0 0 0 0 0 0 0 0 0 0 0 0 0 0 0 0 0 0 0 0 0 0 0 0 0 5 104 255 255 255 94 5 0 0 0 0 0 0 0 0 0 0 0 0 0 0 0 0 0 0 0 0 6 121 255 255 255 131
0 0 0 0 0 0 3 73 255 255 255 255 255 61 3 0 0 0 0 0 0 0 0 0 0 0 0 0 0 0 0 0 0 0 0 0 0 0 2 48 255 255 255 255 255 50 2 0 0 0 0 0 0 0 0 0 0 0 0 0 0 0 0 0 0 0 0 0 0 0 0 0 0 0 0 0 0 0 2 55 255 255 255 255 255 57 3 0 0 0 0 0 0 0 0 0 0 0 0 0 0 0 0 0 0 0 0 0 0 0 0 0 0 3 64 255 255 255 255 255 81 4 0 0 0 0 0 0 0 0 0 0 0 0 0 0 0 0 0 0 0 0 0 0 0 0 0 0 0 0 0 0 0 0 0 0 0 3 60 255 255 255 255 255 69 3 0 0 0 0 0 0 0 0 0 0 0 0 0 0 0 0 0 0 0 0 0 0 3 73 255 255 255 255 255 60 3 0 0 0 0 0 0 0 0 0 0 0 0 0 0 0 0 0 0 0 0 0 0 0 0 3 70 255 255 255 255 255 53 2 0 0 0 0 0 0 0 0 0 0 0 0 0 0 0 0 0 0 0 0 0 0 0 0 0 0 0 0 0 0 0 0 0 0 0 0 0 0 0 0 0 0 0 0 0 0 2 52 255 255 255 255 255 51 2 0 0 0 0 0 0 0 0 0 0 0 0 0 0 0 0 0 0 0 0 0 0 0 0 0 0 0 0 0 0 0 0 0 0 0 0 0 0 0 0 0 0 0 2 54 255 255 255 255 255 48 2 0 0 0 0 0 0 0 0 0 0 0 0 3 67 255 255 255 255 255 55 2 0 0 0 0 0 0 0 0 0 0 0 0 0 0 0 0 0 0 0 0 0 0 0 0 0 0 0 0 0 0 0 0 0 0 0 0 0 0 0 0 0 0 0 0 0 0 0 2 56 255 255 255 255 255 63 3 0 0 0 0 0 0 0 0 0 0 0 0 0 0 0 0 0 0 0 0 0 0 0 0 0 0 0 0 0 0 0 0 0 0 0 0 0 0 0 0 0 0 0 0 0 0 0 0 0 0 0 2 51 255 255 255 255 255 72 3 0 0 0 0 0 0 0 0 0 0 0 0 0 0 0 0 0 0 0 0 0 0 0 0 0 2 51 255 255 255 255 255 60 3 0 0 0 0 0 0 0 0 0 0 0 0 0 0 0 0 0 0 0 0 0 0 0 0 0 0 0 0 0 0 0 0 0 0 0 0 0 0 0 0 0 0 0 0 0 0 2 55 255 255 255 255 255 47 2 0 0 0 0 0 0 0 0 0 0 0 0 0 0 0 0 0 0 0 0 0 0 0 0 0 0 0 0 0 0 0 0 0 0 0 0 0 0 0 0 0 0 0 3 65 255 255 255 255 255 55 2 0 0 0 0 0 0 0 0 0 0 0 0 0 0 0 0 0 0 3 72 255 255 255 255 255
0 0 0 0 0 2 41 255 255 228 234 227 255 255 34 1 0 0 0 0 0 0 0 0 0 0 0 0 0 0 0 0 0 0 0 0 0 1 24 255 255 229 236 229 255 255 27 1 0 0 0 0 0 0 0 0 0 0 0 0 0 0 0 0 0 0 0 0 0 0 0 0 0 0 0 0 0 1 31 255 255 230 236 229 255 255 30 1 0 0 0 0 0 0 0 0 0 0 0 0 0 0 0 0 0 0 0 0 0 0 0 0 2 38 255 255 228 234 227 255 255 47 2 0 0 0 0 0 0 0 0 0 0 0 0 0 0 0 0 0 0 0 0 0 0 0 0 0 0 0 0 0 0 0 0 0 1 35 255 255 230 236 229 255 255 39 2 0 0 0 0 0 0 0 0 0 0 0 0 0 0 0 0 0 0 0 0 2 43 255 255 229 235 229 255 255 34 1 0 0 0 0 0 0 0 0 0 0 0 0 0 0 0 0 0 0 0 0 0 0 2 39 255 255 227 234 228 255 255 29 1 0 0 0 0 0 0 0 0 0 0 0 0 0 0 0 0 0 0 0 0 0 0 0 0 0 0 0 0 0 0 0 0 0 0 0 0 0 0 0 0 0 0 0 0 1 29 255 255 231 237 229 255 255 26 1 0 0 0 0 0 0 0 0 0 0 0 0 0 0 0 0 0 0 0 0 0 0 0 0 0 0 0 0 0 0 0 0 0 0 0 0 0 0 0 0 0 1 29 255 255 229 236 229 255 255 24 1 0 0 0 0 0 0 0 0 0 0 2 39 255 255 229 235 228 255 255 29 1 0 0 0 0 0 0 0 0 0 0 0 0 0 0 0 0 0 0 0 0 0 0 0 0 0 0 0 0 0 0 0 0 0 0 0 0 0 0 0 0 0 0 0 0 0 1 30 255 255 230 236 229 255 255 36 1 0 0 0 0 0 0 0 0 0 0 0 0 0 0 0 0 0 0 0 0 0 0 0 0 0 0 0 0 0 0 0 0 0 0 0 0 0 0 0 0 0 0 0 0 0 0 0 0 0 1 27 255 255 229 235 228 255 255 42 2 0 0 0 0 0 0 0 0 0 0 0 0 0 0 0 0 0 0 0 0 0 0 0 1 26 255 255 228 235 227 255 255 32 1 0 0 0 0 0 0 0 0 0 0 0 0 0 0 0 0 0 0 0 0 0 0 0 0 0 0 0 0 0 0 0 0 0 0 0 0 0 0 0 0 0 0 0 0 1 29 255 255 228 236 229 255 255 24 1 0 0 0 0 0 0 0 0 0 0 0 0 0 0 0 0 0 0 0 0 0 0 0 0 0 0 0 0 0 0 0 0 0 0 0 0 0 0 0 0 0 2 39 255 255 230 237 230 255 255 32 1 0 0 0 0 0 0 0 0 0 0 0 0 0 0 0 0 2 41 255 255 228 235 235 255
0 0 0 0 1 20 255 255 165 134 130 135 169 255 255 15 1 0 0 0 0 0 0 0 0 0 0 0 0 0 0 0 0 0 0 0 0 10 226 255 173 135 130 136 174 255 255 13 1 0 0 0 0 0 0 0 0 0 0 0 0 0 0 0 0 0 0 0 0 0 0 0 0 0 0 0 1 15 255 255 173 136 131 135 170 255 255 14 1 0 0 0 0 0 0 0 0 0 0 0 0 0 0 0 0 0 0 0 0 0 0 1 19 255 255 169 135 130 133 163 255 255 23 1 0 0 0 0 0 0 0 0 0 0 0 0 0 0 0 0 0 0 0 0 0 0 0 0 0 0 0 0 0 0 0 1 16 255 255 171 135 130 134 167 255 255 18 1 0 0 0 0 0 0 0 0 0 0 0 0 0 0 0 0 0 0 1 21 255 255 167 134 130 135 170 255 255 16 1 0 0 0 0 0 0 0 0 0 0 0 0 0 0 0 0 0 0 0 0 1 20 255 255 165 134 130 135 172 255 255 14 1 0 0 0 0 0 0 0 0 0 0 0 0 0 0 0 0 0 0 0 0 0 0 0 0 0 0 0 0 0 0 0 0 0 0 0 0 0 0 0 0 0 0 1 13 255 255 175 136 131 135 171 255 231 11 0 0 0 0 0 0 0 0 0 0 0 0 0 0 0 0 0 0 0 0 0 0 0 0 0 0 0 0 0 0 0 0 0 0 0 0 0 0 0 0 1 13 255 255 171 135 131 136 173 255 209 10 0 0 0 0 0 0 0 0 0 1 18 255 255 168 135 130 135 170 255 246 12 1 0 0 0 0 0 0 0 0 0 0 0 0 0 0 0 0 0 0 0 0 0 0 0 0 0 0 0 0 0 0 0 0 0 0 0 0 0 0 0 0 0 0 0 1 14 255 255 171 135 131 135 169 255 255 17 1 0 0 0 0 0 0 0 0 0 0 0 0 0 0 0 0 0 0 0 0 0 0 0 0 0 0 0 0 0 0 0 0 0 0 0 0 0 0 0 0 0 0 0 0 0 0 0 1 12 255 255 173 135 130 134 166 255 255 20 1 0 0 0 0 0 0 0 0 0 0 0 0 0 0 0 0 0 0 0 0 0 0 11 253 255 172 135 130 134 168 255 255 15 1 0 0 0 0 0 0 0 0 0 0 0 0 0 0 0 0 0 0 0 0 0 0 0 0 0 0 0 0 0 0 0 0 0 0 0 0 0 0 0 0 0 0 1 13 255 255 170 135 130 136 174 255 212 10 0 0 0 0 0 0 0 0 0 0 0 0 0 0 0 0 0 0 0 0 0 0 0 0 0 0 0 0 0 0 0 0 0 0 0 0 0 0 0 0 1 19 255 255 170 136 131 136 173 255 255 15 1 0 0 0 0 0 0 0 0 0 0 0 0 0 0 1 18 255 255 166 134 130 135 146
0 0 0 0 9 204 255 162 95 76 70 77 98 167 255 142 7 0 0 0 0 0 0 0 0 0 0 0 0 0 0 0 0 0 0 0 5 99 255 179 101 78 70 78 102 178 255 129 6 0 0 0 0 0 0 0 0 0 0 0 0 0 0 0 0 0 0 0 0 0 0 0 0 0 0 0 7 148 255 173 100 77 71 77 99 174 255 150 7 0 0 0 0 0 0 0 0 0 0 0 0 0 0 0 0 0 0 0 0 0 0 9 203 255 167 98 77 70 76 94 158 255 209 10 0 0 0 0 0 0 0 0 0 0 0 0 0 0 0 0 0 0 0 0 0 0 0 0 0 0 0 0 0 0 0 7 139 255 168 98 77 70 76 96 162 255 158 7 0 0 0 0 0 0 0 0 0 0 0 0 0 0 0 0 0 0 9 182 255 160 95 76 70 77 98 168 255 142 7 0 0 0 0 0 0 0 0 0 0 0 0 0 0 0 0 0 0 0 0 9 193 255 165 96 76 71 77 100 176 255 140 6 0 0 0 0 0 0 0 0 0 0 0 0 0 0 0 0 0 0 0 0 0 0 0 0 0 0 0 0 0 0 0 0 0 0 0 0 0 0 0 0 0 0 5 114 255 172 101 78 71 77 100 175 255 100 5 0 0 0 0 0 0 0 0 0 0 0 0 0 0 0 0 0 0 0 0 0 0 0 0 0 0 0 0 0 0 0 0 0 0 0 0 0 0 0 6 134 255 176 100 77 71 78 101 176 255 85 4 0 0 0 0 0 0 0 0 7 156 255 163 96 76 70 77 99 171 255 102 5 0 0 0 0 0 0 0 0 0 0 0 0 0 0 0 0 0 0 0 0 0 0 0 0 0 0 0 0 0 0 0 0 0 0 0 0 0 0 0 0 0 0 0 6 131 255 172 99 77 71 77 98 167 255 146 7 0 0 0 0 0 0 0 0 0 0 0 0 0 0 0 0 0 0 0 0 0 0 0 0 0 0 0 0 0 0 0 0 0 0 0 0 0 0 0 0 0 0 0 0 0 0 0 5 117 255 175 101 77 70 76 95 161 255 172 8 0 0 0 0 0 0 0 0 0 0 0 0 0 0 0 0 0 0 0 0 0 5 114 255 178 101 77 71 77 98 171 255 144 7 0 0 0 0 0 0 0 0 0 0 0 0 0 0 0 0 0 0 0 0 0 0 0 0 0 0 0 0 0 0 0 0 0 0 0 0 0 0 0 0 0 0 6 118 255 173 99 77 70 78 102 178 255 87 4 0 0 0 0 0 0 0 0 0 0 0 0 0 0 0 0 0 0 0 0 0 0 0 0 0 0 0 0 0 0 0 0 0 0 0 0 0 0 0 8 180 255 165 97 77 71 78 100 172 255 134 6 0 0 0 0 0 0 0 0 0 0 0 0 0 0 7 151 255 160 95 76 70 71 69
0 0 0 4 91 255 191 99 58 44 39 45 59 103 200 255 71 3 0 0 0 0 0 0 0 0 0 0 0 0 0 0 0 0 0 2 50 255 212 111 63 45 39 46 62 109 207 255 67 3 0 0 0 0 0 0 0 0 0 0 0 0 0 0 0 0 0 0 0 0 0 0 0 0 0 3 74 255 201 105 61 45 39 45 61 107 203 255 76 3 0 0 0 0 0 0 0 0 0 0 0 0 0 0 0 0 0 0 0 0 4 95 255 193 101 59 45 39 44 56 95 182 255 92 4 0 0 0 0 0 0 0 0 0 0 0 0 0 0 0 0 0 0 0 0 0 0 0 0 0 0 0 0 0 3 62 255 192 102 59 44 39 44 58 99 190 255 75 4 0 0 0 0 0 0 0 0 0 0 0 0 0 0 0 0 4 84 255 185 97 57 44 39 45 59 103 195 255 66 3 0 0 0 0 0 0 0 0 0 0 0 0 0 0 0 0 0 0 4 88 255 191 100 58 44 39 45 62 108 204 255 71 3 0 0 0 0 0 0 0 0 0 0 0 0 0 0 0 0 0 0 0 0 0 0 0 0 0 0 0 0 0 0 0 0 0 0 0 0 0 0 0 0 3 57 255 202 105 61 45 39 45 62 109 210 255 50 2 0 0 0 0 0 0 0 0 0 0 0 0 0 0 0 0 0 0 0 0 0 0 0 0 0 0 0 0 0 0 0 0 0 0 0 0 0 3 66 255 203 108 61 45 39 45 62 110 209 255 40 2 0 0 0 0 0 0 3 70 255 191 99 58 44 39 45 60 106 205 255 50 2 0 0 0 0 0 0 0 0 0 0 0 0 0 0 0 0 0 0 0 0 0 0 0 0 0 0 0 0 0 0 0 0 0 0 0 0 0 0 0 0 0 3 63 255 202 106 60 44 39 45 59 101 192 255 66 3 0 0 0 0 0 0 0 0 0 0 0 0 0 0 0 0 0 0 0 0 0 0 0 0 0 0 0 0 0 0 0 0 0 0 0 0 0 0 0 0 0 0 0 0 0 3 59 255 207 108 62 45 39 44 57 97 186 255 75 4 0 0 0 0 0 0 0 0 0 0 0 0 0 0 0 0 0 0 0 3 57 255 210 110 62 45 39 45 60 105 199 255 69 3 0 0 0 0 0 0 0 0 0 0 0 0 0 0 0 0 0 0 0 0 0 0 0 0 0 0 0 0 0 0 0 0 0 0 0 0 0 0 0 0 3 57 255 201 107 61 45 39 45 62 110 210 255 43 2 0 0 0 0 0 0 0 0 0 0 0 0 0 0 0 0 0 0 0 0 0 0 0 0 0 0 0 0 0 0 0 0 0 0 0 0 0 4 82 255 192 100 58 44 40 45 61 104 198 255 63 3 0 0 0 0 0 0 0 0 0 0 0 0 3 70 255 187 98 57 44 38 37 32
0 0 2 44 255 221 122 66 38 26 22 27 39 69 129 239 255 39 2 0 0 0 0 0 0 0 0 0 0 0 0 0 0 0 1 23 255 253 137 74 42 28 22 28 41 72 132 245 255 37 2 0 0 0 0 0 0 0 0 0 0 0 0 0 0 0 0 0 0 0 0 0 0 0 2 40 255 238 129 69 40 27 22 27 40 71 129 238 255 42 2 0 0 0 0 0 0 0 0 0 0 0 0 0 0 0 0 0 0 2 50 255 225 122 67 38 27 22 26 37 63 117 219 255 47 2 0 0 0 0 0 0 0 0 0 0 0 0 0 0 0 0 0 0 0 0 0 0 0 0 0 0 0 1 31 255 233 124 67 39 26 22 26 38 66 124 233 255 40 2 0 0 0 0 0 0 0 0 0 0 0 0 0 0 2 45 255 226 120 64 37 26 21 27 39 68 126 234 255 33 1 0 0 0 0 0 0 0 0 0 0 0 0 0 0 0 0 2 45 255 224 122 66 38 27 23 27 41 71 130 241 255 40 2 0 0 0 0 0 0 0 0 0 0 0 0 0 0 0 0 0 0 0 0 0 0 0 0 0 0 0 0 0 0 0 0 0 0 0 0 0 0 1 31 255 249 132 70 40 27 22 27 41 73 137 252 255 23 1 0 0 0 0 0 0 0 0 0 0 0 0 0 0 0 0 0 0 0 0 0 0 0 0 0 0 0 0 0 0 0 0 0 0 0 2 36 255 241 130 71 41 27 22 27 41 73 138 255 255 17 1 0 0 0 0 1 34 255 229 124 66 38 26 22 27 40 71 134 250 255 23 1 0 0 0 0 0 0 0 0 0 0 0 0 0 0 0 0 0 0 0 0 0 0 0 0 0 0 0 0 0 0 0 0 0 0 0 0 0 0 0 1 31 255 239 130 70 40 26 22 27 38 67 124 232 255 33 1 0 0 0 0 0 0 0 0 0 0 0 0 0 0 0 0 0 0 0 0 0 0 0 0 0 0 0 0 0 0 0 0 0 0 0 0 0 0 0 0 0 0 0 1 30 255 246 134 72 41 27 22 26 37 64 121 224 255 36 2 0 0 0 0 0 0 0 0 0 0 0 0 0 0 0 0 0 1 27 255 245 134 73 41 27 23 27 40 69 127 235 255 36 2 0 0 0 0 0 0 0 0 0 0 0 0 0 0 0 0 0 0 0 0 0 0 0 0 0 0 0 0 0 0 0 0 0 0 0 0 0 0 1 31 255 245 130 71 40 27 22 27 41 74 138 255 255 20 1 0 0 0 0 0 0 0 0 0 0 0 0 0 0 0 0 0 0 0 0 0 0 0 0 0 0 0 0 0 0 0 0 0 0 0 2 41 255 226 123 66 38 26 22 27 39 69 127 237 255 32 1 0 0 0 0 0 0 0 0 0 0 2 38 255 233 122 65 37 26 20 18 14
0 1 19 255 255 142 83 49 26 15 12 15 27 52 88 154 255 255 20 1 0 0 0 0 0 0 0 0 0 0 0 0 0 0 9 197 255 162 92 55 30 16 12 16 28 53 89 157 255 255 19 1 0 0 0 0 0 0 0 0 0 0 0 0 0 0 0 0 0 0 0 0 0 1 18 255 255 152 87 52 27 15 12 16 28 52 87 152 255 255 21 1 0 0 0 0 0 0 0 0 0 0 0 0 0 0 0 0 1 27 255 255 144 83 49 26 15 12 15 25 47 81 143 255 255 23 1 0 0 0 0 0 0 0 0 0 0 0 0 0 0 0 0 0 0 0 0 0 0 0 0 0 1 15 255 255 153 86 50 27 15 11 15 26 50 86 151 255 255 18 1 0 0 0 0 0 0 0 0 0 0 0 0 1 22 255 255 148 84 48 25 15 11 15 27 51 86 152 255 255 15 1 0 0 0 0 0 0 0 0 0 0 0 0 0 0 1 23 255 255 145 83 49 26 16 12 16 28 52 88 155 255 255 21 1 0 0 0 0 0 0 0 0 0 0 0 0 0 0 0 0 0 0 0 0 0 0 0 0 0 0 0 0 0 0 0 0 0 0 0 0 1 15 255 255 161 91 53 27 15 12 16 29 55 93 162 255 196 9 0 0 0 0 0 0 0 0 0 0 0 0 0 0 0 0 0 0 0 0 0 0 0 0 0 0 0 0 0 0 0 0 0 0 1 16 255 255 155 88 52 28 16 12 16 29 55 94 168 255 146 7 0 0 0 1 15 255 255 149 85 50 26 15 12 16 28 54 92 161 255 197 9 0 0 0 0 0 0 0 0 0 0 0 0 0 0 0 0 0 0 0 0 0 0 0 0 0 0 0 0 0 0 0 0 0 0 0 0 0 0 1 13 255 255 154 88 52 28 15 12 15 26 50 86 152 255 255 16 1 0 0 0 0 0 0 0 0 0 0 0 0 0 0 0 0 0 0 0 0 0 0 0 0 0 0 0 0 0 0 0 0 0 0 0 0 0 0 0 0 0 1 14 255 255 158 90 54 28 16 12 15 25 48 83 147 255 255 16 1 0 0 0 0 0 0 0 0 0 0 0 0 0 0 0 0 11 236 255 157 90 54 29 16 12 16 28 51 87 152 255 255 16 1 0 0 0 0 0 0 0 0 0 0 0 0 0 0 0 0 0 0 0 0 0 0 0 0 0 0 0 0 0 0 0 0 0 0 0 0 1 15 255 255 160 89 52 28 16 12 16 29 55 94 169 255 182 9 0 0 0 0 0 0 0 0 0 0 0 0 0 0 0 0 0 0 0 0 0 0 0 0 0 0 0 0 0 0 0 0 0 0 1 19 255 255 146 84 49 26 15 12 15 27 51 87 155 255 255 15 1 0 0 0 0 0 0 0 0 1 19 255 255 153 86 49 25 14 9 7 6
0 8 169 255 164 95 63 41 18 8 6 8 18 45 68 101 175 255 193 9 0 0 0 0 0 0 0 0 0 0 0 0 0 4 90 255 187 107 70 46 21 9 6 8 19 45 68 102 177 255 208 9 0 0 0 0 0 0 0 0 0 0 0 0 0 0 0 0 0 0 0 0 0 8 175 255 172 100 66 44 19 8 5 8 19 43 66 100 172 255 230 10 0 0 0 0 0 0 0 0 0 0 0 0 0 0 0 1 13 255 255 166 96 64 41 17 8 5 8 17 40 64 97 166 255 235 10 0 0 0 0 0 0 0 0 0 0 0 0 0 0 0 0 0 0 0 0 0 0 0 0 0 7 145 255 182 104 67 42 18 7 5 8 18 43 67 100 171 255 182 8 0 0 0 0 0 0 0 0 0 0 0 0 9 193 255 168 99 66 41 17 7 5 8 18 43 67 102 179 255 139 7 0 0 0 0 0 0 0 0 0 0 0 0 0 0 10 223 255 168 97 64 40 18 8 6 8 19 43 67 102 176 255 211 9 0 0 0 0 0 0 0 0 0 0 0 0 0 0 0 0 0 0 0 0 0 0 0 0 0 0 0 0 0 0 0 0 0 0 0 0 7 151 255 182 106 70 46 19 8 5 8 21 47 70 107 187 255 87 4 0 0 0 0 0 0 0 0 0 0 0 0 0 0 0 0 0 0 0 0 0 0 0 0 0 0 0 0 0 0 0 0 0 7 140 255 175 102 67 43 20 8 6 8 20 47 73 112 197 255 69 3 0 0 7 143 255 176 100 66 43 18 7 5 8 20 46 71 107 188 255 90 4 0 0 0 0 0 0 0 0 0 0 0 0 0 0 0 0 0 0 0 0 0 0 0 0 0 0 0 0 0 0 0 0 0 0 0 0 0 6 121 255 177 102 67 44 20 8 5 8 18 42 67 102 179 255 156 7 0 0 0 0 0 0 0 0 0 0 0 0 0 0 0 0 0 0 0 0 0 0 0 0 0 0 0 0 0 0 0 0 0 0 0 0 0 0 0 0 0 6 133 255 184 104 69 46 19 8 5 8 17 41 65 99 173 255 160 7 0 0 0 0 0 0 0 0 0 0 0 0 0 0 0 5 97 255 182 104 68 45 20 8 6 8 19 43 67 101 176 255 148 7 0 0 0 0 0 0 0 0 0 0 0 0 0 0 0 0 0 0 0 0 0 0 0 0 0 0 0 0 0 0 0 0 0 0 0 0 6 134 255 183 106 70 44 19 8 6 8 20 47 73 111 193 255 84 4 0 0 0 0 0 0 0 0 0 0 0 0 0 0 0 0 0 0 0 0 0 0 0 0 0 0 0 0 0 0 0 0 0 7 157 255 168 97 65 42 18 7 5 8 18 43 67 103 180 255 134 6 0 0 0 0 0 0 0 0 9 195 255 177 103 68 42 17 7 4 3 2
4 77 255 192 107 71 57 37 11 4 2 4 12 44 60 74 111 193 255 83 4 0 0 0 0 0 0 0 0 0 0 0 2 47 255 221 121 77 61 43 14 4 2 4 13 42 60 74 112 198 255 96 5 0 0 0 0 0 0 0 0 0 0 0 0 0 0 0 0 0 0 0 4 79 255 196 109 72 59 41 12 4 2 4 13 38 59 72 109 195 255 109 5 0 0 0 0 0 0 0 0 0 0 0 0 0 0 6 136 255 187 106 71 57 38 11 4 2 4 11 37 59 72 107 189 255 101 5 0 0 0 0 0 0 0 0 0 0 0 0 0 0 0 0 0 0 0 0 0 0 0 3 68 255 204 117 77 62 40 12 4 2 4 12 41 61 73 110 198 255 85 4 0 0 0 0 0 0 0 0 0 0 4 85 255 189 107 73 60 40 11 3 2 4 12 40 61 76 115 200 255 66 3 0 0 0 0 0 0 0 0 0 0 0 0 5 101 255 190 108 72 58 36 11 4 2 4 12 39 60 73 110 193 255 99 5 0 0 0 0 0 0 0 0 0 0 0 0 0 0 0 0 0 0 0 0 0 0 0 0 0 0 0 0 0 0 0 0 0 0 4 77 255 206 115 76 62 46 13 4 2 4 14 44 62 77 121 220 255 45 2 0 0 0 0 0 0 0 0 0 0 0 0 0 0 0 0 0 0 0 0 0 0 0 0 0 0 0 0 0 0 0 3 67 255 199 111 73 61 39 13 4 2 4 14 46 65 81 128 234 255 37 2 3 70 255 204 114 75 60 41 12 4 2 4 13 45 63 78 122 222 255 48 2 0 0 0 0 0 0 0 0 0 0 0 0 0 0 0 0 0 0 0 0 0 0 0 0 0 0 0 0 0 0 0 0 0 0 0 3 59 255 207 115 75 60 40 13 4 2 4 12 40 62 76 115 203 255 75 4 0 0 0 0 0 0 0 0 0 0 0 0 0 0 0 0 0 0 0 0 0 0 0 0 0 0 0 0 0 0 0 0 0 0 0 0 0 0 0 3 62 255 204 117 76 60 43 13 4 2 4 11 39 60 75 113 201 255 75 4 0 0 0 0 0 0 0 0 0 0 0 0 0 2 46 255 209 118 75 60 41 13 4 2 4 12 39 60 74 112 198 255 69 3 0 0 0 0 0 0 0 0 0 0 0 0 0 0 0 0 0 0 0 0 0 0 0 0 0 0 0 0 0 0 0 0 0 0 3 61 255 202 115 76 63 41 13 4 2 4 14 46 65 80 124 225 255 46 2 0 0 0 0 0 0 0 0 0 0 0 0 0 0 0 0 0 0 0 0 0 0 0 0 0 0 0 0 0 0 0 3 68 255 192 109 72 58 40 12 4 2 4 12 42 61 75 115 202 255 64 3 0 0 0 0 0 0 4 85 255 196 112 76 63 41 11 3 1 1 1
43 255 223 122 75 62 62 35 8 2 1 2 9 50 65 62 74 119 216 255 40 2 0 0 0 0 0 0 0 0 0 1 22 255 255 140 82 64 67 44 9 2 1 2 9 44 66 61 75 122 219 255 48 2 0 0 0 0 0 0 0 0 0 0 0 0 0 0 0 0 0 2 40 255 222 123 75 61 65 45 9 2 1 2 8 37 66 61 74 120 217 255 55 3 0 0 0 0 0 0 0 0 0 0 0 0 3 68 255 209 115 73 62 64 40 8 2 1 2 7 38 69 63 74 118 211 255 49 2 0 0 0 0 0 0 0 0 0 0 0 0 0 0 0 0 0 0 0 0 0 1 34 255 229 126 78 66 72 43 8 2 1 2 9 47 68 62 76 124 223 255 43 2 0 0 0 0 0 0 0 0 2 43 255 217 119 74 62 69 45 8 2 1 2 8 44 68 64 77 125 233 255 35 2 0 0 0 0 0 0 0 0 0 0 2 52 255 215 118 74 63 67 35 7 2 1 2 8 40 67 61 74 119 219 255 54 2 0 0 0 0 0 0 0 0 0 0 0 0 0 0 0 0 0 0 0 0 0 0 0 0 0 0 0 0 0 0 0 0 2 42 255 234 128 77 63 69 59 10 2 1 2 10 47 66 64 82 140 255 255 20 1 0 0 0 0 0 0 0 0 0 0 0 0 0 0 0 0 0 0 0 0 0 0 0 0 0 0 0 0 0 2 36 255 233 126 76 61 68 39 8 2 1 2 10 52 71 67 86 148 255 255 19 39 255 233 128 79 65 66 46 9 2 1 2 10 50 68 66 83 140 255 255 24 1 0 0 0 0 0 0 0 0 0 0 0 0 0 0 0 0 0 0 0 0 0 0 0 0 0 0 0 0 0 0 0 0 0 1 29 255 238 131 79 63 65 41 9 2 1 2 8 43 71 65 78 126 230 255 40 2 0 0 0 0 0 0 0 0 0 0 0 0 0 0 0 0 0 0 0 0 0 0 0 0 0 0 0 0 0 0 0 0 0 0 0 0 0 1 31 255 233 127 78 64 66 47 9 2 1 2 8 43 69 65 78 126 226 255 38 2 0 0 0 0 0 0 0 0 0 0 0 1 21 255 247 133 80 63 65 41 9 2 1 2 8 38 68 63 76 124 229 255 36 2 0 0 0 0 0 0 0 0 0 0 0 0 0 0 0 0 0 0 0 0 0 0 0 0 0 0 0 0 0 0 0 0 1 30 255 231 126 77 63 72 43 9 2 1 2 10 53 71 65 83 142 255 255 24 1 0 0 0 0 0 0 0 0 0 0 0 0 0 0 0 0 0 0 0 0 0 0 0 0 0 0 0 0 0 1 33 255 223 122 75 62 64 43 8 2 1 2 9 48 69 64 78 127 234 255 33 1 0 0 0 0 2 41 255 217 120 76 64 72 48 8 2 1 0 0
255 255 139 79 59 72 96 39 6 1 0 1 10 85 102 68 56 76 134 255 255 18 1 0 0 0 0 0 0 0 0 9 206 255 155 88 62 68 102 58 8 1 0 1 8 62 107 66 56 76 133 246 255 22 1 0 0 0 0 0 0 0 0 0 0 0 0 0 0 0 1 18 255 255 137 78 57 67 104 66 8 1 0 1 7 43 106 67 56 76 131 241 255 26 1 0 0 0 0 0 0 0 0 0 0 2 36 255 232 126 74 56 71 106 54 7 1 0 1 7 51 116 73 58 75 129 245 255 25 1 0 0 0 0 0 0 0 0 0 0 0 0 0 0 0 0 0 0 0 1 14 255 255 142 80 59 72 123 68 8 1 0 1 9 77 109 69 59 79 136 255 255 20 1 0 0 0 0 0 0 1 21 255 255 135 77 57 70 114 77 9 1 0 1 8 66 113 71 58 80 145 255 255 17 1 0 0 0 0 0 0 0 0 1 25 255 245 132 76 57 72 112 40 6 1 0 1 7 51 111 66 55 76 134 250 255 29 1 0 0 0 0 0 0 0 0 0 0 0 0 0 0 0 0 0 0 0 0 0 0 0 0 0 0 0 0 0 0 1 20 255 255 142 81 58 66 113 127 13 2 1 1 9 64 100 69 62 88 156 255 169 8 0 0 0 0 0 0 0 0 0 0 0 0 0 0 0 0 0 0 0 0 0 0 0 0 0 0 0 0 1 15 255 255 145 81 58 66 111 48 7 1 0 1 10 83 110 70 64 92 165 255 234 255 255 143 81 60 73 107 75 9 1 0 1 10 76 105 70 62 88 156 255 229 10 0 0 0 0 0 0 0 0 0 0 0 0 0 0 0 0 0 0 0 0 0 0 0 0 0 0 0 0 0 0 0 0 1 12 247 255 146 83 60 69 101 52 8 1 0 1 8 65 121 72 59 80 141 255 255 19 1 0 0 0 0 0 0 0 0 0 0 0 0 0 0 0 0 0 0 0 0 0 0 0 0 0 0 0 0 0 0 0 0 0 0 0 1 13 255 255 145 80 57 68 104 71 9 1 0 1 8 67 115 75 60 80 139 255 255 18 1 0 0 0 0 0 0 0 0 0 0 9 190 255 154 85 60 69 101 49 7 1 0 1 7 47 113 69 58 80 143 255 255 17 1 0 0 0 0 0 0 0 0 0 0 0 0 0 0 0 0 0 0 0 0 0 0 0 0 0 0 0 0 0 0 1 13 255 255 144 80 57 67 118 62 8 1 0 1 11 91 111 67 62 89 160 255 222 10 0 0 0 0 0 0 0 0 0 0 0 0 0 0 0 0 0 0 0 0 0 0 0 0 0 0 0 0 1 14 255 255 140 79 58 71 104 67 8 1 0 1 9 84 118 70 58 81 146 255 255 14 1 0 0 1 18 255 253 134 76 57 70 120 85 9 1 0 0 0
255 166 85 54 59 144 219 75 7 1 0 2 25 255 239 128 52 51 81 154 255 155 7 0 0 0 0 0 0 0 4 90 255 177 92 57 55 120 220 144 13 1 0 1 15 187 238 124 52 50 78 147 255 177 8 0 0 0 0 0 0 0 0 0 0 0 0 0 0 0 8 162 255 156 82 52 54 128 239 212 17 1 0 1 8 91 230 129 53 50 77 143 255 213 10 0 0 0 0 0 0 0 0 0 1 17 255 255 138 75 50 55 147 246 168 13 1 0 1 12 152 241 147 59 51 78 149 255 248 11 0 0 0 0 0 0 0 0 0 0 0 0 0 0 0 0 0 0 0 6 117 255 159 85 53 55 135 248 242 19 1 0 2 23 255 240 131 57 52 81 153 255 169 8 0 0 0 0 0 0 10 213 255 154 82 52 57 136 250 255 24 2 0 1 18 219 242 134 55 54 87 163 255 163 8 0 0 0 0 0 0 0 0 11 248 255 146 79 51 57 146 239 91 8 1 0 1 11 135 238 126 52 51 80 148 255 255 14 1 0 0 0 0 0 0 0 0 0 0 0 0 0 0 0 0 0 0 0 0 0 0 0 0 0 0 0 0 0 8 173 255 155 83 53 54 124 255 255 43 3 0 1 15 167 215 119 55 57 93 176 255 71 4 0 0 0 0 0 0 0 0 0 0 0 0 0 0 0 0 0 0 0 0 0 0 0 0 0 0 0 6 128 255 159 86 54 55 125 234 118 10 1 0 2 23 238 229 116 56 60 99 197 255 255 166 86 55 58 140 241 253 22 2 0 2 20 221 224 122 56 57 92 174 255 104 5 0 0 0 0 0 0 0 0 0 0 0 0 0 0 0 0 0 0 0 0 0 0 0 0 0 0 0 0 0 0 0 5 106 255 165 87 55 56 126 221 124 11 1 0 1 18 225 246 137 56 53 84 157 255 174 8 0 0 0 0 0 0 0 0 0 0 0 0 0 0 0 0 0 0 0 0 0 0 0 0 0 0 0 0 0 0 0 0 0 0 0 6 120 255 162 87 54 52 125 234 216 18 2 0 1 19 238 246 145 58 54 83 159 255 161 8 0 0 0 0 0 0 0 0 0 4 86 255 178 93 57 55 125 222 108 10 1 0 1 10 116 235 133 55 54 86 162 255 164 8 0 0 0 0 0 0 0 0 0 0 0 0 0 0 0 0 0 0 0 0 0 0 0 0 0 0 0 0 0 0 6 120 255 165 87 53 53 121 235 185 15 1 0 2 26 255 235 114 55 58 93 175 255 94 5 0 0 0 0 0 0 0 0 0 0 0 0 0 0 0 0 0 0 0 0 0 0 0 0 0 0 0 6 115 255 161 85 54 57 140 243 230 18 1 0 2 26 255 255 133 55 54 87 161 255 128 6 0 0 8 157 255 153 80 51 54 132 247 255 26 2 0 0 0
159 92 51 41 103 255 251 255 25 2 1 7 112 255 255 255 87 37 47 86 170 255 66 3 0 0 0 0 0 2 44 255 195 99 53 39 79 252 251 255 47 3 0 4 64 255 255 255 84 36 45 81 162 255 73 4 0 0 0 0 0 0 0 0 0 0 0 0 0 3 67 255 170 86 48 38 92 255 255 255 79 5 0 2 31 255 243 255 89 36 44 78 156 255 85 4 0 0 0 0 0 0 0 0 7 152 255 150 75 43 37 101 255 255 255 61 4 0 3 57 255 246 255 105 39 46 82 163 255 104 5 0 0 0 0 0 0 0 0 0 0 0 0 0 0 0 0 0 3 55 255 179 89 49 38 86 252 242 255 101 6 1 6 115 255 255 255 96 38 47 84 166 255 72 4 0 0 0 0 5 96 255 169 85 48 40 101 255 254 255 139 7 1 5 82 255 251 255 88 40 50 89 175 255 70 3 0 0 0 0 0 0 5 107 255 162 81 46 39 100 255 240 255 32 2 0 3 47 255 246 255 86 37 46 81 160 255 120 6 0 0 0 0 0 0 0 0 0 0 0 0 0 0 0 0 0 0 0 0 0 0 0 0 0 0 0 0 4 77 255 167 84 47 37 86 255 247 223 255 14 1 4 56 255 255 251 79 39 53 99 198 255 33 1 0 0 0 0 0 0 0 0 0 0 0 0 0 0 0 0 0 0 0 0 0 0 0 0 0 3 56 255 173 87 49 39 90 255 242 255 41 3 1 6 92 255 244 237 75 40 57 110 199 174 93 50 40 93 255 255 255 112 6 1 5 80 255 252 249 80 39 52 96 193 255 51 2 0 0 0 0 0 0 0 0 0 0 0 0 0 0 0 0 0 0 0 0 0 0 0 0 0 0 0 0 0 2 51 255 186 92 50 39 86 255 252 255 43 3 0 5 86 255 244 255 90 39 48 86 171 255 77 4 0 0 0 0 0 0 0 0 0 0 0 0 0 0 0 0 0 0 0 0 0 0 0 0 0 0 0 0 0 0 0 0 0 3 58 255 184 91 50 38 80 255 255 255 76 5 1 6 98 255 252 255 97 39 49 88 170 255 69 3 0 0 0 0 0 0 0 2 44 255 199 100 54 40 82 255 248 255 36 2 0 2 40 255 240 255 90 39 50 89 174 255 71 3 0 0 0 0 0 0 0 0 0 0 0 0 0 0 0 0 0 0 0 0 0 0 0 0 0 0 0 0 3 57 255 183 92 50 38 82 251 239 255 63 4 1 7 110 248 245 244 76 39 52 96 190 255 44 2 0 0 0 0 0 0 0 0 0 0 0 0 0 0 0 0 0 0 0 0 0 0 0 0 0 2 50 255 177 90 50 40 99 255 255 255 96 5 1 7 135 255 249 255 89 39 50 89 179 255 60 3 4 70 255 169 85 47 37 90 255 244 255 144 8 0 0 0
60 42 28 46 208 190 179 246 149 8 3 44 255 161 162 198 207 40 26 43 88 187 255 29 1 0 0 0 1 19 255 217 102 49 28 35 160 198 170 186 251 15 2 24 255 177 166 201 203 37 24 40 84 180 255 33 2 0 0 0 0 0 0 0 0 0 0 0 1 29 255 184 87 43 26 41 212 200 166 176 255 32 2 9 171 223 172 197 209 39 24 39 80 173 255 39 2 0 0 0 0 0 0 3 68 255 160 75 37 24 44 222 190 167 188 255 25 2 25 255 193 163 185 215 45 26 41 82 173 255 48 2 0 0 0 0 0 0 0 0 0 0 0 0 0 0 0 1 25 255 202 94 45 26 38 181 184 153 171 255 44 5 49 255 168 160 196 211 41 26 42 85 185 255 34 2 0 0 2 47 255 182 85 42 26 45 221 193 156 168 255 60 5 35 255 173 159 189 187 40 27 44 89 186 255 31 1 0 0 0 0 2 50 255 174 82 40 25 44 212 185 167 224 196 10 1 16 255 194 166 198 208 39 24 39 79 165 255 52 3 0 0 0 0 0 0 0 0 0 0 0 0 0 0 0 0 0 0 0 0 0 0 0 0 0 0 2 38 255 187 86 42 25 38 199 196 147 147 255 93 6 20 255 179 171 199 160 35 28 50 106 233 234 12 1 0 0 0 0 0 0 0 0 0 0 0 0 0 0 0 0 0 0 0 0 0 0 0 1 25 255 196 91 43 26 40 204 198 168 202 239 13 3 35 255 159 156 193 142 34 30 50 75 69 44 27 40 187 187 160 170 255 48 4 31 255 165 163 194 160 35 27 48 101 209 255 22 1 0 0 0 0 0 0 0 0 0 0 0 0 0 0 0 0 0 0 0 0 0 0 0 0 0 0 0 1 22 255 208 98 46 27 38 182 196 173 201 255 16 3 36 255 172 155 185 188 39 26 43 87 186 255 36 2 0 0 0 0 0 0 0 0 0 0 0 0 0 0 0 0 0 0 0 0 0 0 0 0 0 0 0 0 0 0 0 1 27 255 203 96 45 27 37 178 197 164 169 255 29 4 43 255 174 157 183 193 41 26 43 87 187 255 33 1 0 0 0 0 0 1 21 255 224 105 50 29 37 171 196 173 208 183 10 1 13 223 203 166 191 197 41 27 44 88 187 255 33 1 0 0 0 0 0 0 0 0 0 0 0 0 0 0 0 0 0 0 0 0 0 0 0 0 0 0 1 27 255 203 95 46 27 38 188 195 159 175 255 24 3 41 255 155 155 198 158 34 27 47 100 214 255 18 1 0 0 0 0 0 0 0 0 0 0 0 0 0 0 0 0 0 0 0 0 0 0 0 1 20 255 199 93 45 27 44 210 192 165 178 255 43 5 52 255 160 152 189 193 40 27 44 93 199 255 31 36 255 189 88 42 26 40 203 189 151 160 255 60 3 0 0
20 16 17 68 172 106 98 140 255 62 21 255 191 96 81 110 195 68 16 19 40 97 232 194 10 0 0 0 7 145 255 113 47 22 15 45 184 110 90 114 255 87 13 145 239 107 86 112 199 63 15 18 39 94 224 242 12 1 0 0 0 0 0 0 0 0 0 0 11 212 230 95 40 19 16 66 189 110 85 105 218 210 15 64 255 129 94 112 192 65 15 17 37 89 212 255 15 1 0 0 0 0 1 33 255 183 79 34 17 16 76 180 105 85 111 244 168 19 197 252 114 85 103 173 73 17 18 37 87 200 255 20 1 0 0 0 0 0 0 0 0 0 0 0 0 0 0 9 173 251 106 44 20 15 57 183 103 79 99 201 255 44 255 194 98 82 108 183 64 16 19 39 96 227 255 14 1 1 20 255 207 91 39 19 17 74 181 106 80 95 187 255 47 255 216 103 82 105 184 59 16 19 40 95 227 217 11 1 0 0 1 21 255 199 87 37 18 16 71 177 104 91 128 255 75 9 95 255 115 89 112 197 67 15 17 35 81 189 255 22 1 0 0 0 0 0 0 0 0 0 0 0 0 0 0 0 0 0 0 0 0 0 0 0 0 1 15 255 222 96 40 19 15 59 193 108 74 82 150 255 50 122 255 111 89 111 184 46 15 22 50 120 255 83 4 0 0 0 0 0 0 0 0 0 0 0 0 0 0 0 0 0 0 0 0 0 0 0 9 183 248 103 42 20 16 62 190 112 91 120 255 86 17 210 203 98 81 108 177 41 15 19 25 23 17 16 58 175 103 81 99 196 255 34 202 217 102 84 108 181 45 15 21 46 107 255 143 7 0 0 0 0 0 0 0 0 0 0 0 0 0 0 0 0 0 0 0 0 0 0 0 0 0 0 0 8 152 255 108 45 21 16 54 185 110 92 122 255 102 20 255 212 101 80 103 181 58 15 19 40 95 220 252 13 1 0 0 0 0 0 0 0 0 0 0 0 0 0 0 0 0 0 0 0 0 0 0 0 0 0 0 0 0 0 0 10 197 245 104 44 21 15 56 194 109 84 103 220 181 31 255 205 100 80 101 172 60 16 19 40 97 230 255 13 1 0 0 0 0 8 162 255 116 49 23 16 51 185 110 93 122 255 63 8 80 255 119 89 108 185 62 16 19 40 96 226 235 12 1 0 0 0 0 0 0 0 0 0 0 0 0 0 0 0 0 0 0 0 0 0 0 0 0 0 10 209 248 105 44 21 16 59 197 112 84 106 240 156 24 254 189 94 80 111 189 45 15 21 46 111 255 122 6 0 0 0 0 0 0 0 0 0 0 0 0 0 0 0 0 0 0 0 0 0 0 0 7 142 255 104 43 20 17 68 178 105 83 103 205 255 43 255 180 91 77 104 185 60 16 20 43 103 247 255 255 232 98 41 19 16 66 189 107 77 92 183 255 27 1 0
6 6 15 96 87 52 47 77 179 255 255 255 106 48 37 54 100 123 16 9 17 45 119 255 74 4 0 3 60 255 140 54 20 9 11 58 105 56 43 62 141 255 158 255 126 55 40 56 102 112 15 8 17 44 117 255 94 5 0 0 0 0 0 0 0 0 0 4 78 255 120 44 17 8 15 105 95 53 39 53 116 255 177 255 165 71 46 56 98 114 15 8 16 41 112 255 110 6 0 0 0 1 12 234 231 95 36 14 8 18 136 90 51 39 56 128 255 255 255 133 58 40 50 87 116 17 8 16 39 105 255 140 7 0 0 0 0 0 0 0 0 0 0 0 0 0 3 63 255 126 49 19 9 13 88 99 52 37 49 109 255 255 255 107 49 37 52 91 97 15 8 17 45 118 255 99 6 7 139 255 107 41 16 8 17 119 90 51 36 47 101 255 255 255 118 52 38 52 98 91 14 8 17 44 118 255 78 4 0 0 8 156 255 104 39 16 8 16 115 89 51 44 69 162 255 113 255 139 61 42 56 101 124 16 8 15 37 101 255 162 8 0 0 0 0 0 0 0 0 0 0 0 0 0 0 0 0 0 0 0 0 0 0 0 0 6 108 255 114 44 17 8 13 92 99 53 34 40 81 215 255 255 135 60 42 56 106 59 11 10 22 59 150 255 35 2 0 0 0 0 0 0 0 0 0 0 0 0 0 0 0 0 0 0 0 0 0 4 67 255 126 48 18 9 14 92 96 55 44 65 148 255 214 255 110 50 38 55 110 49 10 7 7 7 6 13 81 92 50 36 49 107 255 255 255 119 53 39 55 104 57 11 9 20 50 129 255 54 3 0 0 0 0 0 0 0 0 0 0 0 0 0 0 0 0 0 0 0 0 0 0 0 0 0 3 61 255 130 50 20 9 12 74 99 55 44 65 144 255 255 255 115 51 37 51 95 88 13 8 17 43 113 255 96 5 0 0 0 0 0 0 0 0 0 0 0 0 0 0 0 0 0 0 0 0 0 0 0 0 0 0 0 0 0 4 74 255 125 48 19 9 13 90 106 55 39 53 119 255 255 255 112 50 36 49 89 86 14 8 17 45 119 255 97 5 0 0 0 3 63 255 136 54 21 10 12 70 103 56 45 68 155 255 82 255 150 64 43 54 96 95 14 8 17 44 117 255 82 4 0 0 0 0 0 0 0 0 0 0 0 0 0 0 0 0 0 0 0 0 0 0 0 0 4 83 255 127 49 19 9 14 95 105 57 40 56 128 255 255 255 105 48 38 56 110 58 11 9 20 52 135 255 49 2 0 0 0 0 0 0 0 0 0 0 0 0 0 0 0 0 0 0 0 0 0 3 58 255 133 50 19 9 16 102 90 51 38 51 110 255 255 255 99 45 35 51 96 90 14 9 19 49 135 255 255 126 46 18 9 16 115 98 53 36 46 100 244 200 10 0
2 3 17 112 42 23 21 38 102 255 255 161 56 23 16 24 53 167 25 5 7 20 61 163 255 34 3 26 255 180 72 24 9 4 10 65 47 25 19 31 83 249 255 206 70 27 17 25 53 165 23 5 7 20 58 156 255 42 2 0 0 0 0 0 0 0 2 34 255 159 61 20 7 5 20 137 47 23 17 25 62 181 255 255 96 36 21 25 51 160 23 5 7 19 55 146 255 46 2 0 0 4 86 255 119 44 15 6 5 28 161 49 22 17 27 71 206 255 198 71 28 17 22 45 141 23 5 6 17 50 134 255 55 3 0 0 0 0 0 0 0 0 0 0 0 1 25 255 165 64 22 8 5 17 131 49 23 16 23 58 164 255 154 56 23 16 22 44 124 19 4 7 20 58 149 255 47 62 255 135 51 18 7 5 23 141 46 22 15 21 51 140 255 178 64 25 16 23 48 128 17 4 7 20 59 156 255 33 2 3 64 255 135 50 17 6 5 23 146 47 23 19 34 92 255 255 239 79 30 19 25 54 171 25 5 6 16 49 134 255 65 3 0 0 0 0 0 0 0 0 0 0 0 0 0 0 0 0 0 0 0 0 0 0 2 46 255 146 55 19 7 4 18 129 47 23 14 18 41 122 255 224 79 30 19 25 47 65 10 4 9 27 81 214 255 14 1 0 0 0 0 0 0 0 0 0 0 0 0 0 0 0 0 0 0 0 1 28 255 164 64 22 8 5 17 118 46 24 19 32 86 254 255 181 61 24 17 25 50 50 8 3 2 2 3 14 103 43 22 15 23 56 156 255 192 67 26 17 24 46 63 10 4 8 22 67 174 255 21 1 0 0 0 0 0 0 0 0 0 0 0 0 0 0 0 0 0 0 0 0 0 0 0 1 28 255 176 67 23 8 4 13 93 45 24 19 32 82 240 255 174 61 24 16 23 46 123 17 4 7 19 56 152 255 43 2 0 0 0 0 0 0 0 0 0 0 0 0 0 0 0 0 0 0 0 0 0 0 0 0 0 0 0 2 32 255 163 63 22 8 5 18 138 52 25 17 26 68 198 255 161 58 23 15 21 43 110 16 4 7 20 59 153 255 43 2 0 1 27 255 172 68 24 9 5 12 86 47 25 20 34 91 255 255 250 86 32 19 24 47 128 18 4 7 20 58 151 255 33 2 0 0 0 0 0 0 0 0 0 0 0 0 0 0 0 0 0 0 0 0 0 0 2 38 255 165 63 22 8 5 19 141 52 25 18 27 73 208 255 172 58 23 16 25 49 67 10 4 8 24 71 186 255 20 1 0 0 0 0 0 0 0 0 0 0 0 0 0 0 0 0 0 0 0 1 26 255 180 69 23 8 5 19 125 44 22 16 24 59 166 255 156 54 21 15 22 46 123 17 5 8 23 67 154 150 63 21 7 5 24 161 51 23 15 21 48 126 255 76 4
1 3 19 94 25 10 9 19 54 133 168 83 29 10 6 11 34 122 36 5 3 9 30 92 232 255 26 204 252 99 34 11 4 2 10 62 22 10 8 15 45 124 193 105 37 13 7 11 34 132 37 4 3 9 28 85 212 255 16 1 0 0 0 0 0 1 13 255 226 88 29 9 3 4 27 115 29 10 7 11 32 95 189 137 52 18 9 11 33 125 35 4 3 8 26 79 199 255 19 1 2 38 255 160 61 20 7 3 5 39 106 31 10 7 13 36 96 151 92 35 13 7 10 28 106 30 4 3 7 24 71 184 255 24 1 0 0 0 0 0 0 0 0 0 0 9 176 246 93 31 10 3 4 25 137 32 10 6 10 28 72 109 68 27 10 6 9 27 110 24 4 3 9 27 81 215 255 255 192 72 24 8 3 4 28 102 28 10 6 9 24 63 109 76 31 11 7 10 30 127 24 3 3 9 29 87 226 253 14 30 255 182 71 23 7 3 4 30 112 30 10 8 17 49 132 216 125 43 14 8 11 34 123 38 5 3 7 23 71 180 255 29 1 0 0 0 0 0 0 0 0 0 0 0 0 0 0 0 0 0 0 0 0 1 19 255 201 79 26 8 3 3 25 126 29 10 6 8 20 59 118 96 40 14 8 10 22 63 10 2 4 13 41 120 255 110 5 0 0 0 0 0 0 0 0 0 0 0 0 0 0 0 0 0 0 0 10 204 240 91 31 10 3 3 21 109 27 10 8 16 46 122 176 93 32 11 7 10 21 40 7 1 1 1 2 18 106 25 9 6 10 27 72 124 85 34 12 7 10 21 60 10 2 3 10 32 98 255 127 7 0 0 0 0 0 0 0 0 0 0 0 0 0 0 0 0 0 0 0 0 0 0 1 12 247 252 100 33 10 3 3 16 99 25 10 8 15 43 112 159 85 31 11 7 10 29 126 23 3 3 8 27 84 209 255 17 1 0 0 0 0 0 0 0 0 0 0 0 0 0 0 0 0 0 0 0 0 0 0 0 0 0 1 13 255 232 90 30 9 3 4 27 142 33 11 7 12 35 89 130 74 28 10 6 9 26 109 20 3 3 9 28 83 210 255 18 1 10 200 247 95 32 10 4 3 14 93 25 11 8 17 51 148 239 132 47 16 8 10 29 119 24 3 3 9 28 84 219 218 11 1 0 0 0 0 0 0 0 0 0 0 0 0 0 0 0 0 0 0 0 0 1 15 255 222 90 30 10 3 4 27 134 33 11 8 13 37 96 146 83 30 11 7 10 23 67 10 2 4 11 35 105 255 147 7 0 0 0 0 0 0 0 0 0 0 0 0 0 0 0 0 0 0 0 9 187 255 100 34 10 4 4 23 103 26 9 6 11 28 73 111 70 26 10 6 10 29 120 23 3 3 10 28 55 54 27 9 3 4 34 125 33 11 6 9 23 65 169 255 38
0 2 18 63 16 5 4 9 25 53 63 37 14 5 3 5 21 67 47 6 2 4 15 49 135 255 255 255 148 53 17 5 2 2 9 53 12 4 3 7 22 53 74 47 18 6 3 6 23 77 57 6 2 4 14 45 123 255 122 6 0 0 0 0 0 5 108 255 134 47 14 4 2 4 30 72 19 5 3 5 16 43 72 57 25 8 4 6 22 73 51 6 2 4 13 41 118 255 137 8 15 255 233 95 31 9 3 1 6 54 56 18 5 3 6 17 39 54 37 16 6 3 5 18 61 33 4 1 3 11 37 111 255 189 9 0 0 0 0 0 0 0 0 0 4 70 255 142 51 15 4 2 4 34 102 25 5 3 4 12 27 37 26 11 4 3 5 18 74 27 3 1 4 13 44 135 255 255 121 39 11 3 1 4 28 57 17 5 2 4 10 25 37 29 13 5 3 5 22 92 29 4 1 4 14 47 134 255 162 255 255 108 37 11 3 1 4 35 65 19 5 4 8 24 58 83 56 22 7 3 6 22 67 53 6 1 3 11 37 107 255 242 12 1 0 0 0 0 0 0 0 0 0 0 0 0 0 0 0 0 0 0 0 7 148 255 119 42 13 4 1 4 32 90 22 5 2 3 9 25 42 36 18 6 3 4 13 55 10 2 2 6 21 67 171 255 51 2 0 0 0 0 0 0 0 0 0 0 0 0 0 0 0 0 0 4 84 255 141 50 15 4 2 3 23 78 19 5 3 7 22 50 66 41 16 5 3 4 9 25 5 1 0 0 2 21 90 19 4 2 4 12 29 43 33 15 5 3 4 12 50 9 2 1 5 16 54 147 255 54 3 0 0 0 0 0 0 0 0 0 0 0 0 0 0 0 0 0 0 0 0 0 5 104 255 146 54 16 5 2 3 19 91 18 5 3 7 20 45 58 36 14 5 3 5 22 96 30 4 1 4 13 44 122 255 128 6 0 0 0 0 0 0 0 0 0 0 0 0 0 0 0 0 0 0 0 0 0 0 0 0 0 5 113 255 137 49 15 4 2 4 36 101 25 6 3 5 16 35 46 30 12 4 3 4 19 87 23 3 1 4 13 44 125 255 161 12 82 255 143 52 16 5 2 2 16 90 18 5 4 8 27 67 95 61 24 7 3 5 21 82 27 3 1 4 13 45 128 255 83 4 0 0 0 0 0 0 0 0 0 0 0 0 0 0 0 0 0 0 0 0 6 111 255 128 47 15 4 2 4 33 90 24 6 3 6 17 39 53 35 14 5 3 4 13 62 11 2 2 5 18 58 153 255 61 3 0 0 0 0 0 0 0 0 0 0 0 0 0 0 0 0 0 4 73 255 144 54 17 5 2 3 22 66 17 4 3 4 12 28 38 27 12 4 2 5 21 89 26 3 2 4 10 18 18 10 4 2 5 46 72 22 5 3 4 11 34 101 249 255
0 2 13 37 10 2 2 4 10 19 22 15 6 2 1 3 12 38 71 8 1 2 8 29 90 220 255 240 100 32 8 2 1 1 8 43 8 2 1 3 10 21 26 19 8 3 1 3 15 51 152 12 1 2 7 25 77 183 255 57 3 0 0 0 3 55 255 197 86 28 7 2 1 4 30 42 12 3 1 2 7 17 26 22 11 4 2 3 14 46 112 10 1 2 6 24 75 178 255 77 132 255 149 59 17 4 1 1 10 107 34 10 3 1 2 7 14 18 14 6 2 1 2 10 33 31 4 1 1 6 21 70 172 255 84 4 0 0 0 0 0 0 0 1 33 255 209 94 31 8 2 1 5 45 71 19 3 1 2 5 9 12 9 4 2 1 3 12 46 25 3 1 2 7 27 85 162 153 76 23 6 2 1 3 21 29 9 2 1 2 4 9 12 10 5 2 1 3 17 63 30 4 1 2 7 28 88 214 255 255 171 68 21 5 1 1 5 36 36 11 3 2 3 11 23 30 23 10 3 2 3 13 40 99 9 1 1 5 21 66 163 255 110 5 0 0 0 0 0 0 0 0 0 0 0 0 0 0 0 0 0 0 3 68 255 180 75 24 6 2 1 5 40 61 16 3 1 1 4 9 14 12 7 3 1 2 9 46 8 1 1 3 11 40 111 239 255 24 1 0 0 0 0 0 0 0 0 0 0 0 0 0 0 0 2 42 255 207 92 30 8 2 1 3 20 52 13 3 1 3 9 19 23 16 7 2 1 2 4 10 3 1 0 0 3 22 75 16 3 1 2 5 10 14 12 6 2 1 2 8 39 7 1 1 2 8 33 99 227 255 26 1 0 0 0 0 0 0 0 0 0 0 0 0 0 0 0 0 0 0 0 2 51 255 202 92 32 8 2 1 3 20 83 16 3 1 3 8 17 20 14 6 2 1 3 17 70 36 4 1 2 7 25 77 185 255 60 3 0 0 0 0 0 0 0 0 0 0 0 0 0 0 0 0 0 0 0 0 0 0 0 3 58 255 200 88 29 8 2 1 5 47 67 19 4 1 2 6 12 15 11 5 2 1 3 15 66 24 3 1 2 7 25 79 185 255 228 255 208 93 30 8 2 1 2 18 91 16 3 2 4 13 28 35 25 11 3 2 3 14 53 26 4 1 2 7 27 85 198 255 40 2 0 0 0 0 0 0 0 0 0 0 0 0 0 0 0 0 0 0 3 54 255 189 80 27 7 2 1 5 38 57 17 3 1 3 7 14 18 13 6 2 1 2 10 60 10 1 1 2 9 34 99 220 255 29 1 0 0 0 0 0 0 0 0 0 0 0 0 0 0 0 2 34 255 206 93 32 9 2 1 3 17 38 11 2 1 2 5 10 12 9 4 2 1 3 15 61 26 4 1 1 3 5 5 3 1 1 7 71 43 13 3 1 2 5 19 64 166 255
0 1 7 18 5 1 1 1 4 7 7 5 2 1 1 2 7 35 196 17 1 1 4 20 70 137 188 144 78 22 5 1 0 1 6 31 6 1 1 1 4 7 9 7 3 1 1 2 12 87 255 52 3 1 4 16 59 134 252 255 29 1 0 1 30 255 255 141 66 18 4 1 1 4 24 24 7 1 1 1 3 6 9 8 4 2 1 2 10 68 255 38 2 1 3 15 57 132 255 255 255 215 111 44 11 2 1 2 34 255 50 7 1 1 1 2 5 6 5 2 1 1 1 5 17 25 4 1 1 3 14 54 125 234 255 44 2 0 0 0 0 0 1 14 255 255 151 72 21 4 1 1 8 83 62 15 2 1 1 2 3 4 3 1 1 0 2 8 28 19 3 1 1 4 17 55 81 78 51 15 3 1 1 2 11 13 4 1 0 1 1 3 4 3 2 1 1 2 12 47 29 4 1 1 4 19 70 151 255 231 128 52 13 3 1 1 5 35 21 6 1 1 1 4 8 11 8 4 1 1 2 8 51 255 30 2 1 3 13 50 119 226 255 60 3 0 0 0 0 0 0 0 0 0 0 0 0 0 0 0 0 2 36 255 244 131 58 15 3 1 1 6 62 49 12 2 0 1 1 3 4 4 2 1 1 1 7 36 7 1 0 1 6 28 82 167 255 246 11 0 0 0 0 0 0 0 0 0 0 0 0 0 0 1 19 255 255 148 71 20 4 1 1 2 14 33 9 2 1 1 3 7 8 6 3 1 0 1 1 3 1 0 0 0 3 22 74 14 2 1 1 2 3 4 4 2 1 0 1 5 25 5 1 0 1 5 23 78 164 255 255 12 1 0 0 0 0 0 0 0 0 0 0 0 0 0 0 0 0 0 1 25 255 255 142 68 21 5 1 1 3 22 93 16 2 1 1 3 6 7 5 2 1 1 2 14 60 50 5 1 1 4 16 59 135 250 255 30 1 0 0 0 0 0 0 0 0 0 0 0 0 0 0 0 0 0 0 0 0 0 1 30 255 255 142 67 19 4 1 1 8 85 55 14 2 1 1 2 4 5 4 2 1 1 2 12 57 22 3 1 1 4 16 60 136 255 255 255 153 71 20 4 1 1 2 22 118 18 2 1 2 5 11 13 10 4 1 1 2 9 35 20 3 1 1 4 18 67 146 255 255 19 1 0 0 0 0 0 0 0 0 0 0 0 0 0 0 0 0 1 27 255 255 138 61 17 4 1 1 5 43 40 11 2 1 1 2 5 6 4 2 1 0 1 10 70 11 1 0 1 5 23 75 157 255 255 13 1 0 0 0 0 0 0 0 0 0 0 0 0 0 1 15 255 255 149 70 21 5 1 1 2 9 19 6 1 0 1 2 3 4 3 2 1 1 2 11 46 23 3 1 1 1 2 2 1 1 1 17 211 41 8 2 1 1 3 12 49 121 206
0 1 3 7 2 1 0 1 1 2 2 2 1 0 0 1 9 107 255 69 4 1 3 16 72 94 102 95 78 19 3 1 0 1 4 17 4 1 0 0 1 2 3 2 1 0 0 2 31 255 244 255 21 1 2 12 62 118 182 255 255 14 1 15 255 255 187 120 69 14 2 1 0 3 13 11 3 1 0 0 1 2 3 2 1 1 0 2 23 255 255 255 14 1 2 11 60 119 190 255 255 168 106 42 8 1 1 12 240 255 234 15 1 0 0 1 1 2 1 1 0 0 1 2 8 14 3 0 0 2 10 55 112 171 255 255 22 1 0 0 0 0 6 129 255 200 127 77 17 3 1 2 25 255 114 15 2 0 0 0 1 1 1 0 0 0 1 4 14 11 2 0 0 2 11 39 45 45 36 9 2 0 0 1 4 4 2 1 0 0 0 1 1 1 1 0 0 1 8 39 23 4 1 1 3 16 77 117 140 133 110 55 10 2 0 1 5 30 12 3 1 0 1 1 3 3 3 1 1 0 1 15 215 255 197 10 1 2 9 50 109 166 255 255 33 1 0 0 0 0 0 0 0 0 0 0 0 0 0 0 1 18 255 255 177 115 60 11 2 0 1 16 218 64 10 1 0 0 0 1 1 1 1 0 0 1 5 23 5 1 0 1 4 23 84 133 213 255 114 5 0 0 0 0 0 0 0 0 0 0 0 0 0 8 173 255 191 123 75 16 3 1 0 2 8 18 5 1 0 0 1 2 2 2 1 0 0 0 0 1 0 0 0 0 3 25 108 16 2 0 0 1 1 1 1 1 0 0 1 3 11 3 1 0 1 3 19 86 135 212 255 124 6 0 0 0 0 0 0 0 0 0 0 0 0 0 0 0 0 0 11 236 255 185 118 69 16 3 1 0 3 32 155 22 2 0 0 1 2 2 1 1 0 0 2 13 80 123 10 1 0 2 12 63 117 179 255 255 13 1 0 0 0 0 0 0 0 0 0 0 0 0 0 0 0 0 0 0 0 1 14 255 255 184 119 69 15 3 1 2 25 255 91 13 2 0 0 1 1 1 1 1 0 0 1 10 60 19 3 0 0 2 12 63 120 179 249 198 133 76 16 3 1 0 4 40 199 32 3 0 1 2 4 4 3 2 1 0 1 5 20 11 2 0 0 2 14 73 126 194 255 208 9 0 0 0 0 0 0 0 0 0 0 0 0 0 0 0 1 12 255 255 185 119 65 13 2 1 1 7 56 32 7 1 0 0 1 1 2 1 1 0 0 1 14 128 15 2 0 1 3 19 80 129 206 255 126 6 0 0 0 0 0 0 0 0 0 0 0 0 0 7 148 255 199 125 73 16 3 1 0 1 4 7 3 1 0 0 0 1 1 1 0 0 0 1 8 36 16 3 0 0 0 0 0 0 0 5 76 255 135 11 1 0 0 2 9 50 103 117
0 0 1 2 1 0 0 0 0 1 1 0 0 0 0 3 46 255 237 255 30 2 2 17 118 84 67 81 111 20 3 0 0 0 2 6 2 0 0 0 0 1 1 1 0 0 1 11 218 255 227 255 177 9 2 14 116 136 144 209 255 146 15 166 255 208 144 135 120 16 2 0 0 1 5 4 1 0 0 0 0 1 1 1 0 0 0 8 147 255 236 255 123 6 2 13 109 142 144 171 164 143 144 59 7 1 5 109 255 240 255 99 5 0 0 0 0 0 0 0 0 0 0 1 3 5 1 0 0 1 11 92 136 139 194 255 224 10 0 0 0 3 62 255 227 152 138 135 19 2 1 8 156 255 255 48 3 0 0 0 0 0 0 0 0 0 0 2 5 4 1 0 0 1 7 27 28 28 25 6 1 0 0 0 1 1 1 0 0 0 0 0 0 0 0 0 0 1 6 32 16 3 0 0 2 19 137 114 88 90 121 95 11 1 0 1 4 19 6 1 0 0 0 0 1 1 1 0 0 0 5 95 255 241 255 94 5 1 10 81 136 137 186 255 255 15 1 0 0 0 0 0 0 0 0 0 0 0 0 0 8 182 255 201 141 135 106 13 2 1 5 92 255 255 22 2 0 0 0 0 0 0 0 0 0 1 3 10 3 1 0 1 3 26 140 133 156 237 255 59 3 0 0 0 0 0 0 0 0 0 0 0 4 82 255 217 147 135 128 18 2 0 0 1 3 6 2 1 0 0 0 1 1 1 0 0 0 0 0 0 0 0 0 0 4 50 229 31 3 0 0 0 0 0 0 0 0 0 0 1 3 1 0 0 0 3 24 151 139 155 233 255 62 3 0 0 0 0 0 0 0 0 0 0 0 0 0 0 0 5 102 255 209 143 131 121 17 2 0 1 7 103 240 56 4 0 0 0 0 1 0 0 0 0 2 25 255 255 47 3 0 2 14 122 134 142 205 255 144 6 0 0 0 0 0 0 0 0 0 0 0 0 0 0 0 0 0 0 0 7 155 255 205 142 132 121 16 2 1 8 147 255 255 36 2 0 0 0 0 0 0 0 0 0 1 12 90 18 2 0 0 2 14 113 137 125 132 127 139 138 19 2 0 1 10 162 226 104 7 1 0 1 1 1 1 1 0 0 1 3 8 5 1 0 0 2 17 133 139 149 222 255 99 5 0 0 0 0 0 0 0 0 0 0 0 0 0 0 5 112 255 207 144 135 121 15 2 0 1 11 113 34 5 1 0 0 0 0 0 0 0 0 0 3 40 255 43 3 0 0 3 21 141 136 154 230 255 62 3 0 0 0 0 0 0 0 0 0 0 0 3 74 255 227 151 136 131 19 2 0 0 0 1 2 1 0 0 0 0 0 0 0 0 0 0 1 5 24 9 2 0 0 0 0 0 0 2 34 255 241 255 59 3 0 0 1 9 77 111 80
0 0 0 0 0 0 0 0 0 0 0 0 0 0 1 21 255 255 206 255 251 12 4 36 238 118 61 103 199 36 3 0 0 0 1 1 1 0 0 0 0 0 0 0 0 0 5 99 255 204 176 202 255 77 7 38 255 190 127 136 210 255 255 255 212 135 123 185 255 39 3 0 0 1 1 1 1 0 0 0 0 0 0 0 0 0 3 70 255 211 182 216 255 57 5 34 255 192 116 93 94 130 200 176 15 4 55 255 225 191 220 255 49 2 0 0 0 0 0 0 0 0 0 0 1 1 1 0 0 2 27 255 192 129 130 197 255 100 5 0 1 30 255 239 147 125 179 248 44 4 4 67 255 221 255 255 19 1 0 0 0 0 0 0 0 0 0 1 1 1 0 0 0 1 4 15 16 16 13 3 1 0 0 0 0 0 0 0 0 0 0 0 0 0 0 0 0 1 4 20 8 2 0 0 4 45 245 149 70 79 170 255 28 2 0 0 2 8 3 1 0 0 0 0 0 0 0 0 0 2 49 255 226 193 234 255 51 4 23 255 197 130 125 184 255 149 7 0 0 0 0 0 0 0 0 0 0 0 0 4 81 255 204 132 127 191 255 32 2 2 46 255 240 255 156 8 0 0 0 0 0 0 0 0 0 0 1 3 1 0 0 0 5 58 239 164 121 150 248 255 32 1 0 0 0 0 0 0 0 0 0 2 43 255 230 142 123 179 247 42 3 0 0 0 1 2 1 0 0 0 0 0 0 0 0 0 0 0 0 0 0 0 0 1 17 255 231 117 7 1 0 0 0 0 0 0 0 0 0 0 1 0 0 0 0 4 56 239 168 122 148 243 255 33 1 0 0 0 0 0 0 0 0 0 0 0 0 0 2 50 255 216 137 123 184 255 39 3 0 2 44 255 223 255 19 1 0 0 0 0 0 0 0 0 8 147 255 255 255 20 1 3 38 255 190 126 136 215 255 74 3 0 0 0 0 0 0 0 0 0 0 0 0 0 0 0 0 0 4 75 255 212 134 123 183 255 38 3 4 65 255 225 255 255 13 1 0 0 0 0 0 0 0 0 2 23 205 31 3 0 0 3 36 255 183 99 76 91 169 253 46 4 1 3 64 255 221 255 42 2 0 0 0 0 0 0 0 0 0 1 2 2 1 0 0 3 43 255 183 126 143 225 255 50 2 0 0 0 0 0 0 0 0 0 0 0 0 3 55 255 213 135 124 186 255 39 3 0 2 34 255 78 7 1 0 0 0 0 0 0 0 0 1 12 230 215 255 15 1 0 4 50 252 173 123 148 241 255 31 1 0 0 0 0 0 0 0 0 0 2 39 255 237 146 124 179 255 45 3 0 0 0 0 0 0 0 0 0 0 0 0 0 0 0 0 1 3 11 4 1 0 0 0 0 0 1 14 255 255 202 244 255 29 1 0 2 20 218 156 73
0 0 0 0 0 0 0 0 0 0 0 0 0 0 9 200 255 158 137 167 255 104 15 137 201 200 100 178 194 132 9 1 0 0 0 0 0 0 0 0 0 0 0 0 0 2 50 255 201 127 114 121 203 255 57 206 218 193 115 86 121 243 255 237 121 84 110 188 209 188 11 1 0 0 0 0 0 0 0 0 0 0 0 0 0 2 36 255 215 131 116 127 218 255 41 180 221 187 98 52 56 116 194 255 66 34 255 229 133 121 136 234 255 24 1 0 0 0 0 0 0 0 0 0 0 0 0 0 0 7 119 238 198 122 85 111 197 255 49 3 11 231 255 136 89 105 177 194 190 14 32 255 209 145 164 255 141 7 0 0 0 0 0 0 0 0 0 0 0 0 0 0 0 0 2 6 7 7 5 1 0 0 0 0 0 0 0 0 0 0 0 0 0 0 0 0 0 0 2 8 4 1 0 1 13 210 190 177 80 96 198 234 128 7 0 0 1 2 1 0 0 0 0 0 0 0 0 0 1 24 255 236 140 123 138 239 255 36 114 255 204 126 83 103 183 255 67 3 0 0 0 0 0 0 0 0 0 0 2 38 255 203 114 85 118 196 223 150 10 22 255 240 161 190 255 70 3 0 0 0 0 0 0 0 0 0 0 1 0 0 0 1 18 255 193 167 96 89 141 255 255 14 1 0 0 0 0 0 0 0 1 20 255 243 131 88 108 182 199 188 11 1 0 0 0 0 0 0 0 0 0 0 0 0 0 0 0 0 0 0 0 0 0 6 121 255 196 255 45 2 0 0 0 0 0 0 0 0 0 0 0 0 0 0 1 17 255 182 163 98 88 139 255 255 15 1 0 0 0 0 0 0 0 0 0 0 0 1 24 255 229 123 86 111 193 210 179 11 1 18 255 233 196 255 134 7 0 0 0 0 0 0 0 3 61 255 190 174 255 172 9 11 186 212 194 117 87 121 218 255 39 2 0 0 0 0 0 0 0 0 0 0 0 0 0 0 0 2 36 255 212 119 85 112 190 208 176 12 31 255 213 150 170 255 109 5 0 0 0 0 0 0 0 0 5 71 211 113 7 1 1 10 180 216 185 90 48 74 164 192 219 14 2 28 255 207 185 231 255 17 1 0 0 0 0 0 0 0 0 0 1 0 0 0 1 12 205 197 179 108 87 126 233 255 25 1 0 0 0 0 0 0 0 0 0 0 1 27 255 225 121 85 112 190 212 206 12 1 9 165 214 255 30 2 0 0 0 0 0 0 0 0 5 87 255 191 255 121 6 1 15 231 192 173 101 89 137 255 255 13 1 0 0 0 0 0 0 0 1 17 255 249 134 89 105 181 202 234 14 1 0 0 0 0 0 0 0 0 0 0 0 0 0 0 0 0 1 3 2 0 0 0 0 0 0 6 116 255 163 132 152 255 240 12 1 5 86 255 202 100
0 0 0 0 0 0 0 0 0 0 0 0 0 4 81 255 157 86 76 90 172 255 177 255 146 185 225 196 156 255 48 3 0 0 0 0 0 0 0 0 0 0 0 0 1 24 255 217 107 68 61 64 110 250 255 255 145 124 90 52 62 114 168 111 62 50 87 123 143 255 66 4 0 0 0 0 0 0 0 0 0 0 0 0 1 16 255 241 117 70 62 66 118 255 255 255 145 118 74 30 35 88 131 178 255 255 255 123 69 64 73 128 255 215 10 0 0 0 0 0 0 0 0 0 0 0 0 0 2 47 255 151 130 98 53 56 103 215 255 29 89 255 138 69 51 78 117 135 255 105 255 242 116 80 89 154 255 57 3 0 0 0 0 0 0 0 0 0 0 0 0 0 0 0 1 2 2 2 2 1 0 0 0 0 0 0 0 0 0 0 0 0 0 0 0 0 0 0 1 2 1 0 0 4 71 255 137 134 113 132 141 149 255 50 3 0 0 1 0 0 0 0 0 0 0 0 0 0 10 212 255 128 75 66 72 128 255 255 255 159 133 102 53 53 95 194 255 31 1 0 0 0 0 0 0 0 0 1 15 255 225 107 58 52 94 127 144 255 80 182 255 131 90 107 194 255 33 1 0 0 0 0 0 0 0 0 0 0 0 0 0 5 93 255 139 117 71 49 71 142 255 120 6 0 0 0 0 0 0 0 8 162 255 130 66 51 84 121 139 255 67 4 0 0 0 0 0 0 0 0 0 0 0 0 0 0 0 0 0 0 0 0 3 54 255 169 142 203 255 17 1 0 0 0 0 0 0 0 0 0 0 0 0 0 5 87 255 131 110 71 49 70 141 255 121 6 0 0 0 0 0 0 0 0 0 0 0 10 195 255 124 63 51 89 126 141 255 63 10 127 255 137 124 162 255 57 3 0 0 0 0 0 1 26 255 191 109 98 158 255 84 77 255 138 124 93 53 61 114 234 255 16 1 0 0 0 0 0 0 0 0 0 0 0 0 0 1 15 255 232 111 59 51 90 125 141 255 99 255 247 118 83 95 171 255 50 2 0 0 0 0 0 0 1 24 255 154 255 43 2 4 68 255 143 120 77 35 59 109 133 255 83 16 224 248 123 112 138 255 141 7 0 0 0 0 0 0 0 0 0 0 0 0 0 4 71 255 136 117 81 50 63 125 255 216 10 0 0 0 0 0 0 0 0 0 0 11 223 255 121 62 51 89 124 141 255 77 8 62 255 164 237 217 11 1 0 0 0 0 0 0 2 37 255 174 134 173 255 55 7 79 255 135 116 75 50 69 139 255 101 5 0 0 0 0 0 0 0 7 143 255 132 67 51 79 120 140 255 81 4 0 0 0 0 0 0 0 0 0 0 0 0 0 0 0 0 0 1 1 0 0 0 0 0 3 52 255 165 87 72 81 142 255 87 7 37 255 164 157 165
0 0 0 0 0 0 0 0 0 0 0 0 2 35 255 172 78 41 36 44 92 235 255 214 106 126 204 143 116 182 255 18 1 0 0 0 0 0 0 0 0 0 0 0 9 188 255 114 51 31 28 30 55 132 255 193 90 65 55 29 28 44 58 43 27 28 54 65 86 162 255 26 1 0 0 0 0 0 0 0 0 0 0 0 6 127 255 126 56 33 28 31 59 147 255 202 91 61 44 18 21 52 71 115 255 255 145 60 32 29 34 62 140 255 89 4 0 0 0 0 0 0 0 0 0 0 0 1 18 255 189 93 69 60 30 27 48 113 255 255 255 161 68 32 27 47 62 84 179 255 255 131 57 38 43 80 181 255 24 1 0 0 0 0 0 0 0 0 0 0 0 0 0 0 0 0 1 1 0 0 0 0 0 0 0 0 0 0 0 0 0 0 0 0 0 0 0 0 0 1 0 0 1 28 255 154 87 86 146 141 85 93 185 255 20 1 0 0 0 0 0 0 0 0 0 0 0 4 85 255 141 62 35 30 33 62 148 255 235 100 70 63 31 25 44 101 235 255 13 1 0 0 0 0 0 0 0 5 109 255 117 50 27 29 58 66 88 194 255 255 145 65 44 52 102 230 229 12 1 0 0 0 0 0 0 0 0 0 0 0 2 36 255 141 82 64 44 25 32 68 154 255 51 3 0 0 0 0 0 3 66 255 142 62 31 28 52 65 86 162 255 27 1 0 0 0 0 0 0 0 0 0 0 0 0 0 0 0 0 0 0 1 24 255 195 94 81 117 255 114 6 0 0 0 0 0 0 0 0 0 0 0 0 2 34 255 141 79 60 43 25 32 67 152 255 51 3 0 0 0 0 0 0 0 0 0 4 78 255 136 59 30 28 56 66 85 163 255 120 255 145 72 65 89 188 255 25 1 0 0 0 0 9 181 243 103 54 49 81 185 255 255 171 82 64 57 29 28 53 121 255 121 6 0 0 0 0 0 0 0 0 0 0 0 0 0 6 109 255 121 52 27 28 57 67 88 186 255 255 135 58 40 46 89 200 255 21 1 0 0 0 0 0 7 125 234 134 194 255 17 31 255 169 85 64 54 26 40 59 81 158 255 249 255 132 64 57 72 150 255 59 3 0 0 0 0 0 0 0 0 0 0 0 1 29 255 157 82 61 49 26 29 59 137 255 88 4 0 0 0 0 0 0 0 0 4 85 255 133 58 29 28 55 64 83 163 255 83 255 175 108 137 255 81 4 0 0 0 0 0 1 13 253 211 97 75 94 195 255 72 255 148 81 62 45 26 32 68 156 255 43 2 0 0 0 0 0 3 62 255 150 63 31 27 48 63 83 152 255 32 2 0 0 0 0 0 0 0 0 0 0 0 0 0 0 0 0 0 0 0 0 0 0 1 23 255 196 85 42 34 38 70 157 255 63 255 216 107 101 177
0 0 0 0 0 0 0 0 0 0 0 1 14 255 216 89 35 18 15 20 45 111 182 111 66 72 105 82 71 107 255 118 6 0 0 0 0 0 0 0 0 0 0 4 71 255 134 53 22 13 11 13 25 58 102 81 46 30 26 14 11 15 18 15 11 13 26 30 44 91 235 160 8 0 0 0 0 0 0 0 0 0 0 3 52 255 147 60 25 13 11 13 27 66 116 88 47 28 21 9 11 25 34 62 124 139 68 27 14 11 14 28 68 168 255 42 2 0 0 0 0 0 0 0 0 0 0 7 131 255 105 48 32 29 15 12 21 55 149 255 252 90 32 14 12 22 29 46 101 220 172 69 27 16 19 37 98 251 178 9 0 0 0 0 0 0 0 0 0 0 0 0 0 0 0 0 0 0 0 0 0 0 0 0 0 0 0 0 0 0 0 0 0 0 0 0 0 0 0 0 0 0 9 181 227 89 49 55 126 108 50 50 104 255 154 8 0 0 0 0 0 0 0 0 0 0 2 37 255 167 69 28 15 12 14 28 67 128 102 53 33 30 16 11 19 47 125 255 98 5 0 0 0 0 0 0 2 48 255 150 58 22 12 14 27 30 48 110 245 198 77 30 19 23 48 119 255 87 4 0 0 0 0 0 0 0 0 0 0 1 12 230 201 81 42 30 21 12 14 30 78 190 255 22 1 0 0 0 1 31 255 176 71 28 13 13 25 30 45 93 234 179 9 0 0 0 0 0 0 0 0 0 0 0 0 0 0 0 0 0 0 9 173 255 105 47 40 61 140 255 46 2 0 0 0 0 0 0 0 0 0 0 1 12 250 209 81 41 28 20 12 14 30 77 189 255 22 1 0 0 0 0 0 0 0 2 37 255 168 67 26 13 14 27 30 44 96 255 255 214 78 34 30 43 101 249 175 9 0 0 0 4 70 255 127 50 25 22 39 101 251 255 101 44 29 27 14 12 23 57 146 255 52 3 0 0 0 0 0 0 0 0 0 0 0 2 47 255 149 59 23 12 14 28 31 48 104 224 171 70 27 17 21 42 105 255 155 8 0 0 0 0 2 48 255 130 88 113 255 159 236 234 94 44 30 30 17 22 27 43 94 255 255 186 69 31 25 34 77 182 255 24 1 0 0 0 0 0 0 0 0 0 0 10 198 227 89 42 28 23 12 13 26 67 166 255 42 2 0 0 0 0 0 0 2 39 255 161 65 26 13 14 26 29 43 92 254 255 255 102 60 75 162 255 35 2 0 0 0 0 5 90 255 113 48 36 46 105 255 255 249 87 42 28 22 12 14 31 80 198 255 16 1 0 0 0 1 27 255 183 76 29 13 12 23 29 42 85 214 199 10 1 0 0 0 0 0 0 0 0 0 0 0 0 0 0 0 0 0 0 0 0 0 9 177 255 105 40 18 14 16 32 84 234 255 255 121 60 61 115
0 0 0 0 0 0 0 0 0 0 0 5 99 255 119 42 15 7 6 8 19 44 65 48 35 35 44 39 38 59 143 255 50 2 0 0 0 0 0 0 0 0 1 30 255 170 68 24 9 5 4 5 10 21 34 29 19 12 10 5 4 5 5 5 4 5 10 12 21 47 126 255 62 3 0 0 0 0 0 0 0 0 1 22 255 189 76 27 10 5 4 5 11 25 38 32 20 11 8 4 5 10 15 27 45 48 27 11 5 4 6 12 32 89 216 255 17 1 0 0 0 0 0 0 0 0 3 58 255 144 55 23 13 11 6 5 9 26 71 143 112 45 15 6 5 9 12 22 47 82 68 31 12 7 8 17 49 134 255 74 4 0 0 0 0 0 0 0 0 0 0 0 0 0 0 0 0 0 0 0 0 0 0 0 0 0 0 0 0 0 0 0 0 0 0 0 0 0 0 0 0 4 72 255 125 47 26 34 78 66 29 26 54 142 255 65 3 0 0 0 0 0 0 0 0 1 14 255 218 89 32 12 6 4 5 11 26 43 37 23 14 12 7 5 8 22 62 157 255 42 2 0 0 0 0 1 20 255 202 81 27 10 5 6 11 13 23 51 94 79 36 13 8 10 22 61 161 255 40 2 0 0 0 0 0 0 0 0 0 4 81 255 112 41 19 12 8 5 6 13 37 105 255 163 8 0 0 1 12 255 241 97 34 12 5 5 10 13 21 48 125 255 66 3 0 0 0 0 0 0 0 0 0 0 0 0 0 0 0 0 3 66 255 133 51 22 18 30 76 195 255 19 1 0 0 0 0 0 0 0 0 0 5 97 255 119 43 19 11 8 5 6 13 36 105 255 183 9 0 0 0 0 0 0 1 15 255 227 91 32 11 5 6 10 13 22 54 142 212 111 40 16 13 20 50 131 255 70 4 0 1 32 255 172 66 23 11 9 18 47 102 105 50 21 12 10 6 5 10 27 77 195 255 23 1 0 0 0 0 0 0 0 0 0 1 19 255 199 80 27 10 5 6 11 13 23 48 84 67 31 12 7 9 19 52 138 255 61 3 0 0 1 18 255 186 77 52 65 165 255 255 130 48 21 13 13 8 10 12 21 50 121 171 91 34 14 10 15 36 99 251 156 8 0 0 0 0 0 0 0 0 0 4 78 255 123 46 20 11 9 5 5 11 31 89 219 255 18 1 0 0 0 0 1 17 255 220 87 30 11 5 6 10 12 20 49 132 236 144 56 31 38 88 221 255 13 1 0 0 2 38 255 152 58 23 16 21 55 149 246 135 48 20 11 8 5 6 13 38 109 255 108 6 0 0 0 10 192 247 99 36 13 5 5 9 12 19 43 117 255 72 4 0 0 0 0 0 0 0 0 0 0 0 0 0 0 0 0 0 0 0 0 4 73 255 136 51 18 7 5 7 14 44 129 255 176 67 32 33 57
0 0 0 0 0 0 0 0 0 0 2 43 255 164 64 21 7 3 2 3 7 15 21 18 15 15 16 17 18 31 83 207 255 22 1 0 0 0 0 0 0 1 11 218 245 98 34 11 4 2 1 2 4 7 10 9 7 4 3 2 1 1 1 1 1 2 3 5 9 24 73 187 255 28 1 0 0 0 0 0 0 0 8 160 255 111 38 12 4 2 1 2 4 8 12 10 7 4 3 2 2 3 6 10 15 15 9 4 2 1 2 5 15 45 123 255 134 7 0 0 0 0 0 0 0 1 28 255 204 83 28 10 5 4 2 2 4 11 30 51 43 20 7 2 2 3 5 9 19 27 23 12 5 3 3 8 24 75 188 255 36 2 0 0 0 0 0 0 0 0 0 0 0 0 0 0 0 0 0 0 0 0 0 0 0 0 0 0 0 0 0 0 0 0 0 0 0 0 0 0 2 35 255 184 72 25 13 19 40 34 15 13 28 80 194 255 30 1 0 0 0 0 0 0 0 5 98 255 124 45 15 5 2 1 2 4 9 13 12 8 5 4 2 2 3 10 31 88 219 255 18 1 0 0 0 8 154 255 116 41 13 4 2 2 4 5 10 20 32 28 14 6 3 4 10 31 94 229 255 17 1 0 0 0 0 0 0 0 2 34 255 165 64 21 8 4 3 2 2 6 18 55 149 255 71 3 0 5 105 255 137 50 16 5 2 2 3 5 10 24 71 179 255 28 1 0 0 0 0 0 0 0 0 0 0 0 0 0 0 1 29 255 183 73 25 10 8 14 40 116 255 163 8 0 0 0 0 0 0 0 0 2 45 255 170 67 22 8 4 3 2 2 6 18 56 151 255 78 4 0 0 0 0 0 6 133 255 130 47 15 5 2 2 3 5 10 27 60 80 49 19 7 5 9 24 73 186 255 33 2 13 255 247 101 34 11 4 4 8 19 36 37 21 9 5 3 2 2 4 12 39 114 255 173 9 0 0 0 0 0 0 0 0 0 7 134 255 115 41 13 4 2 2 4 5 10 19 28 23 12 5 3 3 8 25 77 189 255 26 1 0 7 134 255 112 44 29 37 97 212 191 76 25 9 5 4 3 4 5 9 23 48 62 38 15 6 4 6 17 51 138 255 61 3 0 0 0 0 0 0 0 2 38 255 180 70 24 9 4 3 2 2 5 15 45 126 255 149 7 0 0 0 0 7 131 255 127 45 14 5 2 2 3 5 9 24 59 91 63 28 15 19 46 128 255 101 5 0 1 14 255 223 89 30 11 7 10 27 66 97 62 25 9 4 3 2 2 6 19 59 156 255 47 2 0 4 79 255 138 51 17 5 2 2 3 4 8 22 66 173 255 31 1 0 0 0 0 0 0 0 0 0 0 0 0 0 0 0 0 0 0 2 36 255 188 75 25 8 3 2 3 7 21 61 104 77 34 16 16 24
0 0 0 0 0 0 0 0 0 1 19 255 233 101 36 10 3 1 1 1 3 5 6 6 6 5 6 6 8 17 49 130 255 177 9 0 0 0 0 0 0 4 86 255 148 56 17 5 2 1 0 1 1 2 3 3 2 1 1 1 0 0 0 0 0 1 1 2 4 13 43 119 255 229 11 0 0 0 0 0 0 3 70 255 162 65 20 6 2 1 0 1 1 2 3 3 2 1 1 1 1 1 2 3 4 4 3 1 1 1 1 2 7 24 71 172 255 63 3 0 0 0 0 0 0 11 225 255 126 48 15 5 2 1 1 1 2 4 11 17 15 8 3 1 1 1 2 3 6 8 7 4 2 1 1 4 13 43 116 255 255 15 1 0 0 0 0 0 0 0 0 0 0 0 0 0 0 0 0 0 0 0 0 0 0 0 0 0 0 0 0 0 0 0 0 0 0 0 0 1 16 255 255 116 42 13 6 9 18 15 7 6 15 45 119 255 255 12 1 0 0 0 0 0 2 45 255 177 73 24 7 2 1 1 1 1 3 4 4 3 2 1 1 1 1 4 16 50 137 255 160 8 0 0 3 67 255 165 67 22 6 2 1 1 1 2 4 7 10 9 5 2 1 2 5 16 54 140 255 131 6 0 0 0 0 0 0 1 13 255 246 106 37 11 4 2 1 1 1 2 9 31 90 209 255 36 4 50 255 187 80 27 8 2 1 1 1 2 4 13 41 113 255 240 11 0 0 0 0 0 0 0 0 0 0 0 0 0 1 12 255 255 115 41 13 4 3 7 22 70 171 255 74 4 0 0 0 0 0 0 1 20 255 236 105 39 12 4 2 1 1 1 2 9 31 90 204 255 38 2 0 0 0 3 63 255 182 76 25 7 2 1 1 1 2 4 12 23 28 19 8 3 2 4 12 41 117 255 255 19 111 255 149 59 18 5 2 1 3 7 12 12 8 4 2 1 1 1 2 6 21 66 159 255 75 4 0 0 0 0 0 0 0 3 60 255 166 68 22 6 2 1 1 1 2 4 6 9 7 4 2 1 1 4 13 43 118 255 197 10 3 64 255 171 69 26 16 21 52 90 84 41 13 4 2 1 1 1 2 4 9 17 21 14 6 2 2 3 8 28 86 201 255 27 1 0 0 0 0 0 1 17 255 253 113 40 12 4 2 1 1 1 2 7 24 72 172 255 67 3 0 0 3 59 255 174 74 24 7 2 1 1 1 2 4 11 23 32 25 13 7 9 26 77 182 255 46 2 5 100 255 136 52 16 5 3 4 12 26 35 25 11 4 2 1 1 1 3 9 33 98 226 255 21 3 40 255 198 83 28 8 2 1 1 1 2 4 11 39 111 255 241 12 1 0 0 0 0 0 0 0 0 0 0 0 0 0 0 0 0 1 16 255 255 117 42 13 4 1 1 1 3 10 25 38 31 16 7 7 9
0 0 0 0 0 0 0 0 0 8 180 255 149 65 21 5 1 0 0 0 1 1 2 2 2 2 2 2 3 9 31 83 174 255 79 4 0 0 0 0 2 40 255 201 96 35 9 2 1 0 0 0 0 1 1 1 1 0 0 0 0 0 0 0 0 0 0 1 2 7 27 77 166 255 97 5 0 0 0 0 2 35 255 218 105 41 11 3 1 0 0 0 0 1 1 1 1 0 0 0 0 0 1 1 1 1 1 0 0 0 0 1 3 13 44 111 230 255 33 1 0 0 0 0 5 97 255 168 79 29 8 2 1 0 0 0 1 2 4 5 5 3 1 0 0 0 1 1 2 2 2 1 1 0 1 2 7 26 73 158 255 129 6 0 0 0 0 0 0 0 0 0 0 0 0 0 0 0 0 0 0 0 0 0 0 0 0 0 0 0 0 0 0 0 0 0 0 0 0 7 138 255 163 75 26 7 3 4 6 6 3 3 8 27 75 166 255 115 5 0 0 0 0 1 22 255 244 116 46 13 3 1 0 0 0 0 1 1 1 1 1 0 0 0 1 2 8 31 88 185 255 72 4 2 34 255 220 106 42 12 3 1 0 0 0 1 1 2 3 3 2 1 0 1 2 9 33 88 184 255 58 3 0 0 0 0 0 5 111 255 155 69 23 6 2 1 0 0 0 1 4 18 57 134 255 255 46 255 242 119 50 15 4 1 0 0 0 1 2 7 25 75 168 255 103 5 0 0 0 0 0 0 0 0 0 0 0 0 5 113 255 167 75 25 7 2 1 3 13 45 109 221 255 38 2 0 0 0 0 0 9 196 255 150 67 23 6 2 1 0 0 0 1 4 18 56 129 255 255 17 1 0 1 31 255 229 115 48 14 4 1 0 0 0 1 2 4 8 9 7 3 1 1 2 6 25 74 160 255 255 255 199 95 36 10 2 1 1 1 2 3 4 3 1 1 0 0 0 1 3 12 41 102 215 255 39 2 0 0 0 0 0 1 30 255 227 108 43 12 3 1 0 0 0 1 1 2 2 2 1 1 0 1 2 7 26 75 167 255 88 40 255 230 113 46 15 8 11 25 36 34 20 6 2 1 0 0 0 1 1 3 6 6 5 2 1 1 1 4 16 55 132 255 243 11 0 0 0 0 0 7 149 255 158 72 25 6 2 1 0 0 0 1 3 13 44 108 224 255 35 2 1 30 255 229 110 46 14 3 1 0 0 0 1 2 4 8 11 9 5 3 4 15 49 118 241 255 23 48 255 190 89 32 9 2 1 2 4 9 11 9 4 2 1 0 0 0 1 5 20 63 146 255 174 29 255 255 129 53 16 4 1 0 0 0 1 2 6 24 73 160 255 95 5 0 0 0 0 0 0 0 0 0 0 0 0 0 0 0 0 7 149 255 161 73 25 7 2 0 0 0 1 4 9 13 11 6 3 2 3
0 0 0 0 0 0 0 0 4 85 255 189 97 45 13 3 1 0 0 0 0 0 1 1 1 1 1 1 1 5 20 56 111 218 255 42 2 0 0 1 17 255 253 130 65 23 5 1 0 0 0 0 0 0 0 0 0 0 0 0 0 0 0 0 0 0 0 0 1 4 17 53 107 206 255 48 2 0 0 1 15 255 255 139 70 27 6 1 0 0 0 0 0 0 0 0 0 0 0 0 0 0 0 0 0 0 0 0 0 0 0 0 2 7 29 73 146 255 255 16 1 0 0 2 49 255 207 106 53 18 4 1 0 0 0 0 0 1 1 1 1 1 0 0 0 0 0 0 1 1 1 0 0 0 0 1 4 16 48 100 195 255 62 3 0 0 0 0 0 0 0 0 0 0 0 0 0 0 0 0 0 0 0 0 0 0 0 0 0 0 0 0 0 0 0 0 0 0 3 64 255 193 103 51 17 4 1 1 2 2 1 1 4 17 51 106 203 255 57 3 0 0 0 10 224 255 156 78 31 8 2 0 0 0 0 0 0 0 0 0 0 0 0 0 0 1 5 20 59 117 221 255 36 18 255 255 140 70 28 7 2 0 0 0 0 0 0 1 1 1 0 0 0 0 1 5 21 58 118 228 255 28 1 0 0 0 3 54 255 200 102 49 14 3 1 0 0 0 0 1 2 10 39 85 165 255 255 255 153 77 33 9 2 0 0 0 0 0 1 4 16 53 109 206 255 50 2 0 0 0 0 0 0 0 0 0 0 3 53 255 202 107 52 16 4 1 1 2 7 30 71 139 255 255 17 1 0 0 0 4 88 255 188 96 46 14 3 1 0 0 0 0 1 2 10 37 82 162 255 156 7 1 13 255 255 143 74 31 8 2 0 0 0 0 0 1 1 2 3 2 1 0 0 1 4 16 50 106 223 255 255 131 64 24 6 1 0 0 0 1 1 1 1 0 0 0 0 0 0 1 6 26 68 138 255 255 20 1 0 0 0 1 13 255 255 145 73 28 7 1 0 0 0 0 0 0 1 1 1 0 0 0 0 1 4 16 52 109 214 255 255 255 146 76 33 9 4 5 10 14 13 8 3 1 0 0 0 0 0 0 1 2 2 1 1 0 0 1 2 10 38 88 175 255 109 5 0 0 0 3 67 255 190 100 49 16 4 1 0 0 0 0 0 2 7 29 71 142 255 255 16 14 255 255 146 72 30 8 2 0 0 0 0 0 1 1 3 3 3 2 1 2 9 33 77 152 255 255 255 245 124 61 21 5 1 0 1 2 3 3 3 1 1 0 0 0 0 1 3 12 44 94 183 255 255 255 162 84 36 9 2 0 0 0 0 0 1 3 15 51 104 200 255 44 2 0 0 0 0 0 0 0 0 0 0 0 0 0 0 3 69 255 195 101 49 16 4 1 0 0 0 0 1 3 4 3 2 1 1 1
0 0 0 0 0 0 0 2 45 255 219 116 64 31 8 2 0 0 0 0 0 0 0 0 0 0 0 0 1 3 12 39 72 136 255 255 18 1 0 7 141 255 156 82 45 15 3 1 0 0 0 0 0 0 0 0 0 0 0 0 0 0 0 0 0 0 0 0 0 2 10 37 70 128 243 255 22 1 0 6 127 255 162 87 48 17 4 1 0 0 0 0 0 0 0 0 0 0 0 0 0 0 0 0 0 0 0 0 0 0 0 0 1 4 19 50 90 169 255 171 8 0 1 24 255 245 129 69 36 11 2 1 0 0 0 0 0 0 0 0 0 0 0 0 0 0 0 0 0 0 0 0 0 0 0 0 2 9 33 65 121 230 255 32 1 0 0 0 0 0 0 0 0 0 0 0 0 0 0 0 0 0 0 0 0 0 0 0 0 0 0 0 0 0 0 0 0 1 33 255 225 117 66 36 10 2 1 0 1 0 0 1 2 10 35 68 125 237 255 29 1 0 5 100 255 183 97 54 21 5 1 0 0 0 0 0 0 0 0 0 0 0 0 0 0 1 3 13 40 74 136 255 255 239 255 166 88 48 18 4 1 0 0 0 0 0 0 0 0 0 0 0 0 0 1 3 13 40 75 142 255 239 11 1 0 1 25 255 235 125 69 35 9 2 0 0 0 0 0 0 1 6 26 57 105 210 255 191 98 52 21 5 1 0 0 0 0 0 0 2 10 38 71 126 238 255 22 1 0 0 0 0 0 0 0 0 1 24 255 233 123 69 36 10 2 0 0 1 4 19 48 85 161 255 159 7 0 0 2 42 255 212 114 63 32 8 2 0 0 0 0 0 0 1 6 24 55 99 188 255 72 9 109 255 166 87 49 20 5 1 0 0 0 0 0 0 0 1 1 1 0 0 0 0 2 10 35 71 126 189 146 85 45 15 3 1 0 0 0 0 0 0 0 0 0 0 0 0 0 1 4 17 47 87 162 255 203 9 0 0 0 5 111 255 168 90 50 19 4 1 0 0 0 0 0 0 0 0 0 0 0 0 0 0 2 10 37 72 139 255 255 179 92 53 23 5 2 2 4 4 4 3 1 0 0 0 0 0 0 0 0 0 1 0 0 0 0 0 1 6 26 61 109 205 255 54 3 0 1 33 255 221 116 64 34 9 2 0 0 0 0 0 0 1 4 18 48 87 163 255 156 141 255 168 90 50 19 4 1 0 0 0 0 0 0 0 1 1 1 1 0 1 5 22 53 97 195 255 255 157 81 44 13 3 1 0 0 0 1 1 1 0 0 0 0 0 0 0 1 7 31 63 118 246 255 203 102 56 25 6 1 0 0 0 0 0 0 2 9 36 69 125 242 255 19 1 0 0 0 0 0 0 0 0 0 0 0 0 1 34 255 222 119 65 33 9 2 0 0 0 0 0 0 1 1 1 1 0 0 0
0 0 0 0 0 0 1 23 255 255 132 71 43 21 5 1 0 0 0 0 0 0 0 0 0 0 0 0 0 1 7 26 49 82 154 255 149 7 3 61 255 182 95 54 31 9 2 0 0 0 0 0 0 0 0 0 0 0 0 0 0 0 0 0 0 0 0 0 0 1 6 25 47 78 149 255 207 10 3 61 255 191 98 56 33 10 2 0 0 0 0 0 0 0 0 0 0 0 0 0 0 0 0 0 0 0 0 0 0 0 0 0 0 2 12 34 57 100 192 255 82 4 10 222 255 149 79 46 24 6 1 0 0 0 0 0 0 0 0 0 0 0 0 0 0 0 0 0 0 0 0 0 0 0 0 0 1 5 21 44 74 141 255 255 15 1 0 0 0 0 0 0 0 0 0 0 0 0 0 0 0 0 0 0 0 0 0 0 0 0 0 0 0 0 0 0 1 14 255 255 140 72 43 24 6 1 0 0 0 0 0 0 1 6 24 45 76 145 255 255 13 3 49 255 208 109 62 38 13 3 1 0 0 0 0 0 0 0 0 0 0 0 0 0 0 0 1 7 26 48 83 167 255 255 204 101 57 33 11 2 0 0 0 0 0 0 0 0 0 0 0 0 0 0 0 2 7 27 50 87 168 255 97 5 1 9 197 255 144 77 48 25 5 1 0 0 0 0 0 0 1 4 16 39 66 109 141 102 62 36 13 3 1 0 0 0 0 0 0 1 6 26 47 77 146 255 206 9 0 0 0 0 0 0 0 0 9 192 255 144 75 45 24 6 1 0 0 0 2 11 33 55 96 186 255 71 3 1 18 255 249 128 70 43 21 5 1 0 0 0 0 0 0 1 3 15 37 62 114 222 255 140 255 197 101 55 32 12 3 1 0 0 0 0 0 0 0 0 0 0 0 0 0 0 1 6 24 48 66 82 71 53 32 9 2 0 0 0 0 0 0 0 0 0 0 0 0 0 0 0 2 10 33 56 97 186 255 92 4 0 3 54 255 196 101 58 35 11 2 0 0 0 0 0 0 0 0 0 0 0 0 0 0 0 1 6 25 50 87 144 162 103 60 37 14 3 1 1 1 1 1 1 0 0 0 0 0 0 0 0 0 0 0 0 0 0 0 0 1 4 17 42 69 125 237 255 25 2 15 255 255 137 72 43 22 5 1 0 0 0 0 0 0 0 2 11 32 55 99 197 255 255 205 102 57 34 11 2 0 0 0 0 0 0 0 0 0 0 0 0 0 1 3 13 37 64 117 200 179 99 56 31 8 2 0 0 0 0 0 0 0 0 0 0 0 0 0 0 1 4 20 44 75 127 164 112 65 38 15 3 1 0 0 0 0 0 0 1 6 25 47 78 149 255 158 8 0 0 0 0 0 0 0 0 0 0 0 1 15 255 255 135 72 43 22 5 1 0 0 0 0 0 0 0 0 0 0 0 0 0
0 0 0 0 0 0 10 217 255 159 82 47 29 12 3 1 0 0 0 0 0 0 0 0 0 0 0 0 0 1 4 16 34 53 96 186 255 70 33 255 225 116 62 38 20 5 1 0 0 0 0 0 0 0 0 0 0 0 0 0 0 0 0 0 0 0 0 0 0 1 3 15 33 52 93 184 255 102 39 255 236 121 63 38 21 6 1 0 0 0 0 0 0 0 0 0 0 0 0 0 0 0 0 0 0 0 0 0 0 0 0 0 0 1 6 22 38 63 118 227 255 52 103 255 181 93 51 32 14 3 1 0 0 0 0 0 0 0 0 0 0 0 0 0 0 0 0 0 0 0 0 0 0 0 0 0 1 3 12 30 49 88 172 255 149 7 0 0 0 0 0 0 0 0 0 0 0 0 0 0 0 0 0 0 0 0 0 0 0 0 0 0 0 0 0 0 6 124 255 169 87 48 29 14 3 1 0 0 0 0 0 0 1 3 14 30 50 90 174 255 122 32 255 249 130 69 42 25 7 2 0 0 0 0 0 0 0 0 0 0 0 0 0 0 0 0 1 4 15 33 56 108 199 220 126 66 39 21 6 1 0 0 0 0 0 0 0 0 0 0 0 0 0 0 0 1 4 17 34 57 106 205 255 47 6 86 255 175 90 51 34 15 3 1 0 0 0 0 0 0 0 2 9 26 42 54 61 52 40 24 7 2 0 0 0 0 0 0 0 1 4 16 32 51 92 183 255 93 4 0 0 0 0 0 0 4 79 255 177 90 49 30 14 3 1 0 0 0 1 6 21 37 62 117 223 255 35 9 158 255 156 80 46 29 13 3 1 0 0 0 0 0 0 0 2 8 24 41 72 143 255 255 255 128 65 37 20 6 1 0 0 0 0 0 0 0 0 0 0 0 0 0 0 0 1 3 14 31 33 35 33 32 20 5 1 0 0 0 0 0 0 0 0 0 0 0 0 0 0 0 1 6 22 37 62 115 218 255 47 3 28 255 244 125 65 39 23 6 1 0 0 0 0 0 0 0 0 0 0 0 0 0 0 0 1 3 16 36 53 68 72 57 41 25 8 2 0 0 0 0 0 0 0 0 0 0 0 0 0 0 0 0 0 0 0 0 0 0 0 2 10 29 46 78 149 255 213 17 137 255 168 86 47 29 13 3 1 0 0 0 0 0 0 0 1 6 21 37 64 129 249 254 133 67 38 23 6 1 0 0 0 0 0 0 0 0 0 0 0 0 0 0 2 7 25 44 68 91 86 62 40 21 5 1 0 0 0 0 0 0 0 0 0 0 0 0 0 0 0 3 12 31 48 63 72 59 42 25 8 2 0 0 0 0 0 0 0 1 3 15 33 52 95 186 255 72 3 0 0 0 0 0 0 0 0 0 0 7 137 255 169 85 47 29 12 3 1 0 0 0 0 0 0 0 0 0 0 0 0 0
0 0 0 0 0 5 99 255 194 105 58 34 18 6 1 0 0 0 0 0 0 0 0 0 0 0 0 0 0 0 2 9 23 38 67 126 240 255 255 255 153 81 46 27 11 3 1 0 0 0 0 0 0 0 0 0 0 0 0 0 0 0 0 0 0 0 0 0 0 0 2 8 22 38 67 123 231 255 255 255 158 84 47 27 12 3 1 0 0 0 0 0 0 0 0 0 0 0 0 0 0 0 0 0 0 0 0 0 0 0 0 0 0 1 3 12 26 45 80 149 255 255 255 225 121 66 37 21 7 2 0 0 0 0 0 0 0 0 0 0 0 0 0 0 0 0 0 0 0 0 0 0 0 0 0 0 0 1 6 20 36 63 114 210 255 71 3 0 0 0 0 0 0 0 0 0 0 0 0 0 0 0 0 0 0 0 0 0 0 0 0 0 0 0 0 3 60 255 209 113 62 36 19 7 2 0 0 0 0 0 0 0 0 2 7 20 36 63 116 217 255 255 255 164 88 49 29 15 4 1 0 0 0 0 0 0 0 0 0 0 0 0 0 0 0 0 0 2 8 23 42 73 101 107 79 49 28 12 3 1 0 0 0 0 0 0 0 0 0 0 0 0 0 0 0 0 2 9 24 42 75 138 255 255 86 255 225 119 65 38 23 8 2 0 0 0 0 0 0 0 0 1 5 15 26 27 27 27 24 14 4 1 0 0 0 0 0 0 0 0 2 8 21 38 66 123 227 255 50 2 0 0 0 0 2 38 255 222 120 65 37 19 7 2 0 0 0 0 1 3 12 26 45 80 149 255 255 113 255 199 106 57 32 18 6 1 0 0 0 0 0 0 0 0 1 4 15 29 53 101 182 252 168 92 48 26 11 3 1 0 0 0 0 0 0 0 0 0 0 0 0 0 0 0 0 2 7 17 16 15 15 17 10 3 1 0 0 0 0 0 0 0 0 0 0 0 0 0 0 0 1 3 12 25 44 78 143 255 255 43 255 255 163 86 48 27 13 3 1 0 0 0 0 0 0 0 0 0 0 0 0 0 0 0 0 2 9 24 33 33 33 32 28 15 4 1 0 0 0 0 0 0 0 0 0 0 0 0 0 0 0 0 0 0 0 0 0 0 0 1 5 18 33 56 100 188 255 255 255 210 113 62 35 19 6 2 0 0 0 0 0 0 0 0 1 3 12 26 48 86 126 127 87 50 27 13 3 1 0 0 0 0 0 0 0 0 0 0 0 0 0 0 1 4 16 31 40 42 42 40 29 12 3 1 0 0 0 0 0 0 0 0 0 0 0 0 0 0 0 1 6 20 31 32 32 31 27 15 4 1 0 0 0 0 0 0 0 0 2 8 23 40 69 126 236 255 39 2 0 0 0 0 0 0 0 0 3 65 255 206 113 61 34 18 6 1 0 0 0 0 0 0 0 0 0 0 0 0 0 0
0 0 0 0 2 53 255 234 136 84 52 26 10 3 1 0 0 0 0 0 0 0 0 0 0 0 0 0 0 0 1 4 15 31 61 100 173 255 255 209 117 72 40 18 5 1 0 0 0 0 0 0 0 0 0 0 0 0 0 0 0 0 0 0 0 0 0 0 0 0 1 4 14 31 61 97 165 255 255 208 118 73 42 18 6 1 0 0 0 0 0 0 0 0 0 0 0 0 0 0 0 0 0 0 0 0 0 0 0 0 0 0 0 0 2 6 17 39 68 111 193 255 255 162 95 59 30 13 4 1 0 0 0 0 0 0 0 0 0 0 0 0 0 0 0 0 0 0 0 0 0 0 0 0 0 0 0 1 3 11 28 56 89 145 247 255 36 2 0 0 0 0 0 0 0 0 0 0 0 0 0 0 0 0 0 0 0 0 0 0 0 0 0 0 1 31 255 255 147 90 55 29 11 3 1 0 0 0 0 0 0 0 0 1 3 11 29 56 92 157 255 255 220 122 74 44 21 8 2 0 0 0 0 0 0 0 0 0 0 0 0 0 0 0 0 0 0 1 4 15 37 55 55 56 55 41 19 6 2 0 0 0 0 0 0 0 0 0 0 0 0 0 0 0 0 0 1 5 15 36 66 105 179 255 255 255 161 96 59 31 14 4 1 0 0 0 0 0 0 0 0 0 2 7 13 12 11 13 12 6 2 0 0 0 0 0 0 0 0 0 1 4 12 32 61 96 157 255 255 27 1 0 0 1 17 255 255 157 95 58 30 11 3 1 0 0 0 0 0 1 6 17 39 69 111 192 255 255 255 143 86 52 25 10 3 1 0 0 0 0 0 0 0 0 0 2 8 22 49 82 108 127 105 78 44 19 6 1 0 0 0 0 0 0 0 0 0 0 0 0 0 0 0 0 0 1 3 7 6 6 6 7 4 1 0 0 0 0 0 0 0 0 0 0 0 0 0 0 0 0 0 1 6 17 38 66 106 182 255 255 255 199 118 75 43 19 6 2 0 0 0 0 0 0 0 0 0 0 0 0 0 0 0 0 0 1 4 13 18 16 15 17 16 7 2 0 0 0 0 0 0 0 0 0 0 0 0 0 0 0 0 0 0 0 0 0 0 0 0 1 3 10 25 50 83 139 255 255 255 152 90 55 28 11 3 1 0 0 0 0 0 0 0 0 0 1 6 18 43 64 68 68 64 45 19 7 2 0 0 0 0 0 0 0 0 0 0 0 0 0 0 0 0 2 8 20 23 20 21 25 18 6 1 0 0 0 0 0 0 0 0 0 0 0 0 0 0 0 0 1 3 10 18 15 14 16 15 7 2 0 0 0 0 0 0 0 0 0 1 4 14 34 63 99 165 255 255 18 1 0 0 0 0 0 0 1 34 255 251 144 89 55 26 10 3 1 0 0 0 0 0 0 0 0 0 0 0 0 0 0
0 0 0 1 30 255 255 168 117 97 68 22 5 1 0 0 0 0 0 0 0 0 0 0 0 0 0 0 0 0 0 2 8 29 88 110 139 192 211 153 118 99 46 12 3 1 0 0 0 0 0 0 0 0 0 0 0 0 0 0 0 0 0 0 0 0 0 0 0 0 0 2 8 30 86 108 132 176 196 147 115 97 51 13 3 1 0 0 0 0 0 0 0 0 0 0 0 0 0 0 0 0 0 0 0 0 0 0 0 0 0 0 0 0 1 3 11 43 89 109 140 186 173 132 106 81 27 7 2 0 0 0 0 0 0 0 0 0 0 0 0 0 0 0 0 0 0 0 0 0 0 0 0 0 0 0 0 0 2 6 24 74 101 120 176 255 255 17 1 0 0 0 0 0 0 0 0 0 0 0 0 0 0 0 0 0 0 0 0 0 0 0 0 1 15 255 255 182 123 102 69 27 6 2 0 0 0 0 0 0 0 0 0 0 2 6 26 75 106 130 174 200 151 117 97 54 14 4 1 0 0 0 0 0 0 0 0 0 0 0 0 0 0 0 0 0 0 0 2 9 34 49 36 34 46 39 13 3 1 0 0 0 0 0 0 0 0 0 0 0 0 0 0 0 0 0 1 2 10 37 91 110 146 230 255 203 135 109 87 30 8 2 0 0 0 0 0 0 0 0 0 0 1 3 5 5 4 5 5 2 1 0 0 0 0 0 0 0 0 0 0 2 7 33 85 104 127 192 255 255 13 1 0 7 151 255 195 129 106 79 29 7 2 0 0 0 0 0 0 1 3 11 43 90 111 152 242 255 184 126 103 72 20 5 1 0 0 0 0 0 0 0 0 0 0 1 4 17 65 92 77 73 80 94 54 14 3 1 0 0 0 0 0 0 0 0 0 0 0 0 0 0 0 0 0 0 1 2 2 2 2 2 1 0 0 0 0 0 0 0 0 0 0 0 0 0 0 0 0 0 0 1 3 11 42 86 107 142 229 255 255 153 112 97 55 13 3 1 0 0 0 0 0 0 0 0 0 0 0 0 0 0 0 0 0 0 2 5 8 7 6 7 7 3 1 0 0 0 0 0 0 0 0 0 0 0 0 0 0 0 0 0 0 0 0 0 0 0 0 0 1 5 20 68 103 125 170 223 178 129 105 73 25 6 1 0 0 0 0 0 0 0 0 0 0 1 3 12 49 60 44 43 59 53 13 3 1 0 0 0 0 0 0 0 0 0 0 0 0 0 0 0 0 1 4 10 11 9 10 13 9 3 1 0 0 0 0 0 0 0 0 0 0 0 0 0 0 0 0 0 1 4 8 6 6 6 6 3 1 0 0 0 0 0 0 0 0 0 0 2 9 35 88 109 131 198 255 205 9 0 0 0 0 0 1 17 255 255 180 122 100 75 23 6 1 0 0 0 0 0 0 0 0 0 0 0 0 0 0 0
0 0 1 14 255 255 212 158 172 243 243 30 4 1 0 0 0 0 0 0 0 0 0 0 0 0 0 0 0 0 0 1 6 52 255 232 159 133 133 147 208 255 120 12 2 0 0 0 0 0 0 0 0 0 0 0 0 0 0 0 0 0 0 0 0 0 0 0 0 0 0 1 6 54 255 232 158 125 125 140 198 255 157 15 2 0 0 0 0 0 0 0 0 0 0 0 0 0 0 0 0 0 0 0 0 0 0 0 0 0 0 0 0 0 0 2 11 109 255 203 140 121 123 158 234 255 42 5 1 0 0 0 0 0 0 0 0 0 0 0 0 0 0 0 0 0 0 0 0 0 0 0 0 0 0 0 0 0 1 4 35 245 234 165 159 221 255 195 8 0 0 0 0 0 0 0 0 0 0 0 0 0 0 0 0 0 0 0 0 0 0 0 0 7 164 255 227 163 168 236 214 38 5 1 0 0 0 0 0 0 0 0 0 0 1 5 40 255 240 162 127 126 137 193 255 180 17 2 0 0 0 0 0 0 0 0 0 0 0 0 0 0 0 0 0 0 0 0 1 7 37 63 30 27 54 47 9 2 0 0 0 0 0 0 0 0 0 0 0 0 0 0 0 0 0 0 0 1 8 70 255 218 165 160 174 157 170 240 255 53 6 1 0 0 0 0 0 0 0 0 0 0 0 1 2 2 1 2 1 1 0 0 0 0 0 0 0 0 0 0 0 1 7 64 255 223 164 165 231 255 131 6 4 73 255 242 170 166 228 253 50 6 1 0 0 0 0 0 0 0 2 11 98 255 207 161 160 169 155 176 246 255 31 4 1 0 0 0 0 0 0 0 0 0 0 0 3 23 217 213 97 64 110 223 150 16 2 0 0 0 0 0 0 0 0 0 0 0 0 0 0 0 0 0 0 0 0 1 1 1 1 1 0 0 0 0 0 0 0 0 0 0 0 0 0 0 0 0 0 0 0 0 2 10 99 255 210 160 168 199 175 161 194 255 185 17 2 0 0 0 0 0 0 0 0 0 0 0 0 0 0 0 0 0 0 0 1 2 3 2 2 3 2 1 0 0 0 0 0 0 0 0 0 0 0 0 0 0 0 0 0 0 0 0 0 0 0 0 0 0 1 3 28 252 255 181 138 135 135 169 240 238 37 5 1 0 0 0 0 0 0 0 0 0 0 0 2 12 100 99 41 40 97 121 14 2 0 0 0 0 0 0 0 0 0 0 0 0 0 0 0 0 0 0 1 3 4 4 4 5 3 1 0 0 0 0 0 0 0 0 0 0 0 0 0 0 0 0 0 0 0 1 2 2 2 2 2 1 0 0 0 0 0 0 0 0 0 0 0 1 7 66 255 228 163 169 245 255 111 5 0 0 0 0 8 174 255 224 162 169 228 255 35 4 1 0 0 0 0 0 0 0 0 0 0 0 0 0 0 0
0 0 6 138 255 226 178 208 255 255 255 187 10 1 0 0 0 0 0 0 0 0 0 0 0 0 0 0 0 0 0 1 21 255 255 255 246 137 122 208 255 255 255 56 3 0 0 0 0 0 0 0 0 0 0 0 0 0 0 0 0 0 0 0 0 0 0 0 0 0 0 1 22 255 255 255 255 141 119 208 255 255 255 76 4 0 0 0 0 0 0 0 0 0 0 0 0 0 0 0 0 0 0 0 0 0 0 0 0 0 0 0 0 0 0 3 55 255 255 255 221 121 138 255 255 255 255 15 1 0 0 0 0 0 0 0 0 0 0 0 0 0 0 0 0 0 0 0 0 0 0 0 0 0 0 0 0 0 1 11 202 255 255 255 201 183 244 255 95 4 0 0 0 0 0 0 0 0 0 0 0 0 0 0 0 0 0 0 0 0 0 0 4 84 255 246 184 198 255 255 255 241 13 1 0 0 0 0 0 0 0 0 0 0 1 15 255 255 255 255 146 117 196 255 255 255 91 5 0 0 0 0 0 0 0 0 0 0 0 0 0 0 0 0 0 0 0 0 1 7 60 157 39 32 130 97 10 1 0 0 0 0 0 0 0 0 0 0 0 0 0 0 0 0 0 0 0 2 30 255 255 255 244 147 125 164 255 255 255 255 22 1 0 0 0 0 0 0 0 0 0 0 0 0 0 0 0 0 0 0 0 0 0 0 0 0 0 0 0 0 0 2 30 255 255 255 255 190 183 248 255 71 43 255 255 191 192 255 255 255 255 20 1 0 0 0 0 0 0 0 3 48 255 255 255 229 139 126 180 255 255 255 205 11 1 0 0 0 0 0 0 0 0 0 0 0 7 121 255 255 255 165 255 255 255 75 4 0 0 0 0 0 0 0 0 0 0 0 0 0 0 0 0 0 0 0 0 0 0 0 0 0 0 0 0 0 0 0 0 0 0 0 0 0 0 0 0 0 0 0 0 0 3 48 255 255 255 245 157 132 147 229 255 255 255 91 5 0 0 0 0 0 0 0 0 0 0 0 0 0 0 0 0 0 0 0 0 1 1 1 1 1 1 0 0 0 0 0 0 0 0 0 0 0 0 0 0 0 0 0 0 0 0 0 0 0 0 0 0 0 1 9 165 255 255 255 170 116 156 255 255 255 234 13 1 0 0 0 0 0 0 0 0 0 0 0 3 41 255 255 101 100 255 255 51 3 0 0 0 0 0 0 0 0 0 0 0 0 0 0 0 0 0 0 0 1 1 1 1 1 1 0 0 0 0 0 0 0 0 0 0 0 0 0 0 0 0 0 0 0 0 0 1 1 1 1 1 0 0 0 0 0 0 0 0 0 0 0 0 2 28 255 255 255 255 189 190 255 255 62 3 0 0 4 85 255 242 182 199 255 255 255 231 12 1 0 0 0 0 0 0 0 0 0 0 0 0 0 0 0
0 3 62 255 202 139 143 202 227 220 231 255 80 4 0 0 0 0 0 0 0 0 0 0 0 0 0 0 0 0 0 8 175 255 216 210 212 165 144 204 211 214 248 255 26 1 0 0 0 0 0 0 0 0 0 0 0 0 0 0 0 0 0 0 0 0 0 0 0 0 0 9 184 255 220 213 219 181 154 213 217 217 240 255 37 2 0 0 0 0 0 0 0 0 0 0 0 0 0 0 0 0 0 0 0 0 0 0 0 0 0 0 0 0 1 26 255 255 223 221 220 165 182 218 213 221 255 123 6 0 0 0 0 0 0 0 0 0 0 0 0 0 0 0 0 0 0 0 0 0 0 0 0 0 0 0 0 0 4 89 255 228 220 228 198 141 147 221 255 48 2 0 0 0 0 0 0 0 0 0 0 0 0 0 0 0 0 0 0 0 0 2 43 255 228 148 139 192 224 220 238 255 111 5 0 0 0 0 0 0 0 0 0 0 6 119 255 228 214 218 184 151 210 218 216 236 255 43 2 0 0 0 0 0 0 0 0 0 0 0 0 0 0 0 0 0 0 0 1 19 255 255 157 117 255 255 35 2 0 0 0 0 0 0 0 0 0 0 0 0 0 0 0 0 0 0 1 12 242 255 221 214 206 142 106 164 212 211 218 255 165 8 0 0 0 0 0 0 0 0 0 0 0 0 0 0 0 0 0 0 0 0 0 0 0 0 0 0 0 0 1 12 243 255 225 219 224 185 136 150 237 255 255 255 161 137 181 221 218 230 255 171 8 0 0 0 0 0 0 1 23 255 255 224 218 204 134 110 179 216 214 225 255 90 4 0 0 0 0 0 0 0 0 0 0 3 58 255 231 234 255 255 255 233 245 255 39 2 0 0 0 0 0 0 0 0 0 0 0 0 0 0 0 0 0 0 0 0 0 0 0 0 0 0 0 0 0 0 0 0 0 0 0 0 0 0 0 0 0 0 0 1 21 255 255 226 221 213 147 97 131 206 221 218 234 255 43 2 0 0 0 0 0 0 0 0 0 0 0 0 0 0 0 0 0 0 0 0 0 0 0 0 0 0 0 0 0 0 0 0 0 0 0 0 0 0 0 0 0 0 0 0 0 0 0 0 0 0 0 0 4 69 255 225 211 214 190 133 181 216 215 231 255 108 5 0 0 0 0 0 0 0 0 0 0 1 16 255 255 255 255 255 255 255 255 21 1 0 0 0 0 0 0 0 0 0 0 0 0 0 0 0 0 0 0 0 0 0 0 0 0 0 0 0 0 0 0 0 0 0 0 0 0 0 0 0 0 0 0 0 0 0 0 0 0 0 0 0 0 0 0 0 0 0 0 0 0 0 1 11 226 255 221 215 221 181 136 156 243 255 31 1 2 44 255 224 147 140 193 226 220 228 255 106 5 0 0 0 0 0 0 0 0 0 0 0 0 0 0 0
1 29 255 203 107 77 96 127 121 112 126 195 255 37 2 0 0 0 0 0 0 0 0 0 0 0 0 0 0 0 4 75 255 171 116 109 125 148 147 131 112 111 143 255 192 10 0 0 0 0 0 0 0 0 0 0 0 0 0 0 0 0 0 0 0 0 0 0 0 0 4 76 255 170 117 111 128 160 164 139 116 111 136 241 255 15 1 0 0 0 0 0 0 0 0 0 0 0 0 0 0 0 0 0 0 0 0 0 0 0 0 0 0 0 10 214 255 146 114 117 140 170 164 128 111 120 182 255 58 3 0 0 0 0 0 0 0 0 0 0 0 0 0 0 0 0 0 0 0 0 0 0 0 0 0 0 0 2 44 255 194 125 113 123 127 93 80 117 225 255 23 1 0 0 0 0 0 0 0 0 0 0 0 0 0 0 0 0 0 0 1 19 255 232 121 80 90 124 122 114 128 192 255 53 3 0 0 0 0 0 0 0 0 3 54 255 183 122 111 126 157 163 142 117 109 132 227 255 17 1 0 0 0 0 0 0 0 0 0 0 0 0 0 0 0 0 0 0 6 118 255 233 255 255 248 243 222 12 1 0 0 0 0 0 0 0 0 0 0 0 0 0 0 0 0 0 5 102 255 161 116 111 119 111 91 120 118 108 115 167 255 66 3 0 0 0 0 0 0 0 0 0 0 0 0 0 0 0 0 0 0 0 0 0 0 0 0 0 0 0 5 92 255 160 117 113 123 123 89 82 132 255 255 153 87 87 119 122 113 122 173 255 70 4 0 0 0 0 0 10 213 255 151 115 113 121 110 96 123 117 109 123 193 255 43 2 0 0 0 0 0 0 0 0 1 29 255 216 133 126 166 207 159 127 143 245 255 18 1 0 0 0 0 0 0 0 0 0 0 0 0 0 0 0 0 0 0 0 0 0 0 0 0 0 0 0 0 0 0 0 0 0 0 0 0 0 0 0 0 0 0 8 174 255 148 115 114 122 109 75 99 122 115 110 132 228 255 18 1 0 0 0 0 0 0 0 0 0 0 0 0 0 0 0 0 0 0 0 0 0 0 0 0 0 0 0 0 0 0 0 0 0 0 0 0 0 0 0 0 0 0 0 0 0 0 0 0 0 0 1 30 255 197 123 107 117 140 144 144 122 111 125 191 255 52 2 0 0 0 0 0 0 0 0 0 6 133 255 166 174 255 255 171 158 255 176 8 0 0 0 0 0 0 0 0 0 0 0 0 0 0 0 0 0 0 0 0 0 0 0 0 0 0 0 0 0 0 0 0 0 0 0 0 0 0 0 0 0 0 0 0 0 0 0 0 0 0 0 0 0 0 0 0 0 0 0 0 0 4 87 255 162 116 112 123 120 85 82 129 255 255 15 22 255 232 120 80 92 124 122 113 125 192 255 51 2 0 0 0 0 0 0 0 0 0 0 0 0 0 0
12 235 254 112 53 40 54 63 55 51 61 108 232 255 15 1 0 0 0 0 0 0 0 0 0 0 0 0 0 2 35 255 190 92 56 51 65 102 112 73 53 52 73 144 255 75 4 0 0 0 0 0 0 0 0 0 0 0 0 0 0 0 0 0 0 0 0 0 0 2 35 255 186 91 56 52 67 106 121 78 55 51 69 134 255 115 6 0 0 0 0 0 0 0 0 0 0 0 0 0 0 0 0 0 0 0 0 0 0 0 0 0 0 4 89 255 146 74 53 55 77 120 107 67 52 59 100 208 255 28 1 0 0 0 0 0 0 0 0 0 0 0 0 0 0 0 0 0 0 0 0 0 0 0 0 0 1 20 255 227 108 62 52 57 65 52 40 57 125 255 190 9 0 0 0 0 0 0 0 0 0 0 0 0 0 0 0 0 0 0 7 152 255 126 59 41 51 63 57 52 62 104 213 255 25 1 0 0 0 0 0 0 1 26 255 209 99 59 52 65 102 122 81 56 50 66 127 255 128 6 0 0 0 0 0 0 0 0 0 0 0 0 0 0 0 0 0 3 52 255 175 152 225 241 153 155 255 84 4 0 0 0 0 0 0 0 0 0 0 0 0 0 0 0 0 2 48 255 177 86 55 51 58 72 72 71 56 49 55 90 187 255 29 1 0 0 0 0 0 0 0 0 0 0 0 0 0 0 0 0 0 0 0 0 0 0 0 0 0 2 41 255 171 83 55 51 58 65 50 42 66 125 138 76 45 48 62 57 51 58 92 187 255 31 1 0 0 0 4 85 255 154 77 53 52 61 76 75 69 55 49 60 106 226 255 20 1 0 0 0 0 0 0 1 12 255 255 122 68 61 77 91 75 61 74 136 255 157 7 0 0 0 0 0 0 0 0 0 0 0 0 0 0 0 0 0 0 0 0 0 0 0 0 0 0 0 0 0 0 0 0 0 0 0 0 0 0 0 0 0 4 74 255 154 76 53 51 59 66 54 63 60 52 50 66 127 255 138 7 0 0 0 0 0 0 0 0 0 0 0 0 0 0 0 0 0 0 0 0 0 0 0 0 0 0 0 0 0 0 0 0 0 0 0 0 0 0 0 0 0 0 0 0 0 0 0 0 0 1 11 217 242 110 61 49 57 84 117 91 61 51 61 104 215 255 24 1 0 0 0 0 0 0 0 3 61 255 167 92 89 119 119 87 88 157 255 76 4 0 0 0 0 0 0 0 0 0 0 0 0 0 0 0 0 0 0 0 0 0 0 0 0 0 0 0 0 0 0 0 0 0 0 0 0 0 0 0 0 0 0 0 0 0 0 0 0 0 0 0 0 0 0 0 0 0 0 0 2 38 255 174 86 55 51 58 63 47 40 63 141 255 150 210 255 128 59 41 51 63 56 51 61 104 216 255 23 1 0 0 0 0 0 0 0 0 0 0 0 0 0
119 255 145 59 26 19 26 28 23 21 29 57 136 255 119 6 0 0 0 0 0 0 0 0 0 0 0 0 1 14 255 247 110 47 26 23 33 61 71 39 24 23 36 80 187 255 36 2 0 0 0 0 0 0 0 0 0 0 0 0 0 0 0 0 0 0 0 0 1 13 255 244 108 46 26 23 33 61 73 42 25 22 34 73 168 255 52 3 0 0 0 0 0 0 0 0 0 0 0 0 0 0 0 0 0 0 0 0 0 0 0 0 2 45 255 188 81 36 23 25 40 69 61 34 23 28 52 121 255 242 11 1 0 0 0 0 0 0 0 0 0 0 0 0 0 0 0 0 0 0 0 0 0 0 0 0 8 169 255 132 57 29 22 24 29 25 19 28 66 155 255 79 4 0 0 0 0 0 0 0 0 0 0 0 0 0 0 0 0 3 71 255 163 67 29 19 25 28 24 22 28 53 124 255 190 9 0 0 0 0 0 0 11 237 255 123 52 27 23 32 59 75 44 26 22 32 69 163 255 58 3 0 0 0 0 0 0 0 0 0 0 0 0 0 0 0 1 22 255 215 111 89 106 109 85 97 182 255 39 2 0 0 0 0 0 0 0 0 0 0 0 0 0 0 1 20 255 224 102 44 25 22 27 42 52 38 25 21 25 46 111 255 213 11 0 0 0 0 0 0 0 0 0 0 0 0 0 0 0 0 0 0 0 0 0 0 0 0 1 17 255 229 100 42 24 21 24 29 25 20 30 48 52 33 21 24 28 24 22 26 47 109 253 255 13 1 0 2 39 255 186 84 38 23 22 29 47 53 36 24 21 28 56 133 255 161 8 0 0 0 0 0 0 5 102 255 150 65 34 27 32 36 32 28 37 73 168 255 70 3 0 0 0 0 0 0 0 0 0 0 0 0 0 0 0 0 0 0 0 0 0 0 0 0 0 0 0 0 0 0 0 0 0 0 0 0 0 0 0 2 36 255 197 87 38 23 21 26 36 37 36 27 22 21 32 69 163 255 61 3 0 0 0 0 0 0 0 0 0 0 0 0 0 0 0 0 0 0 0 0 0 0 0 0 0 0 0 0 0 0 0 0 0 0 0 0 0 0 0 0 0 0 0 0 0 0 0 0 4 87 255 139 58 29 21 27 48 78 54 30 23 28 54 124 255 190 9 0 0 0 0 0 0 1 31 255 213 97 49 41 48 48 40 47 90 198 255 37 2 0 0 0 0 0 0 0 0 0 0 0 0 0 0 0 0 0 0 0 0 0 0 0 0 0 0 0 0 0 0 0 0 0 0 0 0 0 0 0 0 0 0 0 0 0 0 0 0 0 0 0 0 0 0 0 0 0 1 14 255 232 102 44 25 21 25 29 23 19 31 76 184 255 255 166 68 29 20 25 28 24 22 28 54 125 255 211 10 0 0 0 0 0 0 0 0 0 0 0 0 0
255 207 89 33 13 9 11 11 9 9 13 31 82 182 255 55 3 0 0 0 0 0 0 0 0 0 0 0 6 129 255 151 64 25 12 10 16 35 42 21 11 10 18 47 120 255 255 16 1 0 0 0 0 0 0 0 0 0 0 0 0 0 0 0 0 0 0 0 5 107 255 149 63 24 12 10 16 33 40 22 11 10 17 41 105 231 255 26 1 0 0 0 0 0 0 0 0 0 0 0 0 0 0 0 0 0 0 0 0 0 0 1 22 255 250 118 46 18 10 11 20 36 32 16 10 13 28 71 162 255 104 5 0 0 0 0 0 0 0 0 0 0 0 0 0 0 0 0 0 0 0 0 0 0 0 4 72 255 175 78 31 14 9 9 11 11 9 14 36 93 205 255 38 2 0 0 0 0 0 0 0 0 0 0 0 0 0 0 2 38 255 220 101 38 14 9 10 11 9 9 13 28 72 164 255 78 4 0 0 0 0 5 101 255 166 73 28 13 10 16 32 42 23 11 9 16 39 102 226 255 30 1 0 0 0 0 0 0 0 0 0 0 0 0 0 0 9 200 255 136 70 50 48 47 46 61 119 252 255 18 1 0 0 0 0 0 0 0 0 0 0 0 0 0 8 167 255 137 59 23 11 9 12 23 34 20 11 8 11 25 66 155 255 85 4 0 0 0 0 0 0 0 0 0 0 0 0 0 0 0 0 0 0 0 0 0 0 0 7 144 255 144 59 22 11 8 10 12 11 9 12 17 18 13 9 10 11 9 8 11 25 65 157 255 115 6 1 16 255 249 115 47 19 10 9 14 27 35 18 10 9 13 30 78 173 255 67 3 0 0 0 0 2 48 255 191 89 36 16 11 12 13 12 12 18 41 102 216 255 34 2 0 0 0 0 0 0 0 0 0 0 0 0 0 0 0 0 0 0 0 0 0 0 0 0 0 0 0 0 0 0 0 0 0 0 0 0 0 1 15 255 255 123 50 19 10 8 11 18 22 18 12 8 9 16 39 101 219 255 29 1 0 0 0 0 0 0 0 0 0 0 0 0 0 0 0 0 0 0 0 0 0 0 0 0 0 0 0 0 0 0 0 0 0 0 0 0 0 0 0 0 0 0 0 0 0 0 2 44 255 197 87 32 14 9 12 27 49 31 14 10 13 29 73 167 255 80 4 0 0 0 0 1 14 255 255 133 57 27 18 18 18 18 25 53 123 255 255 16 1 0 0 0 0 0 0 0 0 0 0 0 0 0 0 0 0 0 0 0 0 0 0 0 0 0 0 0 0 0 0 0 0 0 0 0 0 0 0 0 0 0 0 0 0 0 0 0 0 0 0 0 0 0 0 0 0 6 116 255 144 60 23 11 8 9 11 10 9 16 44 114 238 222 103 38 14 9 11 11 9 9 13 29 73 170 255 92 4 0 0 0 0 0 0 0 0 0 0 0 0
255 139 60 20 6 4 4 4 3 3 6 18 54 121 242 255 29 1 0 0 0 0 0 0 0 0 0 3 63 255 203 100 41 14 5 4 8 19 23 10 5 4 9 30 80 168 255 160 7 0 0 0 0 0 0 0 0 0 0 0 0 0 0 0 0 0 0 2 53 255 203 99 41 13 5 4 7 17 20 10 5 4 8 25 70 153 255 255 12 1 0 0 0 0 0 0 0 0 0 0 0 0 0 0 0 0 0 0 0 0 0 10 235 255 160 77 29 9 4 5 9 17 15 7 4 6 15 45 105 210 255 52 2 0 0 0 0 0 0 0 0 0 0 0 0 0 0 0 0 0 0 0 0 0 2 34 255 222 114 50 17 6 3 3 4 4 4 7 21 61 136 255 255 17 1 0 0 0 0 0 0 0 0 0 0 0 0 1 19 255 255 144 67 23 7 4 4 4 3 3 6 16 46 108 216 255 39 2 0 0 2 51 255 212 108 47 16 6 4 7 16 21 11 5 4 8 24 69 150 255 255 14 1 0 0 0 0 0 0 0 0 0 0 0 0 4 91 255 187 93 49 29 22 21 25 43 83 165 255 164 8 0 0 0 0 0 0 0 0 0 0 0 0 4 80 255 187 90 37 12 5 3 5 11 19 10 4 3 5 14 43 104 210 255 42 2 0 0 0 0 0 0 0 0 0 0 0 0 0 0 0 0 0 0 0 0 0 3 65 255 193 96 38 12 5 3 3 4 4 3 4 6 6 5 3 4 4 3 3 5 14 43 104 208 255 59 10 140 255 162 75 29 10 4 4 6 14 19 9 4 3 6 17 50 113 222 255 32 1 0 0 1 24 255 250 125 57 21 8 4 4 4 4 5 9 25 66 140 255 255 16 1 0 0 0 0 0 0 0 0 0 0 0 0 0 0 0 0 0 0 0 0 0 0 0 0 0 0 0 0 0 0 0 0 0 0 0 0 6 139 255 166 80 31 10 4 3 4 7 10 8 4 3 4 8 24 67 145 255 252 12 1 0 0 0 0 0 0 0 0 0 0 0 0 0 0 0 0 0 0 0 0 0 0 0 0 0 0 0 0 0 0 0 0 0 0 0 0 0 0 0 0 0 0 0 0 1 22 255 255 133 59 19 7 4 6 14 28 17 7 4 6 16 47 110 218 255 39 2 0 0 0 6 136 255 175 86 37 14 8 7 7 7 13 33 80 165 255 151 7 0 0 0 0 0 0 0 0 0 0 0 0 0 0 0 0 0 0 0 0 0 0 0 0 0 0 0 0 0 0 0 0 0 0 0 0 0 0 0 0 0 0 0 0 0 0 0 0 0 0 0 0 0 0 0 3 58 255 199 97 39 12 5 3 3 4 3 4 8 27 70 113 108 64 23 7 4 4 4 3 3 6 16 48 111 217 255 46 2 0 0 0 0 0 0 0 0 0 0 0
137 95 47 12 3 1 1 1 1 1 3 11 40 88 163 255 255 14 1 0 0 0 0 0 0 0 1 32 255 244 137 74 30 8 2 2 3 8 10 4 2 2 5 20 62 115 209 255 81 4 0 0 0 0 0 0 0 0 0 0 0 0 0 0 0 0 1 26 255 252 139 74 29 7 2 2 3 7 8 4 2 2 4 16 54 106 192 255 131 6 0 0 0 0 0 0 0 0 0 0 0 0 0 0 0 0 0 0 0 0 5 110 255 198 109 58 19 5 2 2 4 6 6 3 2 3 9 33 77 141 254 255 25 1 0 0 0 0 0 0 0 0 0 0 0 0 0 0 0 0 0 0 0 1 15 255 255 149 81 37 10 3 1 1 1 1 1 3 13 46 95 173 255 156 7 0 0 0 0 0 0 0 0 0 0 0 0 9 190 255 179 99 50 15 4 1 1 1 1 1 3 9 33 79 147 255 255 17 1 1 26 255 255 141 77 34 9 3 2 3 7 9 5 2 2 4 16 53 104 187 255 147 7 0 0 0 0 0 0 0 0 0 0 0 2 47 255 227 128 73 39 17 10 9 14 33 67 114 200 255 72 4 0 0 0 0 0 0 0 0 0 0 2 44 255 235 128 68 26 7 2 1 2 5 8 4 2 1 2 8 32 78 144 255 255 21 1 0 0 0 0 0 0 0 0 0 0 0 0 0 0 0 0 0 0 0 1 32 255 236 131 72 27 7 2 1 1 1 1 1 1 2 2 1 1 1 1 1 1 2 8 31 77 139 253 255 151 255 202 112 57 19 5 2 1 2 6 8 4 2 1 3 10 36 81 150 255 255 13 1 0 11 247 255 167 89 42 13 4 2 1 1 1 2 4 16 49 98 180 255 147 7 0 0 0 0 0 0 0 0 0 0 0 0 0 0 0 0 0 0 0 0 0 0 0 0 0 0 0 0 0 0 0 0 0 0 0 3 72 255 210 114 60 21 5 2 1 1 3 3 3 2 1 1 4 15 51 101 183 255 116 5 0 0 0 0 0 0 0 0 0 0 0 0 0 0 0 0 0 0 0 0 0 0 0 0 0 0 0 0 0 0 0 0 0 0 0 0 0 0 0 0 0 0 0 0 9 196 255 172 95 46 12 3 2 2 6 13 8 3 2 3 9 34 80 147 255 255 17 1 0 3 68 255 214 117 64 25 8 3 2 2 3 7 22 60 113 208 255 73 3 0 0 0 0 0 0 0 0 0 0 0 0 0 0 0 0 0 0 0 0 0 0 0 0 0 0 0 0 0 0 0 0 0 0 0 0 0 0 0 0 0 0 0 0 0 0 0 0 0 0 0 0 0 1 30 255 250 137 74 28 7 2 1 1 1 1 2 4 16 43 54 53 40 14 4 1 1 1 1 1 3 9 35 80 144 255 255 22 1 0 0 0 0 0 0 0 0 0 0
70 67 41 8 2 1 0 0 0 0 2 7 33 74 112 190 255 151 7 0 0 0 0 0 0 1 15 255 255 159 97 64 23 5 1 1 1 3 3 2 1 1 3 15 55 88 137 240 255 46 2 0 0 0 0 0 0 0 0 0 0 0 0 0 0 0 11 255 255 165 100 66 23 5 1 1 1 2 3 1 1 1 2 11 49 83 127 220 255 68 3 0 0 0 0 0 0 0 0 0 0 0 0 0 0 0 0 0 0 3 57 255 224 130 83 50 13 3 1 1 1 2 2 1 1 1 5 26 65 99 165 255 232 11 0 0 0 0 0 0 0 0 0 0 0 0 0 0 0 0 0 0 0 7 150 255 179 104 68 30 6 1 0 0 0 0 1 2 8 40 76 118 206 255 76 4 0 0 0 0 0 0 0 0 0 0 4 84 255 200 118 78 43 10 2 1 0 0 0 0 1 6 27 68 104 175 255 164 8 12 255 255 167 100 65 26 6 1 1 1 2 3 2 1 1 2 11 48 82 124 216 255 77 4 0 0 0 0 0 0 0 0 0 1 24 255 255 149 95 72 35 10 4 4 8 28 67 89 133 230 255 36 2 0 0 0 0 0 0 0 0 1 22 255 255 155 95 61 19 4 1 0 1 1 2 1 1 0 1 5 25 69 104 175 255 216 10 0 0 0 0 0 0 0 0 0 0 0 0 0 0 0 0 0 0 1 14 255 255 156 95 63 20 4 1 0 0 0 0 0 0 0 0 0 0 0 0 0 0 1 5 24 66 100 167 255 255 255 138 86 52 13 3 1 0 1 2 2 1 1 1 1 6 29 69 106 180 255 110 6 5 107 255 194 114 74 36 8 2 1 0 0 0 1 2 10 42 78 121 205 255 67 3 0 0 0 0 0 0 0 0 0 0 0 0 0 0 0 0 0 0 0 0 0 0 0 0 0 0 0 0 0 0 0 0 0 2 40 255 245 140 87 53 14 3 1 0 0 1 1 1 0 0 1 2 10 45 80 124 218 255 60 3 0 0 0 0 0 0 0 0 0 0 0 0 0 0 0 0 0 0 0 0 0 0 0 0 0 0 0 0 0 0 0 0 0 0 0 0 0 0 0 0 0 0 4 84 255 195 116 78 40 8 2 1 1 2 5 3 1 1 1 6 28 68 103 173 255 142 7 2 35 255 243 140 88 56 18 4 1 1 1 1 4 16 54 87 138 238 255 36 2 0 0 0 0 0 0 0 0 0 0 0 0 0 0 0 0 0 0 0 0 0 0 0 0 0 0 0 0 0 0 0 0 0 0 0 0 0 0 0 0 0 0 0 0 0 0 0 0 0 0 0 1 13 255 255 164 100 66 22 4 1 0 0 0 0 1 2 9 25 26 26 24 8 2 1 0 0 0 0 1 6 28 66 101 169 255 194 9 0 0 0 0 0 0 0 0 0 0
38 50 37 6 1 0 0 0 0 0 1 5 30 76 85 122 211 255 73 3 0 0 0 0 0 7 163 255 181 106 79 68 19 3 1 0 0 1 1 0 0 0 2 12 59 78 95 152 255 255 24 1 0 0 0 0 0 0 0 0 0 0 0 0 0 5 117 255 188 110 82 71 19 3 1 0 0 1 1 0 0 0 1 9 53 76 90 139 244 255 37 2 0 0 0 0 0 0 0 0 0 0 0 0 0 0 0 0 1 31 255 252 142 91 75 51 10 2 0 0 0 1 0 0 0 1 4 21 68 80 109 187 255 104 5 0 0 0 0 0 0 0 0 0 0 0 0 0 0 0 0 0 3 74 255 207 118 83 69 26 4 1 0 0 0 0 0 1 6 40 72 88 133 234 255 40 2 0 0 0 0 0 0 0 0 2 43 255 223 127 85 72 41 7 1 0 0 0 0 0 1 4 23 71 83 116 201 255 97 141 255 188 110 80 67 21 4 1 0 0 1 1 0 0 0 1 9 50 75 89 137 241 255 43 2 0 0 0 0 0 0 0 0 10 216 255 167 101 84 96 37 7 2 2 5 27 90 83 94 149 255 255 16 1 0 0 0 0 0 0 0 10 233 255 170 104 81 69 15 3 0 0 0 0 1 0 0 0 1 3 21 74 85 115 195 255 97 5 0 0 0 0 0 0 0 0 0 0 0 0 0 0 0 0 0 7 142 255 180 106 80 67 16 3 1 0 0 0 0 0 0 0 0 0 0 0 0 0 0 1 3 20 68 82 114 187 245 162 100 77 58 11 2 0 0 0 1 1 0 0 0 1 4 24 71 83 119 206 255 58 58 255 214 124 86 74 34 6 1 0 0 0 0 0 1 8 41 74 87 132 232 255 33 1 0 0 0 0 0 0 0 0 0 0 0 0 0 0 0 0 0 0 0 0 0 0 0 0 0 0 0 0 0 0 0 1 19 255 255 155 97 78 58 11 2 0 0 0 0 0 0 0 0 0 1 8 46 76 91 141 247 255 31 1 0 0 0 0 0 0 0 0 0 0 0 0 0 0 0 0 0 0 0 0 0 0 0 0 0 0 0 0 0 0 0 0 0 0 0 0 0 0 0 0 2 41 255 220 126 86 75 40 6 1 0 0 1 1 1 0 0 1 4 24 69 82 114 197 255 67 21 255 255 153 96 77 61 14 3 1 0 0 1 2 12 61 78 95 151 255 255 15 1 0 0 0 0 0 0 0 0 0 0 0 0 0 0 0 0 0 0 0 0 0 0 0 0 0 0 0 0 0 0 0 0 0 0 0 0 0 0 0 0 0 0 0 0 0 0 0 0 0 0 6 118 255 182 109 83 73 18 3 1 0 0 0 0 0 1 4 12 12 12 11 4 1 0 0 0 0 0 1 4 24 66 80 111 190 255 84 4 0 0 0 0 0 0 0 0 0
22 39 33 5 1 0 0 0 0 0 1 4 31 102 78 83 131 231 255 37 2 0 0 0 4 79 255 204 114 78 80 98 19 3 0 0 0 0 0 0 0 0 2 12 86 89 75 97 166 255 255 12 0 0 0 0 0 0 0 0 0 0 0 0 3 60 255 212 119 81 83 106 20 3 0 0 0 0 0 0 0 0 1 10 80 89 74 91 151 255 255 19 1 0 0 0 0 0 0 0 0 0 0 0 0 0 0 1 15 255 255 157 92 73 87 69 10 1 0 0 0 0 0 0 0 0 3 21 97 78 79 119 214 255 53 2 0 0 0 0 0 0 0 0 0 0 0 0 0 0 0 2 37 255 232 131 84 79 95 26 4 1 0 0 0 0 0 1 6 50 89 77 90 147 255 255 18 1 0 0 0 0 0 0 1 22 255 255 141 85 71 85 46 7 1 0 0 0 0 0 0 3 23 100 80 83 128 240 255 255 218 119 79 79 95 20 3 0 0 0 0 0 0 0 0 1 9 68 90 75 90 149 255 255 21 1 0 0 0 0 0 0 5 95 255 184 106 79 102 188 63 7 1 1 5 39 181 112 79 98 170 255 149 7 0 0 0 0 0 0 5 111 255 190 107 77 86 117 17 2 0 0 0 0 0 0 0 0 0 3 21 107 85 82 122 217 255 50 2 0 0 0 0 0 0 0 0 0 0 0 0 0 0 0 3 66 255 203 115 80 84 95 16 2 0 0 0 0 0 0 0 0 0 0 0 0 0 0 0 0 3 19 92 83 80 98 113 93 81 90 96 12 1 0 0 0 0 0 0 0 0 1 3 24 103 80 84 132 250 255 255 253 135 84 76 99 40 5 1 0 0 0 0 0 1 7 51 91 74 88 147 255 255 14 1 0 0 0 0 0 0 0 0 0 0 0 0 0 0 0 0 0 0 0 0 0 0 0 0 0 0 0 0 0 0 8 170 255 169 99 76 91 93 12 1 0 0 0 0 0 0 0 0 0 1 8 60 93 77 93 154 255 255 14 1 0 0 0 0 0 0 0 0 0 0 0 0 0 0 0 0 0 0 0 0 0 0 0 0 0 0 0 0 0 0 0 0 0 0 0 0 0 0 1 18 255 255 140 85 76 93 47 6 1 0 0 0 0 0 0 0 0 3 24 93 79 82 127 232 255 255 255 174 99 74 87 97 14 2 0 0 0 0 2 13 106 92 75 97 168 255 137 7 0 0 0 0 0 0 0 0 0 0 0 0 0 0 0 0 0 0 0 0 0 0 0 0 0 0 0 0 0 0 0 0 0 0 0 0 0 0 0 0 0 0 0 0 0 0 0 0 0 3 55 255 202 114 79 85 109 19 2 0 0 0 0 0 0 0 2 4 4 4 4 1 0 0 0 0 0 0 0 3 23 86 77 79 120 217 255 43 2 0 0 0 0 0 0 0 0
13 28 25 4 1 0 0 0 0 0 1 5 49 180 99 65 82 141 255 255 16 1 0 2 41 255 225 123 75 70 121 196 31 3 0 0 0 0 0 0 0 0 2 22 197 151 76 67 100 183 255 116 5 0 0 0 0 0 0 0 0 0 0 1 32 255 240 129 78 71 124 203 35 3 0 0 0 0 0 0 0 0 2 20 209 157 81 65 93 168 255 196 9 0 0 0 0 0 0 0 0 0 0 0 0 0 0 7 158 255 174 96 65 76 150 161 16 1 0 0 0 0 0 0 0 0 3 34 197 115 68 78 132 243 255 26 1 0 0 0 0 0 0 0 0 0 0 0 0 0 1 16 255 255 141 83 69 110 185 40 4 0 0 0 0 0 0 1 10 116 156 90 67 91 161 255 167 8 0 0 0 0 0 0 9 203 255 161 89 64 81 144 79 8 1 0 0 0 0 0 0 4 37 192 112 69 84 149 255 255 137 78 67 117 195 31 3 0 0 0 0 0 0 0 0 1 15 165 156 84 65 91 161 255 217 10 0 0 0 0 0 2 49 255 210 113 72 82 190 249 255 20 1 1 9 140 249 219 95 71 106 194 255 70 3 0 0 0 0 3 57 255 213 116 72 71 145 242 37 3 0 0 0 0 0 0 0 0 0 3 35 196 122 69 79 133 248 255 25 1 0 0 0 0 0 0 0 0 0 0 0 0 0 1 32 255 226 124 76 73 132 192 26 2 0 0 0 0 0 0 0 0 0 0 0 0 0 0 0 0 3 28 176 121 64 51 51 54 80 164 250 28 2 0 0 0 0 0 0 0 0 0 4 39 200 110 69 87 161 255 255 161 87 65 93 181 84 7 1 0 0 0 0 0 1 10 114 163 83 66 92 167 255 124 6 0 0 0 0 0 0 0 0 0 0 0 0 0 0 0 0 0 0 0 0 0 0 0 0 0 0 0 0 0 4 76 255 185 102 68 77 163 239 26 2 0 0 0 0 0 0 0 0 0 1 13 140 162 87 67 95 171 255 139 6 0 0 0 0 0 0 0 0 0 0 0 0 0 0 0 0 0 0 0 0 0 0 0 0 0 0 0 0 0 0 0 0 0 0 0 0 0 0 7 146 255 158 89 66 90 154 86 8 1 0 0 0 0 0 0 0 0 4 35 177 108 68 83 149 255 255 208 109 69 74 159 235 28 2 0 0 0 0 2 31 255 174 77 68 104 193 255 65 3 0 0 0 0 0 0 0 0 0 0 0 0 0 0 0 0 0 0 0 0 0 0 0 0 0 0 0 0 0 0 0 0 0 0 0 0 0 0 0 0 0 0 0 0 0 0 0 1 27 255 233 125 75 70 128 204 34 3 0 0 0 0 0 0 0 1 1 1 1 1 0 0 0 0 0 0 0 0 3 31 165 107 66 79 136 255 255 22 1 0 0 0 0 0 0 0
7 16 14 3 0 0 0 0 0 0 1 12 177 215 180 69 54 82 154 255 129 6 1 21 255 254 131 73 54 93 229 229 109 7 1 0 0 0 0 0 0 0 5 73 251 247 125 55 61 105 197 255 55 3 0 0 0 0 0 0 0 0 1 15 255 255 142 77 55 91 220 219 127 8 1 0 0 0 0 0 0 0 5 77 255 255 146 57 58 97 183 255 85 4 0 0 0 0 0 0 0 0 0 0 0 0 4 75 255 190 100 60 56 132 255 255 54 4 0 0 0 0 0 0 0 1 8 129 232 224 86 55 78 144 255 236 11 0 0 0 0 0 0 0 0 0 0 0 0 0 7 133 255 155 82 56 77 208 232 152 10 1 0 0 0 0 0 2 39 255 253 162 62 58 94 181 255 79 4 0 0 0 0 4 84 255 175 94 58 60 149 235 255 22 2 0 0 0 0 0 1 9 138 223 207 82 59 84 123 118 79 56 84 226 234 100 7 1 0 0 0 0 0 0 0 4 53 255 252 152 58 57 93 179 255 100 5 0 0 0 1 26 255 242 125 69 58 138 233 217 255 111 6 3 57 255 215 234 176 65 67 114 218 255 35 2 0 0 1 28 255 233 124 69 54 104 240 221 167 10 1 0 0 0 0 0 0 0 1 8 112 213 209 82 55 79 147 255 225 11 0 0 0 0 0 0 0 0 0 0 0 0 1 13 255 255 134 74 56 100 233 232 76 5 0 0 0 0 0 0 0 0 0 0 0 0 0 0 0 0 6 77 228 217 73 28 23 36 124 254 248 134 8 0 0 0 0 0 0 0 0 1 10 148 224 205 79 61 94 151 151 94 59 66 173 238 255 29 2 0 0 0 0 0 2 40 255 250 152 61 59 98 189 255 60 3 0 0 0 0 0 0 0 0 0 0 0 0 0 0 0 0 0 0 0 0 0 0 0 0 0 0 0 2 39 255 211 109 62 55 125 255 250 99 6 0 0 0 0 0 0 0 0 0 3 45 255 248 152 60 60 100 192 255 69 3 0 0 0 0 0 0 0 0 0 0 0 0 0 0 0 0 0 0 0 0 0 0 0 0 0 0 0 0 0 0 0 0 0 0 0 0 3 65 255 179 93 58 65 165 229 255 26 2 0 0 0 0 0 0 0 1 8 120 228 206 80 59 91 159 189 116 68 56 123 255 245 113 7 0 0 0 1 8 136 239 255 134 57 65 115 221 255 32 1 0 0 0 0 0 0 0 0 0 0 0 0 0 0 0 0 0 0 0 0 0 0 0 0 0 0 0 0 0 0 0 0 0 0 0 0 0 0 0 0 0 0 0 0 0 0 11 237 255 140 75 54 92 220 215 115 8 1 0 0 0 0 0 0 0 0 0 0 0 0 0 0 0 0 0 0 1 7 92 236 212 78 55 81 153 255 222 10 0 0 0 0 0 0 0
3 6 6 1 0 0 0 0 0 0 4 63 255 189 210 110 40 46 84 171 255 58 11 173 255 143 71 42 50 175 207 185 255 42 2 0 0 0 0 0 0 1 28 255 180 197 216 65 38 56 108 215 255 24 1 0 0 0 0 0 0 0 6 137 255 151 76 44 49 161 198 179 255 49 3 0 0 0 0 0 0 2 31 255 183 200 230 79 38 53 98 194 255 39 2 0 0 0 0 0 0 0 0 0 0 2 37 255 205 103 54 38 73 229 207 197 255 20 1 0 0 0 0 0 0 3 50 255 190 211 161 48 45 77 156 255 96 5 0 0 0 0 0 0 0 0 0 0 0 3 57 255 169 84 47 44 127 211 196 255 57 3 0 0 0 0 1 13 239 224 213 224 88 40 52 101 204 255 40 2 0 0 2 39 255 190 95 52 40 90 236 219 255 109 6 0 0 0 0 0 3 55 255 187 206 138 47 42 49 48 41 48 156 210 184 255 38 2 0 0 0 0 0 0 1 19 255 193 204 229 81 38 51 97 195 255 51 2 0 0 11 235 255 136 68 43 66 205 166 146 175 255 50 29 255 210 154 160 210 87 44 63 122 250 255 15 1 1 11 233 255 129 66 41 56 188 189 171 255 61 3 0 0 0 0 0 0 0 2 40 255 173 193 137 46 45 79 158 255 93 5 0 0 0 0 0 0 0 0 0 0 0 5 105 255 147 72 43 52 177 200 175 255 27 1 0 0 0 0 0 0 0 0 0 0 0 0 0 0 2 28 255 181 199 124 22 12 39 198 187 178 255 56 3 0 0 0 0 0 0 0 3 56 255 185 206 131 49 49 62 61 48 43 106 219 202 251 187 10 0 0 0 0 1 15 255 225 208 227 88 41 55 106 215 255 31 1 0 0 0 0 0 0 0 0 0 0 0 0 0 0 0 0 0 0 0 0 0 0 0 0 0 1 16 255 242 119 60 39 64 209 189 173 255 39 2 0 0 0 0 0 0 0 1 15 255 205 202 218 79 40 55 106 212 255 35 2 0 0 0 0 0 0 0 0 0 0 0 0 0 0 0 0 0 0 0 0 0 0 0 0 0 0 0 0 0 0 0 0 0 0 1 32 255 204 100 53 41 100 224 210 246 122 7 0 0 0 0 0 0 0 3 47 255 194 213 138 48 50 68 75 56 41 68 218 193 177 255 46 2 0 0 3 53 255 170 184 217 71 42 63 124 254 255 13 1 0 0 0 0 0 0 0 0 0 0 0 0 0 0 0 0 0 0 0 0 0 0 0 0 0 0 0 0 0 0 0 0 0 0 0 0 0 0 0 0 0 0 0 0 5 98 255 155 77 44 50 163 194 173 255 43 2 0 0 0 0 0 0 0 0 0 0 0 0 0 0 0 0 0 0 2 37 255 198 219 142 46 47 83 166 255 91 5 0 0 0 0 0 0
1 2 2 1 0 0 0 0 0 1 26 255 177 134 145 178 42 25 42 91 198 255 147 255 152 71 35 25 65 190 133 133 207 255 15 1 0 0 0 0 0 9 175 237 128 122 171 107 28 28 53 115 255 174 9 0 0 0 0 0 0 3 61 255 165 76 37 26 60 182 128 129 196 255 19 1 0 0 0 0 1 11 227 232 125 120 163 141 32 27 48 102 221 255 15 1 0 0 0 0 0 0 0 0 1 16 255 234 108 51 27 30 131 173 127 135 255 146 7 0 0 0 0 0 1 19 255 197 133 135 191 60 26 38 80 173 255 44 2 0 0 0 0 0 0 0 0 0 1 26 255 194 89 42 26 46 174 136 134 189 255 23 1 0 0 0 5 92 255 140 128 155 144 35 28 50 108 230 255 17 1 1 16 255 223 101 47 27 37 170 171 142 160 255 46 2 0 0 0 1 24 255 196 133 135 180 50 20 18 17 21 59 190 133 132 212 255 14 1 0 0 0 0 0 6 127 255 131 123 161 143 32 26 48 102 217 255 25 1 5 94 255 147 68 35 30 93 151 99 83 104 208 255 255 255 125 89 94 134 125 35 32 61 134 255 122 6 5 96 255 140 64 32 26 79 178 117 116 181 255 25 1 0 0 0 0 0 1 14 246 200 128 126 175 52 26 39 81 176 255 44 2 0 0 0 0 0 0 0 0 0 2 48 255 167 75 36 26 67 178 125 129 235 181 9 0 0 0 0 0 0 0 0 0 0 0 0 0 0 10 193 235 135 127 179 30 11 54 155 111 117 197 255 25 1 0 0 0 0 0 1 23 255 189 130 134 175 50 23 22 22 22 42 178 151 126 150 255 72 4 0 0 0 6 108 255 145 128 162 157 36 29 53 116 254 255 14 1 0 0 0 0 0 0 0 0 0 0 0 0 0 0 0 0 0 0 0 0 0 0 0 0 6 127 255 128 59 30 28 101 165 113 117 211 255 16 1 0 0 0 0 0 0 5 104 255 135 123 155 127 32 28 52 113 241 255 15 1 0 0 0 0 0 0 0 0 0 0 0 0 0 0 0 0 0 0 0 0 0 0 0 0 0 0 0 0 0 0 0 0 1 13 255 245 111 50 28 40 171 157 135 150 255 48 2 0 0 0 0 0 1 19 255 204 139 140 185 54 25 26 27 24 29 111 173 117 120 204 255 19 1 1 23 255 193 112 109 162 117 31 32 62 134 255 103 5 0 0 0 0 0 0 0 0 0 0 0 0 0 0 0 0 0 0 0 0 0 0 0 0 0 0 0 0 0 0 0 0 0 0 0 0 0 0 0 0 0 0 0 2 45 255 173 80 39 27 64 182 125 127 200 255 15 1 0 0 0 0 0 0 0 0 0 0 0 0 0 0 0 0 1 14 255 222 144 142 193 55 27 41 84 178 255 40 2 0 0 0 0 0
0 1 0 0 0 0 0 0 0 10 200 246 108 77 88 151 55 15 19 43 109 255 255 199 78 33 16 19 91 113 75 77 118 255 111 6 0 0 0 0 3 65 255 130 74 66 96 157 30 14 24 56 135 255 67 3 0 0 0 0 1 27 255 190 83 35 17 18 78 114 74 75 114 255 129 7 0 0 0 0 4 83 255 129 71 63 92 172 39 14 21 48 117 255 105 5 0 0 0 0 0 0 0 0 6 131 255 124 51 23 14 36 176 98 68 78 148 255 64 3 0 0 0 0 7 135 255 113 75 77 120 81 18 18 37 90 209 255 18 1 0 0 0 0 0 0 0 0 10 201 252 105 42 19 16 56 129 78 75 110 255 159 8 0 0 2 42 255 161 80 66 88 154 41 15 23 51 120 255 124 7 7 125 255 119 48 21 15 48 177 100 78 98 199 255 18 1 0 0 9 170 255 115 77 79 125 59 12 6 6 14 79 121 76 77 123 255 105 5 0 0 0 0 3 56 255 148 77 65 91 168 40 14 21 48 115 255 189 12 44 255 167 72 31 17 26 117 81 51 41 54 119 255 255 148 66 45 48 72 129 33 16 28 66 154 255 57 51 255 167 70 29 15 22 119 103 65 66 104 245 163 8 0 0 0 0 0 5 91 255 117 76 75 123 68 17 18 38 92 213 255 20 1 0 0 0 0 0 0 0 1 21 255 204 87 36 17 19 87 105 71 78 134 255 71 4 0 0 0 0 0 0 0 0 0 0 0 0 4 74 255 135 81 76 133 45 14 72 81 58 64 110 255 187 9 0 0 0 0 0 9 181 255 111 75 78 127 57 13 8 8 12 53 157 88 68 84 172 255 32 2 0 2 45 255 156 82 68 93 168 44 16 25 56 134 255 112 6 0 0 0 0 0 0 0 0 0 0 0 0 0 0 0 0 0 0 0 0 0 0 0 3 55 255 153 63 27 15 29 148 93 61 67 122 255 126 6 0 0 0 0 0 2 46 255 154 78 65 87 151 36 15 24 53 126 255 111 6 0 0 0 0 0 0 0 0 0 0 0 0 0 0 0 0 0 0 0 0 0 0 0 0 0 0 0 0 0 0 0 0 6 115 255 130 54 24 16 50 160 92 73 91 191 255 20 1 0 0 0 0 7 136 255 119 80 81 129 66 15 9 9 10 29 157 96 63 67 117 255 135 7 9 168 255 111 63 58 91 157 33 16 29 66 160 255 48 2 0 0 0 0 0 0 0 0 0 0 0 0 0 0 0 0 0 0 0 0 0 0 0 0 0 0 0 0 0 0 0 0 0 0 0 0 0 0 0 0 0 1 18 255 207 90 37 18 20 90 114 73 75 116 255 95 5 0 0 0 0 0 0 0 0 0 0 0 0 0 0 0 0 5 105 255 128 83 83 132 76 18 19 39 91 210 255 15 1 0 0 0 0
0 0 0 0 0 0 0 0 4 82 255 134 58 40 48 83 75 12 9 20 56 140 198 101 38 14 8 20 113 58 38 39 63 152 255 49 2 0 0 1 27 255 169 71 38 33 55 133 38 8 10 26 69 172 255 29 1 0 0 0 9 185 246 101 39 15 8 17 94 58 38 38 60 143 255 54 3 0 0 2 36 255 161 68 36 31 51 112 51 10 9 22 58 149 255 45 2 0 0 0 0 0 0 3 59 255 152 61 23 10 9 47 123 55 34 41 80 188 255 31 1 0 0 3 57 255 142 59 38 39 61 100 17 8 16 43 113 255 143 7 0 0 0 0 0 0 0 4 76 255 133 51 19 9 12 64 68 41 37 57 135 255 65 3 1 17 255 212 89 41 32 47 97 48 10 10 23 58 147 255 60 63 255 151 59 22 9 11 64 102 54 39 52 111 255 134 7 0 3 66 255 134 59 39 41 63 64 10 3 3 14 100 62 39 40 66 154 255 46 2 0 0 1 26 255 193 81 40 32 50 109 52 10 9 21 54 134 255 133 255 212 87 33 13 9 26 106 43 23 19 27 62 139 155 74 32 20 22 38 86 31 9 12 30 80 199 255 255 216 89 33 13 8 26 138 57 33 33 54 130 255 63 3 0 0 0 2 40 255 154 65 40 40 65 89 15 8 17 44 115 255 149 7 0 0 0 0 0 0 0 8 155 255 110 42 16 8 18 99 54 36 42 75 172 255 31 1 0 0 0 0 0 0 0 0 0 0 1 31 255 169 75 44 42 69 68 22 94 40 27 31 56 134 255 73 4 0 0 0 4 72 255 139 59 38 40 65 58 10 3 3 10 66 86 47 33 43 95 230 240 12 1 17 255 198 84 41 33 51 101 54 11 11 25 65 156 255 48 2 0 0 0 0 0 0 0 0 0 0 0 0 0 0 0 0 0 0 0 0 0 1 23 255 190 80 29 12 9 35 132 52 30 34 64 154 255 57 3 0 0 0 1 18 255 202 85 40 31 48 106 42 9 10 24 61 152 255 48 2 0 0 0 0 0 0 0 0 0 0 0 0 0 0 0 0 0 0 0 0 0 0 0 0 0 0 0 0 0 0 3 53 255 161 65 24 11 12 60 90 49 36 49 109 255 153 8 0 0 0 3 55 255 141 62 41 42 66 75 12 4 3 6 33 127 54 31 34 60 143 255 62 73 255 135 57 31 28 51 121 38 10 13 31 85 205 255 20 1 0 0 0 0 0 0 0 0 0 0 0 0 0 0 0 0 0 0 0 0 0 0 0 0 0 0 0 0 0 0 0 0 0 0 0 0 0 0 0 0 7 141 255 111 42 17 9 20 117 60 38 39 63 146 255 39 2 0 0 0 0 0 0 0 0 0 0 0 0 0 0 2 46 255 157 68 43 43 68 102 17 9 17 43 112 255 106 5 0 0 0 0
0 0 0 0 0 0 0 2 39 255 175 71 29 19 23 43 105 15 5 9 25 55 72 43 17 6 5 22 106 33 17 18 32 84 202 255 20 1 0 9 175 244 96 36 18 16 30 74 45 7 5 11 34 96 241 212 11 0 0 4 73 255 130 49 17 6 4 18 95 32 17 18 30 78 191 255 22 1 1 13 255 221 89 34 17 14 26 56 64 9 4 10 28 82 205 255 19 1 0 0 0 0 1 28 255 197 80 29 10 4 8 58 62 29 16 19 40 104 247 255 13 1 1 25 255 191 78 30 17 18 33 102 19 5 7 20 57 149 255 61 3 0 0 0 0 0 2 32 255 170 69 24 8 4 11 67 33 19 17 29 73 183 255 30 8 121 255 117 45 19 14 23 48 53 9 4 10 27 79 204 255 255 205 81 28 10 5 12 83 49 26 18 26 58 148 255 57 4 31 255 177 71 29 18 19 30 60 9 2 2 17 106 34 18 19 33 85 207 255 20 1 0 10 207 255 107 41 19 15 25 54 67 9 4 9 25 71 195 255 255 120 43 15 6 5 23 68 24 10 8 12 27 51 56 31 14 8 9 18 42 23 6 5 13 40 115 255 255 122 44 15 6 5 31 103 34 15 15 27 71 177 255 27 1 0 1 15 255 214 87 34 19 19 36 109 17 4 7 20 57 145 255 61 3 0 0 0 0 0 3 64 255 141 55 19 7 5 19 89 30 17 20 38 96 235 212 11 1 0 0 0 0 0 0 0 0 1 11 216 231 94 38 21 21 37 127 46 112 25 12 14 27 71 175 255 33 2 0 1 32 255 177 74 29 18 19 30 50 8 2 2 10 80 42 22 15 20 48 126 255 95 11 122 255 110 41 19 15 25 48 59 10 5 11 30 82 200 255 19 1 0 0 0 0 0 0 0 0 0 0 0 0 0 0 0 0 0 0 0 0 8 166 255 104 38 13 5 7 41 78 30 14 16 32 82 199 255 27 1 0 0 6 126 255 111 43 19 14 25 55 44 7 4 10 29 82 201 255 20 1 0 0 0 0 0 0 0 0 0 0 0 0 0 0 0 0 0 0 0 0 0 0 0 0 0 0 0 0 1 23 255 202 85 31 11 5 11 67 43 24 17 24 57 145 255 63 3 0 1 23 255 188 76 31 19 19 33 74 12 2 1 5 33 69 29 14 16 30 77 196 255 255 184 72 28 14 13 27 64 38 7 6 14 41 112 255 162 8 0 0 0 0 0 0 0 0 0 0 0 0 0 0 0 0 0 0 0 0 0 0 0 0 0 0 0 0 0 0 0 0 0 0 0 0 0 0 0 3 61 255 149 56 20 7 5 23 115 36 18 18 32 82 208 255 14 1 0 0 0 0 0 0 0 0 0 0 0 0 1 18 255 205 86 34 20 20 38 115 20 5 7 20 58 153 255 48 2 0 0 0
0 0 0 0 0 0 1 17 255 232 99 36 14 8 11 30 137 21 3 4 10 19 23 15 7 3 4 23 74 21 8 8 16 43 113 255 135 7 4 66 255 133 51 18 8 7 15 36 51 7 2 5 16 50 134 255 87 4 2 35 255 181 71 24 8 3 3 18 78 20 8 8 15 40 109 255 175 9 6 106 255 125 46 16 7 6 12 29 87 11 2 4 13 42 117 255 144 7 0 0 0 0 11 218 255 111 40 13 4 2 9 71 30 13 7 9 19 53 137 255 116 6 10 200 255 109 40 14 7 8 21 80 20 3 3 9 28 82 194 255 27 1 0 0 0 1 11 224 234 96 34 11 4 2 11 63 18 8 7 14 38 105 252 255 80 255 153 61 22 9 6 10 23 54 8 2 4 13 42 121 255 255 120 42 13 4 3 15 108 28 12 8 12 30 82 197 255 43 241 249 103 36 14 7 8 15 47 8 1 2 19 89 23 8 8 16 44 118 255 156 8 5 82 255 141 56 20 8 6 12 29 96 12 2 4 12 37 107 216 165 66 21 7 3 3 16 34 12 4 3 5 10 17 18 11 6 3 4 8 16 12 3 2 6 20 60 132 136 63 21 7 3 5 30 57 20 7 6 13 37 102 253 188 9 1 5 102 255 120 46 17 9 9 26 112 21 3 3 9 28 78 191 255 28 1 0 0 0 1 31 255 191 77 27 9 3 3 17 62 18 8 9 19 50 130 255 83 4 0 0 0 0 0 0 0 0 4 79 255 128 49 18 10 10 36 218 202 119 21 6 6 12 36 99 238 243 12 1 11 225 239 100 37 14 8 8 14 33 6 1 2 13 95 24 10 6 9 24 68 170 255 168 255 153 59 20 8 6 11 23 61 9 3 5 14 41 114 255 151 7 0 0 0 0 0 0 0 0 0 0 0 0 0 0 0 0 0 0 0 3 69 255 143 54 18 6 3 6 42 38 15 6 7 15 42 112 255 225 11 1 3 55 255 151 59 21 9 6 11 25 41 7 2 4 13 41 115 255 167 8 0 0 0 0 0 0 0 0 0 0 0 0 0 0 0 0 0 0 0 0 0 0 0 0 0 0 0 0 8 170 255 113 42 14 5 3 11 70 22 10 7 11 29 80 189 255 27 2 9 178 255 109 39 15 8 8 18 62 11 2 1 4 25 30 14 6 7 14 40 117 255 255 110 37 13 6 6 13 29 30 6 3 6 20 58 151 255 70 3 0 0 0 0 0 0 0 0 0 0 0 0 0 0 0 0 0 0 0 0 0 0 0 0 0 0 0 0 0 0 0 0 0 0 0 0 0 1 28 255 196 83 28 9 3 4 25 83 24 9 8 15 43 119 255 97 5 0 0 0 0 0 0 0 0 0 0 0 0 7 143 255 116 44 16 9 9 26 99 23 4 3 9 29 87 212 255 21 1 0 0
0 0 0 0 0 0 7 144 255 133 52 18 6 4 6 29 131 34 4 2 3 6 7 5 2 1 3 19 41 13 4 3 7 22 61 153 255 60 32 255 183 76 27 8 3 3 7 18 59 8 1 2 8 26 76 184 255 43 17 255 246 107 38 12 3 1 2 16 52 14 4 3 7 21 60 152 255 85 58 255 173 70 24 8 3 2 6 23 136 17 2 2 6 22 64 158 255 61 3 0 0 4 86 255 144 59 20 6 2 2 13 98 19 6 3 4 9 27 74 176 255 64 89 255 148 59 20 7 3 4 14 51 17 3 1 4 14 43 112 255 209 10 0 0 0 4 87 255 134 51 17 5 2 2 10 54 12 4 3 6 19 57 147 255 255 230 89 32 10 4 2 4 13 52 8 2 2 6 22 65 131 130 64 22 6 2 3 22 126 24 6 3 5 15 44 116 255 255 255 142 56 19 6 3 3 8 29 6 1 2 18 60 16 4 3 7 22 64 157 255 72 45 255 184 78 28 9 4 3 6 25 154 20 2 2 5 18 50 85 69 33 10 3 1 2 8 13 5 2 1 2 3 5 5 4 2 1 1 3 5 4 2 1 3 9 27 50 51 28 10 3 1 4 23 27 10 3 3 6 19 56 142 255 73 6 45 255 162 66 24 8 4 5 22 93 26 3 1 4 13 41 112 255 232 11 0 0 1 13 255 255 112 41 13 4 1 2 12 34 10 4 4 9 26 73 180 255 40 2 0 0 0 0 0 0 2 34 255 175 73 25 9 4 8 51 210 255 166 25 4 2 6 18 53 135 255 92 10 88 255 136 53 18 6 3 3 6 16 4 1 2 17 108 20 5 3 4 12 36 102 255 255 242 92 31 10 4 3 5 14 57 9 2 2 6 21 63 158 255 65 3 0 0 0 0 0 0 0 0 0 0 0 0 0 0 0 0 0 1 33 255 194 82 28 9 3 1 6 39 18 7 3 3 7 21 60 146 255 95 6 27 255 208 88 31 10 4 3 5 12 32 6 1 2 6 21 63 159 255 72 4 0 0 0 0 0 0 0 0 0 0 0 0 0 0 0 0 0 0 0 0 0 0 0 0 0 0 4 71 255 150 60 21 6 2 2 11 68 15 4 3 5 14 42 110 255 201 14 76 255 150 60 20 7 3 4 11 43 9 1 1 3 13 11 6 3 3 7 21 63 129 125 60 20 6 2 2 5 11 17 4 1 3 9 30 85 197 255 34 1 0 0 0 0 0 0 0 0 0 0 0 0 0 0 0 0 0 0 0 0 0 0 0 0 0 0 0 0 0 0 0 0 0 0 0 0 10 214 255 113 43 14 4 2 3 22 49 15 4 3 7 23 68 167 255 44 2 0 0 0 0 0 0 0 0 0 0 3 62 255 160 64 22 8 4 5 18 67 23 3 2 4 15 47 123 255 193 9 0 0
0 0 0 0 0 3 64 255 170 74 28 9 3 2 5 29 96 62 6 1 1 2 2 1 1 1 2 11 18 7 2 1 3 11 33 91 211 255 255 255 112 43 14 4 1 1 3 13 78 10 1 1 4 13 42 109 239 255 208 255 143 60 20 6 2 1 2 10 28 8 2 1 3 10 33 89 206 255 255 235 103 39 12 3 1 1 4 30 173 34 3 1 3 11 35 92 205 255 28 1 2 41 255 186 81 31 10 3 1 2 21 149 22 3 1 1 4 13 40 102 230 255 255 197 86 32 10 3 1 2 8 26 11 2 1 2 7 22 62 150 255 81 4 0 2 41 255 183 78 28 8 2 1 1 8 39 8 2 1 3 10 32 88 202 255 136 52 17 5 2 1 2 9 47 8 1 1 3 11 30 51 50 30 11 3 1 3 31 116 25 4 1 2 7 24 68 170 255 210 86 31 9 3 1 1 4 12 4 1 2 13 34 10 2 1 3 11 35 91 208 255 255 251 109 42 14 4 1 1 4 34 174 43 4 1 2 8 20 30 26 14 5 1 1 1 3 4 2 1 0 1 1 1 1 1 1 0 0 1 1 1 1 0 1 4 10 17 17 11 4 1 1 3 11 10 4 2 1 3 9 31 83 189 255 65 255 224 98 37 12 4 2 3 18 66 28 4 1 2 6 22 63 151 255 100 5 0 6 116 255 149 63 22 6 2 1 1 6 14 5 2 2 4 13 41 109 241 255 18 1 0 0 0 0 1 13 252 242 106 40 13 4 2 9 88 146 189 181 43 4 1 3 9 28 77 179 255 128 255 183 79 28 9 3 1 1 2 5 2 1 2 23 110 21 3 1 2 6 19 59 138 211 130 54 17 5 2 1 2 10 49 9 1 1 3 10 34 92 204 255 30 1 0 0 0 0 0 0 0 0 0 0 0 0 0 0 0 1 14 255 255 115 46 15 4 1 1 5 29 9 3 1 1 3 10 32 83 189 255 70 238 255 125 49 16 5 2 1 2 6 18 4 1 1 3 11 35 92 201 255 33 2 0 0 0 0 0 0 0 0 0 0 0 0 0 0 0 0 0 0 0 0 0 0 0 0 2 34 255 198 87 32 10 3 1 2 11 62 12 2 1 2 7 22 61 149 255 226 255 198 87 33 10 3 1 2 6 22 6 1 0 1 4 4 2 1 1 3 10 30 50 49 28 10 3 1 1 2 4 6 2 1 1 4 15 46 116 255 255 14 1 0 0 0 0 0 0 0 0 0 0 0 0 0 0 0 0 0 0 0 0 0 0 0 0 0 0 0 0 0 0 0 0 0 0 4 90 255 149 63 23 7 2 1 3 14 23 8 2 1 3 12 38 101 228 255 20 1 0 0 0 0 0 0 0 0 1 28 255 207 94 35 11 3 2 3 12 38 17 3 1 2 7 25 70 164 255 83 4 0
0 0 0 0 1 32 255 213 100 42 15 4 1 1 4 28 77 211 16 1 0 0 1 0 0 0 1 4 6 3 1 1 1 5 18 54 135 255 255 167 68 24 7 2 1 1 2 17 142 16 2 1 2 7 23 63 145 255 255 195 84 34 11 3 1 0 1 5 11 4 1 1 1 5 18 52 128 255 255 145 61 22 6 2 1 1 5 49 142 90 7 1 1 5 19 53 124 255 229 12 18 255 242 113 46 16 5 1 1 4 44 170 35 4 1 1 2 7 22 59 141 255 255 123 50 17 5 1 1 1 4 10 5 1 0 1 3 11 35 88 191 255 37 2 17 255 240 112 46 15 4 1 0 1 5 22 5 1 1 1 5 17 49 93 113 71 30 9 2 1 0 1 7 39 7 1 0 1 5 12 18 18 12 4 1 1 5 48 91 27 4 1 1 3 13 39 88 136 103 50 17 5 1 0 1 2 4 1 1 1 7 14 5 1 1 2 5 19 53 131 255 255 156 64 23 7 2 1 1 6 55 132 157 10 1 1 3 7 10 9 5 2 1 0 0 1 1 1 0 0 0 0 0 0 0 0 0 0 0 0 0 0 0 0 1 3 5 5 4 2 1 0 1 4 3 2 1 0 1 5 17 48 117 255 255 255 139 58 20 6 2 1 2 13 43 26 4 1 1 3 11 36 89 194 255 50 5 55 255 186 86 35 11 3 1 0 1 2 4 2 1 1 2 7 23 63 143 255 166 8 0 0 0 0 5 96 255 144 62 23 7 2 2 21 211 100 99 135 102 8 1 1 4 15 45 112 255 255 255 115 46 15 4 1 0 0 1 1 1 0 3 29 100 24 3 1 1 3 10 32 64 86 62 30 9 2 1 0 1 7 36 7 1 0 1 5 19 53 122 255 238 12 1 0 0 0 0 0 0 0 0 0 0 0 0 0 0 6 123 255 151 66 25 7 2 1 1 3 15 4 1 0 0 1 5 17 47 114 255 255 255 163 73 28 8 2 1 0 1 2 6 2 0 0 1 5 19 52 119 255 255 14 1 0 0 0 0 0 0 0 0 0 0 0 0 0 0 0 0 0 0 0 0 0 0 1 14 255 255 121 50 17 5 1 1 1 10 53 10 2 1 1 3 11 35 92 222 255 255 123 51 18 5 1 1 1 3 8 3 1 0 0 1 1 1 0 0 1 5 12 18 17 11 4 1 0 0 1 1 2 1 0 1 2 8 25 66 150 255 120 6 0 0 0 0 0 0 0 0 0 0 0 0 0 0 0 0 0 0 0 0 0 0 0 0 0 0 0 0 0 0 0 0 0 2 46 255 195 88 35 12 3 1 0 1 6 9 4 1 1 2 6 21 59 139 255 166 8 0 0 0 0 0 0 0 1 11 243 255 124 54 19 5 2 1 1 6 17 9 2 0 1 4 13 40 96 202 255 40 2
0 0 0 1 14 255 255 132 59 23 7 2 1 1 4 32 121 255 71 4 0 0 0 0 0 0 0 1 2 1 0 0 1 3 10 33 84 159 179 101 43 14 3 1 0 0 3 38 225 42 3 0 1 3 13 38 91 185 215 117 51 19 5 1 0 0 0 2 3 1 0 0 1 2 10 32 75 135 145 84 37 12 3 1 0 1 10 119 129 255 33 2 1 3 10 31 75 162 255 122 160 255 148 68 27 8 2 1 1 11 174 141 76 6 1 0 1 3 11 35 81 140 133 73 30 9 2 1 0 0 1 3 2 0 0 0 1 6 20 53 119 251 255 22 135 255 146 68 27 8 2 0 0 1 3 8 3 1 0 1 2 9 24 40 45 34 16 4 1 0 0 1 5 26 5 1 0 1 2 4 6 6 4 2 1 1 9 106 73 28 4 1 0 2 6 21 42 55 46 26 9 2 1 0 0 1 1 1 0 1 2 5 2 1 0 1 3 10 32 79 145 158 91 39 13 3 1 0 1 11 143 139 255 58 3 1 1 2 3 3 2 1 0 0 0 0 0 0 0 0 0 0 0 0 0 0 0 0 0 0 0 0 0 0 0 1 2 2 1 1 0 0 0 1 1 1 0 0 1 2 9 29 75 170 255 193 90 36 11 3 1 0 1 8 24 18 3 0 0 1 6 20 53 119 240 255 61 255 232 113 51 20 6 1 0 0 0 1 1 1 0 0 1 3 13 37 86 183 255 76 4 0 0 2 44 255 188 89 37 12 3 1 5 72 236 95 59 111 255 31 2 1 2 8 27 71 154 238 155 73 28 8 2 1 0 0 0 0 0 0 4 38 88 27 3 0 0 1 5 15 27 33 27 14 4 1 0 0 1 5 19 5 1 0 1 3 10 31 73 159 255 100 5 0 0 0 0 0 0 0 0 0 0 0 0 0 3 60 255 191 91 39 14 4 1 0 0 2 5 2 1 0 0 1 2 8 27 70 155 255 222 103 44 15 4 1 0 0 0 1 2 1 0 0 1 3 10 30 71 157 255 114 6 0 0 0 0 0 0 0 0 0 0 0 0 0 0 0 0 0 0 0 0 0 0 6 134 255 156 72 29 9 2 1 0 1 8 41 8 1 0 0 1 6 21 58 128 209 157 77 30 9 2 1 0 0 1 2 1 0 0 0 0 0 0 0 0 1 2 4 6 6 4 2 0 0 0 0 0 0 0 0 0 1 4 14 39 90 189 255 55 3 0 0 0 0 0 0 0 0 0 0 0 0 0 0 0 0 0 0 0 0 0 0 0 0 0 0 0 0 0 0 0 1 22 255 248 121 53 20 6 1 0 0 1 2 3 1 0 0 1 3 12 36 84 177 255 76 4 0 0 0 0 0 0 5 103 255 162 74 31 10 3 1 0 1 2 6 3 1 0 0 2 7 22 56 123 252 255 20
0 0 0 6 136 255 176 86 38 13 4 1 0 1 6 72 247 204 255 30 1 0 0 0 0 0 0 0 0 0 0 0 0 1 5 21 52 77 82 59 28 8 2 0 0 1 10 158 195 220 12 1 0 2 7 24 57 91 100 69 33 10 3 1 0 0 0 1 1 0 0 0 0 1 5 19 44 63 65 48 22 6 1 0 0 2 42 255 214 255 255 13 1 1 5 19 50 108 223 255 255 200 97 44 16 4 1 0 4 70 255 186 255 25 1 0 0 1 6 20 45 63 61 43 18 5 1 0 0 0 0 1 0 0 0 0 1 3 11 34 79 163 255 255 255 195 97 45 16 4 1 0 0 0 1 2 1 0 0 0 1 4 11 16 17 14 7 2 0 0 0 1 3 12 3 1 0 0 1 1 2 2 1 1 0 2 35 255 108 33 4 0 0 1 3 10 18 21 19 12 4 1 0 0 0 0 0 0 0 0 1 1 1 0 0 0 1 5 19 47 68 72 52 24 7 2 0 0 3 51 255 222 226 255 26 1 0 1 1 1 0 0 0 0 0 0 0 0 0 0 0 0 0 0 0 0 0 0 0 0 0 0 0 0 0 0 0 0 0 0 0 0 0 0 0 0 0 0 0 1 5 18 52 97 134 104 60 23 6 1 0 0 1 4 11 9 2 0 0 1 3 11 34 77 157 255 255 255 154 73 32 11 3 1 0 0 0 0 0 0 0 0 0 2 7 23 57 119 229 255 38 2 1 19 255 252 127 60 24 7 2 2 29 255 177 119 54 139 244 168 9 1 1 4 16 47 84 109 84 48 17 4 1 0 0 0 0 0 0 1 6 63 92 33 4 0 0 1 2 6 10 12 10 6 2 0 0 0 0 2 7 2 0 0 0 1 5 18 48 105 211 255 50 2 0 0 0 0 0 0 0 0 0 0 0 1 31 255 244 125 60 24 7 2 0 0 0 1 1 1 0 0 0 0 1 4 16 46 91 136 115 67 28 8 2 0 0 0 0 0 0 0 0 0 0 1 5 17 47 103 201 255 55 3 0 0 0 0 0 0 0 0 0 0 0 0 0 0 0 0 0 0 0 0 3 70 255 205 102 48 17 5 1 0 0 1 6 27 6 1 0 0 1 3 12 38 71 95 80 49 19 5 1 0 0 0 0 1 0 0 0 0 0 0 0 0 0 0 1 1 2 2 1 1 0 0 0 0 0 0 0 0 0 0 2 7 24 59 124 240 255 25 1 0 0 0 0 0 0 0 0 0 0 0 0 0 0 0 0 0 0 0 0 0 0 0 0 0 0 0 0 0 0 9 197 255 160 79 35 11 3 1 0 0 0 1 1 0 0 0 0 1 6 22 56 116 230 255 42 2 0 0 0 0 2 51 255 211 107 49 18 5 1 0 0 0 1 2 1 0 0 0 1 3 12 36 79 164 255 231
0 0 3 63 255 215 123 67 28 7 2 0 0 2 30 255 255 196 255 241 12 1 0 0 0 0 0 0 0 0 0 0 0 1 3 12 32 38 39 35 17 4 1 0 0 3 67 255 236 255 99 5 0 1 4 14 38 47 49 42 22 6 1 0 0 0 0 0 0 0 0 0 0 1 3 10 25 30 30 26 12 3 1 0 1 18 255 255 255 213 255 123 6 1 3 11 39 85 158 255 255 146 77 33 9 2 1 2 37 255 246 255 255 182 9 0 0 1 3 11 25 29 29 24 9 2 1 0 0 0 0 0 0 0 0 0 0 1 6 24 64 123 237 255 255 144 76 34 9 2 0 0 0 0 0 1 0 0 0 0 0 1 4 6 6 5 3 1 0 0 0 0 1 4 1 0 0 0 0 0 0 0 0 0 1 13 255 255 255 85 6 1 0 0 1 4 7 8 7 5 2 0 0 0 0 0 0 0 0 0 0 0 0 0 0 0 1 3 11 27 33 34 29 14 4 1 0 1 23 255 254 255 194 255 255 11 1 0 0 0 0 0 0 0 0 0 0 0 0 0 0 0 0 0 0 0 0 0 0 0 0 0 0 0 0 0 0 0 0 0 0 0 0 0 0 0 0 0 0 1 2 11 38 58 65 59 43 15 3 1 0 0 0 1 4 3 1 0 0 0 1 6 24 60 116 214 255 208 115 58 22 6 1 0 0 0 0 0 0 0 0 0 0 1 3 14 45 88 156 255 255 18 9 162 255 173 96 49 15 4 1 11 228 255 184 201 107 196 190 255 72 4 1 2 10 32 48 52 48 33 10 2 0 0 0 0 0 0 0 1 17 227 160 61 5 1 0 0 1 2 3 4 3 2 1 0 0 0 0 1 2 1 0 0 0 1 3 11 37 81 148 255 255 24 1 0 0 0 0 0 0 0 0 0 1 15 255 255 166 93 47 16 4 1 0 0 0 0 0 0 0 0 0 0 1 2 10 32 56 66 62 48 19 4 1 0 0 0 0 0 0 0 0 0 0 1 2 10 36 78 141 255 255 29 1 0 0 0 0 0 0 0 0 0 0 0 0 0 0 0 0 0 0 2 39 255 254 143 79 36 10 2 1 0 0 1 3 12 3 1 0 0 0 2 7 25 41 45 42 32 11 3 1 0 0 0 0 0 0 0 0 0 0 0 0 0 0 0 0 0 0 0 0 0 0 0 0 0 0 0 0 0 0 0 1 4 15 46 91 164 255 244 11 0 0 0 0 0 0 0 0 0 0 0 0 0 0 0 0 0 0 0 0 0 0 0 0 0 0 0 0 0 4 87 255 201 113 62 25 6 1 0 0 0 0 0 0 0 0 0 0 1 3 14 44 88 159 255 255 23 1 0 0 1 25 255 255 147 82 38 11 3 1 0 0 0 0 0 0 0 0 0 0 2 7 25 62 118 218 255
0 1 31 255 246 147 99 67 22 4 1 0 1 12 247 255 225 186 200 255 103 5 0 0 0 0 0 0 0 0 0 0 0 0 1 6 17 19 19 19 9 2 0 0 2 35 255 252 240 242 255 53 2 0 2 8 24 25 25 25 13 3 1 0 0 0 0 0 0 0 0 0 0 0 1 5 12 14 14 13 5 1 0 0 8 161 255 212 214 181 231 255 62 3 2 7 36 85 115 145 141 112 79 28 6 1 1 18 255 255 198 232 225 255 88 4 0 0 1 5 12 13 13 11 4 1 0 0 0 0 0 0 0 0 0 0 0 1 4 19 67 107 151 205 165 117 79 29 6 1 0 0 0 0 0 0 0 0 0 0 0 1 1 2 2 2 1 0 0 0 0 0 0 1 0 0 0 0 0 0 0 0 0 0 6 115 255 225 255 255 40 2 0 0 0 1 2 2 2 1 1 0 0 0 0 0 0 0 0 0 0 0 0 0 0 0 0 1 5 14 16 16 15 6 2 0 1 10 216 255 206 203 173 208 255 125 6 0 0 0 0 0 0 0 0 0 0 0 0 0 0 0 0 0 0 0 0 0 0 0 0 0 0 0 0 0 0 0 0 0 0 0 0 0 0 0 0 0 0 0 1 7 28 36 34 36 31 9 2 0 0 0 0 0 1 1 0 0 0 0 1 4 18 61 100 129 156 127 98 61 17 3 1 0 0 0 0 0 0 0 0 0 0 0 2 9 43 81 115 184 255 184 97 255 206 127 90 49 11 2 5 98 255 201 200 255 255 236 179 240 255 39 2 1 5 20 27 26 27 20 5 1 0 0 0 0 0 0 0 5 96 255 255 255 21 1 0 0 0 1 1 1 1 1 0 0 0 0 0 0 0 0 0 0 0 0 1 7 34 80 113 175 255 220 10 0 0 0 0 0 0 0 0 0 7 151 255 195 121 85 45 11 2 0 0 0 0 0 0 0 0 0 0 0 0 1 6 22 37 35 36 35 12 2 1 0 0 0 0 0 0 0 0 0 0 0 1 7 33 75 111 175 255 255 13 1 0 0 0 0 0 0 0 0 0 0 0 0 0 0 0 0 1 21 255 255 169 110 78 31 7 1 0 0 0 0 1 4 1 0 0 0 0 1 4 14 23 22 22 19 6 1 0 0 0 0 0 0 0 0 0 0 0 0 0 0 0 0 0 0 0 0 0 0 0 0 0 0 0 0 0 0 0 0 0 2 10 43 84 122 199 255 118 5 0 0 0 0 0 0 0 0 0 0 0 0 0 0 0 0 0 0 0 0 0 0 0 0 0 0 0 2 44 255 232 140 95 61 19 4 1 0 0 0 0 0 0 0 0 0 0 0 2 9 41 84 118 187 255 224 10 0 0 11 246 255 175 112 79 36 7 1 0 0 0 0 0 0 0 0 0 0 0 1 4 19 64 100 152 245
1 13 255 255 162 108 99 95 21 3 1 0 5 109 255 199 166 164 148 220 255 51 2 0 0 0 0 0 0 0 0 0 0 0 1 3 7 8 8 8 4 1 0 1 17 255 255 183 183 175 255 255 27 1 1 4 12 12 12 12 6 1 0 0 0 0 0 0 0 0 0 0 0 0 1 2 4 5 5 5 2 1 0 4 74 255 211 159 150 149 158 250 255 31 2 6 44 114 92 79 79 96 114 30 4 1 9 189 255 192 153 161 167 239 255 48 2 0 1 2 4 5 5 4 2 0 0 0 0 0 0 0 0 0 0 0 0 0 3 18 106 111 98 102 97 107 119 32 5 1 0 0 0 0 0 0 0 0 0 0 0 0 0 0 1 0 0 0 0 0 0 0 0 0 0 0 0 0 0 0 0 0 0 3 56 255 225 182 213 255 255 20 1 0 0 0 1 1 1 0 0 0 0 0 0 0 0 0 0 0 0 0 0 0 0 0 0 1 2 5 6 6 6 3 1 0 5 94 255 204 157 148 151 147 226 255 66 3 0 0 0 0 0 0 0 0 0 0 0 0 0 0 0 0 0 0 0 0 0 0 0 0 0 0 0 0 0 0 0 0 0 0 0 0 0 0 0 0 0 0 1 4 16 21 18 21 19 5 1 0 0 0 0 0 0 0 0 0 0 0 0 2 17 93 103 82 80 83 102 95 16 2 0 0 0 0 0 0 0 0 0 0 0 0 1 8 55 101 100 126 210 255 255 248 141 107 111 67 10 4 50 255 223 155 194 232 255 222 171 171 255 255 20 1 3 10 13 13 14 10 3 1 0 0 0 0 0 0 2 49 255 240 255 255 157 8 0 0 0 0 0 0 0 0 0 0 0 0 0 0 0 0 0 0 0 0 1 6 40 107 102 121 195 255 99 5 0 0 0 0 0 0 0 3 71 255 213 130 102 104 60 9 1 0 0 0 0 0 0 0 0 0 0 0 0 1 3 12 22 19 21 24 7 1 0 0 0 0 0 0 0 0 0 0 0 0 1 5 37 100 104 122 191 255 137 6 0 0 0 0 0 0 0 0 0 0 0 0 0 0 0 0 9 209 255 183 117 101 108 33 5 1 0 0 0 0 0 1 0 0 0 0 0 0 2 6 10 10 10 8 3 1 0 0 0 0 0 0 0 0 0 0 0 0 0 0 0 0 0 0 0 0 0 0 0 0 0 0 0 0 0 0 0 0 0 1 8 55 104 104 135 225 255 61 3 0 0 0 0 0 0 0 0 0 0 0 0 0 0 0 0 0 0 0 0 0 0 0 0 0 1 21 255 255 153 106 102 85 16 3 0 0 0 0 0 0 0 0 0 0 0 0 1 7 51 110 102 125 199 255 105 5 6 115 255 194 121 102 103 42 6 1 0 0 0 0 0 0 0 0 0 0 0 0 3 18 100 106 108 125
6 125 255 179 108 95 140 206 34 3 1 3 54 255 214 135 122 135 116 145 250 255 25 1 0 0 0 0 0 0 0 0 0 0 0 1 2 3 3 3 1 0 0 7 147 255 181 129 128 124 167 255 234 11 1 2 4 4 4 4 2 1 0 0 0 0 0 0 0 0 0 0 0 0 0 1 1 2 2 1 1 0 2 37 255 229 138 117 109 119 111 158 255 255 14 9 96 188 96 49 51 110 205 52 5 5 89 255 200 126 117 111 121 154 255 255 24 1 0 1 1 1 1 1 1 0 0 0 0 0 0 0 0 0 0 0 0 0 3 35 234 151 73 54 64 126 217 59 5 1 0 0 0 0 0 0 0 0 0 0 0 0 0 0 0 0 0 0 0 0 0 0 0 0 0 0 0 0 0 0 0 0 1 27 255 244 149 136 141 185 255 216 9 0 0 0 0 0 0 0 0 0 0 0 0 0 0 0 0 0 0 0 0 0 0 0 0 0 1 2 2 2 2 1 0 2 45 255 218 134 117 113 128 110 143 246 255 36 2 0 0 0 0 0 0 0 0 0 0 0 0 0 0 0 0 0 0 0 0 0 0 0 0 0 0 0 0 0 0 0 0 0 0 0 0 0 0 0 0 0 0 2 7 10 9 10 8 2 1 0 0 0 0 0 0 0 0 0 0 0 0 3 29 226 148 63 45 65 148 240 30 3 0 0 0 0 0 0 0 0 0 0 0 0 1 12 142 181 115 96 139 248 255 160 103 113 179 179 18 29 255 255 147 125 159 163 167 165 154 126 178 255 198 9 2 3 5 5 5 3 1 0 0 0 0 0 0 1 25 255 255 176 178 208 255 71 3 0 0 0 0 0 0 0 0 0 0 0 0 0 0 0 0 0 0 0 1 7 82 191 122 95 126 218 255 51 2 0 0 0 0 0 2 35 255 231 134 94 110 177 155 14 1 0 0 0 0 0 0 0 0 0 0 0 0 0 1 5 11 9 10 12 3 1 0 0 0 0 0 0 0 0 0 0 0 0 1 7 70 186 128 95 122 209 255 68 3 0 0 0 0 0 0 0 0 0 0 0 0 0 0 4 95 255 195 116 92 126 202 58 6 1 0 0 0 0 0 0 0 0 0 0 0 0 1 2 4 4 4 3 1 0 0 0 0 0 0 0 0 0 0 0 0 0 0 0 0 0 0 0 0 0 0 0 0 0 0 0 0 0 0 0 0 0 0 1 12 134 178 113 99 142 245 255 31 1 0 0 0 0 0 0 0 0 0 0 0 0 0 0 0 0 0 0 0 0 0 0 0 0 9 192 255 168 104 98 155 195 25 2 0 0 0 0 0 0 0 0 0 0 0 0 1 11 117 192 115 92 125 219 255 60 65 255 216 125 94 122 186 89 8 1 0 0 0 0 0 0 0 0 0 0 0 0 3 34 242 157 87 66
68 255 200 111 79 115 226 249 135 8 2 26 255 239 134 93 94 108 95 96 154 255 216 10 0 0 0 0 0 0 0 0 0 0 0 0 1 1 1 1 0 0 3 65 255 191 112 91 89 89 104 176 255 96 5 1 1 1 1 1 1 0 0 0 0 0 0 0 0 0 0 0 0 0 0 0 0 0 0 0 0 1 17 255 255 142 91 88 85 96 83 99 170 255 124 44 255 229 145 42 48 169 219 217 17 49 255 219 122 86 90 81 88 98 158 255 220 10 1 0 0 0 0 0 0 0 0 0 0 0 0 0 0 0 0 0 0 1 9 145 236 208 77 35 57 178 222 255 18 1 0 0 0 0 0 0 0 0 0 0 0 0 0 0 0 0 0 0 0 0 0 0 0 0 0 0 0 0 0 0 0 0 11 244 255 151 99 98 93 116 191 255 94 5 0 0 0 0 0 0 0 0 0 0 0 0 0 0 0 0 0 0 0 0 0 0 0 0 0 0 1 1 0 0 1 20 255 246 135 90 90 94 108 88 92 149 255 255 16 1 0 0 0 0 0 0 0 0 0 0 0 0 0 0 0 0 0 0 0 0 0 0 0 0 0 0 0 0 0 0 0 0 0 0 0 0 0 0 0 0 0 1 2 3 3 3 3 1 0 0 0 0 0 0 0 0 0 0 0 0 0 7 119 255 226 75 33 80 228 254 144 8 1 0 0 0 0 0 0 0 0 0 0 0 3 50 255 255 182 90 89 121 129 96 88 158 244 255 98 255 255 158 99 105 118 106 96 112 125 97 111 190 255 90 5 1 2 2 2 1 0 0 0 0 0 0 0 11 224 255 163 118 110 134 224 255 37 2 0 0 0 0 0 0 0 0 0 0 0 0 0 0 0 0 0 0 2 29 255 242 186 93 85 134 246 255 25 1 0 0 0 1 15 255 255 142 86 83 165 255 255 56 3 0 0 0 0 0 0 0 0 0 0 0 0 0 1 2 4 3 4 4 1 0 0 0 0 0 0 0 0 0 0 0 0 0 1 24 255 248 195 94 82 128 231 255 35 2 0 0 0 0 0 0 0 0 0 0 0 0 2 49 255 214 118 78 94 195 234 255 17 1 0 0 0 0 0 0 0 0 0 0 0 0 0 1 1 1 1 1 0 0 0 0 0 0 0 0 0 0 0 0 0 0 0 0 0 0 0 0 0 0 0 0 0 0 0 0 0 0 0 0 0 0 0 3 49 255 252 165 85 90 148 255 255 13 1 0 0 0 0 0 0 0 0 0 0 0 0 0 0 0 0 0 0 0 0 0 0 4 82 255 184 104 80 126 239 255 84 6 0 0 0 0 0 0 0 0 0 0 0 0 2 41 255 246 174 85 83 135 249 255 255 245 133 84 93 189 249 255 32 2 0 0 0 0 0 0 0 0 0 0 0 1 9 158 250 229 97 40
255 232 118 69 72 171 206 201 255 58 14 227 255 140 80 65 74 85 79 65 90 167 255 86 4 0 0 0 0 0 0 0 0 0 0 0 0 0 0 0 0 1 31 255 213 112 69 63 63 63 65 102 194 255 45 2 0 0 0 0 0 0 0 0 0 0 0 0 0 0 0 0 0 0 0 0 0 0 0 0 0 7 147 255 154 84 61 67 72 79 65 63 99 193 255 255 255 199 201 64 74 195 189 255 181 255 246 128 72 59 69 62 64 62 91 171 255 98 5 0 0 0 0 0 0 0 0 0 0 0 0 0 0 0 0 0 0 3 58 255 182 178 111 33 75 180 187 255 100 6 0 0 0 0 0 0 0 0 0 0 0 0 0 0 0 0 0 0 0 0 0 0 0 0 0 0 0 0 0 0 0 5 106 255 165 89 65 68 61 71 110 202 255 45 2 0 0 0 0 0 0 0 0 0 0 0 0 0 0 0 0 0 0 0 0 0 0 0 0 0 0 0 0 0 9 186 255 145 80 61 72 83 91 74 61 85 155 255 136 7 0 0 0 0 0 0 0 0 0 0 0 0 0 0 0 0 0 0 0 0 0 0 0 0 0 0 0 0 0 0 0 0 0 0 0 0 0 0 0 0 0 0 1 1 1 1 1 0 0 0 0 0 0 0 0 0 0 0 0 0 3 49 255 191 192 137 45 153 193 192 255 60 3 0 0 0 0 0 0 0 0 0 0 1 19 255 220 210 212 113 59 55 56 57 94 192 197 224 255 255 172 93 68 86 82 66 56 72 92 76 70 109 206 255 45 2 1 0 0 0 0 0 0 0 0 0 4 88 255 168 96 74 66 82 135 255 255 18 1 0 0 0 0 0 0 0 0 0 0 0 0 0 0 0 0 0 10 191 255 207 202 121 63 79 144 255 218 10 0 0 0 6 137 255 156 83 59 99 205 206 216 255 23 1 0 0 0 0 0 0 0 0 0 0 0 0 0 1 1 1 1 1 1 0 0 0 0 0 0 0 0 0 0 0 0 0 8 162 255 214 202 120 62 75 134 255 255 15 1 0 0 0 0 0 0 0 0 0 0 1 24 255 240 125 70 61 129 201 201 255 99 5 0 0 0 0 0 0 0 0 0 0 0 0 0 0 0 0 0 0 0 0 0 0 0 0 0 0 0 0 0 0 0 0 0 0 0 0 0 0 0 0 0 0 0 0 0 0 0 0 0 0 0 0 1 20 255 224 207 200 96 61 85 161 255 118 6 0 0 0 0 0 0 0 0 0 0 0 0 0 0 0 0 0 0 0 0 0 2 39 255 203 107 66 76 181 202 197 255 35 2 0 0 0 0 0 0 0 0 0 0 1 14 255 230 201 201 107 60 79 149 255 255 147 79 63 121 205 211 255 205 11 1 0 0 0 0 0 0 0 0 0 0 3 66 255 190 187 140 34
255 135 66 45 83 175 140 143 213 255 211 255 156 76 46 45 58 66 64 44 51 92 186 255 40 2 0 0 0 0 0 0 0 0 0 0 0 0 0 0 1 12 243 255 122 61 41 42 42 42 39 56 110 226 255 20 1 0 0 0 0 0 0 0 0 0 0 0 0 0 0 0 0 0 0 0 0 0 0 0 3 64 255 172 84 47 40 52 62 64 51 39 56 113 248 255 174 140 167 178 183 149 142 209 255 255 142 69 42 40 51 47 45 38 50 94 192 255 51 2 0 0 0 0 0 0 0 0 0 0 0 0 0 0 0 0 1 27 255 204 131 122 163 55 128 131 130 171 255 42 2 0 0 0 0 0 0 0 0 0 0 0 0 0 0 0 0 0 0 0 0 0 0 0 0 0 0 0 0 0 2 52 255 187 91 50 41 43 38 41 59 112 229 255 21 1 0 0 0 0 0 0 0 0 0 0 0 0 0 0 0 0 0 0 0 0 0 0 0 0 0 0 0 4 84 255 166 80 46 42 59 77 77 62 40 47 84 172 255 61 3 0 0 0 0 0 0 0 0 0 0 0 0 0 0 0 0 0 0 0 0 0 0 0 0 0 0 0 0 0 0 0 0 0 0 0 0 0 0 0 0 0 0 0 0 0 0 0 0 0 0 0 0 0 0 0 0 0 0 1 20 255 214 136 133 217 143 222 134 134 206 255 27 1 0 0 0 0 0 0 0 0 0 7 132 255 146 131 152 144 45 24 23 37 110 150 129 152 250 196 96 53 47 66 54 39 31 43 60 56 43 59 115 233 255 20 1 0 0 0 0 0 0 0 0 2 39 255 184 92 53 43 38 47 74 147 255 162 8 0 0 0 0 0 0 0 0 0 0 0 0 0 0 0 0 4 74 255 163 135 147 155 58 46 78 157 255 91 4 0 3 63 255 175 85 47 49 134 156 131 147 255 165 8 0 0 0 0 0 0 0 0 0 0 0 0 0 0 0 0 0 0 0 0 0 0 0 0 0 0 0 0 0 0 0 3 67 255 171 139 144 149 58 44 72 146 255 120 6 0 0 0 0 0 0 0 0 0 0 9 193 255 135 67 42 60 164 144 138 177 255 44 2 0 0 0 0 0 0 0 0 0 0 0 0 0 0 0 0 0 0 0 0 0 0 0 0 0 0 0 0 0 0 0 0 0 0 0 0 0 0 0 0 0 0 0 0 0 0 0 0 0 0 0 7 153 255 151 132 152 121 47 48 88 178 255 52 3 0 0 0 0 0 0 0 0 0 0 0 0 0 0 0 0 0 0 0 1 16 255 236 114 59 44 92 167 133 143 240 255 14 1 0 0 0 0 0 0 0 0 0 5 95 255 151 130 150 148 53 46 80 138 135 78 47 58 155 148 136 160 255 81 4 0 0 0 0 0 0 0 0 0 1 31 255 203 131 124 164 45
126 70 36 34 105 122 88 89 134 255 255 205 87 40 25 29 44 51 49 28 27 48 105 232 255 18 1 0 0 0 0 0 0 0 0 0 0 0 0 0 5 93 255 141 64 32 22 24 26 25 22 29 57 128 255 155 8 0 0 0 0 0 0 0 0 0 0 0 0 0 0 0 0 0 0 0 0 0 0 1 29 255 200 94 44 25 25 39 55 52 39 24 30 59 113 141 99 90 131 255 255 119 96 125 206 160 76 36 22 25 35 34 29 22 26 49 107 228 255 26 1 0 0 0 0 0 0 0 0 0 0 0 0 0 0 0 10 220 255 126 83 86 165 186 204 95 81 107 220 255 18 1 0 0 0 0 0 0 0 0 0 0 0 0 0 0 0 0 0 0 0 0 0 0 0 0 0 0 0 1 26 255 222 103 48 27 23 24 21 21 30 58 130 255 170 8 0 0 0 0 0 0 0 0 0 0 0 0 0 0 0 0 0 0 0 0 0 0 0 0 0 0 2 42 255 196 90 42 25 28 49 73 67 53 27 25 43 95 206 255 30 1 0 0 0 0 0 0 0 0 0 0 0 0 0 0 0 0 0 0 0 0 0 0 0 0 0 0 0 0 0 0 0 0 0 0 0 0 0 0 0 0 0 0 0 0 0 0 0 0 0 0 0 0 0 0 0 0 0 8 164 255 129 86 96 195 255 185 95 84 123 255 222 11 0 0 0 0 0 0 0 0 3 58 255 161 88 75 94 136 43 12 11 29 116 95 77 85 105 85 48 29 30 45 33 21 16 24 36 37 25 31 59 131 255 155 8 0 0 0 0 0 0 0 1 15 255 227 104 47 27 22 20 24 39 77 165 255 70 3 0 0 0 0 0 0 0 0 0 0 0 0 0 0 2 34 255 186 98 80 95 140 64 29 40 84 185 255 44 3 30 255 206 96 45 28 51 149 100 77 88 154 255 69 3 0 0 0 0 0 0 0 0 0 0 0 0 0 0 0 0 0 0 0 0 0 0 0 0 0 0 0 0 0 1 31 255 196 103 81 92 134 65 27 37 77 167 255 51 3 0 0 0 0 0 0 0 0 4 80 255 152 70 35 28 74 141 94 84 111 223 255 20 1 0 0 0 0 0 0 0 0 0 0 0 0 0 0 0 0 0 0 0 0 0 0 0 0 0 0 0 0 0 0 0 0 0 0 0 0 0 0 0 0 0 0 0 0 0 0 0 0 0 3 67 255 163 91 77 96 132 45 27 45 98 210 255 23 1 0 0 0 0 0 0 0 0 0 0 0 0 0 0 0 0 0 0 6 120 255 133 60 32 36 117 112 83 90 145 255 114 6 0 0 0 0 0 0 0 0 2 41 255 170 93 77 98 152 61 28 37 53 53 37 29 64 140 95 79 97 185 255 39 2 0 0 0 0 0 0 0 1 12 234 255 122 81 80 128 84
48 31 19 33 130 79 53 54 80 158 200 111 47 20 13 18 31 38 35 17 14 24 56 136 255 154 7 0 0 0 0 0 0 0 0 0 0 0 0 2 42 255 178 78 33 16 11 12 13 12 10 14 29 70 161 255 69 3 0 0 0 0 0 0 0 0 0 0 0 0 0 0 0 0 0 0 0 0 1 11 234 255 115 49 22 12 15 29 49 44 29 14 15 27 45 55 50 57 105 188 183 101 64 65 83 68 37 18 11 14 21 21 16 11 13 24 56 130 255 245 11 0 0 0 0 0 0 0 0 0 0 0 0 0 0 4 90 255 152 73 52 67 153 255 206 82 51 64 132 255 143 7 0 0 0 0 0 0 0 0 0 0 0 0 0 0 0 0 0 0 0 0 0 0 0 0 0 0 0 11 246 255 128 54 24 13 11 11 9 10 14 29 70 161 255 73 4 0 0 0 0 0 0 0 0 0 0 0 0 0 0 0 0 0 0 0 0 0 0 0 0 1 19 255 239 111 47 21 13 18 45 77 65 46 17 12 22 50 119 255 254 12 1 0 0 0 0 0 0 0 0 0 0 0 0 0 0 0 0 0 0 0 0 0 0 0 0 0 0 0 0 0 0 0 0 0 0 0 0 0 0 0 0 0 0 0 0 0 0 0 0 0 0 0 0 0 0 0 4 73 255 162 75 54 72 140 204 132 68 52 70 151 255 93 5 0 0 0 0 0 0 1 28 255 209 96 51 42 58 97 44 8 6 27 101 60 43 41 40 33 21 14 17 26 17 10 8 11 18 20 13 15 30 70 159 255 64 3 0 0 0 0 0 0 6 109 255 132 55 24 13 9 9 11 19 39 91 200 255 34 2 0 0 0 0 0 0 0 0 0 0 0 0 1 14 255 247 111 57 46 61 99 80 21 21 44 106 231 255 35 255 255 119 50 23 19 67 120 65 44 51 90 197 255 34 1 0 0 0 0 0 0 0 0 0 0 0 0 0 0 0 0 0 0 0 0 0 0 0 0 0 0 0 1 12 247 255 116 58 45 58 97 87 21 19 40 95 211 255 22 1 0 0 0 0 0 0 2 40 255 192 84 36 18 24 112 98 61 50 65 134 255 184 8 0 0 0 0 0 0 0 0 0 0 0 0 0 0 0 0 0 0 0 0 0 0 0 0 0 0 0 0 0 0 0 0 0 0 0 0 0 0 0 0 0 0 0 0 0 0 0 0 1 34 255 204 95 53 44 62 112 50 17 23 51 122 255 181 9 0 0 0 0 0 0 0 0 0 0 0 0 0 0 0 0 0 3 53 255 168 73 31 18 36 133 74 50 54 85 175 255 51 2 0 0 0 0 0 0 1 16 255 225 102 54 45 65 116 88 20 16 19 18 16 21 83 99 60 44 56 111 241 255 17 1 0 0 0 0 0 0 5 88 255 144 69 48 52 96 255
17 13 11 41 137 60 33 31 44 70 81 53 24 10 6 9 20 26 21 9 7 12 31 78 174 255 71 3 0 0 0 0 0 0 0 0 0 0 1 17 255 234 107 43 17 7 4 5 5 5 4 6 15 38 95 210 255 35 2 0 0 0 0 0 0 0 0 0 0 0 0 0 0 0 0 0 0 0 5 99 255 152 65 26 10 6 8 21 48 38 19 7 7 11 17 20 24 38 78 99 100 82 44 32 31 26 16 8 5 6 10 10 7 5 6 12 29 72 163 255 108 5 0 0 0 0 0 0 0 0 0 0 0 0 2 43 255 193 89 43 35 61 135 190 154 83 37 39 79 173 255 63 3 0 0 0 0 0 0 0 0 0 0 0 0 0 0 0 0 0 0 0 0 0 0 0 0 0 5 105 255 163 72 29 11 6 4 4 3 4 6 15 38 94 205 255 37 2 0 0 0 0 0 0 0 0 0 0 0 0 0 0 0 0 0 0 0 0 0 0 0 8 159 255 141 61 25 10 6 12 49 102 83 44 12 6 10 26 67 154 255 107 5 0 0 0 0 0 0 0 0 0 0 0 0 0 0 0 0 0 0 0 0 0 0 0 0 0 0 0 0 0 0 0 0 0 0 0 0 0 0 0 0 0 0 0 0 0 0 0 0 0 0 0 0 0 0 2 37 255 209 97 45 35 56 87 101 84 51 33 41 89 194 255 45 2 0 0 0 0 0 11 230 255 128 56 29 23 36 61 46 7 5 25 78 40 23 18 15 12 8 6 8 12 8 4 3 4 7 8 6 7 15 38 93 204 255 28 1 0 0 0 0 2 49 255 173 77 30 11 5 4 3 5 8 20 50 120 255 255 14 1 0 0 0 0 0 0 0 0 0 0 0 6 140 255 150 65 33 26 39 71 120 21 11 23 59 138 255 255 255 155 66 27 12 18 118 89 45 25 29 52 121 255 255 13 1 0 0 0 0 0 0 0 0 0 0 0 0 0 0 0 0 0 0 0 0 0 0 0 0 0 0 5 106 255 151 67 33 25 38 73 149 24 10 21 53 128 255 180 9 0 0 0 0 0 1 17 255 248 116 47 18 10 32 182 78 40 30 39 79 172 255 83 4 0 0 0 0 0 0 0 0 0 0 0 0 0 0 0 0 0 0 0 0 0 0 0 0 0 0 0 0 0 0 0 0 0 0 0 0 0 0 0 0 0 0 0 0 0 0 1 14 255 255 124 55 30 25 42 85 68 13 12 27 70 162 255 77 4 0 0 0 0 0 0 0 0 0 0 0 0 0 0 0 1 24 255 219 101 40 16 12 46 125 56 31 32 49 105 224 255 24 1 0 0 0 0 0 6 122 255 137 60 32 27 44 88 168 24 7 6 6 7 21 130 72 38 25 32 64 144 255 156 7 0 0 0 0 0 2 41 255 184 84 40 29 39 112 255
5 5 9 66 123 57 22 18 22 29 31 23 11 4 3 4 10 14 10 4 3 6 17 46 106 219 255 38 2 0 0 0 0 0 0 0 0 0 6 128 255 144 64 24 8 3 2 1 2 2 2 3 7 21 57 131 255 255 14 1 0 0 0 0 0 0 0 0 0 0 0 0 0 0 0 0 0 2 50 255 199 93 38 13 5 2 4 15 50 35 12 4 3 4 6 7 11 25 55 51 54 65 32 15 11 9 6 3 2 2 3 3 2 2 2 5 15 42 97 202 255 54 3 0 0 0 0 0 0 0 0 0 0 1 20 255 246 120 54 26 26 67 107 103 103 95 32 25 49 107 218 255 29 1 0 0 0 0 0 0 0 0 0 0 0 0 0 0 0 0 0 0 0 0 0 0 0 2 51 255 200 97 41 15 5 2 1 1 1 1 3 7 21 56 127 255 255 16 1 0 0 0 0 0 0 0 0 0 0 0 0 0 0 0 0 0 0 0 0 0 3 73 255 178 83 35 12 5 3 12 91 191 177 63 10 3 5 14 39 93 196 255 53 2 0 0 0 0 0 0 0 0 0 0 0 0 0 0 0 0 0 0 0 0 0 0 0 0 0 0 0 0 0 0 0 0 0 0 0 0 0 0 0 0 0 0 0 0 0 0 0 0 0 0 0 0 1 16 255 255 129 59 28 24 45 52 49 50 38 21 25 54 120 244 255 20 1 0 0 0 5 92 255 163 77 34 16 12 21 39 49 7 4 21 56 27 12 7 5 4 3 2 3 4 3 1 1 1 2 3 2 3 7 21 55 128 255 219 11 0 0 0 1 24 255 233 109 46 16 5 2 1 1 2 4 10 28 71 157 255 126 6 0 0 0 0 0 0 0 0 0 0 3 69 255 193 92 40 19 15 26 69 187 33 7 12 34 87 199 255 220 98 39 14 8 35 235 88 34 15 16 32 73 156 255 117 6 0 0 0 0 0 0 0 0 0 0 0 0 0 0 0 0 0 0 0 0 0 0 0 0 0 2 54 255 197 93 40 19 14 27 81 211 46 8 11 30 78 171 255 81 4 0 0 0 0 7 154 255 150 69 27 9 9 73 190 89 31 18 23 48 104 212 255 42 2 0 0 0 0 0 0 0 0 0 0 0 0 0 0 0 0 0 0 0 0 0 0 0 0 0 0 0 0 0 0 0 0 0 0 0 0 0 0 0 0 0 0 0 0 0 6 116 255 156 74 32 17 14 30 71 138 17 6 15 41 100 208 255 37 2 0 0 0 0 0 0 0 0 0 0 0 0 0 0 9 196 255 137 60 23 8 11 78 107 51 21 18 29 63 140 255 214 10 0 0 0 0 3 55 255 182 85 37 18 16 34 97 225 50 6 2 2 5 36 195 72 26 14 18 39 87 185 255 73 4 0 0 0 1 19 255 247 117 51 23 18 40 147 172
2 3 16 183 115 72 17 9 10 11 11 9 4 2 1 2 4 6 4 2 1 3 9 28 66 137 255 255 18 1 0 0 0 0 0 0 0 3 58 255 183 91 41 14 4 1 1 0 0 0 1 1 3 12 36 81 161 255 122 6 0 0 0 0 0 0 0 0 0 0 0 0 0 0 0 0 1 25 255 246 125 59 23 7 2 1 2 12 65 34 8 2 1 1 2 3 5 16 37 27 30 51 23 8 4 3 2 1 1 1 1 1 1 1 1 2 8 24 60 124 241 255 27 1 0 0 0 0 0 0 0 0 0 8 176 255 153 75 34 17 24 95 87 60 75 127 37 17 31 67 137 255 245 12 1 0 0 0 0 0 0 0 0 0 0 0 0 0 0 0 0 0 0 0 0 0 1 24 255 240 123 60 24 8 2 1 0 0 0 0 1 3 11 34 79 160 255 139 7 0 0 0 0 0 0 0 0 0 0 0 0 0 0 0 0 0 0 0 0 2 38 255 222 111 52 20 6 2 3 32 255 255 255 227 18 2 2 7 23 58 122 243 255 28 1 0 0 0 0 0 0 0 0 0 0 0 0 0 0 0 0 0 0 0 0 0 0 0 0 0 0 0 0 0 0 0 0 0 0 0 0 0 0 0 0 0 0 0 0 0 0 0 0 0 0 0 7 148 255 160 79 38 18 17 35 30 24 29 26 13 15 34 74 151 255 161 8 0 0 2 44 255 201 101 49 20 8 6 12 26 58 8 3 15 38 17 6 3 2 1 1 1 1 1 1 0 0 0 1 1 1 1 3 11 35 81 165 255 90 4 0 0 10 230 255 149 70 28 8 2 1 0 0 1 1 5 16 44 97 195 255 60 3 0 0 0 0 0 0 0 0 2 35 255 230 119 59 25 10 8 23 111 186 85 9 7 20 56 109 155 116 62 24 8 10 121 210 140 35 9 8 19 46 97 197 255 57 3 0 0 0 0 0 0 0 0 0 0 0 0 0 0 0 0 0 0 0 0 0 0 0 1 29 255 244 124 59 25 10 8 27 135 176 163 13 6 18 50 108 216 255 43 2 0 0 3 72 255 188 92 43 15 6 25 255 159 140 32 11 13 30 65 132 255 255 19 1 0 0 0 0 0 0 0 0 0 0 0 0 0 0 0 0 0 0 0 0 0 0 0 0 0 0 0 0 0 0 0 0 0 0 0 0 0 0 0 0 0 0 0 3 57 255 195 97 46 19 9 8 26 103 255 45 6 8 25 63 131 255 255 15 1 0 0 0 0 0 0 0 0 0 0 0 0 4 84 255 173 85 38 13 5 22 220 109 57 15 10 17 40 87 176 255 92 4 0 0 1 25 255 229 116 55 23 10 10 37 147 171 182 13 1 1 8 99 180 116 24 8 10 24 55 115 223 255 38 2 0 0 9 194 255 157 75 32 13 14 63 168 106
1 4 60 255 164 148 20 5 4 4 4 3 1 1 0 1 1 2 1 1 0 1 4 16 43 85 164 255 170 8 0 0 0 0 0 0 1 28 255 227 116 59 26 7 2 1 0 0 0 0 0 0 2 6 22 52 99 193 255 58 3 0 0 0 0 0 0 0 0 0 0 0 0 0 0 0 11 248 255 151 78 39 13 3 1 1 2 16 132 43 6 1 0 0 1 1 2 8 20 14 18 38 16 4 1 1 1 0 0 0 0 0 0 0 0 1 4 14 38 76 147 255 237 11 0 0 0 0 0 0 0 0 4 80 255 183 95 49 22 11 34 179 88 43 72 168 68 15 20 44 86 168 255 101 5 0 0 0 0 0 0 0 0 0 0 0 0 0 0 0 0 0 0 0 0 0 10 230 255 148 76 38 14 4 1 0 0 0 0 0 0 1 6 21 51 98 190 255 64 3 0 0 0 0 0 0 0 0 0 0 0 0 0 0 0 0 0 0 1 18 255 255 138 70 33 11 3 1 11 214 255 233 239 255 99 6 1 3 13 38 77 150 255 255 13 1 0 0 0 0 0 0 0 0 0 0 0 0 0 0 0 0 0 0 0 0 0 0 0 0 0 0 0 0 0 0 0 0 0 0 0 0 0 0 0 0 0 0 0 0 0 0 0 0 0 3 70 255 192 98 51 24 10 10 24 16 11 14 14 7 8 21 48 93 180 255 70 3 1 20 255 247 126 64 31 11 4 3 6 21 86 11 3 8 21 9 3 1 1 0 0 0 0 0 0 0 0 0 0 0 0 0 2 6 22 53 104 203 255 44 2 5 100 255 178 93 47 17 4 1 0 0 0 0 1 2 9 28 62 121 230 255 29 1 0 0 0 0 0 0 1 15 255 255 140 74 38 15 5 6 37 223 166 255 31 5 12 35 55 66 57 38 14 6 47 255 173 214 65 8 4 11 30 63 123 234 255 27 1 0 0 0 0 0 0 0 0 0 0 0 0 0 0 0 0 0 0 0 0 0 1 13 255 255 150 78 39 15 5 7 51 220 170 255 62 6 10 33 69 135 255 255 21 1 2 36 255 223 117 59 27 9 10 136 255 175 217 60 9 7 18 42 81 156 255 154 7 0 0 0 0 0 0 0 0 0 0 0 0 0 0 0 0 0 0 0 0 0 0 0 0 0 0 0 0 0 0 0 0 0 0 0 0 0 0 0 0 0 0 1 28 255 235 122 62 29 11 4 6 39 220 208 255 16 5 15 41 82 159 255 122 6 0 0 0 0 0 0 0 0 0 0 0 2 42 255 210 108 55 24 7 7 83 255 174 102 15 5 9 26 57 109 208 255 45 2 1 10 200 255 143 74 37 14 5 9 71 203 160 255 64 4 2 35 255 164 220 40 6 5 14 36 72 137 255 255 18 1 4 89 255 188 98 50 21 8 20 185 152 78
1 22 255 193 225 255 53 5 1 1 1 1 0 0 0 0 0 0 0 0 0 1 2 9 27 52 95 181 255 76 4 0 0 0 0 1 12 255 255 139 72 39 15 4 1 0 0 0 0 0 0 0 1 3 12 33 61 116 226 255 28 1 0 0 0 0 0 0 0 0 0 0 0 0 0 5 112 255 173 89 49 24 7 2 0 0 3 43 255 127 10 1 0 0 0 0 1 3 8 7 10 23 9 2 1 0 0 0 0 0 0 0 0 0 0 0 2 7 23 47 86 167 255 100 5 0 0 0 0 0 0 2 41 255 211 109 59 32 14 12 94 215 132 47 98 172 252 26 13 29 54 101 195 255 49 2 0 0 0 0 0 0 0 0 0 0 0 0 0 0 0 0 0 0 0 5 104 255 173 88 47 23 7 2 0 0 0 0 0 0 0 1 3 12 32 60 113 219 255 31 1 0 0 0 0 0 0 0 0 0 0 0 0 0 0 0 0 0 8 164 255 157 82 45 20 6 2 5 89 255 184 154 158 203 255 48 3 2 7 24 48 88 169 255 117 6 0 0 0 0 0 0 0 0 0 0 0 0 0 0 0 0 0 0 0 0 0 0 0 0 0 0 0 0 0 0 0 0 0 0 0 0 0 0 0 0 0 0 0 0 0 0 0 0 2 35 255 219 114 61 33 14 5 5 12 7 5 6 5 3 4 12 31 58 108 212 255 36 10 175 255 149 77 42 19 6 2 1 4 27 175 20 3 4 8 4 1 0 0 0 0 0 0 0 0 0 0 0 0 0 0 0 1 3 12 34 65 124 242 255 22 52 255 201 105 58 31 10 2 1 0 0 0 0 0 1 5 17 40 72 138 255 251 12 1 0 0 0 0 0 6 127 255 157 82 46 24 8 3 9 123 218 181 252 196 12 7 19 25 27 25 20 8 20 255 221 159 195 255 20 3 6 18 41 74 139 255 229 11 0 0 0 0 0 0 0 0 0 0 0 0 0 0 0 0 0 0 0 0 0 6 118 255 167 88 49 25 8 3 15 204 196 171 207 255 29 7 20 45 80 153 255 213 10 16 255 255 133 70 38 16 8 60 255 177 172 197 237 19 4 10 27 50 92 177 255 65 3 0 0 0 0 0 0 0 0 0 0 0 0 0 0 0 0 0 0 0 0 0 0 0 0 0 0 0 0 0 0 0 0 0 0 0 0 0 0 0 0 1 11 233 255 141 74 40 18 5 2 10 132 226 180 255 100 8 8 26 51 95 183 255 54 3 0 0 0 0 0 0 0 0 0 1 19 255 248 127 67 36 14 5 35 255 187 228 255 35 4 5 16 37 66 124 240 255 20 5 84 255 166 86 48 24 8 4 22 255 187 159 197 255 28 14 246 238 179 212 143 10 3 7 23 45 81 158 255 168 10 44 255 210 110 61 33 13 8 75 255 147 69
8 146 255 151 188 202 255 18 1 0 0 0 0 0 0 0 0 0 0 0 0 0 1 4 15 30 53 101 205 255 39 2 0 0 0 5 102 255 158 79 43 23 8 2 0 0 0 0 0 0 0 0 0 2 6 18 36 66 131 255 255 12 1 0 0 0 0 0 0 0 0 0 0 0 3 54 255 193 97 51 29 13 4 1 0 1 14 248 216 255 50 3 0 0 0 0 0 1 3 3 4 9 4 1 0 0 0 0 0 0 0 0 0 0 0 0 1 4 12 27 49 94 190 255 48 2 0 0 0 0 1 18 255 245 122 61 35 19 9 38 255 174 193 98 171 170 255 115 13 17 33 58 112 230 255 24 1 0 0 0 0 0 0 0 0 0 0 0 0 0 0 0 0 0 2 51 255 196 98 50 28 12 4 1 0 0 0 0 0 0 0 0 1 6 18 35 64 127 255 255 13 1 0 0 0 0 0 0 0 0 0 0 0 0 0 0 0 4 73 255 173 87 47 26 11 3 3 42 255 195 116 92 94 130 233 255 23 2 4 13 28 50 93 183 255 53 3 0 0 0 0 0 0 0 0 0 0 0 0 0 0 0 0 0 0 0 0 0 0 0 0 0 0 0 0 0 0 0 0 0 0 0 0 0 0 0 0 0 0 0 0 0 0 1 15 255 254 126 64 36 19 7 3 2 4 3 2 2 2 1 2 6 18 34 62 124 255 255 118 255 168 84 45 25 10 3 1 1 6 66 207 54 4 2 2 1 0 0 0 0 0 0 0 0 0 0 0 0 0 0 0 0 0 2 6 20 39 70 140 255 255 255 234 115 59 34 18 5 1 0 0 0 0 0 0 1 2 9 23 42 77 156 255 99 5 0 0 0 0 3 55 255 176 88 46 27 13 4 4 44 255 163 152 163 255 82 7 8 10 10 10 9 10 128 255 143 127 160 255 102 7 3 9 24 43 78 158 255 99 5 0 0 0 0 0 0 0 0 0 0 0 0 0 0 0 0 0 0 0 3 56 255 184 92 49 29 14 4 5 71 255 160 139 141 255 214 14 11 26 46 85 171 255 112 141 255 147 73 40 23 10 30 255 210 122 137 162 255 93 7 5 15 29 52 101 203 255 30 1 0 0 0 0 0 0 0 0 0 0 0 0 0 0 0 0 0 0 0 0 0 0 0 0 0 0 0 0 0 0 0 0 0 0 0 0 0 0 0 5 90 255 156 78 43 24 9 3 3 48 255 167 139 184 255 46 7 14 30 54 106 214 255 24 1 0 0 0 0 0 0 0 0 7 152 255 142 71 39 21 8 15 248 243 148 190 234 181 11 3 8 21 38 69 138 255 163 55 255 194 95 50 29 13 4 7 111 255 160 134 136 255 214 133 255 158 151 165 255 52 4 4 12 26 46 87 173 255 130 255 237 119 61 36 19 8 35 255 184 132 77
69 255 157 105 118 145 255 110 6 0 0 0 0 0 0 0 0 0 0 0 0 0 0 2 7 15 27 53 115 241 255 17 1 0 2 45 255 178 85 42 23 12 4 1 0 0 0 0 0 0 0 0 0 1 3 9 19 35 70 151 255 105 5 0 0 0 0 0 0 0 0 0 0 1 25 255 217 105 50 26 14 6 2 0 0 5 103 255 178 214 255 22 1 0 0 0 0 0 1 1 2 3 1 0 0 0 0 0 0 0 0 0 0 0 0 0 0 2 6 13 25 49 105 222 255 22 1 0 0 0 7 142 255 136 64 32 18 10 17 227 227 146 184 255 217 148 168 255 52 11 17 31 60 130 255 207 10 0 0 0 0 0 0 0 0 0 0 0 0 0 0 0 0 1 23 255 220 107 51 27 14 6 2 0 0 0 0 0 0 0 0 0 1 3 9 18 33 67 147 255 107 5 0 0 0 0 0 0 0 0 0 0 0 0 0 0 2 36 255 198 94 45 24 13 5 2 17 255 228 111 66 50 52 73 134 255 214 10 2 6 14 26 48 100 213 255 25 1 0 0 0 0 0 0 0 0 0 0 0 0 0 0 0 0 0 0 0 0 0 0 0 0 0 0 0 0 0 0 0 0 0 0 0 0 0 0 0 0 0 0 0 0 0 6 137 255 142 66 33 18 9 3 1 1 1 1 1 1 0 0 1 3 8 18 33 66 146 255 255 211 93 44 24 13 5 1 0 1 20 255 147 251 16 1 1 0 0 0 0 0 0 0 0 0 0 0 0 0 0 0 0 0 0 1 3 10 21 37 76 175 255 255 136 61 31 17 8 2 1 0 0 0 0 0 0 0 1 4 11 22 40 84 177 255 44 2 0 0 1 24 255 205 97 46 24 13 6 2 16 255 201 121 106 104 188 255 39 4 3 3 3 6 58 255 164 88 91 112 164 255 44 3 4 12 22 41 86 185 255 50 2 0 0 0 0 0 0 0 0 0 0 0 0 0 0 0 0 0 1 28 255 214 101 48 25 14 6 3 30 255 174 116 98 88 151 255 93 10 13 24 44 92 198 255 255 175 79 38 21 12 16 230 255 124 78 94 115 170 255 41 4 7 15 27 53 115 252 217 11 1 0 0 0 0 0 0 0 0 0 0 0 0 0 0 0 0 0 0 0 0 0 0 0 0 0 0 0 0 0 0 0 0 0 0 0 0 0 2 41 255 178 84 41 22 12 4 2 19 255 198 118 94 111 221 255 22 8 16 29 56 122 255 178 9 0 0 0 0 0 0 0 3 66 255 161 75 38 21 11 9 99 255 144 102 120 158 255 71 5 4 10 20 36 74 162 255 255 251 111 51 27 15 6 4 48 255 162 116 99 87 153 255 255 190 102 106 122 193 255 20 3 5 13 24 45 95 216 255 255 135 62 32 18 10 18 255 246 126 104 108
255 202 92 64 66 90 159 255 47 2 0 0 0 0 0 0 0 0 0 0 0 0 0 1 3 6 13 26 58 132 255 135 7 1 18 255 212 96 42 20 10 5 2 0 0 0 0 0 0 0 0 0 0 0 1 4 8 16 35 79 172 255 46 2 0 0 0 0 0 0 0 0 0 9 199 255 119 52 24 12 6 2 1 0 2 48 255 178 121 136 255 184 9 0 0 0 0 0 0 0 0 1 0 0 0 0 0 0 0 0 0 0 0 0 0 0 0 1 2 6 12 24 53 123 255 185 9 0 0 3 60 255 157 70 31 15 8 9 95 255 139 107 147 236 175 114 109 205 255 24 9 15 30 67 150 255 80 4 0 0 0 0 0 0 0 0 0 0 0 0 0 0 0 9 180 255 120 53 25 12 6 2 1 0 0 0 0 0 0 0 0 0 0 1 3 8 16 34 77 168 255 47 2 0 0 0 0 0 0 0 0 0 0 0 0 1 15 255 241 109 47 22 11 5 2 7 119 255 126 58 34 25 26 38 70 154 255 86 5 3 6 12 23 51 119 255 199 10 0 0 0 0 0 0 0 0 0 0 0 0 0 0 0 0 0 0 0 0 0 0 0 0 0 0 0 0 0 0 0 0 0 0 0 0 0 0 0 0 0 0 0 0 3 62 255 168 74 33 16 8 4 1 0 0 0 0 0 0 0 0 0 1 3 8 16 34 80 176 225 114 48 22 11 5 2 1 0 6 106 255 154 255 91 5 0 0 0 0 0 0 0 0 0 0 0 0 0 0 0 0 0 0 0 0 1 4 9 18 40 92 178 147 71 31 15 7 3 1 0 0 0 0 0 0 0 0 0 2 5 10 19 42 97 215 255 18 1 0 9 193 255 114 49 22 11 5 2 6 108 255 123 77 65 61 107 231 255 16 2 1 2 26 255 201 93 52 58 69 102 214 255 19 3 5 10 20 44 101 222 255 24 1 0 0 0 0 0 0 0 0 0 0 0 0 0 0 0 0 11 226 255 119 51 23 12 6 3 12 228 243 109 73 61 52 83 178 255 45 8 11 21 46 109 238 225 99 41 18 10 10 94 255 145 68 47 57 72 106 220 255 17 3 6 13 26 59 137 255 85 4 0 0 0 0 0 0 0 0 0 0 0 0 0 0 0 0 0 0 0 0 0 0 0 0 0 0 0 0 0 0 0 0 0 0 0 0 1 18 255 223 99 42 20 10 5 2 7 135 255 122 73 58 63 126 255 148 11 7 13 28 64 145 255 69 4 0 0 0 0 0 1 31 255 195 87 38 18 9 7 45 255 169 82 63 68 99 183 255 31 3 4 9 17 38 93 222 255 141 59 26 12 6 3 20 255 208 103 74 65 54 89 198 222 108 61 65 78 119 255 140 8 2 5 11 22 49 115 219 167 74 31 15 8 10 117 255 140 78 84 164
255 121 52 36 35 52 94 211 255 20 1 0 0 0 0 0 0 0 0 0 0 0 0 0 1 2 5 12 28 69 161 255 61 10 145 255 120 49 20 9 4 2 1 0 0 0 0 0 0 0 0 0 0 0 0 1 3 7 16 39 94 213 255 19 1 0 0 0 0 0 0 0 4 80 255 147 61 25 11 5 2 1 0 1 21 255 218 105 74 80 156 255 75 4 0 0 0 0 0 0 0 0 0 0 0 0 0 0 0 0 0 0 0 0 0 0 0 0 1 2 5 11 26 64 153 255 75 4 1 28 255 197 85 35 14 6 5 44 255 174 85 73 96 121 107 79 67 121 255 127 10 6 14 33 79 179 255 35 2 0 0 0 0 0 0 0 0 0 0 0 0 0 4 77 255 150 62 25 11 5 2 1 0 0 0 0 0 0 0 0 0 0 0 0 1 3 7 16 38 92 214 255 22 1 0 0 0 0 0 0 0 0 0 0 0 6 126 255 134 56 23 9 4 2 3 52 255 157 67 29 16 11 12 18 35 82 181 255 39 3 2 5 10 25 62 146 255 84 4 0 0 0 0 0 0 0 0 0 0 0 0 0 0 0 0 0 0 0 0 0 0 0 0 0 0 0 0 0 0 0 0 0 0 0 0 0 0 0 0 0 0 1 28 255 202 91 37 15 7 3 1 0 0 0 0 0 0 0 0 0 0 0 1 3 7 16 38 73 88 53 23 10 4 2 1 0 2 47 255 160 134 165 255 39 2 0 0 0 0 0 0 0 0 0 0 0 0 0 0 0 0 0 0 0 0 1 4 8 19 41 67 58 32 14 6 3 1 0 0 0 0 0 0 0 0 0 0 1 2 4 8 20 49 122 255 148 7 4 79 255 148 60 24 10 4 2 3 49 255 163 73 46 36 34 57 129 255 104 6 1 9 163 255 115 49 29 33 40 59 125 255 144 8 2 4 9 21 51 124 255 195 9 0 0 0 0 0 0 0 0 0 0 0 0 0 0 0 4 88 255 143 61 25 10 5 2 6 93 255 141 63 42 34 28 44 100 222 255 19 5 9 22 53 97 93 49 20 8 6 41 255 173 78 36 26 32 41 60 127 255 114 7 3 5 12 29 74 177 255 41 2 0 0 0 0 0 0 0 0 0 0 0 0 0 0 0 0 0 0 0 0 0 0 0 0 0 0 0 0 0 0 0 0 0 0 0 7 144 255 128 51 20 9 4 2 4 60 255 157 71 42 32 34 68 154 255 61 6 6 13 32 79 183 255 31 1 0 0 0 1 12 241 251 110 44 18 8 4 19 255 216 96 45 34 36 56 108 245 228 12 2 3 8 18 47 97 118 68 29 12 5 3 8 139 255 121 60 44 38 31 46 82 89 54 34 36 45 70 155 255 60 4 2 4 10 23 52 85 70 35 14 6 6 53 255 172 78 49 80 182
128 66 29 18 17 28 54 126 255 172 8 0 0 0 0 0 0 0 0 0 0 0 0 0 0 1 2 5 13 35 91 209 255 145 255 165 66 24 9 3 1 1 0 0 0 0 0 0 0 0 0 0 0 0 0 0 1 3 7 19 49 125 255 159 8 0 0 0 0 0 0 2 37 255 188 82 31 11 4 2 1 0 0 8 159 255 127 59 43 46 89 192 255 34 2 0 0 0 0 0 0 0 0 0 0 0 0 0 0 0 0 0 0 0 0 0 0 0 0 1 2 4 12 33 85 192 255 35 13 229 255 116 45 17 6 3 18 255 227 104 51 47 55 56 57 50 41 70 158 255 52 5 6 15 41 104 239 255 14 1 0 0 0 0 0 0 0 0 0 0 0 2 37 255 195 85 32 12 4 2 1 0 0 0 0 0 0 0 0 0 0 0 0 0 0 1 3 7 18 49 127 255 198 9 0 0 0 0 0 0 0 0 0 0 3 58 255 172 73 28 10 4 2 2 25 255 213 91 35 14 7 4 5 8 17 42 103 234 255 16 1 2 4 11 31 82 191 255 42 2 0 0 0 0 0 0 0 0 0 0 0 0 0 0 0 0 0 0 0 0 0 0 0 0 0 0 0 0 0 0 0 0 0 0 0 0 0 0 0 0 0 10 214 255 116 47 18 7 3 1 0 0 0 0 0 0 0 0 0 0 0 0 0 1 3 7 16 27 31 21 10 4 2 1 0 1 21 255 221 111 102 112 229 255 15 1 0 0 0 0 0 0 0 0 0 0 0 0 0 0 0 0 0 0 0 1 1 3 8 16 23 21 13 6 2 1 0 0 0 0 0 0 0 0 0 0 0 0 1 1 3 9 25 67 165 255 73 43 255 190 84 31 11 4 2 2 21 255 218 98 42 25 18 17 30 72 168 255 45 6 62 255 147 63 26 15 17 21 33 71 164 255 62 4 2 4 9 26 66 154 255 80 4 0 0 0 0 0 0 0 0 0 0 0 0 0 2 41 255 182 78 31 11 4 2 3 43 255 184 82 36 22 17 14 22 53 128 255 101 7 4 10 22 35 34 21 9 4 17 255 226 100 41 18 13 15 21 33 72 165 255 51 3 2 5 14 39 104 237 255 18 1 0 0 0 0 0 0 0 0 0 0 0 0 0 0 0 0 0 0 0 0 0 0 0 0 0 0 0 0 0 0 0 0 0 3 63 255 164 70 26 9 3 1 2 29 255 208 92 40 22 16 17 36 88 196 255 26 3 6 15 42 108 252 252 12 1 0 0 5 92 255 141 59 22 8 3 8 115 255 127 52 23 17 18 30 60 141 255 95 5 1 3 8 21 37 43 28 13 5 2 4 57 255 158 68 33 24 20 16 21 31 32 23 17 18 24 40 92 203 255 27 2 2 4 10 21 29 26 15 6 3 21 255 212 98 43 34 86 141
51 32 14 8 8 14 31 74 167 255 78 4 0 0 0 0 0 0 0 0 0 0 0 0 0 0 1 2 6 18 51 129 255 255 237 101 37 12 4 1 1 0 0 0 0 0 0 0 0 0 0 0 0 0 0 0 0 1 3 9 26 72 169 255 72 3 0 0 0 0 1 16 255 247 112 45 16 5 2 1 0 0 3 68 255 165 73 34 24 26 50 115 250 255 13 1 0 0 0 0 0 0 0 0 0 0 0 0 0 0 0 0 0 0 0 0 0 0 0 0 1 2 5 17 47 114 253 255 160 255 155 66 24 8 3 7 117 255 136 61 31 28 29 25 28 29 25 41 97 210 255 21 3 7 21 59 143 255 118 6 0 0 0 0 0 0 0 0 0 0 1 16 255 250 117 47 16 5 2 1 0 0 0 0 0 0 0 0 0 0 0 0 0 0 0 0 1 3 9 27 73 167 255 87 4 0 0 0 0 0 0 0 0 1 27 255 218 101 40 14 5 2 1 11 224 255 130 52 18 6 3 2 2 3 8 21 58 140 255 133 7 1 2 5 16 45 114 243 255 18 1 0 0 0 0 0 0 0 0 0 0 0 0 0 0 0 0 0 0 0 0 0 0 0 0 0 0 0 0 0 0 0 0 0 0 0 0 0 0 0 4 84 255 151 65 25 8 3 1 0 0 0 0 0 0 0 0 0 0 0 0 0 0 0 1 3 6 9 10 7 4 1 1 0 0 8 184 255 137 76 75 75 140 255 109 6 0 0 0 0 0 0 0 0 0 0 0 0 0 0 0 0 0 0 0 0 0 1 3 5 7 7 4 2 1 0 0 0 0 0 0 0 0 0 0 0 0 0 0 0 1 4 12 38 98 217 255 255 255 114 46 16 5 2 1 8 157 255 131 57 24 13 8 8 15 40 102 224 255 52 255 197 88 35 13 7 7 10 17 40 97 208 255 27 2 1 4 12 35 88 196 255 39 2 0 0 0 0 0 0 0 0 0 0 0 1 18 255 239 109 43 15 5 2 1 18 255 234 109 47 20 10 7 6 11 29 74 166 255 41 4 4 8 12 11 8 4 7 100 255 137 56 21 8 5 6 10 18 41 100 222 255 24 2 2 7 21 59 141 255 151 7 0 0 0 0 0 0 0 0 0 0 0 0 0 0 0 0 0 0 0 0 0 0 0 0 0 0 0 0 0 0 0 0 1 31 255 210 96 38 13 4 1 1 12 242 255 126 53 22 11 7 8 19 49 119 255 169 10 3 7 22 62 150 255 100 5 0 2 42 255 183 81 32 11 4 4 48 255 168 74 28 12 8 8 15 34 84 190 255 46 3 1 3 8 13 14 10 5 2 2 24 255 207 95 39 18 11 9 7 8 10 11 9 7 8 12 22 53 122 255 216 11 1 1 4 7 9 8 5 3 8 119 255 126 55 25 29 104 99
18 13 6 3 3 7 17 44 100 210 255 40 2 0 0 0 0 0 0 0 0 0 0 0 0 0 0 1 3 9 30 79 166 228 134 61 21 6 2 1 0 0 0 0 0 0 0 0 0 0 0 0 0 0 0 0 0 0 1 4 14 42 101 212 255 37 2 0 0 0 6 134 255 149 66 25 8 2 1 0 0 1 33 255 209 99 43 19 12 14 28 67 148 255 105 5 0 0 0 0 0 0 0 0 0 0 0 0 0 0 0 0 0 0 0 0 0 0 0 0 0 1 2 8 26 67 157 255 255 212 93 38 13 4 4 50 255 173 81 36 18 15 13 10 12 14 14 25 59 131 255 125 8 4 11 34 86 186 255 58 3 0 0 0 0 0 0 0 0 0 6 128 255 147 67 26 8 2 1 0 0 0 0 0 0 0 0 0 0 0 0 0 0 0 0 0 0 1 4 14 42 98 204 255 43 2 0 0 0 0 0 0 1 12 255 255 131 58 22 7 2 1 5 95 255 167 77 30 9 3 1 1 1 1 3 11 33 83 180 255 61 3 1 2 8 25 66 143 255 156 7 0 0 0 0 0 0 0 0 0 0 0 0 0 0 0 0 0 0 0 0 0 0 0 0 0 0 0 0 0 0 0 0 0 0 0 0 0 0 2 39 255 193 90 37 13 4 1 0 0 0 0 0 0 0 0 0 0 0 0 0 0 0 0 0 1 2 3 3 2 1 1 0 0 4 79 255 173 84 54 56 53 87 178 255 48 2 0 0 0 0 0 0 0 0 0 0 0 0 0 0 0 0 0 0 0 0 0 1 2 2 2 1 1 0 0 0 0 0 0 0 0 0 0 0 0 0 0 0 0 1 2 6 21 58 135 255 255 161 68 26 8 2 1 4 68 255 166 77 33 13 6 3 3 8 23 61 137 255 255 255 125 53 19 6 3 3 4 9 23 57 126 255 232 11 1 2 6 19 51 119 251 255 18 1 0 0 0 0 0 0 0 0 0 0 7 148 255 144 64 24 7 2 1 7 140 255 141 64 27 10 4 3 3 5 15 43 105 227 255 16 2 3 4 3 3 3 42 255 175 83 33 11 4 2 2 4 9 23 60 137 255 211 10 1 3 11 34 82 174 255 64 3 0 0 0 0 0 0 0 0 0 0 0 0 0 0 0 0 0 0 0 0 0 0 0 0 0 0 0 0 0 0 1 14 255 255 128 56 21 6 2 1 5 104 255 159 74 31 11 5 3 4 9 28 71 159 255 67 4 3 12 36 89 188 255 47 3 19 255 238 112 47 17 5 2 19 255 220 104 44 15 5 3 3 7 19 50 116 238 255 20 1 1 3 4 4 3 2 1 9 169 255 127 56 22 9 5 3 3 3 3 3 3 3 3 5 12 30 72 160 255 91 5 1 1 2 3 3 2 3 49 255 162 75 31 15 33 136 79
6 5 2 1 1 3 9 26 60 127 255 255 19 1 0 0 0 0 0 0 0 0 0 0 0 0 0 0 1 5 17 45 78 96 68 35 12 3 1 0 0 0 0 0 0 0 0 0 0 0 0 0 0 0 0 0 0 0 1 2 7 24 60 128 255 255 18 1 0 3 59 255 182 88 39 14 4 1 0 0 1 14 255 255 128 59 25 10 5 7 16 40 89 188 255 50 2 0 0 0 0 0 0 0 0 0 0 0 0 0 0 0 0 0 0 0 0 0 0 0 0 0 1 4 14 41 97 195 230 126 57 22 6 3 21 255 222 107 49 21 9 6 5 4 4 5 7 14 36 80 165 255 50 4 6 19 52 113 230 255 30 1 0 0 0 0 0 0 0 3 59 255 182 87 39 14 4 1 0 0 0 0 0 0 0 0 0 0 0 0 0 0 0 0 0 0 0 1 2 7 24 57 122 245 255 18 1 0 0 0 0 0 5 114 255 165 77 34 12 3 1 2 45 255 199 99 46 17 5 1 0 0 0 0 1 5 19 50 109 221 255 29 2 1 4 14 38 84 180 255 73 3 0 0 0 0 0 0 0 0 0 0 0 0 0 0 0 0 0 0 0 0 0 0 0 0 0 0 0 0 0 0 0 0 0 0 0 0 1 16 255 246 119 54 21 6 2 0 0 0 0 0 0 0 0 0 0 0 0 0 0 0 0 0 0 0 1 1 1 1 0 0 0 2 37 255 206 104 54 40 44 39 55 111 227 255 21 1 0 0 0 0 0 0 0 0 0 0 0 0 0 0 0 0 0 0 0 0 0 0 1 1 0 0 0 0 0 0 0 0 0 0 0 0 0 0 0 0 0 0 0 1 3 11 35 79 144 157 93 42 14 4 1 2 35 255 212 101 46 19 6 2 1 1 4 12 37 89 199 255 179 81 32 10 3 1 1 2 4 12 33 75 163 255 93 5 1 3 10 30 71 151 255 152 7 0 0 0 0 0 0 0 0 0 3 65 255 177 86 38 13 4 1 3 63 255 175 84 38 14 5 2 1 1 2 8 26 65 141 255 111 6 1 1 1 1 17 255 231 110 50 19 5 2 1 1 2 4 13 36 82 170 255 90 5 2 5 19 48 104 211 255 29 1 0 0 0 0 0 0 0 0 0 0 0 0 0 0 0 0 0 0 0 0 0 0 0 0 0 0 0 0 0 6 124 255 162 76 33 11 3 1 3 51 255 196 95 44 17 6 2 1 2 5 16 43 99 202 255 29 3 6 21 53 114 237 255 34 158 255 145 67 28 9 3 7 131 255 136 63 26 8 2 1 1 3 10 30 68 142 255 165 8 1 1 1 1 1 1 4 68 255 162 77 34 12 4 2 1 1 1 1 1 1 1 1 2 6 17 44 97 199 255 45 2 0 1 1 1 1 21 255 220 103 45 18 12 52 156 84
2 1 1 0 0 1 4 14 36 75 154 255 159 8 0 0 0 0 0 0 0 0 0 0 0 0 0 0 1 2 8 23 34 38 31 18 6 1 0 0 0 0 0 0 0 0 0 0 0 0 0 0 0 0 0 0 0 0 0 1 4 13 36 76 158 255 171 8 2 27 255 221 111 53 23 7 2 0 0 0 6 120 255 160 77 36 14 5 2 3 8 24 55 117 236 255 24 1 0 0 0 0 0 0 0 0 0 0 0 0 0 0 0 0 0 0 0 0 0 0 0 0 0 2 7 25 56 90 100 68 35 12 4 9 158 255 139 66 31 11 4 2 2 1 1 2 3 7 22 51 106 218 255 21 4 11 31 68 141 255 255 12 1 0 0 0 0 0 1 28 255 225 112 52 23 7 2 0 0 0 0 0 0 0 0 0 0 0 0 0 0 0 0 0 0 0 0 0 1 4 13 34 72 148 255 150 7 0 0 0 0 3 56 255 200 99 47 19 6 2 1 20 255 243 121 59 27 9 2 1 0 0 0 0 1 3 10 30 65 136 255 255 12 1 2 7 22 51 110 219 255 36 2 0 0 0 0 0 0 0 0 0 0 0 0 0 0 0 0 0 0 0 0 0 0 0 0 0 0 0 0 0 0 0 0 0 0 0 6 125 255 150 72 32 11 3 1 0 0 0 0 0 0 0 0 0 0 0 0 0 0 0 0 0 0 0 0 0 0 0 0 0 1 16 255 254 126 63 36 30 34 29 37 68 141 255 158 8 0 0 0 0 0 0 0 0 0 0 0 0 0 0 0 0 0 0 0 0 0 0 0 0 0 0 0 0 0 0 0 0 0 0 0 0 0 0 0 0 0 0 0 0 1 6 20 43 63 67 49 24 7 2 1 17 255 255 133 62 28 10 3 1 0 1 2 7 23 56 103 135 96 52 20 5 1 0 0 1 2 6 19 47 99 198 255 43 2 1 5 17 43 90 180 255 69 3 0 0 0 0 0 0 0 1 31 255 217 108 52 22 7 2 2 32 255 221 108 51 22 7 2 1 0 0 1 4 15 41 89 184 255 52 3 0 1 6 124 255 146 69 31 10 3 1 0 0 1 2 7 22 50 102 205 255 44 3 3 10 28 62 131 255 228 11 1 0 0 0 0 0 0 0 0 0 0 0 0 0 0 0 0 0 0 0 0 0 0 0 0 0 0 0 3 58 255 191 96 46 19 5 1 1 23 255 237 120 57 26 9 3 1 0 1 2 8 27 61 128 255 210 11 3 11 32 69 148 255 255 255 181 88 41 16 4 4 56 255 173 84 39 15 4 1 0 1 1 5 17 41 85 176 255 72 4 0 0 0 0 2 32 255 207 101 48 20 6 2 1 0 0 0 0 0 0 0 0 1 3 9 26 59 123 247 255 22 1 0 0 1 8 177 255 141 66 28 11 16 147 153 134
1 0 0 0 0 1 2 7 21 46 93 183 255 71 3 0 0 0 0 0 0 0 0 0 0 0 0 0 0 1 4 10 13 14 13 8 3 1 0 0 0 0 0 0 0 0 0 0 0 0 0 0 0 0 0 0 0 0 0 0 2 7 21 48 96 189 255 82 16 240 255 138 68 33 13 3 1 0 0 3 55 255 193 98 48 21 7 2 1 1 4 13 35 73 148 255 213 10 0 0 0 0 0 0 0 0 0 0 0 0 0 0 0 0 0 0 0 0 0 0 0 0 0 1 4 14 30 39 42 34 19 6 5 70 255 177 88 43 18 6 2 1 1 0 0 1 1 3 12 33 69 141 255 152 9 6 18 42 85 168 255 111 5 0 0 0 0 1 13 255 255 140 69 33 12 3 1 0 0 0 0 0 0 0 0 0 0 0 0 0 0 0 0 0 0 0 0 0 0 2 6 20 44 90 183 255 67 3 0 0 1 28 255 237 122 61 29 10 3 1 9 186 255 150 74 36 15 4 1 0 0 0 0 0 0 1 5 17 41 83 168 255 115 6 1 3 12 32 68 135 255 255 16 1 0 0 0 0 0 0 0 0 0 0 0 0 0 0 0 0 0 0 0 0 0 0 0 0 0 0 0 0 0 0 0 0 0 3 57 255 186 93 45 19 6 1 0 0 0 0 0 0 0 0 0 0 0 0 0 0 0 0 0 0 0 0 0 0 0 0 0 0 7 146 255 157 77 40 24 22 24 21 25 45 88 176 255 67 3 0 0 0 0 0 0 0 0 0 0 0 0 0 0 0 0 0 0 0 0 0 0 0 0 0 0 0 0 0 0 0 0 0 0 0 0 0 0 0 0 0 0 0 1 3 10 21 26 27 23 12 4 1 7 156 255 165 82 40 16 5 1 0 0 0 1 3 13 34 50 57 48 32 12 3 1 0 0 0 1 3 10 29 62 123 247 255 20 1 2 9 26 55 111 222 255 36 2 0 0 0 0 0 1 13 255 255 136 67 32 12 3 1 15 255 255 139 68 32 12 3 1 0 0 0 0 2 8 26 59 119 236 255 24 1 3 54 255 185 93 46 18 5 1 0 0 0 0 1 3 12 31 63 127 249 255 20 2 5 16 39 81 165 255 99 5 0 0 0 0 0 0 0 0 0 0 0 0 0 0 0 0 0 0 0 0 0 0 0 0 0 0 1 30 255 232 117 59 28 10 3 1 9 193 255 145 73 36 14 4 1 0 0 0 1 4 15 40 81 162 255 82 6 6 19 44 94 195 255 254 118 56 25 8 3 27 255 224 111 55 25 8 2 0 0 0 1 2 9 25 53 110 217 255 36 2 0 0 1 12 249 255 133 65 30 11 3 1 0 0 0 0 0 0 0 0 0 0 1 4 15 37 76 153 255 196 9 0 0 4 77 255 180 91 44 17 9 58 255 187 252
0 0 0 0 0 0 1 3 12 29 59 114 221 255 36 2 0 0 0 0 0 0 0 0 0 0 0 0 0 0 1 3 5 5 4 3 1 0 0 0 0 0 0 0 0 0 0 0 0 0 0 0 0 0 0 0 0 0 0 0 1 3 12 30 60 116 223 255 255 255 173 87 44 20 6 2 0 0 1 27 255 233 121 63 31 12 3 1 0 1 2 7 21 48 92 178 255 91 4 0 0 0 0 0 0 0 0 0 0 0 0 0 0 0 0 0 0 0 0 0 0 0 0 0 2 6 13 16 16 15 9 4 36 255 220 113 59 29 10 3 1 0 0 0 0 0 0 2 6 22 49 93 179 255 71 6 10 27 54 103 201 255 55 3 0 0 0 6 118 255 174 88 45 20 6 2 0 0 0 0 0 0 0 0 0 0 0 0 0 0 0 0 0 0 0 0 0 0 0 1 3 10 28 58 115 222 255 32 1 1 12 255 255 147 76 39 17 5 1 4 85 255 185 94 48 22 8 2 0 0 0 0 0 0 0 1 2 9 26 54 105 205 255 59 3 2 6 19 43 83 162 255 139 7 0 0 0 0 0 0 0 0 0 0 0 0 0 0 0 0 0 0 0 0 0 0 0 0 0 0 0 0 0 0 0 0 1 29 255 232 119 61 29 10 3 1 0 0 0 0 0 0 0 0 0 0 0 0 0 0 0 0 0 0 0 0 0 0 0 0 0 3 68 255 194 99 51 26 15 13 14 12 16 30 58 112 217 255 31 1 0 0 0 0 0 0 0 0 0 0 0 0 0 0 0 0 0 0 0 0 0 0 0 0 0 0 0 0 0 0 0 0 0 0 0 0 0 0 0 0 0 0 0 1 4 8 10 10 9 5 2 4 71 255 193 101 54 26 9 2 1 0 0 0 0 2 7 18 22 23 22 17 6 1 0 0 0 0 0 1 5 17 40 78 156 255 168 8 1 4 14 35 70 141 255 255 18 1 0 0 0 0 6 123 255 170 86 43 19 6 2 7 138 255 171 88 45 20 6 2 0 0 0 0 0 1 4 16 41 78 149 255 223 11 24 255 228 119 63 32 10 3 1 0 0 0 0 0 2 6 18 41 79 154 255 153 8 3 8 24 53 105 206 255 51 2 0 0 0 0 0 0 0 0 0 0 0 0 0 0 0 0 0 0 0 0 0 0 0 0 1 13 255 255 146 73 37 16 5 1 4 85 255 179 90 47 22 7 2 1 0 0 0 0 2 8 26 54 105 202 255 39 5 10 29 61 110 162 131 76 37 15 5 12 219 255 144 74 37 14 4 1 0 0 0 0 1 4 14 35 70 137 255 255 15 1 0 5 97 255 164 85 44 18 5 1 0 0 0 0 0 0 0 0 0 0 0 1 2 8 23 50 95 182 255 89 4 2 37 255 216 114 61 30 11 30 255 227 223 249
0 0 0 0 0 0 0 2 6 18 39 73 139 255 255 15 1 0 0 0 0 0 0 0 0 0 0 0 0 0 0 1 1 1 1 1 0 0 0 0 0 0 0 0 0 0 0 0 0 0 0 0 0 0 0 0 0 0 0 0 0 1 6 18 40 73 142 255 255 228 111 58 29 11 3 1 0 1 12 255 255 147 77 42 19 6 2 0 0 0 1 3 12 32 60 111 210 255 44 2 0 0 0 0 0 0 0 0 0 0 0 0 0 0 0 0 0 0 0 0 0 0 0 0 1 2 5 6 6 5 4 17 255 255 140 75 42 19 5 1 0 0 0 0 0 0 0 1 3 13 36 64 116 224 255 39 7 16 36 66 126 241 255 28 1 0 3 57 255 201 108 58 30 11 3 1 0 0 0 0 0 0 0 0 0 0 0 0 0 0 0 0 0 0 0 0 0 0 0 0 1 5 17 39 74 140 255 255 15 6 117 255 174 91 49 25 9 2 3 44 255 218 115 62 32 13 4 1 0 0 0 0 0 0 0 0 1 4 15 37 68 128 241 255 31 2 3 11 28 54 100 193 255 66 3 0 0 0 0 0 0 0 0 0 0 0 0 0 0 0 0 0 0 0 0 0 0 0 0 0 0 0 0 0 0 1 12 246 255 147 77 41 18 5 1 0 0 0 0 0 0 0 0 0 0 0 0 0 0 0 0 0 0 0 0 0 0 0 0 0 1 33 255 226 121 65 35 16 8 6 6 6 9 20 40 73 138 255 255 12 1 0 0 0 0 0 0 0 0 0 0 0 0 0 0 0 0 0 0 0 0 0 0 0 0 0 0 0 0 0 0 0 0 0 0 0 0 0 0 0 0 0 0 0 1 3 3 3 3 2 2 35 255 223 118 65 36 15 4 1 0 0 0 0 0 1 3 7 9 9 9 7 2 1 0 0 0 0 0 1 3 9 26 53 98 184 255 73 4 2 7 22 47 88 167 255 186 8 0 0 0 3 57 255 198 106 57 29 10 3 4 66 255 198 105 58 31 11 3 1 0 0 0 0 0 0 2 9 29 54 95 180 255 126 207 255 145 78 45 21 6 1 0 0 0 0 0 0 1 3 10 27 53 96 183 255 66 4 4 14 36 69 130 248 255 26 1 0 0 0 0 0 0 0 0 0 0 0 0 0 0 0 0 0 0 0 0 0 0 0 5 112 255 171 91 49 24 8 2 3 43 255 214 113 60 31 12 4 1 0 0 0 0 0 1 4 16 39 70 130 255 255 18 6 18 40 58 71 64 48 25 8 7 93 255 174 93 52 25 8 2 0 0 0 0 0 0 2 7 23 47 86 164 255 127 6 2 45 255 198 104 57 30 10 3 1 0 0 0 0 0 0 0 0 0 0 0 0 1 4 13 33 61 113 216 255 47 17 255 255 136 74 44 20 19 247 255 175 187 177
0 0 0 0 0 0 0 1 3 10 26 49 87 163 255 145 7 0 0 0 0 0 0 0 0 0 0 0 0 0 0 0 0 0 0 0 0 0 0 0 0 0 0 0 0 0 0 0 0 0 0 0 0 0 0 0 0 0 0 0 0 1 3 10 26 50 90 159 206 132 74 41 19 5 1 0 0 5 114 255 176 92 52 28 11 3 1 0 0 0 0 2 6 20 41 71 131 250 255 20 1 0 0 0 0 0 0 0 0 0 0 0 0 0 0 0 0 0 0 0 0 0 0 0 0 1 1 2 2 2 8 138 255 166 89 53 30 11 3 1 0 0 0 0 0 0 0 0 2 7 26 48 77 142 255 255 21 9 23 45 80 150 255 255 13 2 29 255 237 124 68 40 19 6 1 0 0 0 0 0 0 0 0 0 0 0 0 0 0 0 0 0 0 0 0 0 0 0 0 0 1 2 9 26 50 88 169 255 155 75 255 205 108 59 33 14 4 2 21 255 255 135 73 42 21 7 2 0 0 0 0 0 0 0 0 0 1 2 8 24 47 80 148 255 255 13 2 5 17 37 65 121 230 255 34 1 0 0 0 0 0 0 0 0 0 0 0 0 0 0 0 0 0 0 0 0 0 0 0 0 0 0 0 0 0 5 98 255 171 92 53 28 10 3 1 0 0 0 0 0 0 0 0 0 0 0 0 0 0 0 0 0 0 0 0 0 0 0 0 1 13 255 255 140 76 45 24 9 4 2 2 2 4 11 28 50 88 166 255 103 5 0 0 0 0 0 0 0 0 0 0 0 0 0 0 0 0 0 0 0 0 0 0 0 0 0 0 0 0 0 0 0 0 0 0 0 0 0 0 0 0 0 0 0 0 1 1 1 1 1 15 255 255 139 74 44 23 8 2 1 0 0 0 0 0 0 1 2 3 3 3 2 1 0 0 0 0 0 0 0 1 5 16 38 64 114 218 255 37 3 4 13 33 58 102 193 255 86 4 0 1 28 255 233 123 68 39 18 5 3 34 255 229 122 67 40 19 6 1 0 0 0 0 0 0 0 1 5 19 40 64 113 220 255 255 182 93 55 33 13 3 1 0 0 0 0 0 0 0 1 5 17 36 63 115 220 255 32 3 8 24 48 83 153 255 224 11 0 0 0 0 0 0 0 0 0 0 0 0 0 0 0 0 0 0 0 0 0 0 3 53 255 200 105 59 34 14 4 2 19 255 255 134 73 42 20 6 2 0 0 0 0 0 0 0 2 9 27 50 85 160 255 135 10 10 23 29 30 30 28 14 6 48 255 207 109 63 38 16 4 1 0 0 0 0 0 0 1 4 14 33 57 102 191 255 59 24 255 245 126 69 41 19 5 1 0 0 0 0 0 0 0 0 0 0 0 0 0 0 2 7 22 42 72 135 255 255 223 255 160 85 52 32 20 140 255 185 130 133 118
0 0 0 0 0 0 0 0 1 5 16 34 57 102 197 255 72 3 0 0 0 0 0 0 0 0 0 0 0 0 0 0 0 0 0 0 0 0 0 0 0 0 0 0 0 0 0 0 0 0 0 0 0 0 0 0 0 0 0 0 0 0 1 5 16 35 57 79 92 73 50 29 11 3 1 0 3 58 255 207 110 61 37 17 5 1 0 0 0 0 0 1 3 11 28 48 82 156 255 178 8 0 0 0 0 0 0 0 0 0 0 0 0 0 0 0 0 0 0 0 0 0 0 0 0 0 0 1 1 4 63 255 193 103 60 39 20 6 1 0 0 0 0 0 0 0 0 0 1 4 17 37 56 90 166 255 158 13 14 31 53 93 177 255 131 20 255 255 150 78 46 27 10 3 1 0 0 0 0 0 0 0 0 0 0 0 0 0 0 0 0 0 0 0 0 0 0 0 0 0 0 1 5 16 35 59 106 205 255 255 255 128 69 41 22 7 2 10 197 255 158 84 50 30 12 3 1 0 0 0 0 0 0 0 0 0 0 1 4 15 33 53 91 170 255 119 6 3 9 25 45 77 144 255 255 16 1 0 0 0 0 0 0 0 0 0 0 0 0 0 0 0 0 0 0 0 0 0 0 0 0 0 0 0 2 47 255 201 106 61 37 18 5 1 0 0 0 0 0 0 0 0 0 0 0 0 0 0 0 0 0 0 0 0 0 0 0 0 0 6 119 255 166 87 51 31 14 4 1 1 1 1 2 6 18 36 59 105 200 255 50 2 0 0 0 0 0 0 0 0 0 0 0 0 0 0 0 0 0 0 0 0 0 0 0 0 0 0 0 0 0 0 0 0 0 0 0 0 0 0 0 0 0 0 0 0 0 0 1 6 120 255 165 87 50 30 13 4 1 0 0 0 0 0 0 0 0 1 1 1 1 1 0 0 0 0 0 0 0 0 1 2 9 26 44 74 138 255 255 18 3 7 22 40 66 118 220 255 44 3 13 255 255 147 78 46 27 10 3 17 255 255 143 77 46 28 11 3 1 0 0 0 0 0 0 0 1 3 11 30 47 74 139 255 232 121 65 41 23 7 2 0 0 0 0 0 0 0 0 1 2 9 25 44 75 140 255 255 14 5 14 34 55 95 176 255 92 5 0 0 0 0 0 0 0 0 0 0 0 0 0 0 0 0 0 0 0 0 1 25 255 239 125 68 40 22 7 2 8 153 255 157 84 50 29 11 3 1 0 0 0 0 0 0 0 1 5 18 37 59 102 192 255 65 8 11 13 12 13 14 8 26 255 252 131 72 45 28 9 2 0 0 0 0 0 0 0 0 2 7 21 40 66 121 233 255 255 255 156 82 49 29 11 3 1 0 0 0 0 0 0 0 0 0 0 0 0 0 0 1 3 12 29 49 85 162 255 255 210 103 58 38 27 93 255 212 120 98 94 82
0 0 0 0 0 0 0 0 1 2 9 23 40 68 125 234 255 39 2 0 0 0 0 0 0 0 0 0 0 0 0 0 0 0 0 0 0 0 0 0 0 0 0 0 0 0 0 0 0 0 0 0 0 0 0 0 0 0 0 0 0 0 1 2 9 23 35 38 40 39 34 19 6 1 0 1 31 255 244 129 72 44 25 10 3 1 0 0 0 0 0 0 1 6 18 34 56 99 187 255 77 4 0 0 0 0 0 0 0 0 0 0 0 0 0 0 0 0 0 0 0 0 0 0 0 0 0 0 2 31 255 230 122 68 44 29 12 3 1 0 0 0 0 0 0 0 0 0 0 2 10 28 44 62 103 192 255 80 12 21 38 62 110 207 255 255 255 176 94 54 32 17 5 1 0 0 0 0 0 0 0 0 0 0 0 0 0 0 0 0 0 0 0 0 0 0 0 0 0 0 0 1 2 9 23 43 71 133 255 255 161 84 48 29 13 4 5 91 255 188 99 57 35 19 6 2 0 0 0 0 0 0 0 0 0 0 0 0 2 8 22 38 60 107 204 255 60 4 5 15 32 53 91 172 255 159 7 0 0 0 0 0 0 0 0 0 0 0 0 0 0 0 0 0 0 0 0 0 0 0 0 0 0 1 23 255 248 129 70 43 26 10 3 1 0 0 0 0 0 0 0 0 0 0 0 0 0 0 0 0 0 0 0 0 0 0 0 0 3 57 255 201 106 59 36 20 7 2 1 0 0 0 1 3 10 26 43 70 128 247 255 25 1 0 0 0 0 0 0 0 0 0 0 0 0 0 0 0 0 0 0 0 0 0 0 0 0 0 0 0 0 0 0 0 0 0 0 0 0 0 0 0 0 0 0 0 0 0 3 56 255 196 104 58 36 20 7 2 0 0 0 0 0 0 0 0 0 0 0 0 0 0 0 0 0 0 0 0 0 0 0 1 4 17 32 52 89 169 255 189 9 4 13 27 45 75 137 255 255 31 126 255 179 94 53 32 17 5 9 152 255 173 91 52 33 17 5 1 0 0 0 0 0 0 0 0 0 1 6 20 37 54 84 121 114 79 51 33 14 4 1 0 0 0 0 0 0 0 0 0 1 5 15 32 52 90 169 255 117 8 8 22 39 62 111 209 255 46 2 0 0 0 0 0 0 0 0 0 0 0 0 0 0 0 0 0 0 0 10 217 255 151 81 47 27 13 4 4 71 255 187 99 57 35 19 6 1 0 0 0 0 0 0 0 0 1 2 10 28 45 69 123 231 255 35 6 5 5 5 5 14 224 255 159 85 52 34 18 5 1 0 0 0 0 0 0 0 0 1 4 12 29 47 79 154 255 255 202 102 58 36 18 5 1 0 0 0 0 0 0 0 0 0 0 0 0 0 0 0 0 2 6 19 36 58 105 188 221 132 72 44 33 76 255 240 132 84 80 72 63
0 0 0 0 0 0 0 0 0 1 4 14 29 51 83 149 255 255 20 1 0 0 0 0 0 0 0 0 0 0 0 0 0 0 0 0 0 0 0 0 0 0 0 0 0 0 0 0 0 0 0 0 0 0 0 0 0 0 0 0 0 0 0 1 4 13 20 18 17 20 20 10 3 1 1 15 255 255 157 86 52 33 16 5 1 0 0 0 0 0 0 0 1 3 10 24 42 69 121 223 255 37 2 0 0 0 0 0 0 0 0 0 0 0 0 0 0 0 0 0 0 0 0 0 0 0 0 1 13 255 255 151 82 51 35 20 6 1 0 0 0 0 0 0 0 0 0 0 0 1 5 19 37 47 71 124 231 255 50 15 27 46 74 137 255 255 229 116 66 41 22 9 2 1 0 0 0 0 0 0 0 0 0 0 0 0 0 0 0 0 0 0 0 0 0 0 0 0 0 0 0 0 1 4 14 32 53 87 130 142 98 61 36 19 7 4 49 255 224 121 68 43 25 11 3 1 0 0 0 0 0 0 0 0 0 0 0 0 1 4 13 27 44 73 132 244 255 31 3 8 22 40 64 110 202 255 75 4 0 0 0 0 0 0 0 0 0 0 0 0 0 0 0 0 0 0 0 0 0 0 0 0 0 9 205 255 162 87 52 32 16 5 1 0 0 0 0 0 0 0 0 0 0 0 0 0 0 0 0 0 0 0 0 0 0 0 0 1 28 255 243 131 73 44 25 11 3 1 0 0 0 0 0 1 5 16 33 53 87 161 255 241 11 0 0 0 0 0 0 0 0 0 0 0 0 0 0 0 0 0 0 0 0 0 0 0 0 0 0 0 0 0 0 0 0 0 0 0 0 0 0 0 0 0 0 0 0 1 29 255 243 128 72 44 26 11 3 1 0 0 0 0 0 0 0 0 0 0 0 0 0 0 0 0 0 0 0 0 0 0 0 1 2 9 22 40 64 109 201 255 90 6 6 17 33 53 89 167 255 255 255 212 115 66 41 22 9 6 73 255 202 111 64 40 23 9 3 1 0 0 0 0 0 0 0 0 0 1 3 12 30 43 52 57 56 53 44 26 8 2 0 0 0 0 0 0 0 0 0 0 1 2 8 23 41 64 111 210 255 64 7 13 28 46 75 136 255 255 23 1 0 0 0 0 0 0 0 0 0 0 0 0 0 0 0 0 0 5 97 255 183 99 58 36 17 7 3 39 255 232 123 69 43 25 11 3 1 0 0 0 0 0 0 0 0 0 1 5 19 36 53 83 150 255 255 17 2 1 2 7 101 255 187 103 62 41 25 10 2 1 0 0 0 0 0 0 0 0 0 2 6 19 36 60 105 179 202 127 74 46 28 10 3 1 0 0 0 0 0 0 0 0 0 0 0 0 0 0 0 0 1 3 10 26 44 69 95 104 80 56 41 79 255 255 149 88 69 78 70 61
0 0 0 0 0 0 0 0 0 0 2 7 21 44 65 102 180 255 195 9 0 0 0 0 0 0 0 0 0 0 0 0 0 0 0 0 0 0 0 0 0 0 0 0 0 0 0 0 0 0 0 0 0 0 0 0 0 0 0 0 0 0 0 0 2 5 9 8 7 8 9 4 1 1 7 145 255 188 106 66 44 24 9 2 1 0 0 0 0 0 0 0 0 1 5 16 36 57 87 150 255 255 16 1 0 0 0 0 0 0 0 0 0 0 0 0 0 0 0 0 0 0 0 0 0 0 0 6 128 255 184 105 66 45 29 12 3 1 0 0 0 0 0 0 0 0 0 0 0 1 3 11 32 43 59 89 155 255 255 37 20 38 60 97 156 199 140 86 54 35 14 4 1 0 0 0 0 0 0 0 0 0 0 0 0 0 0 0 0 0 0 0 0 0 0 0 0 0 0 0 0 0 0 2 8 25 46 61 67 69 63 50 29 11 4 27 255 255 149 87 56 36 16 5 1 0 0 0 0 0 0 0 0 0 0 0 0 0 0 2 6 18 38 59 93 161 255 255 16 5 14 32 53 80 134 238 255 39 2 0 0 0 0 0 0 0 0 0 0 0 0 0 0 0 0 0 0 0 0 0 0 0 4 88 255 195 111 69 45 23 8 2 1 0 0 0 0 0 0 0 0 0 0 0 0 0 0 0 0 0 0 0 0 0 0 0 1 12 249 255 162 93 60 39 17 5 2 0 0 0 0 0 0 1 2 9 25 47 70 110 193 255 103 5 0 0 0 0 0 0 0 0 0 0 0 0 0 0 0 0 0 0 0 0 0 0 0 0 0 0 0 0 0 0 0 0 0 0 0 0 0 0 0 0 0 0 1 13 255 255 164 93 59 37 18 6 1 0 0 0 0 0 0 0 0 0 0 0 0 0 0 0 0 0 0 0 0 0 0 0 0 0 1 4 13 35 54 80 132 233 255 48 5 9 25 44 68 115 213 255 255 146 84 55 35 14 6 40 255 240 134 80 53 34 15 4 1 0 0 0 0 0 0 0 0 0 0 0 1 6 23 36 34 28 29 39 43 20 4 1 0 0 0 0 0 0 0 0 0 0 0 1 4 15 35 55 84 142 255 255 38 8 19 39 60 97 172 255 227 10 0 0 0 0 0 0 0 0 0 0 0 0 0 0 0 0 2 51 255 225 124 75 49 29 10 4 20 255 255 157 90 57 36 16 5 1 0 0 0 0 0 0 0 0 0 0 1 3 11 31 48 67 105 185 255 139 7 1 3 50 255 222 125 77 54 38 17 5 1 0 0 0 0 0 0 0 0 0 0 1 3 11 30 54 76 94 99 82 63 43 20 5 1 0 0 0 0 0 0 0 0 0 0 0 0 0 0 0 0 0 0 1 5 18 37 50 50 51 52 56 107 255 255 173 101 71 80 115 109 98
0 0 0 0 0 0 0 0 0 0 1 4 14 47 66 86 125 208 255 87 4 0 0 0 0 0 0 0 0 0 0 0 0 0 0 0 0 0 0 0 0 0 0 0 0 0 0 0 0 0 0 0 0 0 0 0 0 0 0 0 0 0 0 0 1 2 3 3 2 3 3 1 1 3 70 255 218 130 88 69 45 17 4 1 0 0 0 0 0 0 0 0 0 1 2 10 33 61 80 111 184 255 157 7 0 0 0 0 0 0 0 0 0 0 0 0 0 0 0 0 0 0 0 0 0 0 3 67 255 223 131 89 72 53 23 6 2 0 0 0 0 0 0 0 0 0 0 0 0 0 1 7 28 51 69 81 114 187 255 255 35 39 66 81 92 101 90 79 59 33 8 2 0 0 0 0 0 0 0 0 0 0 0 0 0 0 0 0 0 0 0 0 0 0 0 0 0 0 0 0 0 0 0 1 4 18 47 50 39 37 45 50 23 7 14 255 255 180 110 79 62 34 10 3 1 0 0 0 0 0 0 0 0 0 0 0 0 0 0 1 3 12 38 65 82 117 197 255 156 10 8 27 57 74 101 162 255 255 18 1 0 0 0 0 0 0 0 0 0 0 0 0 0 0 0 0 0 0 0 0 0 2 44 255 231 137 92 72 51 17 4 1 0 0 0 0 0 0 0 0 0 0 0 0 0 0 0 0 0 0 0 0 0 0 0 0 5 113 255 194 117 83 65 40 11 3 1 0 0 0 0 0 0 0 1 5 19 52 74 91 134 226 255 52 2 0 0 0 0 0 0 0 0 0 0 0 0 0 0 0 0 0 0 0 0 0 0 0 0 0 0 0 0 0 0 0 0 0 0 0 0 0 0 0 0 0 6 129 255 195 119 84 64 36 12 3 1 0 0 0 0 0 0 0 0 0 0 0 0 0 0 0 0 0 0 0 0 0 0 0 0 0 0 2 8 34 60 76 100 158 255 255 27 6 18 45 70 94 137 191 162 111 79 60 33 9 23 255 255 164 102 74 59 31 9 2 1 0 0 0 0 0 0 0 0 0 0 0 1 3 15 31 22 14 16 30 47 14 3 1 0 0 0 0 0 0 0 0 0 0 0 0 2 9 32 62 81 108 172 255 255 22 13 39 66 85 123 205 255 104 5 0 0 0 0 0 0 0 0 0 0 0 0 0 0 1 26 255 255 156 99 74 52 23 6 10 191 255 187 115 83 64 35 10 3 1 0 0 0 0 0 0 0 0 0 0 0 1 6 26 57 74 90 131 216 255 67 4 24 255 255 154 97 74 64 39 11 3 1 0 0 0 0 0 0 0 0 0 0 0 1 6 27 65 66 54 53 61 69 48 14 3 1 0 0 0 0 0 0 0 0 0 0 0 0 0 0 0 0 0 0 1 3 11 33 40 28 28 45 160 255 255 196 121 85 90 197 255 255 255
0 0 0 0 0 0 0 0 0 0 0 2 12 76 111 105 105 144 236 255 44 2 0 0 0 0 0 0 0 0 0 0 0 0 0 0 0 0 0 0 0 0 0 0 0 0 0 0 0 0 0 0 0 0 0 0 0 0 0 0 0 0 0 0 0 1 1 1 1 1 1 1 2 38 255 250 150 107 103 121 69 13 2 1 0 0 0 0 0 0 0 0 0 0 1 7 38 113 112 106 134 216 255 74 4 0 0 0 0 0 0 0 0 0 0 0 0 0 0 0 0 0 0 0 0 2 37 255 255 155 112 110 141 113 22 4 1 0 0 0 0 0 0 0 0 0 0 0 0 0 1 4 27 105 161 119 106 133 210 255 255 85 127 97 64 57 70 108 105 39 6 1 0 0 0 0 0 0 0 0 0 0 0 0 0 0 0 0 0 0 0 0 0 0 0 0 0 0 0 0 0 0 0 0 2 14 60 53 26 23 40 65 19 10 138 255 204 129 103 110 119 42 7 1 0 0 0 0 0 0 0 0 0 0 0 0 0 0 0 0 2 9 53 126 108 106 139 220 255 82 9 26 102 110 101 121 189 255 195 9 0 0 0 0 0 0 0 0 0 0 0 0 0 0 0 0 0 0 0 0 1 20 255 255 160 112 106 127 96 15 2 1 0 0 0 0 0 0 0 0 0 0 0 0 0 0 0 0 0 0 0 0 0 0 0 3 60 255 229 139 106 110 118 59 9 1 0 0 0 0 0 0 0 0 1 3 16 92 133 106 110 157 255 255 28 1 0 0 0 0 0 0 0 0 0 0 0 0 0 0 0 0 0 0 0 0 0 0 0 0 0 0 0 0 0 0 0 0 0 0 0 0 0 0 0 3 68 255 227 139 107 115 118 46 8 2 0 0 0 0 0 0 0 0 0 0 0 0 0 0 0 0 0 0 0 0 0 0 0 0 0 0 0 1 6 42 116 115 101 119 184 255 255 16 16 74 122 104 96 100 97 103 116 112 39 17 216 255 191 123 102 109 111 36 6 1 0 0 0 0 0 0 0 0 0 0 0 0 0 2 8 23 13 7 9 25 64 12 2 0 0 0 0 0 0 0 0 0 0 0 0 0 1 6 36 121 125 106 126 194 255 193 20 57 127 110 108 143 234 255 55 2 0 0 0 0 0 0 0 0 0 0 0 0 1 12 255 255 180 120 106 118 87 21 9 101 255 215 133 106 117 129 44 7 1 0 0 0 0 0 0 0 0 0 0 0 0 1 4 26 118 145 112 109 151 252 255 55 232 255 180 118 104 120 141 60 9 1 0 0 0 0 0 0 0 0 0 0 0 0 1 4 30 136 84 39 35 63 126 85 12 2 0 0 0 0 0 0 0 0 0 0 0 0 0 0 0 0 0 0 0 0 1 7 28 35 18 21 121 255 255 198 133 102 120 255 255 255 255 255
0 0 0 0 0 0 0 0 0 0 0 2 25 255 255 212 120 109 154 255 255 21 1 0 0 0 0 0 0 0 0 0 0 0 0 0 0 0 0 0 0 0 0 0 0 0 0 0 0 0 0 0 0 0 0 0 0 0 0 0 0 0 0 0 0 0 0 0 0 0 0 1 18 255 255 162 111 117 203 255 253 23 2 0 0 0 0 0 0 0 0 0 0 0 1 8 97 255 246 144 111 143 235 255 37 2 0 0 0 0 0 0 0 0 0 0 0 0 0 0 0 0 0 0 1 17 255 255 166 115 126 221 255 255 59 5 1 0 0 0 0 0 0 0 0 0 0 0 0 0 1 5 66 255 255 255 142 107 135 215 255 255 255 206 66 41 85 236 255 107 8 1 0 0 0 0 0 0 0 0 0 0 0 0 0 0 0 0 0 0 0 0 0 0 0 0 0 0 0 0 0 0 0 0 2 16 127 87 22 16 50 142 27 86 255 222 135 107 143 252 255 136 10 1 0 0 0 0 0 0 0 0 0 0 0 0 0 0 0 0 1 15 217 255 233 134 108 143 241 255 58 58 255 255 157 108 128 207 255 89 4 0 0 0 0 0 0 0 0 0 0 0 0 0 0 0 0 0 0 0 8 182 255 175 116 118 196 255 255 37 3 0 0 0 0 0 0 0 0 0 0 0 0 0 0 0 0 0 0 0 0 0 0 0 1 31 255 252 151 111 134 232 255 238 17 1 0 0 0 0 0 0 0 0 0 3 35 255 255 200 119 115 172 255 255 13 1 0 0 0 0 0 0 0 0 0 0 0 0 0 0 0 0 0 0 0 0 0 0 0 0 0 0 0 0 0 0 0 0 0 0 0 0 0 2 37 255 248 149 111 134 238 255 146 12 1 0 0 0 0 0 0 0 0 0 0 0 0 0 0 0 0 0 0 0 0 0 0 0 0 0 0 0 1 10 130 255 255 161 108 125 198 255 149 40 255 255 181 85 59 68 137 255 255 131 151 255 204 128 109 158 255 255 100 8 1 0 0 0 0 0 0 0 0 0 0 0 0 0 1 4 12 6 3 5 28 147 16 2 0 0 0 0 0 0 0 0 0 0 0 0 0 1 8 96 255 255 153 108 128 206 255 172 253 255 228 128 110 152 255 255 28 1 0 0 0 0 0 0 0 0 0 0 0 6 135 255 196 124 112 173 255 255 44 66 255 235 141 109 139 249 255 146 11 1 0 0 0 0 0 0 0 0 0 0 0 0 1 5 65 255 255 221 122 114 166 255 255 255 197 125 112 176 255 255 255 19 1 0 0 0 0 0 0 0 0 0 0 0 0 1 6 84 255 215 46 33 139 255 255 30 2 0 0 0 0 0 0 0 0 0 0 0 0 0 0 0 0 0 0 0 0 1 4 20 30 14 56 255 245 173 123 100 126 255 255 248 219 210 210
0 0 0 0 0 0 0 0 0 0 0 7 133 255 255 255 171 91 94 153 255 180 8 0 0 0 0 0 0 0 0 0 0 0 0 0 0 0 0 0 0 0 0 0 0 0 0 0 0 0 0 0 0 0 0 0 0 0 0 0 0 0 0 0 0 0 0 0 0 0 0 7 156 255 159 97 89 162 252 255 255 112 6 0 0 0 0 0 0 0 0 0 0 0 2 39 255 255 254 205 105 91 137 254 255 18 1 0 0 0 0 0 0 0 0 0 0 0 0 0 0 0 0 0 7 153 255 159 98 92 169 247 248 253 255 24 1 0 0 0 0 0 0 0 0 0 0 0 0 0 1 28 255 255 244 249 201 100 84 120 204 255 255 255 130 51 178 251 255 255 45 2 0 0 0 0 0 0 0 0 0 0 0 0 0 0 0 0 0 0 0 0 0 0 0 0 0 0 0 0 0 0 0 0 3 42 255 255 37 20 144 255 202 255 229 128 87 104 210 255 255 255 56 3 0 0 0 0 0 0 0 0 0 0 0 0 0 0 0 0 5 91 255 255 255 192 96 89 140 255 255 255 255 255 230 118 87 119 207 255 42 2 0 0 0 0 0 0 0 0 0 0 0 0 0 0 0 0 0 4 77 255 177 104 89 153 243 255 255 224 12 1 0 0 0 0 0 0 0 0 0 0 0 0 0 0 0 0 0 0 0 0 0 1 13 255 255 146 94 100 192 253 255 255 98 5 0 0 0 0 0 0 0 0 1 11 194 255 249 243 158 90 102 171 255 125 6 0 0 0 0 0 0 0 0 0 0 0 0 0 0 0 0 0 0 0 0 0 0 0 0 0 0 0 0 0 0 0 0 0 0 0 0 1 18 255 255 143 92 99 187 247 255 255 61 3 0 0 0 0 0 0 0 0 0 0 0 0 0 0 0 0 0 0 0 0 0 0 0 0 0 0 0 3 53 255 255 255 233 122 86 114 198 255 255 255 255 236 107 42 65 199 251 255 255 255 214 118 86 117 229 255 255 255 44 2 0 0 0 0 0 0 0 0 0 0 0 0 0 0 2 4 2 2 6 71 255 49 3 0 0 0 0 0 0 0 0 0 0 0 0 0 2 39 255 252 244 211 110 85 120 222 255 255 255 250 178 94 93 148 255 237 11 1 0 0 0 0 0 0 0 0 0 3 66 255 198 113 86 126 230 255 255 255 255 243 135 89 102 196 247 254 255 58 3 0 0 0 0 0 0 0 0 0 0 0 0 1 26 255 248 243 243 165 93 102 173 255 224 120 88 129 239 255 255 255 111 6 0 0 0 0 0 0 0 0 0 0 0 0 2 35 255 238 255 141 89 255 255 255 170 9 1 0 0 0 0 0 0 0 0 0 0 0 0 0 0 0 0 0 0 0 0 3 11 21 28 255 221 140 94 74 86 183 234 185 143 124 114 110
0 0 0 0 0 0 0 0 0 0 3 53 255 170 153 160 162 80 54 78 155 255 72 4 0 0 0 0 0 0 0 0 0 0 0 0 0 0 0 0 0 0 0 0 0 0 0 0 0 0 0 0 0 0 0 0 0 0 0 0 0 0 0 0 0 0 0 0 0 0 3 66 255 161 81 54 75 158 159 150 174 255 46 2 0 0 0 0 0 0 0 0 0 1 15 255 224 159 152 160 98 55 71 138 255 156 7 0 0 0 0 0 0 0 0 0 0 0 0 0 0 0 0 3 67 255 162 81 54 75 151 149 134 152 255 176 9 0 0 0 0 0 0 0 0 0 0 0 0 0 9 183 252 153 129 140 157 94 51 59 91 128 142 164 230 144 216 158 163 219 255 18 1 0 0 0 0 0 0 0 0 0 0 0 0 0 0 0 0 0 0 0 0 0 0 0 0 0 0 0 0 0 0 1 13 220 207 243 171 82 255 236 255 255 121 65 55 102 164 152 155 205 255 24 1 0 0 0 0 0 0 0 0 0 0 0 0 0 0 2 41 255 187 150 154 161 88 53 71 138 255 255 173 154 166 121 58 62 108 219 255 17 1 0 0 0 0 0 0 0 0 0 0 0 0 0 0 0 2 35 255 185 92 57 71 148 156 142 157 255 80 4 0 0 0 0 0 0 0 0 0 0 0 0 0 0 0 0 0 0 0 0 0 5 98 255 141 74 55 91 161 154 152 181 255 42 2 0 0 0 0 0 0 0 4 70 255 159 140 155 152 73 56 87 173 255 57 3 0 0 0 0 0 0 0 0 0 0 0 0 0 0 0 0 0 0 0 0 0 0 0 0 0 0 0 0 0 0 0 0 0 0 0 8 154 255 140 72 54 89 157 149 154 203 255 28 1 0 0 0 0 0 0 0 0 0 0 0 0 0 0 0 0 0 0 0 0 0 0 0 0 0 1 21 255 206 156 150 166 127 59 59 105 227 255 191 150 156 135 43 77 158 149 166 236 219 112 62 57 117 165 153 160 225 255 19 1 0 0 0 0 0 0 0 0 0 0 0 0 0 1 1 1 2 24 255 173 255 16 1 0 0 0 0 0 0 0 0 0 0 0 1 15 255 222 153 142 156 108 55 63 114 206 195 154 152 157 83 54 75 145 255 94 5 0 0 0 0 0 0 0 0 1 32 255 203 102 60 61 125 158 151 183 255 255 130 69 54 96 159 146 149 198 255 23 1 0 0 0 0 0 0 0 0 0 0 0 9 168 254 150 132 147 151 78 58 81 118 97 64 63 129 159 143 140 175 255 46 2 0 0 0 0 0 0 0 0 0 0 1 13 255 233 155 173 255 255 206 152 163 255 64 3 0 0 0 0 0 0 0 0 0 0 0 0 0 0 0 0 0 0 0 0 1 5 19 149 255 124 69 45 42 78 154 126 91 69 58 52 49
0 0 0 0 0 0 0 0 0 1 22 255 190 96 73 81 100 65 30 37 78 177 255 31 1 0 0 0 0 0 0 0 0 0 0 0 0 0 0 0 0 0 0 0 0 0 0 0 0 0 0 0 0 0 0 0 0 0 0 0 0 0 0 0 0 0 0 0 0 1 29 255 185 82 38 29 59 100 81 73 99 199 255 18 1 0 0 0 0 0 0 0 0 6 108 255 129 81 75 88 75 33 34 67 153 255 68 3 0 0 0 0 0 0 0 0 0 0 0 0 0 0 1 31 255 187 83 38 29 55 90 73 63 78 143 255 70 4 0 0 0 0 0 0 0 0 0 0 0 4 69 255 136 75 59 66 85 73 30 25 35 49 63 92 187 255 152 88 83 125 255 125 6 0 0 0 0 0 0 0 0 0 0 0 0 0 0 0 0 0 0 0 0 0 0 0 0 0 0 0 0 0 0 4 75 255 141 156 255 255 207 157 186 120 57 31 34 82 90 74 77 117 255 174 9 0 0 0 0 0 0 0 0 0 0 0 0 0 1 17 255 216 105 73 76 91 69 31 34 65 125 138 92 77 88 93 39 30 51 117 255 121 6 0 0 0 0 0 0 0 0 0 0 0 0 0 0 1 13 248 225 98 44 30 52 96 79 68 86 163 255 34 2 0 0 0 0 0 0 0 0 0 0 0 0 0 0 0 0 0 0 0 2 42 255 159 69 35 32 70 92 76 73 102 208 255 15 1 0 0 0 0 0 1 28 255 167 88 68 78 96 54 30 41 88 197 255 26 1 0 0 0 0 0 0 0 0 0 0 0 0 0 0 0 0 0 0 0 0 0 0 0 0 0 0 0 0 0 0 0 0 0 3 62 255 150 67 34 31 69 90 75 77 118 252 248 12 1 0 0 0 0 0 0 0 0 0 0 0 0 0 0 0 0 0 0 0 0 0 0 0 0 8 155 255 117 77 73 87 96 41 29 49 98 133 95 74 83 120 57 90 88 74 80 98 87 50 30 38 89 87 74 80 128 255 145 7 0 0 0 0 0 0 0 0 0 0 0 0 0 0 0 1 7 118 240 148 255 94 5 0 0 0 0 0 0 0 0 0 0 0 6 115 255 128 77 70 84 84 36 30 49 80 82 73 76 92 65 30 35 72 166 255 44 2 0 0 0 0 0 0 1 13 255 242 106 48 29 41 90 82 75 97 146 125 62 33 33 76 88 72 74 113 255 173 8 0 0 0 0 0 0 0 0 0 0 3 66 255 138 77 62 73 92 59 30 33 41 36 30 43 93 81 66 66 97 200 255 18 1 0 0 0 0 0 0 0 0 0 5 95 255 132 85 105 211 247 125 80 93 176 255 27 1 0 0 0 0 0 0 0 0 0 0 0 0 0 0 0 0 0 0 0 1 5 72 255 145 63 31 20 24 63 86 58 39 29 23 20 19
0 0 0 0 0 0 0 0 0 9 183 255 111 50 33 37 50 45 17 17 37 98 239 221 11 1 0 0 0 0 0 0 0 0 0 0 0 0 0 0 0 0 0 0 0 0 0 0 0 0 0 0 0 0 0 0 0 0 0 0 0 0 0 0 0 0 0 0 0 10 208 247 103 39 18 16 40 51 37 34 52 117 255 135 7 0 0 0 0 0 0 0 2 47 255 160 70 39 34 41 46 19 16 32 81 193 255 33 1 0 0 0 0 0 0 0 0 0 0 0 0 1 12 250 248 104 40 18 15 35 44 32 27 37 78 183 255 32 1 0 0 0 0 0 0 0 0 0 1 31 255 178 74 35 25 28 39 46 17 10 13 18 26 50 118 183 99 47 40 67 154 255 53 3 0 0 0 0 0 0 0 0 0 0 0 0 0 0 0 0 0 0 0 0 0 0 0 0 0 0 0 0 1 31 255 165 92 103 212 255 133 86 74 49 25 14 21 53 43 33 35 61 142 255 73 4 0 0 0 0 0 0 0 0 0 0 0 0 6 131 255 123 54 33 33 44 45 18 15 27 46 52 41 35 42 56 25 14 24 60 153 255 53 3 0 0 0 0 0 0 0 0 0 0 0 0 0 5 94 255 124 48 20 16 33 49 36 30 43 94 229 236 12 1 0 0 0 0 0 0 0 0 0 0 0 0 0 0 0 0 0 1 18 255 215 88 33 16 18 45 44 34 33 52 119 255 115 6 0 0 0 0 0 10 190 243 99 45 31 36 49 35 16 19 42 110 255 185 9 0 0 0 0 0 0 0 0 0 0 0 0 0 0 0 0 0 0 0 0 0 0 0 0 0 0 0 0 0 0 0 0 1 27 255 188 79 31 16 18 45 43 34 36 62 142 255 97 5 0 0 0 0 0 0 0 0 0 0 0 0 0 0 0 0 0 0 0 0 0 0 0 3 65 255 148 62 35 32 41 57 26 14 21 37 48 40 33 43 85 99 105 48 33 33 36 31 20 14 24 54 41 33 38 67 153 255 61 3 0 0 0 0 0 0 0 0 0 0 0 0 0 0 2 46 255 142 109 160 255 41 2 0 0 0 0 0 0 0 0 0 3 54 255 162 70 37 31 40 52 22 14 19 27 30 30 34 45 42 17 16 35 92 221 255 20 1 0 0 0 0 0 5 109 255 135 52 22 14 26 51 39 34 43 55 47 26 15 19 49 42 32 34 60 144 255 72 4 0 0 0 0 0 0 0 0 1 30 255 183 77 37 27 32 46 38 15 12 13 12 13 27 51 37 28 29 49 115 255 133 7 0 0 0 0 0 0 0 0 2 43 255 164 72 45 57 100 111 66 40 48 103 251 178 9 0 0 0 0 0 0 0 0 0 0 0 0 0 0 0 0 0 0 0 2 31 255 191 80 31 13 9 14 41 39 24 15 11 8 7 7
0 0 0 0 0 0 0 0 4 82 255 160 65 26 14 16 23 26 10 8 18 54 140 255 92 5 0 0 0 0 0 0 0 0 0 0 0 0 0 0 0 0 0 0 0 0 0 0 0 0 0 0 0 0 0 0 0 0 0 0 0 0 0 0 0 0 0 0 4 83 255 143 56 19 8 9 23 23 16 15 27 68 165 255 59 3 0 0 0 0 0 1 19 255 222 97 38 18 14 18 23 10 7 15 43 115 255 255 14 1 0 0 0 0 0 0 0 0 0 0 0 5 101 255 146 56 20 8 8 17 19 13 11 18 42 112 255 255 13 1 0 0 0 0 0 0 0 1 13 255 255 111 41 16 10 11 17 23 9 4 4 6 11 27 66 89 59 26 20 36 93 213 255 23 1 0 0 0 0 0 0 0 0 0 0 0 0 0 0 0 0 0 0 0 0 0 0 0 0 0 0 1 12 244 250 108 60 65 103 117 76 45 29 18 10 6 12 28 19 14 16 33 84 200 255 37 2 0 0 0 0 0 0 0 0 0 0 3 60 255 171 70 28 15 14 19 24 10 6 10 16 18 16 15 19 28 14 7 11 32 92 217 255 24 1 0 0 0 0 0 0 0 0 0 0 0 2 44 255 177 71 24 9 8 17 22 15 13 22 53 138 255 90 5 0 0 0 0 0 0 0 0 0 0 0 0 0 0 0 0 0 7 148 255 131 48 16 7 9 24 19 14 14 27 69 172 255 55 3 0 0 0 4 73 255 143 57 23 13 15 22 19 8 8 21 60 150 255 75 4 0 0 0 0 0 0 0 0 0 0 0 0 0 0 0 0 0 0 0 0 0 0 0 0 0 0 0 0 0 0 0 10 211 255 114 41 15 7 9 24 19 14 16 33 81 184 255 45 2 0 0 0 0 0 0 0 0 0 0 0 0 0 0 0 0 0 0 0 0 0 1 29 255 203 89 34 16 13 18 28 14 7 8 13 16 15 14 24 72 227 145 33 15 13 12 10 7 6 13 27 18 14 17 36 90 206 255 28 1 0 0 0 0 0 0 0 0 0 0 0 0 1 18 255 213 100 78 107 233 255 18 1 0 0 0 0 0 0 0 1 27 255 224 98 38 17 13 18 27 12 6 7 9 10 11 14 20 23 9 7 17 50 133 255 171 8 0 0 0 0 2 51 255 178 76 26 10 7 14 24 17 14 17 19 16 10 6 10 27 19 14 16 33 86 200 255 35 2 0 0 0 0 0 0 1 11 230 255 113 43 18 11 13 20 20 7 4 4 4 6 14 24 16 11 13 25 66 164 255 58 3 0 0 0 0 0 0 1 20 255 233 100 40 23 28 42 45 31 19 25 59 146 255 70 4 0 0 0 0 0 0 0 0 0 0 0 0 0 0 0 0 0 1 11 233 255 117 45 15 6 4 7 21 16 9 5 4 3 2 2
0 0 0 0 0 0 0 2 43 255 216 103 40 14 6 6 9 12 5 4 9 32 91 203 255 48 2 0 0 0 0 0 0 0 0 0 0 0 0 0 0 0 0 0 0 0 0 0 0 0 0 0 0 0 0 0 0 0 0 0 0 0 0 0 0 0 0 2 41 255 203 92 33 10 4 4 10 9 6 7 15 42 107 225 255 28 1 0 0 0 0 7 149 255 142 61 22 8 6 7 9 4 3 7 24 71 161 255 131 6 0 0 0 0 0 0 0 0 0 0 2 49 255 198 92 33 10 4 3 7 7 5 5 8 24 70 161 255 118 6 0 0 0 0 0 0 0 5 108 255 162 70 24 8 4 4 6 9 4 2 1 2 5 14 34 41 33 14 10 21 58 137 255 204 9 0 0 0 0 0 0 0 0 0 0 0 0 0 0 0 0 0 0 0 0 0 0 0 0 0 0 5 107 255 160 74 42 40 48 50 40 22 11 6 4 3 5 12 8 6 7 18 53 130 255 255 18 1 0 0 0 0 0 0 0 0 1 30 255 229 110 43 15 6 5 8 10 4 3 3 5 6 6 6 8 12 6 3 5 18 57 140 255 219 10 0 0 0 0 0 0 0 0 0 0 1 21 255 249 117 44 13 4 4 7 8 6 6 11 33 90 194 255 41 2 0 0 0 0 0 0 0 0 0 0 0 0 0 0 0 3 68 255 185 83 28 8 3 4 10 8 5 6 14 43 113 236 255 27 1 0 2 34 255 204 94 35 12 6 6 8 8 4 4 11 35 96 208 255 36 2 0 0 0 0 0 0 0 0 0 0 0 0 0 0 0 0 0 0 0 0 0 0 0 0 0 0 0 0 0 4 88 255 166 71 23 7 3 4 10 8 6 7 18 49 117 244 255 20 1 0 0 0 0 0 0 0 0 0 0 0 0 0 0 0 0 0 0 0 1 12 255 255 130 55 19 7 5 7 12 6 3 3 4 5 5 6 18 113 251 217 41 8 4 4 3 2 3 6 11 7 5 8 20 55 133 255 244 11 1 0 0 0 0 0 0 0 0 0 0 0 7 155 255 143 74 63 76 154 255 153 7 0 0 0 0 0 0 1 11 248 255 143 61 22 8 5 7 11 5 2 2 3 3 4 5 8 10 4 3 9 29 82 180 255 76 4 0 0 1 26 255 239 113 45 14 5 3 6 9 7 5 6 6 5 3 3 5 11 8 5 7 18 54 128 255 255 16 1 0 0 0 0 0 5 93 255 162 72 25 8 5 5 7 8 3 2 1 1 2 6 9 6 4 5 13 41 106 224 255 27 1 0 0 0 0 0 8 177 255 151 63 23 12 13 16 17 13 9 13 36 96 207 255 32 1 0 0 0 0 0 0 0 0 0 0 0 0 0 0 0 0 5 103 255 163 74 26 8 2 2 3 8 6 3 2 1 1 1 1
0 0 0 0 0 0 1 22 255 255 140 70 26 7 3 2 3 4 2 2 5 20 64 135 255 255 24 1 0 0 0 0 0 0 0 0 0 0 0 0 0 0 0 0 0 0 0 0 0 0 0 0 0 0 0 0 0 0 0 0 0 0 0 0 0 0 1 18 255 255 136 64 21 5 2 2 3 3 2 3 8 28 73 147 255 247 12 1 0 0 3 68 255 186 95 42 13 4 2 2 3 2 1 4 14 47 105 206 255 67 3 0 0 0 0 0 0 0 0 1 23 255 249 130 62 21 5 2 1 2 2 2 2 4 15 48 107 207 255 59 3 0 0 0 0 0 2 50 255 203 107 49 15 4 2 1 2 3 1 1 0 1 2 6 16 18 16 7 5 12 40 93 184 255 93 4 0 0 0 0 0 0 0 0 0 0 0 0 0 0 0 0 0 0 0 0 0 0 0 0 3 56 255 210 111 58 32 25 22 21 19 10 4 2 1 1 2 4 3 2 3 10 36 87 171 255 165 8 0 0 0 0 0 0 0 1 12 255 255 149 74 28 8 3 2 3 3 2 1 1 1 2 2 2 3 4 2 1 3 10 39 93 183 255 98 5 0 0 0 0 0 0 0 0 0 9 190 255 161 80 29 7 2 1 2 3 2 2 6 21 63 131 255 255 18 1 0 0 0 0 0 0 0 0 0 0 0 0 0 1 34 255 230 122 58 18 4 1 2 3 3 2 3 8 29 78 153 255 255 12 1 14 255 255 137 67 23 6 2 2 3 2 1 2 6 22 66 139 255 255 15 1 0 0 0 0 0 0 0 0 0 0 0 0 0 0 0 0 0 0 0 0 0 0 0 0 0 0 0 2 43 255 213 111 49 14 4 1 2 3 3 2 3 10 32 78 158 255 187 8 0 0 0 0 0 0 0 0 0 0 0 0 0 0 0 0 0 0 0 5 113 255 175 87 37 11 3 2 3 4 2 1 1 1 2 2 4 31 234 187 204 91 9 2 1 1 1 1 2 3 2 2 4 11 37 89 176 255 113 5 0 0 0 0 0 0 0 0 0 0 4 76 255 194 103 66 62 65 105 192 255 70 3 0 0 0 0 0 5 105 255 179 94 42 13 4 2 3 4 2 1 1 1 1 1 2 3 3 2 2 4 18 56 117 224 255 38 2 1 11 251 255 156 76 29 8 2 1 2 3 2 2 2 2 2 1 1 2 4 3 2 3 11 37 86 170 255 154 7 0 0 0 0 2 46 255 208 108 50 15 4 2 2 2 2 1 1 0 0 1 2 3 2 2 2 7 27 73 147 255 225 11 0 0 0 0 4 79 255 191 100 45 14 5 5 6 6 5 4 7 24 68 139 255 255 13 1 0 0 0 0 0 0 0 0 0 0 0 0 0 0 2 53 255 212 111 52 16 4 1 1 1 2 2 1 1 0 0 0 0
0 0 0 0 0 0 9 210 255 166 92 53 18 4 1 1 1 1 1 1 3 13 49 91 161 255 243 11 0 0 0 0 0 0 0 0 0 0 0 0 0 0 0 0 0 0 0 0 0 0 0 0 0 0 0 0 0 0 0 0 0 0 0 0 0 0 8 173 255 164 92 49 14 3 1 1 1 1 1 1 4 19 56 98 177 255 111 5 0 2 36 255 229 123 69 31 8 2 1 1 1 1 1 2 9 34 73 131 240 255 37 2 0 0 0 0 0 0 0 10 227 255 158 87 46 13 3 1 0 1 1 1 1 2 9 36 75 133 242 255 29 1 0 0 0 1 23 255 242 131 75 37 9 2 1 0 1 1 0 0 0 0 1 3 6 7 6 3 2 7 29 68 120 219 255 48 2 0 0 0 0 0 0 0 0 0 0 0 0 0 0 0 0 0 0 0 0 0 0 1 30 255 250 136 82 53 25 14 9 8 7 4 2 1 0 0 1 1 1 1 2 6 26 63 109 195 255 72 4 0 0 0 0 0 0 5 116 255 175 97 55 19 4 1 1 1 1 1 0 0 0 1 1 1 1 1 1 1 1 6 28 67 118 216 255 50 2 0 0 0 0 0 0 0 4 83 255 187 105 60 21 4 1 1 1 1 1 1 3 14 49 90 162 255 175 8 0 0 0 0 0 0 0 0 0 0 0 0 1 16 255 255 146 83 43 11 2 1 1 1 1 1 1 5 21 58 100 183 255 123 12 130 255 170 94 52 16 3 1 1 1 1 0 1 3 14 50 93 167 255 140 7 0 0 0 0 0 0 0 0 0 0 0 0 0 0 0 0 0 0 0 0 0 0 0 0 0 0 1 21 255 255 137 77 37 9 2 1 1 1 1 1 1 5 22 57 104 192 255 84 4 0 0 0 0 0 0 0 0 0 0 0 0 0 0 0 0 0 3 57 255 210 115 64 26 6 2 1 1 1 1 0 0 0 0 1 7 92 227 150 163 255 28 2 0 0 0 0 1 1 1 1 2 6 27 65 115 213 255 58 3 0 0 0 0 0 0 0 0 2 41 255 232 128 84 78 86 71 80 124 229 255 37 2 0 0 0 2 51 255 208 114 66 30 7 2 1 1 1 1 0 0 0 0 0 1 1 1 1 1 2 11 41 80 143 255 255 17 6 109 255 183 102 56 19 4 1 0 1 1 1 1 1 1 0 0 0 1 1 1 1 2 6 26 63 110 200 255 73 3 0 0 1 22 255 253 135 76 38 9 2 1 1 1 1 0 0 0 0 0 1 1 1 1 1 4 18 55 98 178 255 94 5 0 0 2 40 255 222 122 71 34 9 3 2 2 2 2 2 4 16 53 95 172 255 125 6 0 0 0 0 0 0 0 0 0 0 0 0 0 1 28 255 251 137 80 40 10 2 1 0 0 1 1 0 0 0 0 0 0
0 0 0 0 0 4 93 255 185 102 65 42 12 2 1 0 0 0 0 0 2 9 39 65 100 183 255 114 5 0 0 0 0 0 0 0 0 0 0 0 0 0 0 0 0 0 0 0 0 0 0 0 0 0 0 0 0 0 0 0 0 0 0 0 0 4 81 255 190 103 65 39 9 2 0 0 0 0 0 1 3 13 45 68 111 207 255 58 3 18 255 255 144 82 54 23 5 1 0 0 0 0 0 1 5 25 54 84 147 255 255 18 1 0 0 0 0 0 5 105 255 183 100 62 36 9 2 0 0 0 0 0 0 1 6 28 56 85 149 255 255 12 1 0 0 9 202 255 151 85 56 28 6 1 0 0 0 0 0 0 0 0 0 1 2 2 2 1 1 4 21 54 80 135 249 255 22 1 0 0 0 0 0 0 0 0 0 0 0 0 0 0 0 0 0 0 0 0 1 13 255 255 154 89 67 56 20 7 4 3 2 1 1 0 0 0 0 0 0 0 1 4 18 49 72 119 219 255 35 2 0 0 0 0 3 60 255 205 109 67 43 13 3 1 0 0 0 0 0 0 0 0 0 0 0 0 0 0 1 4 20 51 78 134 247 255 24 1 0 0 0 0 0 2 42 255 214 116 71 47 14 3 1 0 0 0 0 0 2 9 40 66 104 191 255 82 4 0 0 0 0 0 0 0 0 0 0 0 7 164 255 170 93 60 33 7 1 0 0 0 0 0 1 3 14 46 70 113 204 255 234 255 197 108 68 44 11 2 0 0 0 0 0 0 2 10 40 66 105 196 255 69 3 0 0 0 0 0 0 0 0 0 0 0 0 0 0 0 0 0 0 0 0 0 0 0 0 0 9 190 255 160 89 57 27 6 1 0 0 0 0 0 1 3 15 45 71 119 217 255 41 2 0 0 0 0 0 0 0 0 0 0 0 0 0 0 0 1 29 255 240 130 77 51 18 4 1 0 0 0 0 0 0 0 0 2 34 255 165 126 153 250 144 8 1 0 0 0 0 0 0 0 1 4 19 50 77 132 240 255 28 1 0 0 0 0 0 0 1 20 255 255 143 88 86 149 203 131 73 84 144 255 255 17 1 0 1 26 255 243 130 75 50 22 5 1 0 0 0 0 0 0 0 0 0 0 0 0 0 0 1 7 31 58 91 163 255 152 68 255 206 112 69 44 13 3 1 0 0 0 0 0 0 0 0 0 0 0 0 0 0 1 4 18 49 74 123 226 255 38 2 0 9 191 255 157 88 58 29 6 1 0 0 0 0 0 0 0 0 0 0 0 0 0 1 2 12 44 69 112 206 255 46 2 1 19 255 255 138 79 53 25 5 1 1 1 1 0 1 2 11 43 69 109 201 255 61 3 0 0 0 0 0 0 0 0 0 0 0 1 12 255 255 154 89 62 32 7 1 0 0 0 0 0 0 0 0 0 0 0
0 0 0 0 2 47 255 208 110 64 47 32 7 1 0 0 0 0 0 0 1 6 31 47 64 109 206 255 57 3 0 0 0 0 0 0 0 0 0 0 0 0 0 0 0 0 0 0 0 0 0 0 0 0 0 0 0 0 0 0 0 0 0 0 2 42 255 217 115 66 48 31 6 1 0 0 0 0 0 0 2 8 37 50 71 125 239 255 44 185 255 164 88 57 44 16 3 1 0 0 0 0 0 1 3 17 41 55 87 163 255 177 8 0 0 0 0 2 55 255 208 110 64 46 26 6 1 0 0 0 0 0 0 1 4 19 43 56 89 167 255 102 5 0 4 84 255 175 92 57 43 19 4 1 0 0 0 0 0 0 0 0 0 0 1 1 1 0 1 3 14 43 55 82 149 255 202 9 0 0 0 0 0 0 0 0 0 0 0 0 0 0 0 0 0 0 0 0 5 115 255 166 91 61 62 71 16 4 1 1 1 0 0 0 0 0 0 0 0 0 0 2 12 38 50 73 133 255 255 15 1 0 0 1 32 255 237 124 69 48 33 8 2 0 0 0 0 0 0 0 0 0 0 0 0 0 0 0 0 2 13 40 53 81 149 255 217 10 0 0 0 0 1 21 255 255 131 72 50 36 9 2 0 0 0 0 0 0 1 6 32 51 68 116 217 255 42 2 0 0 0 0 0 0 0 0 0 4 76 255 191 101 61 45 24 5 1 0 0 0 0 0 0 2 9 35 50 70 125 255 255 255 123 70 52 36 7 1 0 0 0 0 0 0 1 6 31 48 68 119 227 255 37 2 0 0 0 0 0 0 0 0 0 0 0 0 0 0 0 0 0 0 0 0 0 0 0 4 84 255 180 96 59 44 19 4 1 0 0 0 0 0 0 2 10 37 51 74 130 250 255 18 1 0 0 0 0 0 0 0 0 0 0 0 0 0 1 13 255 255 145 79 54 42 12 2 0 0 0 0 0 0 0 0 1 12 243 243 139 115 133 166 255 56 3 0 0 0 0 0 0 0 0 2 13 40 54 80 143 255 252 12 1 0 0 0 0 0 9 194 255 159 87 70 141 255 255 255 113 64 88 161 255 156 7 1 11 230 255 148 79 52 38 14 3 1 0 0 0 0 0 0 0 0 0 0 0 0 0 0 1 4 22 43 59 98 187 255 255 249 124 70 48 35 8 2 0 0 0 0 0 0 0 0 0 0 0 0 0 0 0 0 2 11 40 51 75 136 255 255 17 5 85 255 177 95 59 46 20 4 1 0 0 0 0 0 0 0 0 0 0 0 0 0 0 1 8 35 51 71 126 243 255 22 9 183 255 159 84 54 41 17 3 1 0 0 0 0 0 1 8 36 52 70 122 229 255 30 1 0 0 0 0 0 0 0 0 0 0 5 113 255 172 92 60 51 24 5 1 0 0 0 0 0 0 0 0 0 0 0
0 0 0 1 24 255 244 123 64 41 34 22 5 1 0 0 0 0 0 0 1 4 21 34 42 64 120 231 255 28 1 0 0 0 0 0 0 0 0 0 0 0 0 0 0 0 0 0 0 0 0 0 0 0 0 0 0 0 0 0 0 0 0 1 21 255 253 128 68 43 35 21 4 1 0 0 0 0 0 0 1 6 28 37 46 74 142 255 255 255 186 95 54 40 34 10 2 0 0 0 0 0 0 0 2 10 29 37 52 93 182 255 82 4 0 0 1 29 255 239 122 65 42 33 17 4 1 0 0 0 0 0 0 0 2 12 32 38 54 97 190 255 46 4 39 255 201 104 57 39 32 11 2 0 0 0 0 0 0 0 0 0 0 0 0 0 0 0 0 2 9 33 38 50 87 174 255 93 4 0 0 0 0 0 0 0 0 0 0 0 0 0 0 0 0 0 0 3 55 255 192 96 55 46 75 130 19 3 1 0 0 0 0 0 0 0 0 0 0 0 0 1 7 26 34 45 78 155 255 138 6 0 1 15 255 255 140 73 45 35 23 5 1 0 0 0 0 0 0 0 0 0 0 0 0 0 0 0 0 1 8 29 37 50 86 170 255 91 4 0 0 0 9 201 255 152 77 46 35 25 6 1 0 0 0 0 0 0 1 4 23 39 45 68 128 250 255 19 1 0 0 0 0 0 0 0 2 38 255 215 111 60 40 32 15 3 1 0 0 0 0 0 0 1 6 25 36 44 75 140 204 139 75 46 40 28 5 1 0 0 0 0 0 0 1 4 21 34 44 71 134 255 255 17 1 0 0 0 0 0 0 0 0 0 0 0 0 0 0 0 0 0 0 0 0 0 2 41 255 207 105 58 40 31 11 2 0 0 0 0 0 0 0 1 6 28 36 46 76 149 255 154 7 0 0 0 0 0 0 0 0 0 0 0 0 0 6 119 255 165 84 49 38 34 8 1 0 0 0 0 0 0 0 0 5 103 255 159 114 111 112 120 209 255 24 1 0 0 0 0 0 0 0 1 8 29 37 49 83 164 255 101 5 0 0 0 0 4 83 255 177 92 57 82 236 227 216 237 235 73 56 94 182 255 73 9 103 255 168 86 49 36 27 8 2 0 0 0 0 0 0 0 0 0 0 0 0 0 0 0 0 3 13 31 39 59 116 244 255 150 74 44 33 25 5 1 0 0 0 0 0 0 0 0 0 0 0 0 0 0 0 0 1 7 30 36 47 79 153 255 143 58 255 207 104 57 41 35 13 2 0 0 0 0 0 0 0 0 0 0 0 0 0 0 0 1 5 25 37 46 75 146 255 198 108 255 179 92 52 37 29 10 2 0 0 0 0 0 0 1 5 27 39 46 72 136 255 255 14 1 0 0 0 0 0 0 0 0 3 53 255 192 99 55 42 43 17 3 1 0 0 0 0 0 0 0 0 0 0 0
0 0 0 10 208 255 146 71 38 25 22 12 3 1 0 0 0 0 0 0 0 2 11 21 26 38 68 136 255 255 12 1 0 0 0 0 0 0 0 0 0 0 0 0 0 0 0 0 0 0 0 0 0 0 0 0 0 0 0 0 0 0 0 9 202 255 151 74 40 28 22 11 3 0 0 0 0 0 0 0 1 4 17 26 29 44 84 175 255 238 112 55 33 27 23 6 1 0 0 0 0 0 0 0 1 5 17 23 31 53 105 213 255 44 2 1 14 255 255 142 70 38 26 21 9 2 0 0 0 0 0 0 0 0 1 6 20 24 32 57 114 231 255 42 255 246 121 60 35 26 20 6 1 0 0 0 0 0 0 0 0 0 0 0 0 0 0 0 0 1 5 22 25 31 51 102 207 255 48 2 0 0 0 0 0 0 0 0 0 0 0 0 0 0 0 0 1 26 255 229 115 56 35 46 158 238 42 3 0 0 0 0 0 0 0 0 0 0 0 0 0 1 4 15 22 28 46 91 188 255 67 3 7 146 255 162 80 43 28 23 13 3 1 0 0 0 0 0 0 0 0 0 0 0 0 0 0 0 0 1 4 17 24 30 50 99 199 255 44 2 0 4 91 255 175 87 46 29 22 14 3 1 0 0 0 0 0 0 0 3 14 27 29 41 73 148 255 177 8 0 0 0 0 0 0 1 17 255 255 127 63 36 26 20 8 2 0 0 0 0 0 0 0 1 3 14 24 28 43 67 85 67 44 31 29 18 4 1 0 0 0 0 0 0 0 3 12 22 28 42 77 155 255 152 7 0 0 0 0 0 0 0 0 0 0 0 0 0 0 0 0 0 0 0 0 1 19 255 248 123 61 35 26 19 6 1 0 0 0 0 0 0 0 1 4 17 24 28 45 87 179 255 68 3 0 0 0 0 0 0 0 0 0 0 0 3 58 255 193 96 49 30 25 23 5 1 0 0 0 0 0 0 0 2 52 255 195 107 97 114 98 88 134 255 197 9 0 0 0 0 0 0 0 1 4 18 24 29 48 96 192 255 47 2 0 0 2 39 255 204 103 54 47 144 196 148 135 155 222 145 45 55 107 216 255 148 255 200 98 50 30 23 16 4 1 0 0 0 0 0 0 0 0 0 0 0 0 0 0 0 0 1 7 19 25 37 68 115 130 82 44 27 21 14 3 1 0 0 0 0 0 0 0 0 0 0 0 0 0 0 0 0 1 4 19 24 29 46 89 181 255 255 255 125 61 35 27 24 7 1 0 0 0 0 0 0 0 0 0 0 0 0 0 0 0 1 3 15 25 29 45 85 176 255 255 221 105 53 32 24 17 5 1 0 0 0 0 0 0 1 3 17 28 30 43 79 163 255 141 6 0 0 0 0 0 0 0 1 26 255 230 113 57 34 29 34 11 2 0 0 0 0 0 0 0 0 0 0 0 0
0 0 4 83 255 171 85 42 22 14 11 5 1 0 0 0 0 0 0 0 0 1 5 10 15 21 39 80 167 255 111 5 0 0 0 0 0 0 0 0 0 0 0 0 0 0 0 0 0 0 0 0 0 0 0 0 0 0 0 0 0 0 4 92 255 179 88 43 23 16 11 5 1 0 0 0 0 0 0 0 0 2 8 14 17 26 49 94 144 117 66 33 19 16 12 3 1 0 0 0 0 0 0 0 1 2 8 12 17 31 61 129 255 255 22 7 135 255 169 82 41 22 15 10 4 1 0 0 0 0 0 0 0 0 1 3 9 13 19 33 68 143 255 255 255 151 71 36 20 15 10 3 1 0 0 0 0 0 0 0 0 0 0 0 0 0 0 0 0 1 3 11 14 18 30 61 125 245 255 22 1 0 0 0 0 0 0 0 0 0 0 0 0 0 0 0 11 227 255 139 68 34 27 97 255 219 195 12 1 0 0 0 0 0 0 0 0 0 0 0 0 0 2 6 11 16 27 55 113 226 255 41 74 255 189 94 47 25 16 12 6 1 0 0 0 0 0 0 0 0 0 0 0 0 0 0 0 0 0 0 2 8 13 17 30 58 121 247 255 22 3 48 255 209 103 51 27 17 12 6 2 0 0 0 0 0 0 0 0 2 6 15 17 24 43 87 180 255 79 4 0 0 0 0 0 7 145 255 154 74 37 20 14 10 3 1 0 0 0 0 0 0 0 0 2 6 13 16 23 30 33 30 24 19 18 9 2 0 0 0 0 0 0 0 0 1 5 11 16 24 45 90 184 255 70 3 0 0 0 0 0 0 0 0 0 0 0 0 0 0 0 0 0 0 0 8 179 255 150 72 36 20 14 9 3 1 0 0 0 0 0 0 0 0 2 8 13 16 26 52 108 216 255 32 1 0 0 0 0 0 0 0 0 0 1 30 255 232 116 56 29 18 14 12 3 1 0 0 0 0 0 0 1 26 255 241 123 77 96 126 99 72 88 171 255 84 4 0 0 0 0 0 0 0 2 8 13 17 29 56 117 239 255 23 1 1 16 255 250 124 60 36 66 220 136 94 82 100 154 252 66 36 64 135 255 255 255 124 58 29 17 13 7 2 0 0 0 0 0 0 0 0 0 0 0 0 0 0 0 0 0 1 3 9 14 21 36 50 54 41 25 16 11 6 2 0 0 0 0 0 0 0 0 0 0 0 0 0 0 0 0 0 0 2 9 13 16 27 53 116 253 255 160 76 37 20 15 12 4 1 0 0 0 0 0 0 0 0 0 0 0 0 0 0 0 0 2 7 14 17 27 51 110 229 255 135 63 31 18 13 8 2 1 0 0 0 0 0 0 0 2 8 16 18 25 47 96 196 255 68 3 0 0 0 0 0 0 11 227 255 142 67 33 20 19 23 6 1 0 0 0 0 0 0 0 0 0 0 0 0
0 2 39 255 206 105 52 25 12 7 4 2 1 0 0 0 0 0 0 0 0 1 2 4 7 11 23 50 104 204 255 54 3 0 0 0 0 0 0 0 0 0 0 0 0 0 0 0 0 0 0 0 0 0 0 0 0 0 0 0 0 2 47 255 216 110 54 26 12 7 4 2 1 0 0 0 0 0 0 0 0 1 3 6 8 14 29 48 61 54 37 19 10 7 4 1 0 0 0 0 0 0 0 0 0 1 3 5 9 17 38 78 158 255 249 90 255 200 102 50 24 12 7 4 2 0 0 0 0 0 0 0 0 0 0 1 3 6 10 19 43 95 202 255 210 100 46 21 11 7 4 1 0 0 0 0 0 0 0 0 0 0 0 0 0 0 0 0 0 0 1 4 6 9 18 37 76 151 255 197 9 0 0 0 0 0 0 0 0 0 0 0 0 0 0 5 96 255 173 85 42 23 50 255 222 200 255 78 4 0 0 0 0 0 0 0 0 0 0 0 0 0 1 2 5 8 15 34 70 141 255 255 255 233 116 57 28 13 8 5 2 1 0 0 0 0 0 0 0 0 0 0 0 0 0 0 0 0 0 0 1 3 5 8 17 36 76 156 255 213 39 255 255 131 64 31 15 8 5 2 1 0 0 0 0 0 0 0 0 1 3 6 8 13 26 54 112 219 255 40 2 0 0 0 3 63 255 187 95 46 21 10 6 4 1 0 0 0 0 0 0 0 0 0 1 2 5 7 10 12 12 12 11 9 8 4 1 0 0 0 0 0 0 0 0 1 2 4 7 13 27 56 114 225 255 35 2 0 0 0 0 0 0 0 0 0 0 0 0 0 0 0 0 0 4 86 255 189 93 45 21 10 6 3 1 0 0 0 0 0 0 0 0 0 1 3 5 8 15 32 67 136 255 255 13 1 0 0 0 0 0 0 0 1 13 255 255 145 71 34 16 9 6 5 1 0 0 0 0 0 0 0 11 229 255 152 81 68 126 157 131 77 65 110 212 255 41 2 0 0 0 0 0 0 1 3 5 8 16 35 73 153 255 213 10 7 138 255 155 76 38 35 174 190 106 65 54 69 116 201 177 37 42 87 169 239 156 79 37 17 8 5 3 1 0 0 0 0 0 0 0 0 0 0 0 0 0 0 0 0 0 0 1 3 6 11 17 21 21 19 13 7 4 2 1 0 0 0 0 0 0 0 0 0 0 0 0 0 0 0 0 0 0 1 3 5 8 15 33 73 126 143 92 48 22 11 7 5 2 0 0 0 0 0 0 0 0 0 0 0 0 0 0 0 0 0 1 3 6 8 15 32 68 110 120 78 39 18 9 6 3 1 0 0 0 0 0 0 0 0 1 3 7 9 14 29 60 120 230 255 34 1 0 0 0 0 5 97 255 173 87 42 19 11 10 12 3 1 0 0 0 0 0 0 0 0 0 0 0 0
1 17 255 255 138 70 34 14 6 3 1 1 0 0 0 0 0 0 0 0 0 0 1 1 3 5 13 34 70 133 249 255 27 1 0 0 0 0 0 0 0 0 0 0 0 0 0 0 0 0 0 0 0 0 0 0 0 0 0 0 1 23 255 255 141 73 36 15 6 3 1 1 0 0 0 0 0 0 0 0 0 0 1 2 3 7 15 23 26 24 19 10 4 3 1 1 0 0 0 0 0 0 0 0 0 0 1 2 4 9 24 53 103 199 255 255 255 130 68 33 14 5 2 1 1 0 0 0 0 0 0 0 0 0 0 0 1 2 4 11 30 68 117 156 119 70 32 12 5 2 1 0 0 0 0 0 0 0 0 0 0 0 0 0 0 0 0 0 0 0 0 1 2 4 9 24 51 99 189 255 92 4 0 0 0 0 0 0 0 0 0 0 0 0 2 49 255 216 114 59 29 31 255 255 180 178 225 255 40 2 0 0 0 0 0 0 0 0 0 0 0 0 0 1 2 3 8 21 48 95 188 255 255 158 79 39 17 6 3 2 1 0 0 0 0 0 0 0 0 0 0 0 0 0 0 0 0 0 0 0 0 1 2 4 9 23 53 103 193 255 255 255 166 87 44 19 7 3 2 1 0 0 0 0 0 0 0 0 0 0 1 2 3 6 15 37 75 143 255 255 19 1 0 1 31 255 232 123 64 30 12 5 2 1 0 0 0 0 0 0 0 0 0 0 0 1 2 3 4 4 4 4 4 3 3 1 0 0 0 0 0 0 0 0 0 0 1 1 3 6 16 38 77 148 255 255 15 1 0 0 0 0 0 0 0 0 0 0 0 0 0 0 0 2 46 255 232 124 64 30 12 5 2 1 0 0 0 0 0 0 0 0 0 0 0 1 2 3 8 20 46 90 174 255 122 6 0 0 0 0 0 0 0 6 117 255 180 95 49 22 8 4 2 1 1 0 0 0 0 0 0 5 102 255 184 100 66 97 213 211 217 148 66 79 141 255 255 18 1 0 0 0 0 0 0 1 2 3 8 22 51 101 190 255 110 78 255 199 104 53 32 94 255 163 100 54 42 59 100 158 255 98 36 59 91 111 87 54 24 9 4 2 1 0 0 0 0 0 0 0 0 0 0 0 0 0 0 0 0 0 0 0 0 1 2 4 7 8 8 7 5 3 1 1 0 0 0 0 0 0 0 0 0 0 0 0 0 0 0 0 0 0 0 0 1 2 3 8 21 46 62 66 53 31 13 5 3 2 1 0 0 0 0 0 0 0 0 0 0 0 0 0 0 0 0 0 0 1 2 3 8 20 41 53 55 44 25 10 4 2 1 0 0 0 0 0 0 0 0 0 0 1 2 4 7 17 40 79 148 255 255 16 1 0 0 2 49 255 216 114 59 28 11 5 4 4 1 0 0 0 0 0 0 0 0 0 0 0 0 0
8 166 255 177 100 57 25 8 2 1 0 0 0 0 0 0 0 0 0 0 0 0 0 0 1 2 7 24 56 96 167 255 255 13 1 0 0 0 0 0 0 0 0 0 0 0 0 0 0 0 0 0 0 0 0 0 0 0 0 0 10 206 255 173 100 58 26 8 3 1 0 0 0 0 0 0 0 0 0 0 0 0 0 1 1 3 6 10 10 10 8 4 2 1 0 0 0 0 0 0 0 0 0 0 0 0 0 1 1 5 16 42 79 139 246 255 171 96 54 24 7 2 1 0 0 0 0 0 0 0 0 0 0 0 0 0 0 1 2 6 22 54 70 77 70 55 24 6 2 1 0 0 0 0 0 0 0 0 0 0 0 0 0 0 0 0 0 0 0 0 0 0 1 2 5 15 40 76 131 234 255 51 2 0 0 0 0 0 0 0 0 0 0 1 25 255 255 148 86 49 30 181 255 197 153 158 171 255 255 20 1 0 0 0 0 0 0 0 0 0 0 0 0 0 1 1 4 13 38 75 125 184 170 112 64 29 9 3 1 1 0 0 0 0 0 0 0 0 0 0 0 0 0 0 0 0 0 0 0 0 0 0 1 1 4 15 43 79 137 255 255 212 118 68 34 11 3 1 1 0 0 0 0 0 0 0 0 0 0 0 0 1 1 3 9 27 60 102 180 255 204 9 1 14 255 255 159 91 51 21 6 2 1 0 0 0 0 0 0 0 0 0 0 0 0 0 1 1 1 1 1 1 1 1 1 0 0 0 0 0 0 0 0 0 0 0 0 0 1 3 9 28 61 105 182 255 134 6 0 0 0 0 0 0 0 0 0 0 0 0 0 0 1 22 255 255 155 91 53 21 6 2 1 0 0 0 0 0 0 0 0 0 0 0 0 0 1 1 4 12 36 72 123 218 255 62 3 0 0 0 0 0 3 57 255 216 124 73 39 13 4 1 1 0 0 0 0 0 0 0 2 54 255 226 127 82 94 255 255 245 255 255 152 79 103 177 255 173 8 0 0 0 0 0 0 0 1 1 4 14 42 78 130 236 255 255 255 140 81 48 72 255 230 164 132 68 45 74 115 150 225 255 80 47 51 54 50 39 16 4 1 1 0 0 0 0 0 0 0 0 0 0 0 0 0 0 0 0 0 0 0 0 0 0 1 1 2 3 3 2 2 1 0 0 0 0 0 0 0 0 0 0 0 0 0 0 0 0 0 0 0 0 0 0 0 1 1 4 12 29 31 31 30 18 7 2 1 0 0 0 0 0 0 0 0 0 0 0 0 0 0 0 0 0 0 0 0 0 1 1 4 11 24 26 26 25 14 5 2 1 0 0 0 0 0 0 0 0 0 0 0 0 1 1 3 10 30 62 105 187 255 152 7 0 1 25 255 255 149 86 48 19 6 2 1 1 0 0 0 0 0 0 0 0 0 0 0 0 0 0
93 255 213 129 91 62 19 4 1 0 0 0 0 0 0 0 0 0 0 0 0 0 0 0 0 1 4 19 56 87 122 200 255 123 6 0 0 0 0 0 0 0 0 0 0 0 0 0 0 0 0 0 0 0 0 0 0 0 0 4 96 255 202 123 87 61 20 5 1 0 0 0 0 0 0 0 0 0 0 0 0 0 0 0 0 1 2 3 4 3 3 1 1 0 0 0 0 0 0 0 0 0 0 0 0 0 0 0 1 2 10 40 80 106 135 148 116 89 56 17 4 1 0 0 0 0 0 0 0 0 0 0 0 0 0 0 0 0 1 3 15 49 46 42 45 48 17 4 1 0 0 0 0 0 0 0 0 0 0 0 0 0 0 0 0 0 0 0 0 0 0 0 0 1 2 9 38 77 104 161 255 255 28 1 0 0 0 0 0 0 0 0 0 11 251 255 179 113 84 64 149 255 228 157 148 152 141 191 255 224 10 0 0 0 0 0 0 0 0 0 0 0 0 0 0 1 2 8 36 78 90 97 94 88 70 24 5 1 0 0 0 0 0 0 0 0 0 0 0 0 0 0 0 0 0 0 0 0 0 0 0 0 0 1 2 10 42 79 109 148 176 134 98 70 31 7 2 0 0 0 0 0 0 0 0 0 0 0 0 0 0 0 0 1 5 22 62 90 129 213 255 96 12 152 255 196 119 85 52 15 3 1 0 0 0 0 0 0 0 0 0 0 0 0 0 0 0 0 0 0 0 0 0 0 0 0 0 0 0 0 0 0 0 0 0 0 0 0 0 1 5 23 64 91 130 215 255 62 3 0 0 0 0 0 0 0 0 0 0 0 0 0 10 222 255 179 113 84 55 15 3 1 0 0 0 0 0 0 0 0 0 0 0 0 0 0 0 0 2 7 32 75 101 152 255 255 33 1 0 0 0 1 29 255 255 150 99 73 36 8 2 1 0 0 0 0 0 0 0 1 28 255 255 157 105 117 255 255 234 222 232 255 255 176 104 129 211 255 81 4 0 0 0 0 0 0 0 1 2 9 42 77 105 167 255 255 178 112 86 105 255 255 187 185 228 188 104 198 198 171 183 255 255 88 34 28 31 28 9 2 1 0 0 0 0 0 0 0 0 0 0 0 0 0 0 0 0 0 0 0 0 0 0 0 0 0 1 1 1 1 0 0 0 0 0 0 0 0 0 0 0 0 0 0 0 0 0 0 0 0 0 0 0 0 0 0 1 2 6 15 15 15 16 9 3 1 0 0 0 0 0 0 0 0 0 0 0 0 0 0 0 0 0 0 0 0 0 0 0 1 2 5 11 12 11 12 6 2 1 0 0 0 0 0 0 0 0 0 0 0 0 0 0 0 1 6 24 63 91 132 215 255 71 4 11 241 255 178 113 83 47 13 3 1 0 0 0 0 0 0 0 0 0 0 0 0 0 0 0 0
255 253 149 111 117 114 18 3 1 0 0 0 0 0 0 0 0 0 0 0 0 0 0 0 0 1 3 17 87 114 108 139 223 255 62 3 0 0 0 0 0 0 0 0 0 0 0 0 0 0 0 0 0 0 0 0 0 0 2 53 255 235 141 106 110 105 19 3 1 0 0 0 0 0 0 0 0 0 0 0 0 0 0 0 0 0 1 1 1 1 1 0 0 0 0 0 0 0 0 0 0 0 0 0 0 0 0 0 0 1 8 53 124 98 81 81 90 117 98 16 3 1 0 0 0 0 0 0 0 0 0 0 0 0 0 0 0 0 0 2 11 49 34 25 33 47 12 2 0 0 0 0 0 0 0 0 0 0 0 0 0 0 0 0 0 0 0 0 0 0 0 0 0 0 1 7 50 124 108 120 181 255 255 14 1 0 0 0 0 0 0 0 5 116 255 203 129 109 141 255 255 250 162 141 163 164 138 139 213 255 109 5 0 0 0 0 0 0 0 0 0 0 0 0 0 0 1 6 45 123 82 58 61 91 127 26 4 1 0 0 0 0 0 0 0 0 0 0 0 0 0 0 0 0 0 0 0 0 0 0 0 0 0 0 1 8 59 121 106 91 92 92 109 116 36 5 1 0 0 0 0 0 0 0 0 0 0 0 0 0 0 0 0 1 3 20 102 114 109 146 237 255 243 255 222 138 110 118 81 13 2 0 0 0 0 0 0 0 0 0 0 0 0 0 0 0 0 0 0 0 0 0 0 0 0 0 0 0 0 0 0 0 0 0 0 0 0 0 0 1 4 23 107 111 109 150 248 255 31 1 0 0 0 0 0 0 0 0 0 0 0 5 106 255 208 128 104 114 91 14 2 0 0 0 0 0 0 0 0 0 0 0 0 0 0 0 0 0 1 5 37 127 112 118 172 255 255 15 1 0 1 14 255 255 174 116 107 114 43 6 1 0 0 0 0 0 0 0 1 13 255 255 177 121 139 255 255 223 188 179 179 198 255 255 194 118 148 241 255 42 2 0 0 0 0 0 0 0 1 8 58 116 112 123 157 163 127 119 202 255 255 199 165 212 255 255 255 255 255 216 162 196 255 255 57 17 18 16 5 1 0 0 0 0 0 0 0 0 0 0 0 0 0 0 0 0 0 0 0 0 0 0 0 0 0 0 0 0 0 0 0 0 0 0 0 0 0 0 0 0 0 0 0 0 0 0 0 0 0 0 0 0 0 0 0 0 0 1 2 6 6 6 6 3 1 0 0 0 0 0 0 0 0 0 0 0 0 0 0 0 0 0 0 0 0 0 0 0 0 0 1 2 4 4 4 4 2 1 0 0 0 0 0 0 0 0 0 0 0 0 0 0 0 0 1 4 23 108 113 109 147 244 255 46 114 255 202 128 107 122 66 11 2 0 0 0 0 0 0 0 0 0 0 0 0 0 0 0 0 0
255 168 114 129 223 255 44 3 0 0 0 0 0 0 0 0 0 0 0 0 0 0 0 0 0 0 3 30 249 221 131 108 146 249 255 34 1 0 0 0 0 0 0 0 0 0 0 0 0 0 0 0 0 0 0 0 0 1 27 255 255 155 110 127 219 255 41 3 0 0 0 0 0 0 0 0 0 0 0 0 0 0 0 0 0 0 0 0 0 0 0 0 0 0 0 0 0 0 0 0 0 0 0 0 0 0 0 0 0 1 13 166 248 138 61 52 98 226 255 36 3 0 0 0 0 0 0 0 0 0 0 0 0 0 0 0 0 0 0 1 9 54 28 16 26 50 10 2 0 0 0 0 0 0 0 0 0 0 0 0 0 0 0 0 0 0 0 0 0 0 0 0 0 0 1 12 163 255 168 109 122 194 255 144 7 0 0 0 0 0 0 3 58 255 222 135 109 166 255 255 255 161 123 146 180 179 155 117 140 229 255 57 3 0 0 0 0 0 0 0 0 0 0 0 0 0 1 10 121 246 124 47 55 162 255 64 5 1 0 0 0 0 0 0 0 0 0 0 0 0 0 0 0 0 0 0 0 0 0 0 0 0 0 0 1 15 198 244 151 69 55 82 181 255 91 7 1 0 0 0 0 0 0 0 0 0 0 0 0 0 0 0 0 0 4 40 255 215 124 109 157 255 255 255 148 110 140 232 255 26 2 0 0 0 0 0 0 0 0 0 0 0 0 0 0 0 0 0 0 0 0 0 0 0 0 0 0 0 0 0 0 0 0 0 0 0 0 0 0 0 4 47 255 208 123 112 162 255 255 13 1 0 0 0 0 0 0 0 0 0 2 54 255 228 138 107 139 231 255 30 2 0 0 0 0 0 0 0 0 0 0 0 0 0 0 0 0 0 1 7 87 255 183 113 120 186 255 150 7 1 6 136 255 191 121 112 176 251 114 9 1 0 0 0 0 0 0 0 6 127 255 190 122 123 240 255 202 156 145 140 136 141 172 235 255 159 115 157 255 255 20 1 0 0 0 0 0 0 1 15 193 243 172 103 86 87 105 198 255 255 195 141 155 197 219 255 255 255 235 214 157 138 189 255 255 27 10 7 2 1 0 0 0 0 0 0 0 0 0 0 0 0 0 0 0 0 0 0 0 0 0 0 0 0 0 0 0 0 0 0 0 0 0 0 0 0 0 0 0 0 0 0 0 0 0 0 0 0 0 0 0 0 0 0 0 0 0 0 1 2 2 2 2 1 0 0 0 0 0 0 0 0 0 0 0 0 0 0 0 0 0 0 0 0 0 0 0 0 0 0 0 1 1 1 1 1 1 0 0 0 0 0 0 0 0 0 0 0 0 0 0 0 0 0 0 4 46 255 215 119 110 161 255 255 255 224 135 108 147 239 205 18 2 0 0 0 0 0 0 0 0 0 0 0 0 0 0 0 0 0
141 105 103 185 254 250 255 16 1 0 0 0 0 0 0 0 0 0 0 0 0 0 0 0 0 1 9 158 255 255 197 102 97 153 255 255 15 1 0 0 0 0 0 0 0 0 0 0 0 0 0 0 0 0 0 0 1 12 252 255 158 100 102 195 255 255 251 14 1 0 0 0 0 0 0 0 0 0 0 0 0 0 0 0 0 0 0 0 0 0 0 0 0 0 0 0 0 0 0 0 0 0 0 0 0 0 0 0 0 4 67 255 255 221 73 50 167 255 255 233 12 1 0 0 0 0 0 0 0 0 0 0 0 0 0 0 0 0 0 1 10 71 24 11 21 56 9 1 0 0 0 0 0 0 0 0 0 0 0 0 0 0 0 0 0 0 0 0 0 0 0 0 0 0 4 63 255 255 236 131 90 117 202 255 67 3 0 0 0 0 1 28 255 237 135 94 121 234 245 202 144 102 103 150 168 170 164 111 95 138 243 255 29 1 0 0 0 0 0 0 0 0 0 0 0 0 3 46 255 252 243 76 102 255 242 255 26 1 0 0 0 0 0 0 0 0 0 0 0 0 0 0 0 0 0 0 0 0 0 0 0 0 0 0 4 77 255 255 222 78 44 114 242 255 255 38 2 0 0 0 0 0 0 0 0 0 0 0 0 0 0 0 0 1 13 226 255 255 182 98 104 161 215 150 100 107 204 255 255 137 8 0 0 0 0 0 0 0 0 0 0 0 0 0 0 0 0 0 0 0 0 0 0 0 0 0 0 0 0 0 0 0 0 0 0 0 0 0 0 1 17 255 255 255 180 98 105 173 255 117 6 0 0 0 0 0 0 0 0 1 26 255 242 138 94 113 219 255 255 159 9 1 0 0 0 0 0 0 0 0 0 0 0 0 0 0 0 0 2 33 255 247 238 143 92 115 199 255 70 7 66 255 202 118 93 144 247 255 255 45 3 0 0 0 0 0 0 3 65 255 205 118 95 154 217 169 124 105 108 107 102 99 108 143 194 198 108 102 163 255 193 9 0 0 0 0 0 0 4 72 255 255 233 113 53 52 112 227 210 158 113 103 138 148 144 148 157 151 152 159 142 102 113 173 255 147 11 3 1 0 0 0 0 0 0 0 0 0 0 0 0 0 0 0 0 0 0 0 0 0 0 0 0 0 0 0 0 0 0 0 0 0 0 0 0 0 0 0 0 0 0 0 0 0 0 0 0 0 0 0 0 0 0 0 0 0 0 0 0 1 1 1 1 0 0 0 0 0 0 0 0 0 0 0 0 0 0 0 0 0 0 0 0 0 0 0 0 0 0 0 0 0 0 0 0 0 0 0 0 0 0 0 0 0 0 0 0 0 0 0 0 0 0 0 1 15 255 255 255 174 97 106 181 255 255 143 94 115 217 255 255 84 5 0 0 0 0 0 0 0 0 0 0 0 0 0 0 0 0 0
62 64 108 186 173 179 255 114 6 0 0 0 0 0 0 0 0 0 0 0 0 0 0 0 0 3 69 255 195 181 193 116 68 87 156 255 117 6 0 0 0 0 0 0 0 0 0 0 0 0 0 0 0 0 0 0 5 100 255 164 89 68 115 198 181 186 255 105 5 0 0 0 0 0 0 0 0 0 0 0 0 0 0 0 0 0 0 0 0 0 0 0 0 0 0 0 0 0 0 0 0 0 0 0 0 0 0 0 1 32 255 214 181 196 149 95 211 176 185 255 99 5 0 0 0 0 0 0 0 0 0 0 0 0 0 0 0 0 0 1 14 118 26 8 18 68 10 1 0 0 0 0 0 0 0 0 0 0 0 0 0 0 0 0 0 0 0 0 0 0 0 0 0 1 27 255 213 181 186 161 77 70 114 214 255 32 1 0 0 1 12 255 255 137 79 73 144 178 139 102 73 64 91 133 133 136 141 112 68 79 140 255 255 12 1 0 0 0 0 0 0 0 0 0 0 1 18 255 226 189 222 255 255 200 184 255 219 10 0 0 0 0 0 0 0 0 0 0 0 0 0 0 0 0 0 0 0 0 0 0 0 0 0 2 34 255 204 180 187 131 63 187 184 188 250 255 15 1 0 0 0 0 0 0 0 0 0 0 0 0 0 0 0 5 95 255 188 179 191 108 68 77 90 75 70 122 188 178 193 255 61 3 0 0 0 0 0 0 0 0 0 0 0 0 0 0 0 0 0 0 0 0 0 0 0 0 0 0 0 0 0 0 0 0 0 0 0 0 0 6 129 255 189 182 191 104 70 100 186 255 52 3 0 0 0 0 0 0 0 11 239 255 139 79 70 140 200 181 187 255 66 3 0 0 0 0 0 0 0 0 0 0 0 0 0 0 0 1 12 227 249 181 179 168 83 71 114 213 255 91 255 219 115 72 83 174 190 190 234 255 19 1 0 0 0 0 1 34 255 225 118 73 84 156 136 96 72 68 76 79 74 67 65 81 115 157 111 70 94 176 255 85 4 0 0 0 0 1 31 255 204 183 182 137 42 40 127 152 114 81 64 75 106 98 85 76 75 79 87 101 109 77 68 100 177 255 66 4 0 0 0 0 0 0 0 0 0 0 0 0 0 0 0 0 0 0 0 0 0 0 0 0 0 0 0 0 0 0 0 0 0 0 0 0 0 0 0 0 0 0 0 0 0 0 0 0 0 0 0 0 0 0 0 0 0 0 0 0 0 0 0 0 0 0 0 0 0 0 0 0 0 0 0 0 0 0 0 0 0 0 0 0 0 0 0 0 0 0 0 0 0 0 0 0 0 0 0 0 0 0 0 0 0 0 0 0 0 0 0 0 0 0 0 0 6 109 255 185 179 190 105 71 98 147 129 84 73 140 190 180 201 255 38 2 0 0 0 0 0 0 0 0 0 0 0 0 0 0 0 0
26 42 112 129 104 114 179 255 53 3 0 0 0 0 0 0 0 0 0 0 0 0 0 0 2 35 255 208 127 110 132 130 55 49 85 173 255 52 3 0 0 0 0 0 0 0 0 0 0 0 0 0 0 0 0 2 46 255 183 90 50 53 127 135 109 119 187 255 49 2 0 0 0 0 0 0 0 0 0 0 0 0 0 0 0 0 0 0 0 0 0 0 0 0 0 0 0 0 0 0 0 0 0 0 0 0 0 1 14 255 255 138 112 139 255 255 165 111 118 191 255 48 2 0 0 0 0 0 0 0 0 0 0 0 0 0 0 0 0 2 29 189 45 8 19 96 13 1 0 0 0 0 0 0 0 0 0 0 0 0 0 0 0 0 0 0 0 0 0 0 0 0 0 10 217 255 135 107 118 146 77 44 61 122 255 255 13 1 0 6 118 255 155 74 46 65 136 106 71 47 35 41 81 102 95 98 105 106 53 45 75 153 255 110 5 0 0 0 0 0 0 0 0 0 0 6 125 255 145 121 163 255 255 143 121 168 255 89 4 0 0 0 0 0 0 0 0 0 0 0 0 0 0 0 0 0 0 0 0 0 0 0 1 14 255 247 132 107 127 209 183 190 122 114 154 255 118 6 0 0 0 0 0 0 0 0 0 0 0 0 0 0 2 46 255 191 121 110 135 121 49 35 35 35 54 127 125 107 126 214 255 30 1 0 0 0 0 0 0 0 0 0 0 0 0 0 0 0 0 0 0 0 0 0 0 0 0 0 0 0 0 0 0 0 0 0 0 0 3 58 255 182 120 111 136 114 51 56 105 215 255 23 1 0 0 0 0 0 5 104 255 158 76 46 62 147 130 107 122 204 255 31 1 0 0 0 0 0 0 0 0 0 0 0 0 0 0 5 91 255 154 112 114 141 85 46 62 123 255 255 255 127 63 46 85 146 119 113 148 255 154 7 0 0 0 1 15 255 255 127 64 47 79 116 77 51 39 42 52 56 52 44 37 43 63 98 106 52 53 98 198 255 41 2 0 0 1 13 255 253 132 106 114 137 46 40 119 87 57 39 35 53 72 59 45 36 33 37 46 59 73 56 40 55 103 206 255 31 1 0 0 0 0 0 0 0 0 0 0 0 0 0 0 0 0 0 0 0 0 0 0 0 0 0 0 0 0 0 0 0 0 0 0 0 0 0 0 0 0 0 0 0 0 0 0 0 0 0 0 0 0 0 0 0 0 0 0 0 0 0 0 0 0 0 0 0 0 0 0 0 0 0 0 0 0 0 0 0 0 0 0 0 0 0 0 0 0 0 0 0 0 0 0 0 0 0 0 0 0 0 0 0 0 0 0 0 0 0 0 0 0 0 0 2 51 255 182 118 109 139 121 52 48 58 54 46 66 143 125 108 133 242 255 16 1 0 0 0 0 0 0 0 0 0 0 0 0 0 0 0
12 32 103 80 60 68 108 221 255 25 1 0 0 0 0 0 0 0 0 0 0 0 0 1 15 255 255 126 76 65 83 121 53 29 45 100 216 255 24 1 0 0 0 0 0 0 0 0 0 0 0 0 0 0 1 21 255 227 105 48 29 48 118 84 63 71 112 225 255 22 1 0 0 0 0 0 0 0 0 0 0 0 0 0 0 0 0 0 0 0 0 0 0 0 0 0 0 0 0 0 0 0 0 0 0 0 0 6 129 255 153 83 69 104 209 253 128 71 71 114 230 255 22 1 0 0 0 0 0 0 0 0 0 0 0 0 0 0 0 6 80 168 145 14 28 150 21 2 0 0 0 0 0 0 0 0 0 0 0 0 0 0 0 0 0 0 0 0 0 0 0 0 4 92 255 155 80 61 71 104 85 31 33 65 146 255 110 5 3 60 255 187 86 40 29 64 101 61 34 21 17 28 72 74 66 67 76 94 45 26 40 84 183 255 54 3 0 0 0 0 0 0 0 0 3 55 255 167 89 76 107 161 148 96 76 100 190 255 41 2 0 0 0 0 0 0 0 0 0 0 0 0 0 0 0 0 0 0 0 0 0 0 6 118 255 147 79 63 93 206 255 156 82 67 90 173 255 53 3 0 0 0 0 0 0 0 0 0 0 0 0 1 20 255 232 116 73 65 86 119 41 16 13 17 47 110 78 62 75 129 255 254 12 1 0 0 0 0 0 0 0 0 0 0 0 0 0 0 0 0 0 0 0 0 0 0 0 0 0 0 0 0 0 0 0 0 0 1 26 255 213 108 71 65 86 113 44 32 56 126 255 201 9 0 0 0 0 2 50 255 190 88 41 29 62 118 80 61 73 124 255 253 12 1 0 0 0 0 0 0 0 0 0 0 0 0 2 44 255 186 94 66 69 96 92 34 34 69 156 249 158 71 34 33 90 98 71 64 88 169 255 68 3 0 0 6 121 255 147 68 35 32 76 74 43 26 20 24 33 37 34 26 19 21 33 57 89 42 30 52 112 238 255 18 1 0 6 114 255 152 79 59 70 107 64 50 92 49 27 18 18 34 45 33 22 15 13 16 22 32 44 38 24 30 58 123 255 254 12 1 0 0 0 0 0 0 0 0 0 0 0 0 0 0 0 0 0 0 0 0 0 0 0 0 0 0 0 0 0 0 0 0 0 0 0 0 0 0 0 0 0 0 0 0 0 0 0 0 0 0 0 0 0 0 0 0 0 0 0 0 0 0 0 0 0 0 0 0 0 0 0 0 0 0 0 0 0 0 0 0 0 0 0 0 0 0 0 0 0 0 0 0 0 0 0 0 0 0 0 0 0 0 0 0 0 0 0 0 0 0 0 0 1 23 255 222 111 70 65 90 125 45 23 21 21 26 67 115 78 63 80 144 255 146 7 0 0 0 0 0 0 0 0 0 0 0 0 0 0 0
7 27 87 51 35 40 63 134 255 238 11 0 0 0 0 0 0 0 0 0 0 0 0 6 140 255 151 73 45 38 55 99 59 19 24 56 131 255 210 10 0 0 0 0 0 0 0 0 0 0 0 0 0 0 9 189 255 138 59 26 18 48 96 54 37 42 65 135 255 187 9 0 0 0 0 0 0 0 0 0 0 0 0 0 0 0 0 0 0 0 0 0 0 0 0 0 0 0 0 0 0 0 0 0 0 0 3 63 255 187 89 50 45 78 127 142 96 49 43 66 137 255 179 9 0 0 0 0 0 0 0 0 0 0 0 0 0 0 2 28 255 165 255 68 70 176 46 4 0 0 0 0 0 0 0 0 0 0 0 0 0 0 0 0 0 0 0 0 0 0 0 2 45 255 196 93 48 35 43 73 106 27 18 36 84 188 255 57 35 255 229 109 47 22 21 69 69 35 16 9 8 20 66 56 47 48 59 83 43 17 21 46 108 230 255 27 1 0 0 0 0 0 0 1 28 255 219 103 55 48 64 77 74 60 48 59 114 240 255 18 1 0 0 0 0 0 0 0 0 0 0 0 0 0 0 0 0 0 0 0 0 3 56 255 183 87 48 40 76 150 188 123 60 40 53 104 222 255 26 1 0 0 0 0 0 0 0 0 0 0 0 8 158 255 138 68 43 39 58 103 40 9 5 10 44 84 50 36 44 75 155 255 107 5 0 0 0 0 0 0 0 0 0 0 0 0 0 0 0 0 0 0 0 0 0 0 0 0 0 0 0 0 0 0 0 0 0 10 214 255 128 63 41 38 57 102 43 19 31 72 165 255 89 4 0 0 1 22 255 231 111 48 22 21 68 84 50 35 44 73 152 255 102 5 0 0 0 0 0 0 0 0 0 0 0 1 19 255 239 114 57 39 42 67 107 30 19 38 75 103 75 38 20 29 99 66 42 37 52 101 211 255 34 2 3 55 255 178 82 36 19 25 76 47 23 12 9 12 19 22 20 14 9 10 17 34 69 36 18 28 62 142 255 171 8 3 54 255 187 90 47 33 44 82 138 92 68 28 12 8 9 20 24 17 10 6 5 6 9 16 24 23 13 16 32 71 153 255 106 5 0 0 0 0 0 0 0 0 0 0 0 0 0 0 0 0 0 0 0 0 0 0 0 0 0 0 0 0 0 0 0 0 0 0 0 0 0 0 0 0 0 0 0 0 0 0 0 0 0 0 0 0 0 0 0 0 0 0 0 0 0 0 0 0 0 0 0 0 0 0 0 0 0 0 0 0 0 0 0 0 0 0 0 0 0 0 0 0 0 0 0 0 0 0 0 0 0 0 0 0 0 0 0 0 0 0 0 0 0 0 0 0 9 178 255 134 65 42 39 61 112 44 12 8 8 18 76 83 49 37 48 85 180 255 68 3 0 0 0 0 0 0 0 0 0 0 0 0 0 0
5 23 71 35 20 23 39 81 171 255 108 5 0 0 0 0 0 0 0 0 0 0 3 66 255 191 91 44 26 23 40 83 89 17 14 33 79 170 255 87 4 0 0 0 0 0 0 0 0 0 0 0 0 4 82 255 175 83 34 14 14 56 77 38 22 24 39 81 173 255 79 4 0 0 0 0 0 0 0 0 0 0 0 0 0 0 0 0 0 0 0 0 0 0 0 0 0 0 0 0 0 0 0 0 0 1 32 255 229 114 54 31 32 59 72 75 69 37 28 40 82 173 255 78 4 0 0 0 0 0 0 0 0 0 0 0 0 0 9 182 255 202 228 255 255 171 189 12 1 0 0 0 0 0 0 0 0 0 0 0 0 0 0 0 0 0 0 0 0 0 1 20 255 245 122 57 29 20 28 63 150 34 11 20 50 116 239 255 255 255 140 64 27 12 19 92 51 20 7 4 4 16 68 48 35 37 52 80 49 12 11 26 64 142 255 250 12 1 0 0 0 0 1 12 255 255 139 64 35 30 36 36 36 36 31 36 69 149 255 159 7 0 0 0 0 0 0 0 0 0 0 0 0 0 0 0 0 0 0 0 1 27 255 231 113 53 29 28 67 97 102 91 49 26 32 64 140 255 235 11 0 0 0 0 0 0 0 0 0 0 3 67 255 173 83 41 26 24 43 87 45 7 3 8 47 64 33 21 26 45 93 195 255 53 2 0 0 0 0 0 0 0 0 0 0 0 0 0 0 0 0 0 0 0 0 0 0 0 0 0 0 0 0 0 0 0 4 87 255 166 77 38 24 23 43 90 50 14 17 43 101 208 255 45 2 0 8 172 255 140 65 27 12 19 92 63 33 20 26 44 93 193 255 49 2 0 0 0 0 0 0 0 0 0 0 8 157 255 147 70 35 23 27 57 132 36 12 19 33 40 33 19 12 32 116 52 26 21 31 61 131 255 255 15 28 255 228 109 48 20 11 23 86 33 12 5 4 5 8 11 9 6 4 4 8 21 52 30 11 15 36 85 183 255 85 31 255 232 115 55 28 19 32 100 255 255 77 18 6 3 4 9 11 7 4 2 2 2 4 7 10 11 6 8 17 42 93 195 255 52 2 0 0 0 0 0 0 0 0 0 0 0 0 0 0 0 0 0 0 0 0 0 0 0 0 0 0 0 0 0 0 0 0 0 0 0 0 0 0 0 0 0 0 0 0 0 0 0 0 0 0 0 0 0 0 0 0 0 0 0 0 0 0 0 0 0 0 0 0 0 0 0 0 0 0 0 0 0 0 0 0 0 0 0 0 0 0 0 0 0 0 0 0 0 0 0 0 0 0 0 0 0 0 0 0 0 0 0 0 0 0 4 73 255 170 81 40 25 25 47 96 51 9 3 4 17 108 66 33 22 29 52 110 222 255 35 2 0 0 0 0 0 0 0 0 0 0 0 0 0
4 20 59 26 12 13 24 51 105 208 255 56 3 0 0 0 0 0 0 0 0 1 32 255 227 118 58 27 15 14 34 93 203 26 9 19 50 106 206 255 41 2 0 0 0 0 0 0 0 0 0 0 2 40 255 212 108 52 20 8 14 86 69 30 13 13 24 52 108 211 255 37 2 0 0 0 0 0 0 0 0 0 0 0 0 0 0 0 0 0 0 0 0 0 0 0 0 0 0 0 0 0 0 0 1 14 255 255 141 70 34 19 23 46 42 40 49 29 18 25 52 108 215 255 40 2 0 0 0 0 0 0 0 0 0 0 0 4 79 255 183 183 175 255 255 235 255 71 4 0 0 0 0 0 0 0 0 0 0 0 0 0 0 0 0 0 0 0 0 0 8 174 255 151 75 36 17 11 21 83 180 70 10 11 31 73 153 255 255 177 86 39 15 8 27 164 52 13 3 2 3 16 89 52 29 31 59 101 79 11 6 14 39 86 172 255 109 5 0 0 0 0 6 120 255 174 88 43 23 18 19 16 16 19 19 23 44 93 187 255 74 4 0 0 0 0 0 0 0 0 0 0 0 0 0 0 0 0 0 1 12 251 255 144 71 34 19 23 67 63 57 68 44 18 20 41 88 174 255 96 5 0 0 0 0 0 0 0 0 1 32 255 216 109 52 25 14 15 37 80 67 8 2 8 59 52 23 12 14 28 59 123 241 255 26 1 0 0 0 0 0 0 0 0 0 0 0 0 0 0 0 0 0 0 0 0 0 0 0 0 0 0 0 0 0 2 41 255 204 104 49 23 13 14 37 88 77 13 10 26 63 129 252 255 21 5 72 255 174 86 39 15 8 27 161 65 23 12 14 28 59 122 240 255 22 1 0 0 0 0 0 0 0 0 3 72 255 181 91 45 22 13 19 69 156 64 10 9 13 15 13 8 9 47 140 56 17 11 18 39 81 161 255 180 255 255 144 68 29 10 7 26 118 31 7 2 1 2 3 4 3 2 1 2 4 13 38 24 7 8 21 53 113 224 255 255 255 145 71 34 17 12 38 190 245 255 194 22 3 1 2 3 4 2 1 1 1 1 1 2 4 4 3 3 9 26 59 123 240 255 24 1 0 0 0 0 0 0 0 0 0 0 0 0 0 0 0 0 0 0 0 0 0 0 0 0 0 0 0 0 0 0 0 0 0 0 0 0 0 0 0 0 0 0 0 0 0 0 0 0 0 0 0 0 0 0 0 0 0 0 0 0 0 0 0 0 0 0 0 0 0 0 0 0 0 0 0 0 0 0 0 0 0 0 0 0 0 0 0 0 0 0 0 0 0 0 0 0 0 0 0 0 0 0 0 0 0 0 0 0 2 34 255 210 107 52 25 14 16 42 90 78 9 2 3 27 186 76 25 13 17 33 68 138 255 255 16 1 0 0 0 0 0 0 0 0 0 0 0 0
3 15 48 18 6 6 14 33 66 127 241 255 28 1 0 0 0 0 0 0 1 13 255 255 138 73 38 16 8 10 42 177 245 77 9 11 32 66 128 248 255 17 1 0 0 0 0 0 0 0 0 1 17 255 255 131 68 33 12 5 24 200 92 26 8 7 14 34 68 131 255 255 16 1 0 0 0 0 0 0 0 0 0 0 0 0 0 0 0 0 0 0 0 0 0 0 0 0 0 0 0 0 0 0 6 140 255 168 86 45 22 12 16 34 24 22 33 21 11 15 34 69 133 255 255 18 1 0 0 0 0 0 0 0 0 0 2 41 255 215 133 139 127 161 180 213 217 255 32 1 0 0 0 0 0 0 0 0 0 0 0 0 0 0 0 0 0 0 0 4 76 255 181 93 49 23 9 7 25 172 175 255 25 7 19 48 95 165 179 106 55 24 8 8 64 215 102 12 2 1 3 24 166 93 29 34 113 189 245 24 4 8 24 54 104 203 255 54 3 0 0 3 58 255 201 106 57 29 14 9 8 6 7 8 9 13 29 60 115 221 255 37 2 0 0 0 0 0 0 0 0 0 0 0 0 0 0 0 0 5 103 255 172 89 47 22 11 21 81 46 35 53 44 13 12 27 57 106 202 255 45 2 0 0 0 0 0 0 1 13 255 255 136 69 34 15 7 10 36 99 182 16 2 12 113 51 16 6 7 17 39 77 148 255 230 11 0 0 0 0 0 0 0 0 0 0 0 0 0 0 0 0 0 0 0 0 0 0 0 0 0 0 0 0 1 18 255 249 127 66 33 13 7 10 40 115 201 21 6 16 41 79 154 255 223 49 255 211 109 55 24 8 8 66 214 122 22 6 7 17 39 77 148 255 181 9 0 0 0 0 0 0 0 2 39 255 221 112 59 29 12 8 20 134 166 233 19 4 4 5 4 4 12 122 154 93 15 6 10 25 52 101 209 255 255 177 90 45 17 6 6 44 175 43 6 1 1 1 1 1 1 1 0 1 2 7 24 15 4 4 12 34 71 141 255 255 188 92 47 21 9 11 94 228 165 179 255 63 5 1 1 1 1 1 0 0 0 0 0 1 1 1 1 1 4 15 39 77 147 255 209 10 0 0 0 0 0 0 0 0 0 0 0 0 0 0 0 0 0 0 0 0 0 0 0 0 0 0 0 0 0 0 0 0 0 0 0 0 0 0 0 0 0 0 0 0 0 0 0 0 0 0 0 0 0 0 0 0 0 0 0 0 0 0 0 0 0 0 0 0 0 0 0 0 0 0 0 0 0 0 0 0 0 0 0 0 0 0 0 0 0 0 0 0 0 0 0 0 0 0 0 0 0 0 0 0 0 0 0 1 14 255 255 132 68 34 14 8 12 46 113 195 19 2 5 67 203 155 26 8 9 21 44 85 165 255 153 7 0 0 0 0 0 0 0 0 0 0 0 0
2 11 36 12 3 3 7 21 42 76 145 255 244 12 1 0 0 0 0 0 5 111 255 161 83 46 24 9 4 11 114 239 189 255 31 7 19 42 77 150 255 137 7 0 0 0 0 0 0 0 0 7 141 255 154 79 43 20 6 7 85 247 214 39 6 3 7 22 44 80 156 255 140 7 0 0 0 0 0 0 0 0 0 0 0 0 0 0 0 0 0 0 0 0 0 0 0 0 0 0 0 0 0 3 69 255 193 100 54 29 12 6 9 21 13 11 18 12 6 8 22 44 81 156 255 170 8 0 0 0 0 0 0 0 0 1 19 255 255 137 97 98 87 81 96 140 151 255 247 12 1 0 0 0 0 0 0 0 0 0 0 0 0 0 0 0 0 0 2 38 255 212 110 58 32 13 5 7 64 250 199 255 144 11 11 31 55 75 78 58 35 14 5 23 255 188 255 31 2 1 5 67 243 255 63 85 255 255 255 116 8 4 14 34 64 123 237 255 27 1 1 29 255 231 120 65 37 18 7 4 3 2 2 3 4 7 19 39 71 134 255 255 17 1 0 0 0 0 0 0 0 0 0 0 0 0 0 0 2 47 255 197 103 56 30 13 7 24 128 43 24 44 49 10 7 17 37 65 123 240 255 20 1 0 0 0 0 0 5 104 255 161 83 45 22 8 4 8 56 211 255 59 6 33 255 96 14 3 3 9 25 49 88 170 255 92 5 0 0 0 0 0 0 0 0 0 0 0 0 0 0 0 0 0 0 0 0 0 0 0 0 0 0 0 8 167 255 153 78 43 21 7 3 9 73 215 255 72 7 9 25 50 93 183 255 255 255 132 68 36 14 5 25 255 193 255 47 5 4 9 25 49 90 174 255 81 4 0 0 0 0 0 1 20 255 255 136 70 38 18 6 6 46 255 205 255 87 6 2 1 1 4 44 255 188 238 29 4 5 14 34 65 127 229 210 110 57 29 10 3 11 154 181 107 9 1 0 0 0 0 0 0 0 0 1 3 11 7 2 2 6 21 46 85 147 173 109 59 31 12 6 35 255 177 113 115 177 255 20 1 0 0 0 0 0 0 0 0 0 0 0 0 0 1 2 8 25 49 88 172 255 93 4 0 0 0 0 0 0 0 0 0 0 0 0 0 0 0 0 0 0 0 0 0 0 0 0 0 0 0 0 0 0 0 0 0 0 0 0 0 0 0 0 0 0 0 0 0 0 0 0 0 0 0 0 0 0 0 0 0 0 0 0 0 0 0 0 0 0 0 0 0 0 0 0 0 0 0 0 0 0 0 0 0 0 0 0 0 0 0 0 0 0 0 0 0 0 0 0 0 0 0 0 0 0 0 0 0 0 6 115 255 158 81 44 22 8 4 11 83 210 255 63 6 22 255 177 255 61 7 4 12 28 53 98 188 255 69 3 0 0 0 0 0 0 0 0 0 0 0
1 6 21 7 2 1 3 11 26 45 83 162 255 102 5 0 0 0 0 2 52 255 188 95 49 28 13 4 4 43 255 193 162 255 226 15 11 26 47 89 177 255 60 3 0 0 0 0 0 0 3 61 255 176 89 48 26 11 5 38 255 197 248 146 10 2 4 12 27 49 92 183 255 64 3 0 0 0 0 0 0 0 0 0 0 0 0 0 0 0 0 0 0 0 0 0 0 0 0 0 0 0 2 36 255 222 113 59 33 17 6 3 4 9 6 5 7 5 3 4 12 28 49 91 180 255 74 4 0 0 0 0 0 0 0 8 165 255 152 84 69 67 56 41 51 81 97 158 255 102 5 0 0 0 0 0 0 0 0 0 0 0 0 0 0 0 0 1 18 255 254 127 65 36 19 7 3 22 255 188 178 184 255 67 9 18 29 32 32 29 19 8 10 144 255 189 232 141 8 2 27 255 216 255 255 255 255 217 201 255 53 5 7 20 39 71 140 255 254 12 13 255 255 137 70 39 23 9 3 1 1 1 1 1 1 3 10 24 43 78 154 255 166 8 0 0 0 0 0 0 0 0 0 0 0 0 0 1 21 255 230 117 60 34 18 7 6 46 196 66 21 41 63 10 4 9 22 40 72 144 255 166 8 0 0 0 0 2 48 255 187 95 51 28 12 4 2 17 219 249 201 255 36 167 223 255 32 3 2 4 14 30 53 99 194 255 43 2 0 0 0 0 0 0 0 0 0 0 0 0 0 0 0 0 0 0 0 0 0 0 0 0 0 4 76 255 179 90 48 26 11 3 3 24 255 232 191 255 29 6 14 31 56 111 226 255 168 81 42 22 8 11 170 255 189 220 251 16 2 5 15 31 54 103 208 255 43 2 0 0 0 0 9 187 255 156 80 44 24 9 4 14 206 209 197 191 255 37 2 1 1 16 255 225 216 246 116 8 3 7 21 41 69 100 95 63 36 17 5 5 57 255 191 255 36 2 0 0 0 0 0 0 0 0 0 1 3 2 1 1 3 12 28 47 66 73 56 37 19 7 13 195 238 138 80 76 130 255 113 6 0 0 0 0 0 0 0 0 0 0 0 0 0 0 1 4 15 30 53 101 203 255 49 2 0 0 0 0 0 0 0 0 0 0 0 0 0 0 0 0 0 0 0 0 0 0 0 0 0 0 0 0 0 0 0 0 0 0 0 0 0 0 0 0 0 0 0 0 0 0 0 0 0 0 0 0 0 0 0 0 0 0 0 0 0 0 0 0 0 0 0 0 0 0 0 0 0 0 0 0 0 0 0 0 0 0 0 0 0 0 0 0 0 0 0 0 0 0 0 0 0 0 0 0 0 0 0 0 3 52 255 185 93 50 28 12 4 3 27 255 237 190 255 34 134 255 177 194 255 20 3 6 17 33 58 109 213 255 33 1 0 0 0 0 0 0 0 0 0 0
1 3 8 3 1 1 2 5 14 25 45 90 186 255 48 2 0 0 1 24 255 220 108 53 28 15 6 3 17 255 218 142 122 161 255 97 10 14 27 50 102 207 255 27 1 0 0 0 0 1 29 255 207 100 50 27 14 6 17 255 243 158 182 255 57 4 2 6 14 28 52 104 209 255 30 1 0 0 0 0 0 0 0 0 0 0 0 0 0 0 0 0 0 0 0 0 0 0 0 0 0 1 15 255 254 126 62 33 18 8 3 1 2 3 2 2 2 2 1 2 6 15 28 50 101 201 255 35 2 0 0 0 0 0 4 72 255 170 84 50 47 43 33 20 25 43 58 92 184 255 48 2 0 0 0 0 0 0 0 0 0 0 0 0 0 0 0 7 151 255 146 70 37 20 9 3 8 138 255 145 126 122 210 255 35 9 12 12 12 12 9 7 63 255 174 147 158 255 55 13 181 255 175 186 255 255 173 133 138 223 255 26 4 10 22 40 77 158 255 128 140 255 156 75 39 22 11 4 1 1 0 0 0 0 1 1 5 12 24 43 85 176 255 77 4 0 0 0 0 0 0 0 0 0 0 0 0 8 177 255 133 64 34 19 9 4 13 169 173 181 30 49 116 13 3 4 11 22 41 80 165 255 69 3 0 0 1 22 255 224 108 53 29 15 6 2 5 84 255 185 154 255 255 255 181 232 149 9 1 2 7 16 29 55 111 231 255 19 1 0 0 0 0 0 0 0 0 0 0 0 0 0 0 0 0 0 0 0 0 0 0 0 2 39 255 204 101 51 27 14 5 2 7 124 255 177 149 255 192 12 7 17 32 60 105 132 86 47 24 12 8 73 255 171 144 162 255 97 6 2 7 17 31 58 120 244 255 20 1 0 0 4 79 255 171 85 44 25 13 5 6 78 255 155 138 133 236 255 14 1 6 117 255 157 163 174 255 48 4 4 11 23 33 39 38 31 19 8 4 24 255 204 187 224 235 12 1 0 0 0 0 0 0 0 0 0 1 1 0 0 1 5 14 23 26 28 25 19 10 7 79 255 146 94 59 52 89 159 255 47 2 0 0 0 0 0 0 0 0 0 0 0 0 0 0 2 7 16 30 57 116 235 255 24 1 0 0 0 0 0 0 0 0 0 0 0 0 0 0 0 0 0 0 0 0 0 0 0 0 0 0 0 0 0 0 0 0 0 0 0 0 0 0 0 0 0 0 0 0 0 0 0 0 0 0 0 0 0 0 0 0 0 0 0 0 0 0 0 0 0 0 0 0 0 0 0 0 0 0 0 0 0 0 0 0 0 0 0 0 0 0 0 0 0 0 0 0 0 0 0 0 0 0 0 0 0 0 1 23 255 217 106 53 28 15 6 2 9 149 252 179 153 255 255 255 170 141 148 255 117 7 3 8 18 32 60 122 253 255 13 1 0 0 0 0 0 0 0 0 0
0 1 2 1 0 0 1 2 6 12 23 47 103 219 255 21 1 0 9 179 255 124 57 27 14 7 3 7 116 255 138 91 82 97 181 255 46 9 13 26 54 117 255 208 10 0 0 0 1 12 255 255 117 53 26 13 6 8 117 255 144 106 122 198 255 25 2 2 6 14 27 54 117 254 249 12 1 0 0 0 0 0 0 0 0 0 0 0 0 0 0 0 0 0 0 0 0 0 0 0 0 6 121 255 139 65 32 16 8 3 1 0 1 1 1 1 1 1 0 1 2 7 13 26 52 111 242 255 15 1 0 0 0 2 34 255 196 92 44 28 28 24 17 10 11 20 31 50 104 220 255 22 1 0 0 0 0 0 0 0 0 0 0 0 0 0 3 65 255 164 77 37 19 10 4 4 62 255 160 98 79 74 121 252 243 16 5 4 4 4 4 29 255 200 107 97 109 196 255 151 255 154 113 110 148 139 97 74 82 130 255 209 12 5 10 20 40 85 188 255 255 186 84 39 20 10 5 2 1 0 0 0 0 0 0 1 2 5 12 22 44 95 200 255 38 2 0 0 0 0 0 0 0 0 0 0 4 76 255 159 71 33 17 9 4 5 61 255 167 255 114 126 224 32 3 2 5 11 21 42 90 192 255 31 1 0 8 171 255 128 57 28 14 7 3 3 37 255 176 117 107 177 255 230 137 149 255 56 3 1 3 7 14 28 59 131 255 161 8 0 0 0 0 0 0 0 0 0 0 0 0 0 0 0 0 0 0 0 0 0 0 1 17 255 241 113 53 26 14 6 2 3 52 255 160 112 101 151 255 78 7 8 16 28 42 49 38 23 12 7 35 255 192 103 94 107 172 255 43 3 3 8 16 30 63 135 255 186 9 0 2 36 255 190 91 43 22 12 6 4 36 255 177 105 85 83 139 255 102 8 51 255 168 99 101 120 211 255 21 2 5 10 13 14 14 13 8 4 10 183 255 134 132 150 255 96 5 0 0 0 0 0 0 0 0 0 0 0 0 0 1 2 6 9 9 10 10 8 6 37 255 181 89 59 42 36 56 97 208 255 20 1 0 0 0 0 0 0 0 0 0 0 0 0 0 1 3 7 15 29 61 131 255 216 10 0 0 0 0 0 0 0 0 0 0 0 0 0 0 0 0 0 0 0 0 0 0 0 0 0 0 0 0 0 0 0 0 0 0 0 0 0 0 0 0 0 0 0 0 0 0 0 0 0 0 0 0 0 0 0 0 0 0 0 0 0 0 0 0 0 0 0 0 0 0 0 0 0 0 0 0 0 0 0 0 0 0 0 0 0 0 0 0 0 0 0 0 0 0 0 0 0 0 0 0 0 0 8 164 255 122 56 27 14 7 3 4 65 255 160 113 109 176 255 241 112 96 102 162 255 51 4 3 8 16 31 64 139 255 102 5 0 0 0 0 0 0 0 0 0
0 0 1 0 0 0 0 1 2 5 10 23 52 121 255 174 8 4 70 255 147 64 28 13 6 3 4 51 255 162 80 53 49 54 101 218 255 20 7 12 27 61 143 255 79 4 0 0 5 110 255 144 61 26 12 6 5 52 255 167 82 64 73 121 255 204 10 1 2 6 12 26 60 141 255 97 5 0 0 0 0 0 0 0 0 0 0 0 0 0 0 0 0 0 0 0 0 0 0 0 3 54 255 164 72 32 15 7 3 1 0 0 0 0 0 0 0 0 0 0 1 2 6 12 25 57 136 255 132 6 0 0 1 14 255 243 109 47 22 14 14 11 7 4 4 8 15 25 54 123 255 163 8 0 0 0 0 0 0 0 0 0 0 0 0 1 32 255 197 87 38 17 8 4 3 30 255 202 96 60 45 42 65 138 255 90 6 1 1 2 12 219 255 114 61 57 67 121 255 255 209 91 64 56 61 57 46 38 44 70 150 255 86 6 4 9 19 43 105 232 227 104 43 19 9 4 2 1 0 0 0 0 0 0 0 0 1 2 5 10 21 48 109 237 255 15 1 0 0 0 0 0 0 0 0 2 36 255 190 86 36 16 7 3 3 25 255 184 148 187 255 255 208 116 8 1 2 4 9 20 46 108 244 225 11 4 67 255 150 66 29 13 6 3 2 15 255 231 110 68 67 92 140 112 88 98 189 255 24 1 1 3 6 13 29 69 159 255 68 3 0 0 0 0 0 0 0 0 0 0 0 0 0 0 0 0 0 0 0 0 0 7 138 255 134 58 26 12 6 2 2 23 255 203 99 64 62 88 181 255 35 5 7 11 15 16 14 10 6 16 255 242 109 58 54 63 102 219 255 18 2 3 7 14 31 70 159 255 79 5 14 255 233 105 45 20 10 5 3 14 255 235 108 63 48 48 77 163 255 88 255 207 96 58 56 73 126 255 160 8 2 3 4 5 4 4 3 5 81 255 153 81 80 94 178 255 47 2 0 0 0 0 0 0 0 0 0 0 0 0 0 1 2 3 3 3 3 3 15 255 235 106 50 34 26 22 32 55 121 255 163 8 0 0 0 0 0 0 0 0 0 0 0 0 0 0 1 3 6 14 30 67 151 255 87 4 0 0 0 0 0 0 0 0 0 0 0 0 0 0 0 0 0 0 0 0 0 0 0 0 0 0 0 0 0 0 0 0 0 0 0 0 0 0 0 0 0 0 0 0 0 0 0 0 0 0 0 0 0 0 0 0 0 0 0 0 0 0 0 0 0 0 0 0 0 0 0 0 0 0 0 0 0 0 0 0 0 0 0 0 0 0 0 0 0 0 0 0 0 0 0 0 0 0 0 0 3 66 255 147 64 28 13 6 3 2 32 255 198 99 66 68 93 144 113 67 59 64 99 206 255 22 2 3 7 14 32 74 169 255 47 2 0 0 0 0 0 0 0 0
0 0 0 0 0 0 0 0 1 2 4 10 26 64 156 255 82 38 255 185 80 32 13 5 2 2 24 255 210 93 44 29 27 28 53 124 255 114 8 5 12 31 78 178 255 35 2 3 54 255 178 77 31 12 5 3 22 255 207 94 44 35 41 68 151 255 87 5 1 2 5 12 30 76 173 255 44 2 0 0 0 0 0 0 0 0 0 0 0 0 0 0 0 0 0 0 0 0 0 1 23 255 207 91 36 14 6 3 1 0 0 0 0 0 0 0 0 0 0 0 0 1 2 5 11 28 73 169 255 60 3 0 6 114 255 136 56 23 10 6 5 4 2 1 2 3 6 11 26 64 150 255 65 3 0 0 0 0 0 0 0 0 0 0 1 13 255 253 112 45 18 7 3 2 12 223 255 116 53 33 24 22 33 74 167 255 36 2 1 5 88 255 144 61 33 31 39 72 160 212 115 51 33 25 23 21 19 17 22 36 81 182 255 40 3 4 8 21 51 95 93 50 21 8 3 1 1 0 0 0 0 0 0 0 0 0 0 1 2 4 9 23 55 131 255 123 6 0 0 0 0 0 0 0 1 14 255 239 106 44 17 7 3 2 10 178 255 123 109 131 240 242 178 255 46 3 1 2 4 9 22 56 136 255 89 36 255 186 81 33 13 5 2 1 6 115 255 133 62 38 36 41 53 48 50 60 116 255 178 9 1 1 2 6 14 35 87 193 255 30 1 0 0 0 0 0 0 0 0 0 0 0 0 0 0 0 0 0 0 0 3 58 255 160 70 28 12 5 2 1 9 189 255 119 56 35 35 48 104 236 231 14 3 4 5 5 5 4 7 110 255 138 58 31 28 34 56 126 255 138 7 1 3 6 14 35 85 190 255 47 110 255 131 54 21 9 4 2 6 97 255 133 60 35 25 25 41 95 244 255 255 122 52 31 29 40 70 157 255 69 4 1 1 1 1 1 3 41 255 192 87 46 44 55 103 225 255 22 1 0 0 0 0 0 0 0 0 0 0 0 0 0 1 1 1 1 1 6 104 255 131 57 27 17 14 12 17 29 66 157 255 72 4 0 0 0 0 0 0 0 0 0 0 0 0 0 0 1 2 6 13 33 80 181 255 39 2 0 0 0 0 0 0 0 0 0 0 0 0 0 0 0 0 0 0 0 0 0 0 0 0 0 0 0 0 0 0 0 0 0 0 0 0 0 0 0 0 0 0 0 0 0 0 0 0 0 0 0 0 0 0 0 0 0 0 0 0 0 0 0 0 0 0 0 0 0 0 0 0 0 0 0 0 0 0 0 0 0 0 0 0 0 0 0 0 0 0 0 0 0 0 0 0 0 0 1 31 255 190 81 32 13 5 2 2 13 255 254 116 57 37 38 43 54 46 34 33 37 55 119 255 161 8 1 3 6 15 37 95 219 255 22 1 0 0 0 0 0 0 0
0 0 0 0 0 0 0 0 0 1 2 4 12 33 88 201 255 255 255 108 42 15 6 2 1 10 208 255 124 51 23 14 12 14 27 68 160 255 48 4 5 15 41 103 238 255 15 28 255 222 100 40 15 5 2 8 152 255 120 50 23 18 21 38 85 190 255 42 2 1 2 5 14 39 99 225 255 20 1 0 0 0 0 0 0 0 0 0 0 0 0 0 0 0 0 0 0 0 0 8 170 255 120 48 18 6 2 1 0 0 0 0 0 0 0 0 0 0 0 0 0 0 1 2 5 14 38 95 209 255 29 4 53 255 174 74 29 10 4 2 2 1 1 0 1 1 2 5 12 33 84 193 255 29 1 0 0 0 0 0 0 0 0 0 5 103 255 143 60 22 8 3 1 5 88 255 144 63 28 16 11 10 16 39 98 226 244 13 3 41 255 183 81 33 17 15 21 38 69 84 54 27 15 10 8 7 7 7 9 18 42 104 233 255 17 2 3 9 21 34 34 21 9 3 1 1 0 0 0 0 0 0 0 0 0 0 0 0 1 1 4 10 27 71 168 255 56 3 0 0 0 0 0 0 6 117 255 137 56 22 8 3 1 4 73 255 151 78 75 81 113 124 141 217 255 20 1 1 1 4 10 29 76 180 255 255 255 109 42 16 6 2 1 3 54 255 170 74 34 19 17 17 18 19 25 35 67 152 255 75 4 1 1 2 6 17 45 111 252 233 11 1 0 0 0 0 0 0 0 0 0 0 0 0 0 0 0 0 0 1 26 255 202 90 35 13 5 2 1 4 83 255 156 67 30 18 17 25 56 135 255 90 5 1 1 1 1 3 48 255 174 76 31 15 13 17 30 70 163 255 61 3 1 2 6 16 44 108 255 255 255 171 72 27 10 4 2 3 43 255 171 75 33 18 12 12 21 54 138 249 169 71 28 15 14 21 38 89 198 255 33 2 0 0 0 1 17 255 239 110 47 25 23 30 56 130 255 190 9 0 0 0 0 0 0 0 0 0 0 0 0 0 0 0 0 0 3 47 255 172 73 30 13 8 6 5 8 15 35 89 200 255 36 2 0 0 0 0 0 0 0 0 0 0 0 0 0 0 1 2 6 16 41 103 231 255 15 1 0 0 0 0 0 0 0 0 0 0 0 0 0 0 0 0 0 0 0 0 0 0 0 0 0 0 0 0 0 0 0 0 0 0 0 0 0 0 0 0 0 0 0 0 0 0 0 0 0 0 0 0 0 0 0 0 0 0 0 0 0 0 0 0 0 0 0 0 0 0 0 0 0 0 0 0 0 0 0 0 0 0 0 0 0 0 0 0 0 0 0 0 0 0 0 0 1 13 255 255 112 43 16 6 2 1 6 106 255 143 63 31 19 18 17 18 17 15 16 19 30 66 156 255 69 4 1 2 7 19 51 128 255 206 9 0 0 0 0 0 0 0
0 0 0 0 0 0 0 0 0 0 1 2 5 17 49 122 255 255 160 63 22 7 2 1 5 88 255 160 70 27 11 6 5 6 14 37 96 214 255 19 3 7 21 58 141 255 176 255 255 130 54 20 7 2 4 64 255 160 68 27 11 8 10 20 47 111 239 255 19 1 1 2 7 20 55 134 255 183 8 0 0 0 0 0 0 0 0 0 0 0 0 0 0 0 0 0 0 0 4 69 255 155 66 25 8 3 1 0 0 0 0 0 0 0 0 0 0 0 0 0 0 0 0 1 2 6 19 51 122 255 255 42 255 221 101 40 14 5 2 1 1 0 0 0 0 0 1 2 5 16 46 116 255 233 11 1 0 0 0 0 0 0 0 2 47 255 177 80 32 11 3 1 2 42 255 184 82 33 14 7 4 4 8 20 55 135 255 89 23 255 237 108 44 17 8 7 10 17 27 30 22 12 6 4 3 2 2 2 4 8 22 57 137 255 130 7 2 4 8 11 11 8 3 1 0 0 0 0 0 0 0 0 0 0 0 0 0 0 0 1 2 4 13 38 99 216 255 26 1 0 0 0 0 3 55 255 176 77 30 10 3 1 2 34 255 195 91 50 49 46 50 61 95 141 255 171 8 1 1 1 5 14 42 113 255 255 163 64 22 7 2 1 1 26 255 221 100 41 17 9 7 6 6 7 11 19 38 89 198 255 38 2 0 1 3 8 23 61 146 255 95 5 0 0 0 0 0 0 0 0 0 0 0 0 0 0 0 0 0 11 234 255 121 49 18 6 2 1 2 41 255 198 90 37 16 8 8 13 31 78 180 255 41 2 0 0 1 18 255 218 102 42 16 7 6 8 16 39 95 209 255 29 2 1 3 8 22 61 154 255 255 107 40 13 4 1 1 19 255 228 102 41 17 8 5 5 11 29 68 102 78 38 14 7 6 10 20 49 117 255 255 13 1 0 0 6 120 255 138 60 25 13 11 15 30 72 162 255 83 4 0 0 0 0 0 0 0 0 0 0 0 0 0 0 0 1 19 255 223 103 41 15 6 3 2 2 3 7 18 49 117 254 255 17 1 0 0 0 0 0 0 0 0 0 0 0 0 0 0 1 2 7 21 56 135 255 114 6 0 0 0 0 0 0 0 0 0 0 0 0 0 0 0 0 0 0 0 0 0 0 0 0 0 0 0 0 0 0 0 0 0 0 0 0 0 0 0 0 0 0 0 0 0 0 0 0 0 0 0 0 0 0 0 0 0 0 0 0 0 0 0 0 0 0 0 0 0 0 0 0 0 0 0 0 0 0 0 0 0 0 0 0 0 0 0 0 0 0 0 0 0 0 0 0 5 107 255 149 63 23 7 2 1 3 50 255 182 81 34 15 9 7 6 6 6 6 7 9 15 37 91 202 255 34 2 1 3 9 27 72 165 255 87 4 0 0 0 0 0 0
0 0 0 0 0 0 0 0 0 0 0 1 2 8 27 69 136 157 90 37 12 3 1 2 43 255 197 93 39 14 5 2 2 3 7 20 56 131 255 116 7 3 11 33 84 197 255 255 168 74 29 10 3 2 29 255 206 97 39 14 5 3 4 10 26 63 142 255 160 8 1 1 3 10 30 78 172 255 82 4 0 0 0 0 0 0 0 0 0 0 0 0 0 0 0 0 0 1 33 255 201 92 37 13 4 1 0 0 0 0 0 0 0 0 0 0 0 0 0 0 0 0 0 0 1 3 9 27 69 158 255 255 255 133 57 22 7 2 1 0 0 0 0 0 0 0 0 1 2 8 25 67 152 255 101 5 0 0 0 0 0 0 1 22 255 229 106 44 16 5 1 1 18 255 241 112 46 18 6 3 2 2 3 10 31 82 181 255 255 255 142 62 24 8 3 3 4 7 9 10 8 5 2 1 1 1 1 1 1 4 11 32 80 177 255 58 3 1 2 3 3 2 1 0 0 0 0 0 0 0 0 0 0 0 0 0 0 0 0 0 1 2 6 21 56 129 255 245 11 0 0 0 1 28 255 225 105 43 15 5 1 1 14 255 255 119 54 31 30 24 22 30 61 89 172 255 72 4 0 1 2 7 24 67 135 158 91 37 12 3 1 1 11 220 255 133 58 23 8 4 2 2 2 3 4 9 21 52 120 255 255 17 1 0 1 3 12 34 86 189 255 45 2 0 0 0 0 0 0 0 0 0 0 0 0 0 0 0 5 97 255 161 70 27 9 3 1 1 17 255 245 118 51 20 7 3 3 6 16 46 111 238 255 17 1 0 6 112 255 130 57 22 8 3 2 3 7 21 54 126 255 227 11 1 1 3 11 35 84 143 124 62 22 7 2 1 7 144 255 139 59 23 8 3 2 2 5 14 29 38 32 18 7 3 2 4 10 27 67 151 255 112 6 0 3 52 255 171 79 33 13 6 4 7 16 40 94 202 255 43 2 0 0 0 0 0 0 0 0 0 0 0 0 0 0 7 137 255 134 59 22 7 2 1 1 1 1 3 9 27 66 150 255 143 7 0 0 0 0 0 0 0 0 0 0 0 0 0 0 0 1 3 10 31 78 175 255 50 2 0 0 0 0 0 0 0 0 0 0 0 0 0 0 0 0 0 0 0 0 0 0 0 0 0 0 0 0 0 0 0 0 0 0 0 0 0 0 0 0 0 0 0 0 0 0 0 0 0 0 0 0 0 0 0 0 0 0 0 0 0 0 0 0 0 0 0 0 0 0 0 0 0 0 0 0 0 0 0 0 0 0 0 0 0 0 0 0 0 0 0 0 0 0 2 49 255 186 86 35 12 3 1 1 22 255 228 108 46 18 7 3 2 2 2 2 2 2 4 7 20 52 122 255 255 15 1 1 4 14 40 95 198 255 40 2 0 0 0 0 0
0 0 0 0 0 0 0 0 0 0 0 0 1 4 14 36 59 65 45 20 6 2 1 20 255 247 119 54 22 7 2 1 1 1 3 11 34 80 170 255 48 4 5 19 52 120 226 203 101 43 16 5 2 11 221 255 128 58 22 7 2 1 2 4 13 36 83 175 255 70 4 1 1 5 17 45 103 210 255 42 2 0 0 0 0 0 0 0 0 0 0 0 0 0 0 0 1 13 255 255 125 55 21 6 2 0 0 0 0 0 0 0 0 0 0 0 0 0 0 0 0 0 0 0 0 1 4 15 41 99 218 255 183 81 33 11 3 1 0 0 0 0 0 0 0 0 0 0 1 4 14 39 92 198 255 51 2 0 0 0 0 0 9 202 255 142 63 25 8 2 1 7 145 255 147 67 27 9 3 1 1 1 1 5 18 51 119 255 255 195 87 37 13 4 1 1 1 2 3 3 2 2 1 0 0 0 0 0 1 2 5 17 47 108 221 255 27 2 1 1 1 1 0 0 0 0 0 0 0 0 0 0 0 0 0 0 0 0 0 0 0 1 3 11 32 76 167 255 101 5 0 1 12 255 255 138 62 24 8 2 1 6 118 255 153 72 33 19 16 11 9 15 38 56 104 208 255 34 2 0 1 3 13 36 59 65 46 21 6 2 1 5 87 255 164 78 34 12 4 1 1 1 1 1 2 4 11 30 71 154 255 153 7 0 0 2 6 19 51 116 240 255 20 1 0 0 0 0 0 0 0 0 0 0 0 0 0 2 45 255 197 96 41 14 4 1 1 7 134 255 146 68 29 10 3 1 1 3 8 27 67 145 255 128 7 3 45 255 168 78 33 12 3 1 1 1 3 11 31 75 159 255 92 5 1 2 6 18 41 58 53 33 12 3 1 3 61 255 176 83 35 12 4 1 1 1 2 6 11 13 12 7 3 1 1 2 5 14 39 90 189 255 52 4 24 255 223 105 46 18 6 2 2 3 8 22 55 123 251 255 20 1 0 0 0 0 0 0 0 0 0 0 0 0 3 58 255 171 80 34 12 3 1 0 0 0 0 1 4 14 38 87 181 255 63 3 0 0 0 0 0 0 0 0 0 0 0 0 0 0 0 1 5 17 46 108 225 255 22 1 0 0 0 0 0 0 0 0 0 0 0 0 0 0 0 0 0 0 0 0 0 0 0 0 0 0 0 0 0 0 0 0 0 0 0 0 0 0 0 0 0 0 0 0 0 0 0 0 0 0 0 0 0 0 0 0 0 0 0 0 0 0 0 0 0 0 0 0 0 0 0 0 0 0 0 0 0 0 0 0 0 0 0 0 0 0 0 0 0 0 0 0 1 21 255 231 112 50 19 6 2 1 9 173 255 138 63 26 9 3 1 1 1 1 1 1 1 1 3 10 30 72 157 255 128 6 1 2 7 22 54 119 244 255 16 1 0 0 0 0
0 0 0 0 0 0 0 0 0 0 0 0 0 2 7 17 24 25 20 10 3 1 8 171 255 154 73 33 12 3 1 0 0 0 1 6 20 52 111 226 255 19 3 10 32 68 101 94 58 26 8 2 5 88 255 164 79 36 12 3 1 0 1 2 7 21 51 108 218 255 34 2 1 2 9 27 62 130 255 255 20 1 0 0 0 0 0 0 0 0 0 0 0 0 0 0 6 113 255 161 78 34 11 3 1 0 0 0 0 0 0 0 0 0 0 0 0 0 0 0 0 0 0 0 0 1 2 8 25 61 112 147 100 51 19 6 1 0 0 0 0 0 0 0 0 0 0 0 0 2 7 23 58 124 245 255 25 1 0 0 0 4 93 255 180 88 39 14 4 1 3 64 255 182 90 42 15 4 1 0 0 0 1 2 10 33 80 152 189 115 56 22 6 2 1 0 0 1 1 1 1 0 0 0 0 0 0 0 0 1 2 9 29 67 139 255 226 11 1 0 0 0 0 0 0 0 0 0 0 0 0 0 0 0 0 0 0 0 0 0 0 0 1 5 18 48 103 202 255 49 3 5 113 255 171 84 38 14 4 1 3 56 255 194 95 45 20 10 7 4 4 8 22 37 65 130 255 255 15 1 0 2 6 17 24 26 21 10 3 1 2 40 255 201 101 48 19 6 2 1 0 0 0 0 1 2 5 17 44 93 186 255 69 3 0 1 3 10 31 72 149 255 157 8 0 0 0 0 0 0 0 0 0 0 0 0 1 20 255 243 122 59 25 7 2 1 3 60 255 185 90 41 16 5 1 1 0 1 4 15 42 91 184 255 61 21 255 228 110 50 19 6 2 0 0 0 1 5 18 46 99 201 255 44 2 1 3 8 18 22 21 15 6 2 2 28 255 220 110 52 21 6 2 1 0 0 1 2 4 4 4 2 1 0 0 1 2 7 23 56 118 234 255 36 190 255 143 66 28 9 3 1 1 1 4 12 33 75 154 255 173 8 0 0 0 0 0 0 0 0 0 0 0 1 27 255 222 109 50 20 6 2 0 0 0 0 0 1 2 7 22 53 111 222 255 30 1 0 0 0 0 0 0 0 0 0 0 0 0 0 0 1 2 9 28 67 142 255 189 9 0 0 0 0 0 0 0 0 0 0 0 0 0 0 0 0 0 0 0 0 0 0 0 0 0 0 0 0 0 0 0 0 0 0 0 0 0 0 0 0 0 0 0 0 0 0 0 0 0 0 0 0 0 0 0 0 0 0 0 0 0 0 0 0 0 0 0 0 0 0 0 0 0 0 0 0 0 0 0 0 0 0 0 0 0 0 0 0 0 0 0 0 8 179 255 144 69 30 10 3 1 4 71 255 174 85 39 14 4 1 0 0 0 0 0 0 0 0 1 5 17 45 96 193 255 61 3 1 3 12 32 72 151 255 141 7 0 0 0 0
0 0 0 0 0 0 0 0 0 0 0 0 0 1 3 6 9 9 8 4 1 4 73 255 187 98 49 20 6 2 0 0 0 0 1 3 12 36 76 149 255 139 8 6 19 36 44 42 32 14 4 3 42 255 207 108 54 23 7 2 0 0 0 1 3 12 33 71 141 255 255 14 1 1 4 16 41 83 163 255 194 9 0 0 0 0 0 0 0 0 0 0 0 0 0 3 54 255 201 104 52 21 6 1 0 0 0 0 0 0 0 0 0 0 0 0 0 0 0 0 0 0 0 0 0 0 1 4 14 37 56 64 53 32 11 3 1 0 0 0 0 0 0 0 0 0 0 0 0 1 4 14 39 80 155 255 207 10 0 0 2 49 255 220 115 59 25 7 2 2 31 255 227 118 60 27 8 2 1 0 0 0 0 1 6 22 54 77 86 65 37 13 3 1 0 0 0 0 0 0 0 0 0 0 0 0 0 0 0 0 1 5 17 45 90 177 255 97 5 0 0 0 0 0 0 0 0 0 0 0 0 0 0 0 0 0 0 0 0 0 0 0 1 3 10 31 67 129 250 255 28 58 255 208 109 55 24 7 2 2 28 255 240 126 64 30 11 4 2 2 2 4 12 24 45 86 170 255 141 7 0 1 3 7 9 9 8 4 1 1 17 255 255 131 66 31 11 3 1 0 0 0 0 0 0 1 3 9 28 61 119 228 255 36 2 0 1 5 19 48 96 185 255 72 3 0 0 0 0 0 0 0 0 0 0 0 8 160 255 156 79 38 14 4 1 1 28 255 231 121 60 26 9 2 1 0 0 1 2 8 27 61 121 238 255 255 255 150 76 34 11 3 1 0 0 0 1 3 10 30 66 131 253 255 19 1 1 3 7 8 8 6 2 1 12 255 255 143 73 35 12 3 1 0 0 0 0 1 1 1 1 1 0 0 0 0 1 4 13 37 77 151 255 255 255 181 94 45 17 5 1 0 0 0 2 6 20 49 97 189 255 81 4 0 0 0 0 0 0 0 0 0 1 12 255 255 146 73 34 11 3 1 0 0 0 0 0 0 1 3 12 34 72 144 255 255 12 1 0 0 0 0 0 0 0 0 0 0 0 0 0 0 1 5 17 46 93 186 255 88 4 0 0 0 0 0 0 0 0 0 0 0 0 0 0 0 0 0 0 0 0 0 0 0 0 0 0 0 0 0 0 0 0 0 0 0 0 0 0 0 0 0 0 0 0 0 0 0 0 0 0 0 0 0 0 0 0 0 0 0 0 0 0 0 0 0 0 0 0 0 0 0 0 0 0 0 0 0 0 0 0 0 0 0 0 0 0 0 0 0 0 4 80 255 184 93 46 18 5 1 2 33 255 217 113 56 24 8 2 1 0 0 0 0 0 0 0 0 1 2 9 29 63 124 238 255 32 2 2 6 19 48 98 195 255 68 3 0 0 0
0 0 0 0 0 0 0 0 0 0 0 0 0 0 1 2 3 3 2 1 2 36 255 223 121 68 36 12 3 1 0 0 0 0 0 1 7 26 59 104 191 255 64 6 9 18 19 18 16 7 3 18 255 255 138 76 41 14 3 1 0 0 0 0 2 6 22 52 94 171 255 121 6 1 2 9 28 59 106 193 255 85 4 0 0 0 0 0 0 0 0 0 0 0 1 27 255 245 132 73 38 13 3 1 0 0 0 0 0 0 0 0 0 0 0 0 0 0 0 0 0 0 0 0 0 0 0 2 8 21 27 28 26 18 6 1 0 0 0 0 0 0 0 0 0 0 0 0 0 0 2 8 27 57 101 183 255 88 4 1 24 255 255 141 79 43 16 4 1 13 255 255 150 81 44 17 4 1 0 0 0 0 0 1 3 14 36 39 39 36 24 7 2 0 0 0 0 0 0 0 0 0 0 0 0 0 0 0 0 0 1 2 10 32 65 117 215 255 49 2 0 0 0 0 0 0 0 0 0 0 0 0 0 0 0 0 0 0 0 0 0 0 0 1 5 20 48 87 163 255 255 255 248 134 74 40 15 4 1 11 236 255 155 86 48 20 6 2 1 1 1 2 5 15 34 63 113 204 255 66 3 0 1 2 3 3 2 1 1 7 143 255 165 89 48 20 6 1 0 0 0 0 0 0 0 0 1 5 18 44 81 149 255 255 17 1 1 3 11 34 68 123 230 255 38 2 0 0 0 0 0 0 0 0 0 3 69 255 190 103 57 26 8 2 1 12 247 255 150 83 44 17 4 1 0 0 0 0 1 4 18 47 86 160 255 255 210 107 59 25 6 1 0 0 0 0 0 1 5 20 49 89 163 255 162 8 1 1 2 2 2 2 1 6 130 255 182 97 54 23 6 2 0 0 0 0 0 0 0 0 0 0 0 0 0 0 0 2 7 25 56 105 206 255 252 126 68 34 10 2 1 0 0 0 1 3 12 35 68 123 229 255 44 2 0 0 0 0 0 0 0 0 6 122 255 184 100 56 24 6 1 0 0 0 0 0 0 0 0 2 7 23 52 96 176 255 109 5 0 0 0 0 0 0 0 0 0 0 0 0 0 0 1 2 10 33 68 123 226 255 46 2 0 0 0 0 0 0 0 0 0 0 0 0 0 0 0 0 0 0 0 0 0 0 0 0 0 0 0 0 0 0 0 0 0 0 0 0 0 0 0 0 0 0 0 0 0 0 0 0 0 0 0 0 0 0 0 0 0 0 0 0 0 0 0 0 0 0 0 0 0 0 0 0 0 0 0 0 0 0 0 0 0 0 0 0 0 0 0 0 2 41 255 225 122 67 33 10 3 1 14 255 255 144 79 41 15 4 1 0 0 0 0 0 0 0 0 0 0 1 5 19 46 84 154 255 255 15 1 3 11 34 70 129 237 255 37 2 0 0
0 0 0 0 0 0 0 0 0 0 0 0 0 0 0 1 1 1 1 1 16 255 255 146 84 53 27 7 2 0 0 0 0 0 0 1 4 19 54 80 129 232 255 32 5 7 7 7 6 3 8 150 255 165 95 62 34 8 2 0 0 0 0 0 1 3 14 42 69 112 203 255 58 3 1 5 19 47 75 124 221 255 42 2 0 0 0 0 0 0 0 0 0 1 12 255 255 158 91 58 29 8 2 0 0 0 0 0 0 0 0 0 0 0 0 0 0 0 0 0 0 0 0 0 0 0 0 1 3 9 11 11 11 8 2 1 0 0 0 0 0 0 0 0 0 0 0 0 0 0 1 4 18 45 72 119 217 255 46 13 221 255 164 94 60 33 9 2 6 129 255 177 101 64 35 10 2 0 0 0 0 0 0 0 2 7 21 19 18 19 12 4 1 0 0 0 0 0 0 0 0 0 0 0 0 0 0 0 0 0 0 1 6 24 54 83 140 255 255 24 1 0 0 0 0 0 0 0 0 0 0 0 0 0 0 0 0 0 0 0 0 0 0 1 3 13 37 66 109 200 255 255 163 91 57 30 8 2 5 97 255 181 103 66 39 13 3 1 0 0 0 1 2 8 26 53 80 131 234 255 32 1 0 1 1 1 1 1 3 64 255 195 110 68 39 12 3 1 0 0 0 0 0 0 0 0 1 3 11 34 62 99 174 255 153 7 1 1 6 25 54 86 150 255 255 18 1 0 0 0 0 0 0 0 1 33 255 225 125 75 46 17 4 1 5 110 255 180 101 63 36 10 2 1 0 0 0 0 1 2 11 41 69 110 179 213 136 85 53 18 4 1 0 0 0 0 0 1 3 12 40 68 108 192 255 75 4 0 1 1 1 1 3 67 255 215 120 74 45 15 4 1 0 0 0 0 0 0 0 0 0 0 0 0 0 0 0 1 4 17 47 79 122 167 137 91 57 26 6 1 0 0 0 0 0 2 7 25 53 85 147 255 255 21 1 0 0 0 0 0 0 3 63 255 216 121 75 48 17 4 1 0 0 0 0 0 0 0 0 1 3 15 42 70 116 209 255 55 3 0 0 0 0 0 0 0 0 0 0 0 0 0 0 1 6 24 56 86 145 255 255 21 1 0 0 0 0 0 0 0 0 0 0 0 0 0 0 0 0 0 0 0 0 0 0 0 0 0 0 0 0 0 0 0 0 0 0 0 0 0 0 0 0 0 0 0 0 0 0 0 0 0 0 0 0 0 0 0 0 0 0 0 0 0 0 0 0 0 0 0 0 0 0 0 0 0 0 0 0 0 0 0 0 0 0 0 0 0 0 1 20 255 255 146 85 54 24 6 2 6 117 255 173 98 61 33 9 2 0 0 0 0 0 0 0 0 0 0 0 1 3 12 37 64 102 178 255 131 7 2 7 26 56 89 152 255 255 18 1 0
0 0 0 0 0 0 0 0 0 0 0 0 0 0 0 0 0 0 0 7 141 255 173 99 67 48 20 4 1 0 0 0 0 0 0 0 3 15 61 74 93 152 255 255 15 3 2 2 2 4 73 255 197 110 74 60 30 6 1 0 0 0 0 0 0 2 9 38 59 81 133 243 255 30 2 3 13 42 60 85 143 255 255 20 1 0 0 0 0 0 0 0 0 5 113 255 185 105 71 53 22 5 1 0 0 0 0 0 0 0 0 0 0 0 0 0 0 0 0 0 0 0 0 0 0 0 0 0 1 3 4 4 4 3 1 0 0 0 0 0 0 0 0 0 0 0 0 0 0 0 0 2 12 39 60 84 142 255 255 190 255 187 106 70 53 25 6 4 65 255 211 117 76 59 30 6 1 0 0 0 0 0 0 0 1 3 9 8 7 8 5 2 0 0 0 0 0 0 0 0 0 0 0 0 0 0 0 0 0 0 0 1 3 18 54 68 95 164 255 225 10 0 0 0 0 0 0 0 0 0 0 0 0 0 0 0 0 0 0 0 0 0 0 0 2 8 30 59 80 126 197 178 110 70 52 22 5 3 48 255 211 118 76 59 35 8 2 0 0 0 0 0 1 5 21 53 65 89 150 255 255 13 1 0 0 0 0 1 31 255 232 129 80 60 35 8 2 0 0 0 0 0 0 0 0 0 0 1 6 28 56 73 113 200 255 69 4 1 4 18 50 69 100 173 255 155 7 0 0 0 0 0 0 1 14 255 255 148 87 63 43 11 2 3 57 255 215 119 76 56 31 7 1 0 0 0 0 0 0 1 8 41 68 78 93 102 87 78 59 14 2 0 0 0 0 0 0 0 2 8 36 60 79 126 232 255 41 2 0 0 0 2 35 255 244 137 85 65 44 10 2 0 0 0 0 0 0 0 0 0 0 0 0 0 0 0 0 0 2 12 45 67 72 79 74 71 56 20 4 1 0 0 0 0 0 1 4 17 48 67 98 168 255 188 9 0 0 0 0 0 1 33 255 247 138 86 67 48 12 2 0 0 0 0 0 0 0 0 0 0 2 9 37 60 83 137 250 255 29 1 0 0 0 0 0 0 0 0 0 0 0 0 0 1 3 18 53 68 96 165 255 180 9 0 0 0 0 0 0 0 0 0 0 0 0 0 0 0 0 0 0 0 0 0 0 0 0 0 0 0 0 0 0 0 0 0 0 0 0 0 0 0 0 0 0 0 0 0 0 0 0 0 0 0 0 0 0 0 0 0 0 0 0 0 0 0 0 0 0 0 0 0 0 0 0 0 0 0 0 0 0 0 0 0 0 0 0 0 0 8 181 255 170 98 68 50 18 4 3 56 255 206 115 75 56 27 6 1 0 0 0 0 0 0 0 0 0 0 0 0 1 7 31 58 74 115 205 255 62 4 4 20 52 69 101 177 255 181 8 0
0 0 0 0 0 0 0 0 0 0 0 0 0 0 0 0 0 0 3 65 255 204 115 76 68 52 14 3 0 0 0 0 0 0 0 0 2 15 106 96 80 105 182 255 118 7 1 1 2 41 255 237 131 84 74 79 29 4 1 0 0 0 0 0 0 1 7 38 63 70 94 159 255 255 13 2 9 44 61 68 97 170 255 189 9 0 0 0 0 0 0 0 3 55 255 215 121 79 68 61 16 3 1 0 0 0 0 0 0 0 0 0 0 0 0 0 0 0 0 0 0 0 0 0 0 0 0 0 0 1 1 1 1 1 0 0 0 0 0 0 0 0 0 0 0 0 0 0 0 0 0 1 8 37 64 70 99 174 255 255 240 125 78 64 58 19 5 34 255 243 138 85 70 72 27 4 1 0 0 0 0 0 0 0 0 1 3 3 3 2 2 1 0 0 0 0 0 0 0 0 0 0 0 0 0 0 0 0 0 0 0 0 2 15 73 72 75 109 190 255 101 5 0 0 0 0 0 0 0 0 0 0 0 0 0 0 0 0 0 0 0 0 0 0 1 5 26 69 69 80 95 91 77 67 58 17 4 26 255 255 140 85 68 69 34 6 1 0 0 0 0 0 1 3 17 70 68 71 101 179 255 121 6 0 0 0 1 14 255 255 153 91 70 67 35 6 1 0 0 0 0 0 0 0 0 0 0 1 4 24 64 66 81 130 231 255 34 2 2 13 59 69 76 113 198 255 72 3 0 0 0 0 0 6 116 255 176 101 72 66 48 8 3 31 255 252 141 87 70 62 28 5 1 0 0 0 0 0 0 1 7 54 92 65 51 51 61 94 94 14 2 0 0 0 0 0 0 0 1 6 35 67 70 91 152 255 255 21 1 0 1 16 255 255 156 93 72 76 52 8 1 0 0 0 0 0 0 0 0 0 0 0 0 0 0 0 0 0 1 9 54 69 46 39 43 66 70 16 3 0 0 0 0 0 0 0 2 13 54 65 74 110 193 255 86 4 0 0 0 1 15 255 255 158 94 73 80 64 10 2 0 0 0 0 0 0 0 0 0 0 1 7 37 63 70 95 162 255 255 12 1 0 0 0 0 0 0 0 0 0 0 0 0 0 2 13 62 67 74 108 191 255 77 4 0 0 0 0 0 0 0 0 0 0 0 0 0 0 0 0 0 0 0 0 0 0 0 0 0 0 0 0 0 0 0 0 0 0 0 0 0 0 0 0 0 0 0 0 0 0 0 0 0 0 0 0 0 0 0 0 0 0 0 0 0 0 0 0 0 0 0 0 0 0 0 0 0 0 0 0 0 0 0 0 0 0 0 0 4 85 255 196 112 75 67 57 13 4 27 255 244 136 85 70 65 23 4 1 0 0 0 0 0 0 0 0 0 0 0 0 1 5 28 67 66 82 134 239 255 31 4 15 57 66 76 115 200 255 83 4
0 0 0 0 0 0 0 0 0 0 0 0 0 0 0 0 0 1 32 255 235 133 85 75 104 84 13 2 0 0 0 0 0 0 0 0 3 36 255 213 103 84 120 207 255 55 3 1 21 255 255 154 94 80 117 176 41 4 1 0 0 0 0 0 0 1 6 47 101 82 77 106 182 255 125 7 9 61 89 72 76 112 196 255 85 4 0 0 0 0 0 1 26 255 246 139 87 74 95 109 16 2 0 0 0 0 0 0 0 0 0 0 0 0 0 0 0 0 0 0 0 0 0 0 0 0 0 0 0 0 0 0 0 0 0 0 0 0 0 0 0 0 0 0 0 0 0 0 0 0 0 1 6 43 104 78 79 119 198 237 150 91 70 84 96 18 20 255 255 155 95 76 96 147 33 4 1 0 0 0 0 0 0 0 0 0 1 1 1 1 0 0 0 0 0 0 0 0 0 0 0 0 0 0 0 0 0 0 0 0 0 0 2 21 185 128 80 82 124 219 255 53 2 0 0 0 0 0 0 0 0 0 0 0 0 0 0 0 0 0 0 0 0 0 1 4 29 131 81 56 48 48 62 92 105 17 14 249 255 167 98 74 90 129 44 5 1 0 0 0 0 0 0 3 22 163 114 76 78 118 207 255 57 3 0 0 6 126 255 181 104 77 85 117 46 6 1 0 0 0 0 0 0 0 0 0 0 0 3 25 119 84 71 90 150 255 255 15 2 14 108 102 73 82 129 233 255 39 2 0 0 0 3 54 255 205 117 79 78 104 80 10 16 255 255 161 97 76 91 101 29 4 1 0 0 0 0 0 0 1 12 154 201 81 33 28 59 180 245 29 2 0 0 0 0 0 0 0 1 6 44 114 87 77 103 173 255 221 10 1 7 137 255 176 102 75 84 142 110 11 1 0 0 0 0 0 0 0 0 0 0 0 0 0 0 0 0 0 1 11 103 104 36 21 30 89 138 19 2 0 0 0 0 0 0 0 2 12 93 92 70 80 126 226 255 45 2 0 0 7 154 255 179 104 75 89 161 160 16 2 0 0 0 0 0 0 0 0 0 0 1 6 47 97 79 77 107 183 255 124 6 0 0 0 0 0 0 0 0 0 0 0 0 0 2 15 112 97 72 80 125 222 255 38 2 0 0 0 0 0 0 0 0 0 0 0 0 0 0 0 0 0 0 0 0 0 0 0 0 0 0 0 0 0 0 0 0 0 0 0 0 0 0 0 0 0 0 0 0 0 0 0 0 0 0 0 0 0 0 0 0 0 0 0 0 0 0 0 0 0 0 0 0 0 0 0 0 0 0 0 0 0 0 0 0 0 0 2 46 255 229 127 82 74 95 96 14 13 232 255 158 95 77 95 119 24 3 0 0 0 0 0 0 0 0 0 0 0 0 0 1 4 31 125 85 72 93 155 255 255 16 16 92 88 72 82 128 228 255 48
0 0 0 0 0 0 0 0 0 0 0 0 0 0 0 0 1 13 255 255 147 89 75 121 251 255 27 2 0 0 0 0 0 0 0 1 11 209 255 255 217 94 85 130 236 255 27 11 218 255 169 99 78 124 255 255 169 10 1 0 0 0 0 0 0 1 10 128 243 169 83 77 114 204 255 65 19 187 226 130 75 79 122 218 255 42 2 0 0 0 0 10 220 255 152 91 72 106 228 255 36 3 0 0 0 0 0 0 0 0 0 0 0 0 0 0 0 0 0 0 0 0 0 0 0 0 0 0 0 0 0 0 0 0 0 0 0 0 0 0 0 0 0 0 0 0 0 0 0 0 0 1 8 96 249 154 82 81 99 109 88 75 97 203 254 48 198 255 175 99 74 102 228 255 95 7 1 0 0 0 0 0 0 0 0 0 0 0 0 0 0 0 0 0 0 0 0 0 0 0 0 0 0 0 0 0 0 0 0 0 0 0 5 79 255 255 154 77 85 137 249 255 28 1 0 0 0 0 0 0 0 0 0 0 0 0 0 0 0 0 0 0 0 0 1 5 68 255 170 52 26 29 73 220 255 49 130 255 184 106 77 96 216 255 137 10 1 0 0 0 0 0 0 5 74 255 255 152 77 82 130 235 255 27 1 3 57 255 200 114 79 88 181 255 144 10 1 0 0 0 0 0 0 0 0 0 0 0 5 56 255 201 91 72 98 171 255 149 10 36 255 241 111 72 87 147 255 255 18 1 0 1 25 255 236 130 83 79 143 255 255 35 150 255 178 102 75 94 200 243 56 5 1 0 0 0 0 0 0 3 58 255 255 203 35 23 114 255 255 142 8 0 0 0 0 0 0 0 1 9 120 255 192 91 77 108 191 255 98 8 62 255 195 110 74 82 181 255 255 38 2 0 0 0 0 0 0 0 0 0 0 0 0 0 0 0 0 0 2 33 255 245 49 15 35 221 255 49 4 0 0 0 0 0 0 0 2 30 255 229 105 70 85 142 255 255 21 1 4 73 255 201 112 75 85 201 255 255 62 4 0 0 0 0 0 0 0 0 0 0 1 10 124 230 151 80 77 115 207 255 61 3 0 0 0 0 0 0 0 0 0 0 0 0 3 35 255 236 117 72 85 141 255 255 18 1 0 0 0 0 0 0 0 0 0 0 0 0 0 0 0 0 0 0 0 0 0 0 0 0 0 0 0 0 0 0 0 0 0 0 0 0 0 0 0 0 0 0 0 0 0 0 0 0 0 0 0 0 0 0 0 0 0 0 0 0 0 0 0 0 0 0 0 0 0 0 0 0 0 0 0 0 0 0 0 0 1 22 255 255 143 86 72 114 226 255 40 117 255 177 102 76 101 218 255 55 4 0 0 0 0 0 0 0 0 0 0 0 0 0 1 6 77 255 207 93 73 100 175 255 159 42 240 202 105 70 85 142 255 255
0 0 0 0 0 0 0 0 0 0 0 0 0 0 0 0 6 115 255 155 84 61 92 239 255 255 140 8 0 0 0 0 0 0 0 4 81 255 186 190 232 148 67 77 137 255 255 142 255 175 95 64 87 226 239 225 255 66 4 0 0 0 0 0 0 3 48 255 255 255 141 64 69 116 221 255 185 255 255 255 114 60 72 125 239 255 18 1 0 0 4 91 255 161 87 60 81 219 255 234 167 10 1 0 0 0 0 0 0 0 0 0 0 0 0 0 0 0 0 0 0 0 0 0 0 0 0 0 0 0 0 0 0 0 0 0 0 0 0 0 0 0 0 0 0 0 0 0 0 0 0 2 34 255 254 255 127 57 46 47 49 77 213 255 255 255 255 185 99 63 73 199 255 227 255 38 2 0 0 0 0 0 0 0 0 0 0 0 0 0 0 0 0 0 0 0 0 0 0 0 0 0 0 0 0 0 0 0 0 0 0 2 34 255 211 237 255 113 62 79 142 255 250 12 1 0 0 0 0 0 0 0 0 0 0 0 0 0 0 0 0 0 0 0 1 25 255 222 253 92 19 26 161 255 255 255 255 197 104 66 74 193 255 247 255 52 3 0 0 0 0 0 2 33 255 221 251 255 121 62 77 135 255 214 12 26 255 214 114 69 68 157 255 254 255 56 3 0 0 0 0 0 0 0 0 0 0 1 21 255 235 255 193 72 63 98 184 255 101 208 237 255 230 89 60 84 152 255 177 8 1 10 205 255 136 77 63 117 255 255 255 255 255 185 100 64 70 177 255 248 255 19 1 0 0 0 0 0 1 24 255 216 209 255 89 46 250 192 190 255 61 3 0 0 0 0 0 0 3 46 255 253 255 164 67 66 107 198 255 111 255 211 112 67 62 148 255 239 238 235 13 1 0 0 0 0 0 0 0 0 0 0 0 0 0 0 0 1 10 194 241 245 150 23 94 252 213 255 17 1 0 0 0 0 0 1 8 149 253 255 234 87 59 81 145 255 174 10 36 255 211 113 68 64 155 255 225 217 255 28 1 0 0 0 0 0 0 0 0 0 3 47 255 255 255 128 61 69 118 219 255 29 1 0 0 0 0 0 0 0 0 0 0 1 10 163 231 255 247 95 60 82 152 255 168 8 0 0 0 0 0 0 0 0 0 0 0 0 0 0 0 0 0 0 0 0 0 0 0 0 0 0 0 0 0 0 0 0 0 0 0 0 0 0 0 0 0 0 0 0 0 0 0 0 0 0 0 0 0 0 0 0 0 0 0 0 0 0 0 0 0 0 0 0 0 0 0 0 0 0 0 0 0 0 0 0 9 186 255 146 82 60 90 235 255 255 255 255 196 102 65 75 195 255 232 255 19 1 0 0 0 0 0 0 0 0 0 0 0 0 2 30 255 238 255 196 72 64 100 192 255 255 255 255 222 81 58 82 156 255
0 0 0 0 0 0 0 0 0 0 0 0 0 0 0 3 54 255 167 79 44 46 135 190 157 168 255 58 3 0 0 0 0 0 2 34 255 175 110 103 136 165 62 43 70 149 255 255 193 89 48 43 110 178 139 135 186 255 27 1 0 0 0 0 1 19 255 204 170 178 190 65 39 58 119 255 255 214 180 200 184 55 39 62 126 255 150 7 0 2 44 255 174 82 45 42 116 198 159 154 255 59 3 0 0 0 0 0 0 0 0 0 0 0 0 0 0 0 0 0 0 0 0 0 0 0 0 0 0 0 0 0 0 0 0 0 0 0 0 0 0 0 0 0 0 0 0 0 0 0 1 11 205 219 167 181 176 49 21 19 29 104 212 178 187 255 205 96 50 40 92 194 154 148 217 248 13 1 0 0 0 0 0 0 0 0 0 0 0 0 0 0 0 0 0 0 0 0 0 0 0 0 0 0 0 0 0 0 0 0 1 13 251 230 135 133 172 164 53 42 70 143 255 97 5 0 0 0 0 0 0 0 0 0 0 0 0 0 0 0 0 0 0 0 8 158 248 152 163 199 29 46 221 163 175 255 229 104 52 41 90 201 163 153 197 255 21 1 0 0 0 1 13 249 237 143 142 181 181 56 42 68 139 255 113 226 254 114 57 40 73 194 171 160 197 255 23 1 0 0 0 0 0 0 0 0 0 7 134 255 160 169 212 97 41 50 95 207 255 255 159 155 197 138 46 44 76 158 255 75 8 80 255 143 69 42 56 172 185 162 186 255 221 98 50 39 84 196 166 170 255 129 7 0 0 0 0 0 8 158 255 130 117 154 255 194 186 116 118 195 255 28 1 0 0 0 0 1 17 255 205 162 168 193 73 39 53 104 242 255 255 115 56 38 68 199 167 134 146 255 84 5 0 0 0 0 0 0 0 0 0 0 0 0 0 0 0 4 74 255 153 152 255 125 255 151 148 255 110 6 0 0 0 0 0 3 59 255 161 165 207 143 45 42 72 149 255 114 255 232 109 56 39 69 195 157 124 137 251 198 10 0 0 0 0 0 0 0 0 1 19 255 207 175 185 185 60 39 58 114 246 234 11 1 0 0 0 0 0 0 0 0 0 3 58 255 152 158 198 153 48 44 76 158 255 69 3 0 0 0 0 0 0 0 0 0 0 0 0 0 0 0 0 0 0 0 0 0 0 0 0 0 0 0 0 0 0 0 0 0 0 0 0 0 0 0 0 0 0 0 0 0 0 0 0 0 0 0 0 0 0 0 0 0 0 0 0 0 0 0 0 0 0 0 0 0 0 0 0 0 0 0 0 0 0 4 76 255 148 72 42 46 139 198 166 183 255 237 105 53 41 93 193 158 158 255 123 7 0 0 0 0 0 0 0 0 0 0 0 1 11 213 237 158 168 210 94 41 52 101 219 255 192 176 206 124 43 43 77 139
0 0 0 0 0 0 0 0 0 0 0 0 0 0 1 25 255 196 84 36 22 40 132 100 78 95 184 255 26 1 0 0 0 1 12 225 214 93 54 48 66 103 54 24 33 75 174 204 96 41 23 32 106 92 67 67 102 234 184 9 0 0 0 0 7 143 255 118 85 92 128 69 23 27 57 129 184 116 91 106 149 58 22 28 60 144 255 66 4 20 255 210 89 38 22 35 129 107 80 90 165 255 23 1 0 0 0 0 0 0 0 0 0 0 0 0 0 0 0 0 0 0 0 0 0 0 0 0 0 0 0 0 0 0 0 0 0 0 0 0 0 0 0 0 0 0 0 0 0 0 4 71 255 125 87 94 128 46 11 8 23 118 116 91 96 122 85 43 23 29 101 107 77 76 120 255 93 5 0 0 0 0 0 0 0 0 0 0 0 0 0 0 0 0 0 0 0 0 0 0 0 0 0 0 0 0 0 0 0 0 5 94 255 124 70 63 87 132 49 22 31 68 158 255 43 2 0 0 0 0 0 0 0 0 0 0 0 0 0 0 0 0 0 3 61 255 136 84 93 180 72 99 130 87 91 125 95 47 24 28 98 112 81 76 112 255 142 7 0 0 0 5 98 255 127 74 68 91 137 55 23 31 69 174 255 255 135 54 26 25 77 122 88 80 112 252 164 8 0 0 0 0 0 0 0 0 3 54 255 142 87 86 120 119 31 24 44 104 224 187 95 79 107 145 42 22 34 77 175 255 98 255 164 70 32 23 55 136 97 79 93 133 94 45 23 27 94 115 86 92 148 255 55 3 0 0 0 3 60 255 131 66 57 93 239 255 117 61 61 105 241 202 10 0 0 0 0 6 118 255 118 82 86 118 78 24 24 49 118 212 137 57 26 24 78 129 85 65 78 154 255 35 2 0 0 0 0 0 0 0 0 0 0 0 0 0 2 33 255 166 87 89 187 255 232 94 85 150 255 49 2 0 0 0 1 26 255 178 93 83 113 154 43 21 33 74 190 255 255 123 50 25 24 77 122 78 59 70 130 255 74 4 0 0 0 0 0 0 0 7 142 255 121 89 98 136 64 22 26 53 128 255 91 5 0 0 0 0 0 0 0 0 1 23 255 166 89 79 106 149 46 23 35 77 174 255 29 1 0 0 0 0 0 0 0 0 0 0 0 0 0 0 0 0 0 0 0 0 0 0 0 0 0 0 0 0 0 0 0 0 0 0 0 0 0 0 0 0 0 0 0 0 0 0 0 0 0 0 0 0 0 0 0 0 0 0 0 0 0 0 0 0 0 0 0 0 0 0 0 0 0 0 0 0 2 36 255 171 72 32 21 42 144 107 84 96 134 100 49 25 29 100 108 80 86 143 255 51 3 0 0 0 0 0 0 0 0 0 0 4 78 255 131 83 85 117 111 30 24 46 92 129 100 91 114 145 39 21 32 48
0 0 0 0 0 0 0 0 0 0 0 0 0 0 10 212 255 104 39 16 12 33 83 48 35 48 103 251 190 9 0 0 0 4 86 255 114 45 24 20 29 47 38 13 15 32 66 74 40 18 11 23 71 42 29 30 50 125 255 70 4 0 0 3 62 255 143 61 39 42 63 62 16 12 24 49 66 50 41 50 78 55 14 12 27 74 185 255 44 168 255 113 42 17 11 30 94 52 36 45 95 250 152 8 0 0 0 0 0 0 0 0 0 0 0 0 0 0 0 0 0 0 0 0 0 0 0 0 0 0 0 0 0 0 0 0 0 0 0 0 0 0 0 0 0 0 0 0 0 1 29 255 157 68 41 43 63 37 7 5 20 93 55 40 40 42 31 17 11 22 83 50 34 36 62 153 255 42 2 0 0 0 0 0 0 0 0 0 0 0 0 0 0 0 0 0 0 0 0 0 0 0 0 0 0 0 0 0 0 2 42 255 155 63 33 27 40 70 41 12 13 31 82 207 255 19 1 0 0 0 0 0 0 0 0 0 0 0 0 0 0 0 1 25 255 174 74 42 49 105 255 237 72 41 39 43 34 18 11 21 79 52 36 35 57 136 255 57 3 0 2 46 255 159 65 34 29 41 69 47 13 14 33 93 219 183 72 25 12 17 66 58 40 36 57 133 255 66 3 0 0 0 0 0 0 1 23 255 184 77 42 39 59 102 26 11 19 45 84 75 46 36 52 94 37 12 15 35 93 255 255 254 89 32 14 13 46 71 45 34 38 45 34 18 11 20 82 56 40 44 81 189 255 24 1 0 1 25 255 173 69 31 27 51 121 157 70 31 29 51 125 255 76 4 0 0 2 49 255 143 61 37 39 56 66 17 11 21 47 75 54 25 12 17 76 63 38 28 38 85 215 255 13 1 0 0 0 0 0 0 0 0 0 0 0 1 13 255 227 92 45 49 107 200 130 55 45 83 200 255 22 1 0 0 10 215 251 101 47 38 55 99 40 12 14 35 99 216 166 64 23 11 17 71 58 35 25 32 66 164 255 32 2 0 0 0 0 0 3 60 255 144 63 41 46 69 60 15 11 24 63 161 255 41 2 0 0 0 0 0 0 0 8 152 252 96 45 36 51 88 41 13 15 35 92 232 199 10 0 0 0 0 0 0 0 0 0 0 0 0 0 0 0 0 0 0 0 0 0 0 0 0 0 0 0 0 0 0 0 0 0 0 0 0 0 0 0 0 0 0 0 0 0 0 0 0 0 0 0 0 0 0 0 0 0 0 0 0 0 0 0 0 0 0 0 0 0 0 0 0 0 0 0 1 14 255 225 91 33 14 11 37 92 52 38 41 47 36 19 12 22 80 51 36 42 78 190 255 23 1 0 0 0 0 0 0 0 0 2 33 255 161 69 39 38 56 95 25 11 18 33 45 42 41 57 103 37 11 11 15
0 0 0 0 0 0 0 0 0 0 0 0 0 4 85 255 145 53 18 7 7 23 41 22 15 23 53 138 255 77 4 0 2 41 255 169 62 21 10 8 11 19 20 7 6 12 22 24 15 7 5 14 37 18 11 12 25 69 178 255 32 2 1 29 255 197 81 31 17 18 28 46 11 5 9 16 21 19 16 21 35 43 10 6 12 36 105 255 255 255 155 58 20 7 6 22 52 25 16 22 52 140 255 61 3 0 0 0 0 0 0 0 0 0 0 0 0 0 0 0 0 0 0 0 0 0 0 0 0 0 0 0 0 0 0 0 0 0 0 0 0 0 0 0 0 0 0 0 0 10 205 243 93 35 18 18 26 22 5 3 16 55 26 16 15 14 10 6 5 16 53 24 14 16 32 89 223 255 19 1 0 0 0 0 0 0 0 0 0 0 0 0 0 0 0 0 0 0 0 0 0 0 0 0 0 0 0 0 1 18 255 221 89 31 14 11 17 30 27 7 6 14 41 119 255 162 8 0 0 0 0 0 0 0 0 0 0 0 0 0 0 0 9 188 255 101 38 21 27 84 255 238 59 20 15 14 11 7 5 14 50 24 15 15 28 77 192 255 25 2 22 255 220 90 32 15 12 17 29 32 8 6 15 43 86 74 34 11 6 11 45 26 16 16 28 74 187 255 31 1 0 0 0 0 0 8 164 255 108 40 19 17 29 67 21 6 8 17 28 27 19 16 24 47 28 7 6 16 50 139 233 136 48 15 6 8 32 31 19 13 14 14 11 6 5 15 58 27 17 20 42 110 255 184 9 1 9 172 255 102 35 14 12 25 51 63 35 15 13 25 68 175 255 36 2 1 21 255 204 82 31 16 16 25 46 12 5 8 17 24 19 10 6 14 65 30 16 12 18 44 125 255 98 5 0 0 0 0 0 0 0 0 0 0 0 5 105 255 129 48 23 25 51 79 60 30 23 44 116 255 170 8 1 4 92 255 141 54 23 16 25 49 32 7 6 16 45 82 68 29 10 5 12 55 27 14 10 14 33 96 239 230 12 1 0 0 0 1 27 255 196 81 31 18 20 32 47 10 5 10 31 91 224 255 17 1 0 0 0 0 0 3 65 255 141 52 22 15 23 42 30 8 6 16 46 130 255 79 4 0 0 0 0 0 0 0 0 0 0 0 0 0 0 0 0 0 0 0 0 0 0 0 0 0 0 0 0 0 0 0 0 0 0 0 0 0 0 0 0 0 0 0 0 0 0 0 0 0 0 0 0 0 0 0 0 0 0 0 0 0 0 0 0 0 0 0 0 0 0 0 0 0 0 6 110 255 127 46 15 6 7 28 45 24 15 15 15 12 7 6 15 50 24 15 19 41 112 255 205 9 0 0 0 0 0 0 0 1 13 255 235 93 35 18 16 27 62 19 6 7 11 14 15 17 27 56 31 7 4 4
0 0 0 0 0 0 0 0 0 0 0 0 2 40 255 195 85 29 8 3 4 12 17 9 6 11 29 83 199 255 39 2 17 255 244 108 36 11 4 3 4 7 8 3 2 4 7 7 5 3 3 7 15 8 4 5 12 39 113 255 255 14 13 255 255 122 46 16 7 7 13 29 7 2 3 5 7 6 6 8 16 28 6 3 6 19 63 166 255 240 98 32 9 3 4 13 24 11 7 11 30 88 205 255 27 1 0 0 0 0 0 0 0 0 0 0 0 0 0 0 0 0 0 0 0 0 0 0 0 0 0 0 0 0 0 0 0 0 0 0 0 0 0 0 0 0 0 0 4 86 255 149 56 19 8 7 10 10 3 2 9 27 12 6 5 4 3 2 3 10 28 11 6 7 17 52 139 255 159 8 0 0 0 0 0 0 0 0 0 0 0 0 0 0 0 0 0 0 0 0 0 0 0 0 0 0 0 0 8 165 255 137 51 16 6 4 6 12 13 4 3 6 22 70 173 255 73 4 0 0 0 0 0 0 0 0 0 0 0 0 0 4 84 255 157 60 21 10 18 74 155 147 54 12 6 4 3 2 3 8 26 11 6 6 14 44 121 255 227 20 190 255 136 51 17 6 5 6 12 16 5 3 7 18 30 27 14 5 3 7 25 12 6 7 14 42 118 255 255 13 1 0 0 0 3 67 255 158 64 21 9 7 14 37 14 4 3 6 9 9 7 6 10 20 16 4 3 8 26 66 97 65 25 7 3 5 16 13 7 5 5 4 3 2 3 10 34 13 7 9 22 64 160 255 79 8 69 255 153 60 19 7 5 11 20 23 15 7 6 12 38 111 255 255 16 9 190 255 128 47 16 7 6 11 26 7 2 3 5 7 6 3 3 11 52 16 6 5 8 24 76 181 255 44 2 0 0 0 0 0 0 0 0 0 2 51 255 187 78 27 11 12 22 29 25 14 12 24 67 163 255 73 6 47 255 198 85 30 11 7 11 22 20 5 3 7 18 29 25 12 4 3 9 38 13 6 4 6 17 55 144 255 96 5 0 0 0 11 223 255 122 46 16 8 8 15 32 7 3 5 16 51 137 255 147 7 0 0 0 0 1 33 255 210 89 30 11 6 9 17 17 4 3 7 25 80 195 255 39 2 0 0 0 0 0 0 0 0 0 0 0 0 0 0 0 0 0 0 0 0 0 0 0 0 0 0 0 0 0 0 0 0 0 0 0 0 0 0 0 0 0 0 0 0 0 0 0 0 0 0 0 0 0 0 0 0 0 0 0 0 0 0 0 0 0 0 0 0 0 0 0 0 2 50 255 179 74 24 7 3 4 16 20 10 6 5 5 4 2 3 9 25 11 6 9 22 67 166 255 88 4 0 0 0 0 0 0 5 108 255 146 54 18 8 7 13 34 12 3 2 3 4 5 7 12 27 21 4 2 1
0 0 0 0 0 0 0 0 0 0 0 1 18 255 255 128 54 16 4 1 2 4 6 3 3 5 17 55 134 255 255 27 155 255 157 72 22 6 2 1 1 2 2 1 1 1 2 2 1 1 1 3 5 3 2 2 6 25 76 170 255 151 144 255 174 80 28 8 3 3 6 13 4 1 1 2 2 2 2 3 7 13 4 1 3 11 40 98 153 126 64 19 5 2 2 6 9 5 3 5 18 60 138 255 255 12 1 0 0 0 0 0 0 0 0 0 0 0 0 0 0 0 0 0 0 0 0 0 0 0 0 0 0 0 0 0 0 0 0 0 0 0 0 0 0 0 0 2 44 255 213 103 38 10 4 3 3 3 1 1 4 10 5 2 2 1 1 1 1 5 12 5 2 3 9 34 91 189 255 72 3 0 0 0 0 0 0 0 0 0 0 0 0 0 0 0 0 0 0 0 0 0 0 0 0 0 0 4 81 255 193 91 32 9 3 2 2 4 5 2 1 3 12 45 113 226 255 36 2 0 0 0 0 0 0 0 0 0 0 0 2 46 255 221 107 40 12 6 14 71 85 85 54 9 2 1 1 1 1 4 10 5 2 3 8 28 81 181 255 255 255 185 88 32 9 3 2 2 4 6 2 1 3 6 10 9 5 2 1 3 10 5 3 3 7 26 78 169 255 115 5 0 0 1 32 255 219 106 41 12 4 3 7 17 7 2 1 2 3 3 2 2 4 8 7 2 1 4 12 29 38 29 12 3 1 2 6 4 3 2 1 1 1 1 1 5 16 6 3 4 12 41 107 219 255 103 255 216 104 39 10 3 2 4 7 8 6 3 2 6 23 74 166 255 162 116 255 187 86 30 8 3 2 5 11 4 1 1 2 2 2 1 2 8 40 10 3 2 4 14 50 122 249 255 19 1 0 0 0 0 0 0 0 1 25 255 248 124 51 16 6 5 8 10 9 6 6 13 43 107 221 255 75 255 255 130 55 17 5 3 4 8 9 3 1 3 6 9 8 4 2 2 6 22 7 2 2 3 9 35 97 208 255 50 2 0 5 91 255 173 80 28 8 3 3 7 17 4 1 2 8 32 91 194 255 73 3 0 0 1 16 255 255 141 61 18 5 3 4 6 7 2 1 4 15 53 132 255 255 18 1 0 0 0 0 0 0 0 0 0 0 0 0 0 0 0 0 0 0 0 0 0 0 0 0 0 0 0 0 0 0 0 0 0 0 0 0 0 0 0 0 0 0 0 0 0 0 0 0 0 0 0 0 0 0 0 0 0 0 0 0 0 0 0 0 0 0 0 0 0 0 1 23 255 242 119 48 14 3 1 2 7 7 4 2 2 1 1 1 1 4 10 5 3 4 13 44 108 216 255 44 2 0 0 0 0 2 52 255 201 98 36 10 3 3 6 15 6 2 1 1 1 2 2 5 11 10 2 1 0
0 0 0 0 0 0 0 0 0 0 0 8 167 255 173 91 40 10 2 1 1 1 2 1 1 3 11 43 96 176 255 255 255 206 110 56 15 3 1 0 0 1 1 0 0 0 1 1 0 0 0 1 1 1 1 1 4 17 60 119 219 255 255 224 120 61 19 4 1 1 2 4 2 1 0 0 1 1 1 1 2 4 2 1 1 6 27 58 73 66 43 12 3 1 1 2 3 2 1 3 12 47 101 189 255 123 6 0 0 0 0 0 0 0 0 0 0 0 0 0 0 0 0 0 0 0 0 0 0 0 0 0 0 0 0 0 0 0 0 0 0 0 0 0 0 0 1 20 255 255 147 80 29 6 2 1 1 1 0 1 2 3 2 1 0 0 0 0 1 2 4 2 1 1 5 24 69 128 234 255 37 2 0 0 0 0 0 0 0 0 0 0 0 0 0 0 0 0 0 0 0 0 0 0 0 0 2 44 255 239 132 69 23 5 1 1 1 1 1 1 1 2 7 33 82 151 255 255 15 1 0 0 0 0 0 0 0 0 0 1 23 255 255 150 81 30 7 4 14 85 54 55 63 9 1 0 0 0 0 1 3 2 1 1 4 19 65 130 250 255 255 131 66 22 5 1 1 1 1 2 1 1 1 2 3 3 2 1 1 1 3 2 1 1 4 18 60 118 216 255 60 3 1 15 255 255 151 80 30 7 2 1 3 6 3 1 0 1 1 1 1 1 1 2 2 1 1 2 5 12 14 12 5 2 1 1 2 1 1 1 0 0 0 0 1 2 6 3 1 2 7 31 80 151 255 255 255 153 79 28 6 2 1 1 2 2 2 1 1 3 16 58 116 212 255 255 243 130 67 21 5 1 1 2 3 1 0 0 0 1 0 0 1 6 28 6 1 1 2 9 38 90 167 255 183 8 0 0 0 0 0 0 0 10 220 255 165 90 39 10 3 2 3 3 3 2 3 8 31 80 153 255 255 255 170 92 42 11 3 1 2 3 3 1 1 1 2 3 3 1 1 1 3 9 3 1 1 1 6 25 75 144 255 255 25 3 45 255 218 120 61 19 5 1 1 3 6 2 1 1 5 22 69 133 243 255 41 2 0 7 156 255 185 101 48 12 3 1 1 2 2 1 1 2 9 41 96 175 255 175 8 0 0 0 0 0 0 0 0 0 0 0 0 0 0 0 0 0 0 0 0 0 0 0 0 0 0 0 0 0 0 0 0 0 0 0 0 0 0 0 0 0 0 0 0 0 0 0 0 0 0 0 0 0 0 0 0 0 0 0 0 0 0 0 0 0 0 0 0 0 0 9 205 255 162 87 35 8 2 1 1 2 2 1 1 0 0 0 0 1 1 3 2 1 2 8 32 79 145 255 255 22 1 0 0 1 26 255 253 138 74 26 6 2 1 2 5 2 1 0 0 0 1 1 2 4 4 1 0 0
0 0 0 0 0 0 0 0 0 0 4 77 255 202 120 77 33 7 1 0 0 0 0 0 0 1 7 39 80 124 224 255 255 145 89 51 11 2 0 0 0 0 0 0 0 0 0 0 0 0 0 0 0 0 0 0 2 12 58 94 149 255 255 152 93 57 14 3 1 0 1 1 1 0 0 0 0 0 0 0 1 1 1 0 1 4 17 35 36 35 29 7 1 0 0 1 1 1 1 2 8 44 86 130 221 255 64 3 0 0 0 0 0 0 0 0 0 0 0 0 0 0 0 0 0 0 0 0 0 0 0 0 0 0 0 0 0 0 0 0 0 0 0 0 0 0 8 168 255 172 107 74 24 4 1 0 0 0 0 0 0 1 1 0 0 0 0 0 0 1 1 1 0 1 3 17 62 96 156 255 255 19 1 0 0 0 0 0 0 0 0 0 0 0 0 0 0 0 0 0 0 0 0 0 0 1 23 255 255 156 98 63 17 3 1 0 0 0 0 0 0 1 5 26 70 106 179 255 138 7 0 0 0 0 0 0 0 0 0 10 231 255 175 107 73 26 5 3 20 151 49 47 111 12 1 0 0 0 0 0 1 1 0 1 3 15 63 101 147 196 150 100 61 16 3 1 0 0 0 0 0 0 0 1 1 1 1 0 0 0 1 1 0 1 2 13 55 92 145 254 255 33 8 151 255 186 110 72 24 5 1 1 1 2 1 0 0 0 0 0 0 0 0 1 1 0 0 1 2 4 5 4 2 1 0 0 0 0 0 0 0 0 0 0 0 1 1 1 1 1 5 25 72 112 186 255 193 116 74 23 4 1 0 0 1 1 1 0 1 2 12 54 91 146 255 255 161 100 64 16 3 1 0 1 1 0 0 0 0 0 0 0 1 4 14 4 1 0 1 6 32 78 118 202 255 86 4 0 0 0 0 0 5 96 255 192 114 76 33 6 1 1 1 1 1 1 1 5 26 72 114 192 255 213 122 77 37 7 1 0 1 1 1 0 0 0 1 1 1 0 0 0 1 3 1 0 0 1 4 20 70 105 170 255 255 36 255 255 147 92 56 14 3 1 0 1 2 1 0 1 3 17 63 99 160 255 255 22 4 72 255 210 125 84 46 9 2 0 0 1 1 0 0 1 7 36 81 120 204 255 82 4 0 0 0 0 0 0 0 0 0 0 0 0 0 0 0 0 0 0 0 0 0 0 0 0 0 0 0 0 0 0 0 0 0 0 0 0 0 0 0 0 0 0 0 0 0 0 0 0 0 0 0 0 0 0 0 0 0 0 0 0 0 0 0 0 0 0 0 0 4 91 255 196 115 74 30 5 1 0 0 1 1 0 0 0 0 0 0 0 0 1 1 0 1 5 25 68 104 176 255 208 10 0 1 11 252 255 168 102 67 21 4 1 0 1 1 1 0 0 0 0 0 0 1 1 1 0 0 0
0 0 0 0 0 0 0 0 0 2 41 255 237 137 95 85 33 5 1 0 0 0 0 0 0 1 6 43 87 101 138 188 154 110 94 59 9 1 0 0 0 0 0 0 0 0 0 0 0 0 0 0 0 0 0 0 2 11 76 93 106 135 136 106 91 73 12 2 0 0 0 0 0 0 0 0 0 0 0 0 0 0 0 0 0 2 9 19 18 18 17 4 1 0 0 0 0 0 0 1 8 54 96 101 147 254 255 35 1 0 0 0 0 0 0 0 0 0 0 0 0 0 0 0 0 0 0 0 0 0 0 0 0 0 0 0 0 0 0 0 0 0 0 0 0 4 77 255 201 120 94 91 23 3 1 0 0 0 0 0 0 0 0 0 0 0 0 0 0 0 0 0 0 0 2 15 76 90 112 185 255 206 9 0 0 0 0 0 0 0 0 0 0 0 0 0 0 0 0 0 0 0 0 0 0 10 221 255 179 110 89 79 15 2 0 0 0 0 0 0 0 1 4 23 78 90 124 211 255 69 3 0 0 0 0 0 0 0 5 107 255 200 120 92 87 24 4 4 49 251 103 88 255 33 2 0 0 0 0 0 0 0 0 0 2 14 88 93 90 97 90 90 77 14 2 0 0 0 0 0 0 0 0 0 0 0 0 0 0 0 0 0 0 0 2 11 68 90 107 168 255 255 118 255 216 129 96 89 23 3 1 0 0 0 0 0 0 0 0 0 0 0 0 0 0 0 0 0 1 1 1 1 1 0 0 0 0 0 0 0 0 0 0 0 0 0 0 0 0 1 4 24 88 96 112 133 114 101 95 22 3 1 0 0 0 0 0 0 0 1 10 65 91 106 136 140 109 94 85 15 2 0 0 0 0 0 0 0 0 0 0 0 0 2 5 2 0 0 1 5 32 90 98 138 236 255 45 2 0 0 0 2 49 255 225 131 93 84 34 5 1 0 0 0 0 0 1 4 24 89 97 117 143 122 98 85 39 6 1 0 0 0 0 0 0 0 0 0 0 0 0 0 0 1 0 0 0 0 3 18 90 93 119 200 255 255 255 176 108 89 71 12 2 0 0 0 0 0 0 0 2 15 78 90 112 183 255 231 54 255 240 140 97 91 55 8 1 0 0 0 0 0 0 1 5 37 86 96 138 237 255 43 2 0 0 0 0 0 0 0 0 0 0 0 0 0 0 0 0 0 0 0 0 0 0 0 0 0 0 0 0 0 0 0 0 0 0 0 0 0 0 0 0 0 0 0 0 0 0 0 0 0 0 0 0 0 0 0 0 0 0 0 0 0 0 0 0 0 0 2 46 255 229 134 95 83 28 4 1 0 0 0 0 0 0 0 0 0 0 0 0 0 0 0 1 4 22 80 91 121 199 255 91 5 5 111 255 196 118 92 79 18 3 0 0 0 0 0 0 0 0 0 0 0 0 0 0 0 0 0
0 0 0 0 0 0 0 0 1 21 255 255 164 108 106 152 47 5 1 0 0 0 0 0 0 1 8 81 148 110 93 97 93 104 156 125 13 1 0 0 0 0 0 0 0 0 0 0 0 0 0 0 0 0 0 0 2 19 190 145 93 76 76 91 140 187 19 2 0 0 0 0 0 0 0 0 0 0 0 0 0 0 0 0 0 1 4 8 8 8 7 2 0 0 0 0 0 0 0 1 11 120 166 109 112 172 255 255 17 1 0 0 0 0 0 0 0 0 0 0 0 0 0 0 0 0 0 0 0 0 0 0 0 0 0 0 0 0 0 0 0 0 0 0 2 40 255 241 143 104 125 176 32 3 0 0 0 0 0 0 0 0 0 0 0 0 0 0 0 0 0 0 0 0 2 20 173 133 103 131 215 255 102 5 0 0 0 0 0 0 0 0 0 0 0 0 0 0 0 0 0 0 0 0 5 99 255 204 126 99 127 176 21 2 0 0 0 0 0 0 0 0 3 27 148 113 104 148 253 255 39 2 0 0 0 0 0 3 57 255 233 139 101 118 164 33 5 16 255 236 255 255 255 180 10 1 0 0 0 0 0 0 0 0 2 25 215 130 68 54 65 122 184 21 2 0 0 0 0 0 0 0 0 0 0 0 0 0 0 0 0 0 0 0 2 16 159 140 103 122 197 255 255 255 150 107 123 181 31 3 0 0 0 0 0 0 0 0 0 0 0 0 0 0 0 0 0 0 0 0 0 0 0 0 0 0 0 0 0 0 0 0 0 0 0 0 0 0 0 0 4 33 178 117 77 71 78 123 196 32 3 0 0 0 0 0 0 0 0 1 15 146 141 95 78 77 89 137 201 24 2 0 0 0 0 0 0 0 0 0 0 0 0 1 1 1 0 0 1 5 45 167 115 110 161 255 255 22 1 0 1 26 255 255 157 106 110 150 48 5 1 0 0 0 0 0 0 4 36 188 118 81 76 78 107 156 64 7 1 0 0 0 0 0 0 0 0 0 0 0 0 0 0 0 0 0 0 0 3 26 193 124 104 145 252 255 225 132 104 137 175 18 2 0 0 0 0 0 0 0 2 21 172 125 100 128 210 255 255 255 166 108 105 157 121 11 1 0 0 0 0 0 0 1 6 52 142 108 108 162 255 255 20 1 0 0 0 0 0 0 0 0 0 0 0 0 0 0 0 0 0 0 0 0 0 0 0 0 0 0 0 0 0 0 0 0 0 0 0 0 0 0 0 0 0 0 0 0 0 0 0 0 0 0 0 0 0 0 0 0 0 0 0 0 0 0 0 0 1 22 255 255 158 108 112 151 38 4 1 0 0 0 0 0 0 0 0 0 0 0 0 0 0 0 0 3 27 163 120 102 138 232 255 53 61 255 227 137 103 127 159 24 3 0 0 0 0 0 0 0 0 0 0 0 0 0 0 0 0 0
0 0 0 0 0 0 0 0 10 233 255 183 119 114 192 255 184 12 1 0 0 0 0 0 0 2 29 255 255 185 80 56 69 151 255 255 43 3 0 0 0 0 0 0 0 0 0 0 0 0 0 0 0 0 0 0 4 71 255 255 132 54 53 125 255 255 76 5 0 0 0 0 0 0 0 0 0 0 0 0 0 0 0 0 0 0 1 3 3 3 2 1 0 0 0 0 0 0 0 3 42 255 255 184 111 121 187 255 181 8 0 0 0 0 0 0 0 0 0 0 0 0 0 0 0 0 0 0 0 0 0 0 0 0 0 0 0 0 0 0 0 0 0 1 18 255 255 161 113 132 240 255 103 7 1 0 0 0 0 0 0 0 0 0 0 0 0 0 0 0 0 0 0 0 4 67 255 255 144 108 142 234 255 54 2 0 0 0 0 0 0 0 0 0 0 0 0 0 0 0 0 0 0 2 49 255 225 137 105 140 255 255 71 5 0 0 0 0 0 0 0 0 5 74 255 229 123 114 166 255 255 20 1 0 0 0 1 30 255 255 153 109 126 232 255 112 15 130 255 237 255 255 238 255 82 4 0 0 0 0 0 0 0 0 6 97 255 252 88 40 78 250 255 75 5 0 0 0 0 0 0 0 0 0 0 0 0 0 0 0 0 0 0 0 4 59 255 255 157 108 138 225 255 171 116 125 230 255 107 7 1 0 0 0 0 0 0 0 0 0 0 0 0 0 0 0 0 0 0 0 0 0 0 0 0 0 0 0 0 0 0 0 0 0 0 0 0 0 0 1 8 123 255 215 78 47 77 211 255 111 7 1 0 0 0 0 0 0 0 3 53 255 255 135 55 52 114 255 255 89 6 0 0 0 0 0 0 0 0 0 0 0 0 0 0 0 0 0 1 11 169 255 206 117 117 177 255 224 10 1 12 255 255 175 116 117 209 255 187 12 1 0 0 0 0 0 1 9 149 255 214 80 48 67 186 255 255 21 1 0 0 0 0 0 0 0 0 0 0 0 0 0 0 0 0 0 0 0 6 87 255 243 136 114 143 173 137 115 158 255 255 70 4 0 0 0 0 0 0 0 5 72 255 255 137 106 145 250 255 196 122 111 191 255 255 42 3 0 0 0 0 0 0 1 13 177 255 193 113 117 178 255 197 9 0 0 0 0 0 0 0 0 0 0 0 0 0 0 0 0 0 0 0 0 0 0 0 0 0 0 0 0 0 0 0 0 0 0 0 0 0 0 0 0 0 0 0 0 0 0 0 0 0 0 0 0 0 0 0 0 0 0 0 0 0 0 0 0 9 197 255 175 116 117 208 255 132 9 1 0 0 0 0 0 0 0 0 0 0 0 0 0 0 0 0 6 82 255 244 124 109 156 255 255 255 255 151 109 133 250 255 71 5 0 0 0 0 0 0 0 0 0 0 0 0 0 0 0 0 0
0 0 0 0 0 0 0 5 106 255 185 110 93 155 240 240 255 76 4 0 0 0 0 0 1 11 217 255 245 230 102 42 74 207 227 232 255 15 1 0 0 0 0 0 0 0 0 0 0 0 0 0 0 0 0 1 29 255 209 225 211 61 59 207 230 217 255 34 2 0 0 0 0 0 0 0 0 0 0 0 0 0 0 0 0 0 0 1 1 1 1 0 0 0 0 0 0 0 1 15 255 236 229 232 142 90 112 192 255 86 4 0 0 0 0 0 0 0 0 0 0 0 0 0 0 0 0 0 0 0 0 0 0 0 0 0 0 0 0 0 0 0 0 7 151 255 160 101 103 194 233 217 255 42 2 0 0 0 0 0 0 0 0 0 0 0 0 0 0 0 0 0 0 1 27 255 216 237 212 108 93 136 241 255 27 1 0 0 0 0 0 0 0 0 0 0 0 0 0 0 0 0 1 22 255 238 134 91 108 217 240 216 255 30 1 0 0 0 0 0 0 2 30 255 229 246 182 98 103 165 255 208 9 0 0 1 12 251 255 151 97 99 192 240 227 255 214 255 206 174 167 169 172 220 255 42 2 0 0 0 0 0 0 2 42 255 204 223 192 59 169 232 213 255 33 2 0 0 0 0 0 0 0 0 0 0 0 0 0 0 0 0 0 1 25 255 222 237 226 120 93 110 121 98 99 175 229 216 255 45 2 0 0 0 0 0 0 0 0 0 0 0 0 0 0 0 0 0 0 0 0 0 0 0 0 0 0 0 0 0 0 0 0 0 0 0 0 0 0 3 53 255 221 226 127 47 118 213 204 255 44 2 0 0 0 0 0 0 1 22 255 226 233 213 62 55 192 223 208 255 39 2 0 0 0 0 0 0 0 0 0 0 0 0 0 0 0 0 4 63 255 228 231 156 93 108 182 255 95 10 113 255 177 107 95 166 245 244 255 75 4 0 0 0 0 0 3 63 255 220 224 125 44 94 233 242 255 134 7 0 0 0 0 0 0 0 0 0 0 0 0 0 0 0 0 0 0 2 36 255 206 233 200 101 77 79 79 116 223 238 221 255 32 2 0 0 0 0 0 2 31 255 218 240 211 108 95 124 144 110 95 153 245 237 237 255 15 1 0 0 0 0 0 4 68 255 242 240 152 91 108 184 255 91 4 0 0 0 0 0 0 0 0 0 0 0 0 0 0 0 0 0 0 0 0 0 0 0 0 0 0 0 0 0 0 0 0 0 0 0 0 0 0 0 0 0 0 0 0 0 0 0 0 0 0 0 0 0 0 0 0 0 0 0 0 0 0 4 83 255 179 107 94 160 238 237 255 54 3 0 0 0 0 0 0 0 0 0 0 0 0 0 0 0 2 34 255 224 241 187 100 100 166 255 255 158 98 103 196 236 221 255 30 1 0 0 0 0 0 0 0 0 0 0 0 0 0 0 0 0
0 0 0 0 0 0 2 51 255 188 97 62 78 162 163 155 197 255 36 2 0 0 0 0 4 89 255 168 145 155 140 47 99 155 134 150 255 102 5 0 0 0 0 0 0 0 0 0 0 0 0 0 0 0 1 11 227 248 140 134 171 104 103 176 137 143 243 255 14 1 0 0 0 0 0 0 0 0 0 0 0 0 0 0 0 0 0 0 0 0 0 0 0 0 0 0 0 0 5 106 255 149 135 158 152 72 62 101 198 255 44 2 0 0 0 0 0 0 0 0 0 0 0 0 0 0 0 0 0 0 0 0 0 0 0 0 0 0 0 0 0 0 3 63 255 163 85 62 98 168 146 149 219 255 16 1 0 0 0 0 0 0 0 0 0 0 0 0 0 0 0 0 0 10 193 254 146 141 167 111 60 72 130 255 219 11 0 0 0 0 0 0 0 0 0 0 0 0 0 0 0 0 9 178 255 130 71 61 118 174 145 148 249 229 11 1 0 0 0 0 1 11 212 247 158 155 170 91 61 86 166 255 94 4 0 5 104 255 148 79 60 98 174 153 158 255 255 239 121 98 80 80 97 126 235 255 19 1 0 0 0 0 1 17 255 223 138 143 226 205 232 147 145 244 255 13 1 0 0 0 0 0 0 0 0 0 0 0 0 0 0 0 0 10 205 255 148 140 167 130 62 48 48 51 88 161 145 147 219 255 19 1 0 0 0 0 0 0 0 0 0 0 0 0 0 0 0 0 0 0 0 0 0 0 0 0 0 0 0 0 0 0 0 0 0 0 0 0 1 25 255 214 148 147 189 89 174 139 141 212 255 16 1 0 0 0 0 0 9 179 255 151 140 170 103 93 180 137 140 229 255 16 1 0 0 0 0 0 0 0 0 0 0 0 0 0 0 1 27 255 193 149 152 156 78 62 96 185 255 169 255 181 93 62 83 166 160 155 194 255 34 2 0 0 0 1 28 255 203 144 145 179 74 154 156 146 175 255 58 3 0 0 0 0 0 0 0 0 0 0 0 0 0 0 0 0 1 14 255 231 144 144 167 91 41 34 47 113 163 139 146 250 255 13 1 0 0 0 1 11 217 247 149 146 174 115 59 54 57 55 78 165 163 138 151 255 100 5 0 0 0 0 1 30 255 193 158 163 160 77 62 98 193 255 45 2 0 0 0 0 0 0 0 0 0 0 0 0 0 0 0 0 0 0 0 0 0 0 0 0 0 0 0 0 0 0 0 0 0 0 0 0 0 0 0 0 0 0 0 0 0 0 0 0 0 0 0 0 0 0 0 0 0 0 0 0 2 39 255 187 96 62 81 160 156 157 209 255 23 1 0 0 0 0 0 0 0 0 0 0 0 0 0 1 13 255 238 151 148 172 100 63 86 140 137 84 63 102 167 145 153 251 230 11 1 0 0 0 0 0 0 0 0 0 0 0 0 0 0 0
0 0 0 0 0 1 23 255 210 97 47 34 62 110 88 83 114 233 255 14 1 0 0 2 42 255 177 93 74 87 136 78 128 88 70 86 161 255 46 2 0 0 0 0 0 0 0 0 0 0 0 0 0 0 5 90 255 140 79 71 103 193 199 107 73 79 136 255 110 6 0 0 0 0 0 0 0 0 0 0 0 0 0 0 0 0 0 0 0 0 0 0 0 0 0 0 0 2 46 255 159 84 69 85 109 56 34 49 103 225 255 20 1 0 0 0 0 0 0 0 0 0 0 0 0 0 0 0 0 0 0 0 0 0 0 0 0 0 0 0 0 1 27 255 187 85 42 38 80 98 78 83 127 255 125 6 0 0 0 0 0 0 0 0 0 0 0 0 0 0 0 0 4 78 255 142 82 73 93 93 40 35 63 139 255 83 4 0 0 0 0 0 0 0 0 0 0 0 0 0 0 4 74 255 145 64 36 43 103 98 76 84 140 255 94 5 0 0 0 0 4 84 255 140 89 82 103 75 36 42 84 183 255 46 5 50 255 169 74 39 37 86 104 83 89 130 185 116 63 47 34 34 46 63 127 255 147 7 0 0 0 0 7 132 255 127 79 84 158 255 172 88 83 139 255 111 5 0 0 0 0 0 0 0 0 0 0 0 0 0 0 0 4 82 255 147 83 72 91 103 41 20 18 27 69 98 78 82 127 255 160 8 0 0 0 0 0 0 0 0 0 0 0 0 0 0 0 0 0 0 0 0 0 0 0 0 0 0 0 0 0 0 0 0 0 0 0 0 9 179 255 123 82 88 161 230 161 84 80 123 255 123 6 0 0 0 0 4 72 255 151 85 74 101 184 196 113 75 79 130 255 116 6 0 0 0 0 0 0 0 0 0 0 0 0 0 0 10 204 248 114 80 83 104 63 35 47 100 252 255 238 97 45 35 68 107 85 82 113 234 255 13 1 0 0 10 201 248 116 79 85 152 200 175 91 76 99 197 255 28 1 0 0 0 0 0 0 0 0 0 0 0 0 0 0 0 6 114 255 134 83 76 94 71 23 15 29 84 87 71 81 139 255 105 5 0 0 0 4 86 255 136 84 77 99 99 38 22 21 26 60 112 86 70 85 158 255 42 2 0 0 1 12 250 244 116 85 89 110 63 35 48 101 220 255 20 1 0 0 0 0 0 0 0 0 0 0 0 0 0 0 0 0 0 0 0 0 0 0 0 0 0 0 0 0 0 0 0 0 0 0 0 0 0 0 0 0 0 0 0 0 0 0 0 0 0 0 0 0 0 0 0 0 0 0 1 15 255 223 100 47 35 66 105 85 85 121 255 164 8 0 0 0 0 0 0 0 0 0 0 0 0 0 5 102 255 136 85 79 103 88 39 39 51 51 38 39 87 97 77 86 141 255 94 5 0 0 0 0 0 0 0 0 0 0 0 0 0 0 0
0 0 0 0 0 9 183 255 115 46 21 19 43 58 43 40 59 127 255 101 5 0 1 19 255 223 97 47 35 47 103 179 139 52 34 44 91 210 255 19 1 0 0 0 0 0 0 0 0 0 0 0 0 2 41 255 172 76 41 36 69 199 203 72 37 40 71 161 255 48 2 0 0 0 0 0 0 0 0 0 0 0 0 0 0 0 0 0 0 0 0 0 0 0 0 0 1 18 255 206 89 43 32 41 59 39 18 22 50 123 255 171 8 0 0 0 0 0 0 0 0 0 0 0 0 0 0 0 0 0 0 0 0 0 0 0 0 0 0 0 0 9 186 249 103 41 20 22 53 48 37 42 69 158 255 56 3 0 0 0 0 0 0 0 0 0 0 0 0 0 0 2 37 255 179 78 42 34 45 60 26 17 29 71 170 255 38 2 0 0 0 0 0 0 0 0 0 0 0 0 2 36 255 183 76 31 18 29 69 48 36 43 76 173 255 45 2 0 0 2 40 255 174 77 45 40 51 51 21 20 40 97 220 255 54 255 213 91 36 18 23 61 52 40 43 55 68 48 28 19 13 13 19 29 63 151 255 61 3 0 0 3 57 255 154 68 42 47 94 152 101 50 44 74 166 255 49 2 0 0 0 0 0 0 0 0 0 0 0 0 0 2 37 255 177 79 42 34 44 62 26 9 7 14 45 49 38 41 68 153 255 68 3 0 0 0 0 0 0 0 0 0 0 0 0 0 0 0 0 0 0 0 0 0 0 0 0 0 0 0 0 0 0 0 0 0 0 4 70 255 140 64 42 52 117 223 124 52 43 67 156 255 56 3 0 0 1 31 255 181 81 44 37 68 197 216 78 39 40 69 156 255 49 2 0 0 0 0 0 0 0 0 0 0 0 0 4 80 255 138 61 39 40 54 43 19 22 51 125 197 118 48 22 20 47 55 41 39 59 130 255 108 5 0 4 79 255 134 60 40 49 116 246 145 55 37 51 111 255 224 11 0 0 0 0 0 0 0 0 0 0 0 0 0 0 2 50 255 162 73 43 36 44 45 13 7 17 49 40 33 40 73 164 255 46 2 0 2 40 255 171 74 42 36 49 66 24 9 8 13 40 58 41 33 43 89 208 255 16 1 0 5 96 255 136 62 41 44 59 45 19 22 49 119 255 151 7 0 0 0 0 0 0 0 0 0 0 0 0 0 0 0 0 0 0 0 0 0 0 0 0 0 0 0 0 0 0 0 0 0 0 0 0 0 0 0 0 0 0 0 0 0 0 0 0 0 0 0 0 0 0 0 0 0 0 6 111 255 122 49 22 20 46 55 41 41 64 142 255 68 3 0 0 0 0 0 0 0 0 0 0 0 2 44 255 164 73 43 38 52 63 24 16 17 17 16 24 59 48 37 44 76 173 255 45 2 0 0 0 0 0 0 0 0 0 0 0 0 0 0
0 0 0 0 4 79 255 149 59 22 10 10 24 26 19 18 29 68 164 255 44 2 7 148 255 128 50 23 16 28 91 236 140 37 17 22 48 122 255 142 7 0 0 0 0 0 0 0 0 0 0 0 1 17 255 226 98 39 20 19 50 127 127 51 20 19 36 91 212 255 21 1 0 0 0 0 0 0 0 0 0 0 0 0 0 0 0 0 0 0 0 0 0 0 0 0 7 135 255 119 47 21 14 18 27 22 9 10 24 64 156 255 75 4 0 0 0 0 0 0 0 0 0 0 0 0 0 0 0 0 0 0 0 0 0 0 0 0 0 0 4 70 255 138 54 20 9 12 28 21 16 19 36 90 207 255 25 1 0 0 0 0 0 0 0 0 0 0 0 0 1 14 255 237 103 41 20 15 20 31 14 8 13 35 97 233 255 16 1 0 0 0 0 0 0 0 0 0 0 1 16 255 244 105 39 14 9 17 37 22 16 20 39 99 225 255 20 1 1 17 255 233 101 40 21 18 23 28 11 9 18 49 125 255 255 255 123 47 17 9 13 35 24 18 18 21 23 17 11 7 5 5 7 13 31 83 196 255 28 1 1 26 255 203 87 35 21 25 48 65 50 27 22 38 92 211 255 20 1 0 0 0 0 0 0 0 0 0 0 0 1 14 255 232 100 40 20 15 19 29 14 4 3 7 23 21 16 19 35 85 195 255 31 1 0 0 0 0 0 0 0 0 0 0 0 0 0 0 0 0 0 0 0 0 0 0 0 0 0 0 0 0 0 0 0 0 1 32 255 185 77 32 21 31 77 122 84 33 22 36 90 208 255 26 1 1 11 220 243 103 42 21 20 49 132 136 57 21 20 35 88 208 255 21 1 0 0 0 0 0 0 0 0 0 0 2 37 255 181 77 31 18 18 24 24 10 10 23 52 74 50 22 10 11 26 24 18 18 30 71 170 255 49 4 37 255 181 74 30 20 30 84 144 101 36 18 25 59 143 255 88 4 0 0 0 0 0 0 0 0 0 0 0 0 1 22 255 210 91 38 20 16 19 22 7 4 9 22 17 14 19 37 92 214 255 19 2 17 255 231 100 39 20 16 22 35 13 4 3 6 21 26 17 14 21 47 120 255 116 6 2 42 255 173 74 32 19 19 27 26 10 10 23 62 154 255 63 3 0 0 0 0 0 0 0 0 0 0 0 0 0 0 0 0 0 0 0 0 0 0 0 0 0 0 0 0 0 0 0 0 0 0 0 0 0 0 0 0 0 0 0 0 0 0 0 0 0 0 0 0 0 0 0 0 2 48 255 161 65 24 10 10 26 25 18 19 32 80 192 255 33 1 0 0 0 0 0 0 0 0 0 1 18 255 216 93 38 20 17 24 37 13 6 5 5 6 13 32 22 17 21 40 98 225 255 20 1 0 0 0 0 0 0 0 0 0 0 0 0 0
0 0 0 2 40 255 200 86 31 10 4 5 10 10 7 8 14 37 98 225 255 23 64 255 166 72 27 11 8 20 93 158 130 33 9 11 26 69 162 255 59 3 0 0 0 0 0 0 0 0 0 0 6 130 255 134 54 20 9 11 34 68 67 34 11 9 18 50 128 255 160 8 0 0 0 0 0 0 0 0 0 0 0 0 0 0 0 0 0 0 0 0 0 0 0 3 59 255 164 68 25 10 6 7 11 10 4 4 11 33 89 204 255 39 2 0 0 0 0 0 0 0 0 0 0 0 0 0 0 0 0 0 0 0 0 0 0 0 0 1 31 255 188 81 28 9 4 5 11 8 7 9 18 50 123 255 192 9 0 0 0 0 0 0 0 0 0 0 0 0 6 114 255 139 57 21 9 6 8 13 7 4 6 18 54 140 255 137 7 0 0 0 0 0 0 0 0 0 0 7 133 255 144 58 20 7 4 8 16 9 7 9 20 54 132 255 166 8 7 147 255 138 56 21 10 7 9 12 5 4 8 25 73 182 255 176 72 24 8 4 7 16 10 7 7 7 7 6 4 2 2 2 3 5 15 45 118 255 253 12 11 223 255 122 48 18 10 12 21 25 22 13 11 19 50 125 255 170 8 0 0 0 0 0 0 0 0 0 0 0 5 105 255 137 55 20 9 6 8 11 6 2 1 3 9 8 7 8 17 46 115 255 255 13 1 0 0 0 0 0 0 0 0 0 0 0 0 0 0 0 0 0 0 0 0 0 0 0 0 0 0 0 0 0 0 1 12 242 255 113 42 16 10 18 45 58 50 20 11 19 50 124 255 221 11 5 83 255 142 57 21 10 11 35 73 72 40 12 9 18 49 126 255 163 8 0 0 0 0 0 0 0 0 0 1 14 255 243 108 42 16 8 7 10 10 5 4 10 19 25 19 9 4 5 11 9 7 7 15 39 100 222 255 42 255 245 110 41 15 10 19 55 71 61 23 9 12 31 82 187 255 42 2 0 0 0 0 0 0 0 0 0 0 0 8 174 255 126 50 19 9 6 7 8 3 2 4 8 6 5 8 18 50 128 255 141 14 141 255 135 56 20 9 7 9 15 6 2 1 3 9 10 7 6 10 25 70 172 255 57 20 255 229 102 40 16 8 8 11 12 5 4 11 33 90 204 255 29 1 0 0 0 0 0 0 0 0 0 0 0 0 0 0 0 0 0 0 0 0 0 0 0 0 0 0 0 0 0 0 0 0 0 0 0 0 0 0 0 0 0 0 0 0 0 0 0 0 0 0 0 0 0 0 1 22 255 220 96 35 11 5 5 11 10 7 8 16 45 117 255 255 14 1 0 0 0 0 0 0 0 0 7 129 255 129 51 19 9 7 10 17 7 2 2 2 2 6 14 9 7 9 20 54 133 255 177 8 0 0 0 0 0 0 0 0 0 0 0 0 0
0 0 1 17 255 254 123 51 17 5 2 2 3 3 3 3 7 21 59 141 255 255 255 215 100 41 14 5 4 19 101 98 108 33 6 5 14 40 100 213 255 26 1 0 0 0 0 0 0 0 0 3 57 255 178 81 31 10 4 6 20 33 33 20 6 4 9 29 77 169 255 68 3 0 0 0 0 0 0 0 0 0 0 0 0 0 0 0 0 0 0 0 0 0 1 28 255 219 102 40 13 4 2 2 3 3 2 2 5 18 52 126 255 255 19 1 0 0 0 0 0 0 0 0 0 0 0 0 0 0 0 0 0 0 0 0 0 0 1 12 243 255 120 48 15 4 2 2 4 3 2 4 9 28 73 162 255 79 4 0 0 0 0 0 0 0 0 0 0 3 53 255 185 84 33 11 4 2 3 4 2 2 3 9 32 84 182 255 61 3 0 0 0 0 0 0 0 0 3 60 255 181 85 33 10 3 2 3 5 3 3 4 10 31 79 176 255 85 77 255 179 82 32 11 4 3 3 4 2 2 4 13 42 92 126 89 41 13 4 2 3 5 4 2 2 2 2 2 1 1 1 1 1 2 8 25 71 163 255 123 109 255 164 73 27 9 4 5 8 9 8 5 5 10 28 76 173 255 77 4 0 0 0 0 0 0 0 0 0 2 48 255 184 83 31 10 4 2 3 3 2 1 1 1 3 3 2 3 9 26 68 157 255 117 6 0 0 0 0 0 0 0 0 0 0 0 0 0 0 0 0 0 0 0 0 0 0 0 0 0 0 0 0 0 0 5 98 255 153 68 24 8 5 9 23 26 26 11 6 10 29 74 165 255 106 46 255 192 88 33 11 5 6 22 37 36 25 7 4 9 28 76 169 255 69 3 0 0 0 0 0 0 0 0 6 127 255 148 64 24 8 3 3 3 3 2 2 4 6 8 6 3 2 2 4 3 2 3 7 21 59 138 255 255 255 149 66 23 8 5 11 32 34 33 14 5 6 17 48 116 247 255 20 1 0 0 0 0 0 0 0 0 0 4 78 255 169 75 28 9 4 2 2 2 1 1 1 2 2 2 3 9 29 78 173 255 255 255 182 81 32 10 4 3 3 5 2 1 1 1 3 3 2 2 4 14 43 109 233 255 255 255 141 60 22 8 3 3 4 4 2 2 5 18 53 127 255 224 11 0 0 0 0 0 0 0 0 0 0 0 0 0 0 0 0 0 0 0 0 0 0 0 0 0 0 0 0 0 0 0 0 0 0 0 0 0 0 0 0 0 0 0 0 0 0 0 0 0 0 0 0 0 0 9 182 255 138 58 19 6 2 2 4 3 3 3 8 26 70 154 255 118 6 0 0 0 0 0 0 0 3 56 255 174 78 29 10 4 3 4 6 3 1 1 1 1 2 5 3 3 4 10 31 79 177 255 80 4 0 0 0 0 0 0 0 0 0 0 0 0
0 0 7 137 255 154 76 31 9 2 1 1 1 1 1 1 3 11 38 91 199 255 255 141 63 24 7 2 3 23 117 71 87 36 6 3 7 24 63 135 255 211 10 0 0 0 0 0 0 0 1 26 255 224 112 51 18 5 2 3 10 15 14 9 3 2 5 17 48 106 215 255 33 1 0 0 0 0 0 0 0 0 0 0 0 0 0 0 0 0 0 0 0 1 12 254 255 139 65 25 7 2 1 1 1 1 1 1 2 9 32 77 159 255 192 8 0 0 0 0 0 0 0 0 0 0 0 0 0 0 0 0 0 0 0 0 0 0 5 99 255 161 76 30 8 2 1 1 1 1 1 1 5 16 45 101 207 255 39 2 0 0 0 0 0 0 0 0 1 25 255 234 117 53 19 5 2 1 1 1 1 1 1 5 19 53 113 224 255 29 1 0 0 0 0 0 0 1 30 255 227 112 52 19 5 1 1 1 2 1 1 2 5 18 49 110 225 255 255 231 112 51 19 5 2 1 1 1 1 1 2 7 23 42 52 42 22 7 2 1 1 1 1 1 1 1 1 0 0 0 0 0 0 1 4 14 45 102 207 255 255 212 102 46 16 4 2 2 3 3 3 2 2 5 16 48 110 218 255 39 2 0 0 0 0 0 0 0 1 21 255 236 118 53 18 5 2 1 1 1 1 0 0 0 1 1 1 1 4 14 43 98 198 255 56 3 0 0 0 0 0 0 0 0 0 0 0 0 0 0 0 0 0 0 0 0 0 0 0 0 0 0 0 0 2 48 255 197 96 43 14 4 2 4 10 11 11 5 3 5 16 46 103 212 255 255 255 124 56 20 6 2 3 11 17 17 13 4 2 5 16 48 107 214 255 33 1 0 0 0 0 0 0 3 65 255 194 93 40 13 4 1 1 1 1 1 1 1 2 2 2 1 1 1 1 1 1 1 3 12 37 90 198 255 214 98 42 13 4 2 6 16 16 15 7 2 3 9 29 73 155 255 185 9 0 0 0 0 0 0 0 0 2 41 255 216 107 48 16 5 2 1 1 1 0 0 0 1 1 1 1 5 17 49 114 255 255 255 118 52 18 5 2 1 1 1 1 0 0 0 1 1 1 1 2 7 27 70 150 255 255 201 91 38 12 4 1 1 1 1 1 1 2 10 32 79 164 255 89 4 0 0 0 0 0 0 0 0 0 0 0 0 0 0 0 0 0 0 0 0 0 0 0 0 0 0 0 0 0 0 0 0 0 0 0 0 0 0 0 0 0 0 0 0 0 0 0 0 0 0 0 0 4 78 255 177 87 36 11 3 1 1 1 1 1 1 4 15 43 95 194 255 57 3 0 0 0 0 0 1 25 255 224 111 50 17 5 2 1 1 2 1 0 0 0 0 1 1 1 1 2 5 18 50 110 216 255 40 2 0 0 0 0 0 0 0 0 0 0 0
0 3 60 255 185 95 48 19 5 1 0 0 0 0 0 0 2 6 25 62 120 198 168 92 42 14 4 1 4 34 141 71 78 42 6 2 4 14 42 86 172 255 87 4 0 0 0 0 0 0 10 224 255 142 72 33 10 3 1 1 4 5 5 3 1 1 2 9 31 68 137 255 255 14 1 0 0 0 0 0 0 0 0 0 0 0 0 0 0 0 0 0 0 5 109 255 172 88 43 15 4 1 0 0 0 0 0 0 1 5 19 49 97 190 255 88 4 0 0 0 0 0 0 0 0 0 0 0 0 0 0 0 0 0 0 0 0 2 48 255 200 103 51 19 5 1 0 0 0 0 0 1 2 9 29 66 132 255 255 18 1 0 0 0 0 0 0 0 11 250 255 146 75 35 11 3 1 0 0 0 0 0 1 2 10 34 71 140 255 255 13 1 0 0 0 0 1 13 255 255 144 71 33 11 3 1 0 0 0 0 0 1 2 10 32 71 145 255 255 149 73 33 11 3 1 0 0 0 0 0 1 3 10 18 20 18 10 3 1 0 0 0 0 0 0 0 0 0 0 0 0 0 0 0 2 8 29 66 132 255 255 136 67 30 9 2 1 1 1 1 1 1 1 2 9 32 70 135 255 255 16 1 0 0 0 0 0 0 8 167 255 149 75 35 11 3 1 0 0 0 0 0 0 0 0 0 0 1 2 8 28 63 123 236 255 27 1 0 0 0 0 0 0 0 0 0 0 0 0 0 0 0 0 0 0 0 0 0 0 0 0 0 0 1 24 255 247 126 63 27 8 2 1 2 3 4 4 2 1 2 9 30 67 136 255 255 170 82 38 12 3 1 1 4 6 6 5 2 1 2 9 31 69 136 255 255 15 1 0 0 0 0 2 36 255 237 123 61 26 7 2 1 0 0 0 0 0 0 1 1 1 0 0 0 0 0 0 0 2 6 24 60 108 148 113 65 27 7 2 1 2 6 6 6 3 1 1 5 18 48 96 185 255 80 4 0 0 0 0 0 0 1 21 255 255 136 69 31 9 2 1 0 0 0 0 0 0 0 0 0 1 2 10 33 77 144 205 143 77 35 10 3 1 0 0 0 0 0 0 0 0 0 0 0 1 4 17 47 96 173 208 124 62 25 7 2 1 0 0 0 0 0 1 5 20 52 103 202 255 42 2 0 0 0 0 0 0 0 0 0 0 0 0 0 0 0 0 0 0 0 0 0 0 0 0 0 0 0 0 0 0 0 0 0 0 0 0 0 0 0 0 0 0 0 0 0 0 0 0 0 0 2 38 255 214 110 57 23 6 1 0 0 0 0 0 1 2 8 27 61 122 236 255 28 1 0 0 0 0 10 214 255 142 72 33 10 2 1 0 0 0 0 0 0 0 0 0 0 0 0 1 2 10 32 69 134 255 255 18 1 0 0 0 0 0 0 0 0 0 0
1 30 255 232 121 64 33 11 3 1 0 0 0 0 0 0 1 4 16 44 71 91 84 61 30 8 2 1 6 80 165 117 97 63 7 1 2 8 29 61 113 213 255 42 2 0 0 0 0 5 102 255 179 93 50 22 6 1 0 0 1 2 2 1 0 0 1 5 20 48 90 173 255 129 6 0 0 0 0 0 0 0 0 0 0 0 0 0 0 0 0 0 2 53 255 210 111 61 30 9 2 0 0 0 0 0 0 0 1 3 11 33 65 120 224 255 45 2 0 0 0 0 0 0 0 0 0 0 0 0 0 0 0 0 0 0 1 24 255 253 132 71 37 11 2 1 0 0 0 0 0 0 1 5 19 47 88 167 255 186 8 0 0 0 0 0 0 5 108 255 184 96 52 23 6 1 0 0 0 0 0 0 0 1 6 22 49 92 179 255 141 6 0 0 0 0 6 117 255 176 93 50 21 6 1 0 0 0 0 0 0 0 1 5 21 51 92 144 146 94 52 22 6 1 0 0 0 0 0 0 0 1 4 6 7 6 4 1 0 0 0 0 0 0 0 0 0 0 0 0 0 0 0 0 1 4 19 47 84 129 131 87 48 19 5 1 0 0 0 0 0 0 0 1 5 21 48 87 164 255 140 7 0 0 0 0 0 4 75 255 186 97 53 23 6 1 0 0 0 0 0 0 0 0 0 0 0 0 1 4 17 44 80 151 255 226 11 0 0 0 0 0 0 0 0 0 0 0 0 0 0 0 0 0 0 0 0 0 0 0 0 0 0 10 233 255 159 84 45 17 4 1 0 1 1 1 1 1 0 1 5 20 48 89 143 164 107 60 26 7 1 0 1 1 2 2 1 1 0 1 5 20 49 90 174 255 155 7 0 0 0 1 17 255 255 151 81 44 17 4 1 0 0 0 0 0 0 0 0 0 0 0 0 0 0 0 0 0 1 3 15 41 57 66 58 44 17 4 1 0 1 2 2 2 1 0 1 2 10 33 64 117 221 255 40 2 0 0 0 0 0 9 210 255 168 89 48 20 5 1 0 0 0 0 0 0 0 0 0 0 0 1 5 23 53 77 93 76 52 24 6 1 0 0 0 0 0 0 0 0 0 0 0 0 0 2 10 34 62 86 96 74 45 16 4 1 0 0 0 0 0 0 1 3 12 36 70 133 255 255 19 1 0 0 0 0 0 0 0 0 0 0 0 0 0 0 0 0 0 0 0 0 0 0 0 0 0 0 0 0 0 0 0 0 0 0 0 0 0 0 0 0 0 0 0 0 0 0 0 0 1 18 255 255 139 74 40 14 3 1 0 0 0 0 0 0 1 4 17 43 80 152 255 255 12 1 0 0 4 90 255 180 94 51 22 5 1 0 0 0 0 0 0 0 0 0 0 0 0 0 0 1 5 21 47 86 165 255 151 7 0 0 0 0 0 0 0 0 0 0
14 255 255 160 89 51 23 6 1 0 0 0 0 0 0 0 0 2 10 33 44 44 44 42 22 5 1 2 31 255 224 255 242 213 16 1 1 5 20 50 85 148 255 255 19 1 0 0 2 56 255 228 126 72 40 14 3 1 0 0 0 0 0 0 0 0 1 3 12 39 70 120 214 255 63 3 0 0 0 0 0 0 0 0 0 0 0 0 0 0 0 1 25 255 255 143 82 49 21 5 1 0 0 0 0 0 0 0 0 1 6 23 51 86 150 255 255 22 1 0 0 0 0 0 0 0 0 0 0 0 0 0 0 0 0 0 11 244 255 172 96 58 28 7 1 0 0 0 0 0 0 0 1 3 12 38 69 117 209 255 87 4 0 0 0 0 3 55 255 223 127 74 42 15 3 1 0 0 0 0 0 0 0 1 3 14 40 71 124 222 255 75 3 0 0 3 58 255 217 121 71 40 14 3 1 0 0 0 0 0 0 0 1 3 14 40 63 73 74 63 42 15 3 1 0 0 0 0 0 0 0 0 1 2 2 2 1 0 0 0 0 0 0 0 0 0 0 0 0 0 0 0 0 0 1 2 11 36 58 66 66 59 38 12 3 1 0 0 0 0 0 0 0 1 3 13 37 67 114 207 255 66 3 0 0 0 2 40 255 237 131 75 43 15 3 1 0 0 0 0 0 0 0 0 0 0 0 0 0 2 11 33 62 106 190 255 99 5 0 0 0 0 0 0 0 0 0 0 0 0 0 0 0 0 0 0 0 0 0 0 0 0 5 110 255 199 111 66 36 10 2 0 0 0 0 0 0 0 0 1 3 12 39 62 76 81 70 50 18 4 1 0 0 0 1 1 0 0 0 1 3 13 39 71 121 215 255 79 4 0 0 7 160 255 184 104 63 35 10 2 0 0 0 0 0 0 0 0 0 0 0 0 0 0 0 0 0 0 0 2 9 27 31 31 31 29 10 2 0 0 0 0 1 0 0 0 0 1 6 24 51 85 151 255 255 19 1 0 0 0 5 96 255 203 115 68 39 13 3 1 0 0 0 0 0 0 0 0 0 0 0 1 3 15 39 43 44 43 37 16 3 1 0 0 0 0 0 0 0 0 0 0 0 0 0 1 6 24 43 45 47 46 34 10 2 0 0 0 0 0 0 0 0 1 7 27 57 97 174 255 179 8 0 0 0 0 0 0 0 0 0 0 0 0 0 0 0 0 0 0 0 0 0 0 0 0 0 0 0 0 0 0 0 0 0 0 0 0 0 0 0 0 0 0 0 0 0 0 0 0 8 168 255 180 100 59 30 8 2 0 0 0 0 0 0 0 0 2 10 34 63 106 190 255 113 5 0 2 44 255 225 126 73 42 14 3 1 0 0 0 0 0 0 0 0 0 0 0 0 0 0 1 3 13 36 66 114 204 255 70 3 0 0 0 0 0 0 0 0 0
171 255 197 121 84 54 16 3 1 0 0 0 0 0 0 0 0 1 6 22 27 23 24 28 13 3 1 12 241 255 255 255 255 255 96 5 1 3 15 52 82 115 184 255 173 8 0 1 31 255 255 159 104 75 38 9 2 0 0 0 0 0 0 0 0 0 0 2 8 38 72 100 150 254 255 33 1 0 0 0 0 0 0 0 0 0 0 0 0 0 0 10 226 255 175 111 80 50 15 3 1 0 0 0 0 0 0 0 0 1 4 17 51 78 113 183 255 244 11 0 0 0 0 0 0 0 0 0 0 0 0 0 0 0 0 5 112 255 205 126 89 62 22 4 1 0 0 0 0 0 0 0 0 1 8 35 71 98 146 241 255 45 2 0 0 1 30 255 255 154 102 75 39 10 2 0 0 0 0 0 0 0 0 0 2 9 39 73 101 153 255 255 42 2 1 30 255 255 153 99 70 39 9 2 0 0 0 0 0 0 0 0 0 2 9 35 49 41 41 48 38 9 2 0 0 0 0 0 0 0 0 0 0 1 1 1 0 0 0 0 0 0 0 0 0 0 0 0 0 0 0 0 0 0 0 1 7 29 44 37 37 45 32 8 1 0 0 0 0 0 0 0 0 0 2 8 32 68 97 148 249 255 34 1 0 1 18 255 255 166 107 77 42 10 2 0 0 0 0 0 0 0 0 0 0 0 0 0 0 1 6 28 64 91 137 231 255 52 2 0 0 0 0 0 0 0 0 0 0 0 0 0 0 0 0 0 0 0 0 0 0 3 58 255 235 141 95 69 34 7 1 0 0 0 0 0 0 0 0 0 2 8 34 51 45 45 53 48 13 2 0 0 0 0 0 0 0 0 0 0 2 8 38 74 100 149 251 255 44 2 4 75 255 215 130 90 64 30 6 1 0 0 0 0 0 0 0 0 0 0 0 0 0 0 0 0 0 0 0 1 5 15 16 14 16 17 5 1 0 0 0 0 0 0 0 0 0 1 4 17 50 80 115 188 255 191 9 0 0 2 51 255 236 142 95 69 35 8 2 0 0 0 0 0 0 0 0 0 0 0 0 0 2 8 27 25 22 25 25 9 2 0 0 0 0 0 0 0 0 0 0 0 0 0 0 1 3 14 30 25 24 29 24 6 1 0 0 0 0 0 0 0 0 1 4 21 60 90 129 212 255 88 4 0 0 0 0 0 0 0 0 0 0 0 0 0 0 0 0 0 0 0 0 0 0 0 0 0 0 0 0 0 0 0 0 0 0 0 0 0 0 0 0 0 0 0 0 0 0 4 76 255 212 131 90 63 24 5 1 0 0 0 0 0 0 0 0 1 6 30 64 92 136 224 255 55 3 20 255 255 158 104 76 40 9 2 0 0 0 0 0 0 0 0 0 0 0 0 0 0 0 0 2 8 32 67 96 145 246 255 37 2 0 0 0 0 0 0 0 0
255 231 139 110 115 93 15 2 0 0 0 0 0 0 0 0 0 1 3 11 15 11 12 15 7 2 6 112 255 214 222 217 237 249 255 50 3 2 13 80 117 111 132 206 255 79 4 16 255 255 177 120 111 119 48 7 1 0 0 0 0 0 0 0 0 0 0 1 7 48 114 109 117 171 255 255 15 1 0 0 0 0 0 0 0 0 0 0 0 0 5 103 255 197 127 107 115 76 12 2 0 0 0 0 0 0 0 0 0 0 2 14 79 106 105 130 207 255 122 5 0 0 0 0 0 0 0 0 0 0 0 0 0 0 3 57 255 228 141 110 119 104 20 3 0 0 0 0 0 0 0 0 0 1 6 41 111 110 114 160 255 255 23 1 1 14 255 255 176 118 106 117 49 8 1 0 0 0 0 0 0 0 0 0 1 7 51 117 108 116 168 255 255 21 15 255 255 172 117 108 104 51 7 1 0 0 0 0 0 0 0 0 0 1 6 30 42 26 26 42 36 7 1 0 0 0 0 0 0 0 0 0 0 0 0 0 0 0 0 0 0 0 0 0 0 0 0 0 0 0 0 0 0 0 0 1 4 22 37 23 22 36 26 5 1 0 0 0 0 0 0 0 0 0 1 6 34 112 110 116 168 255 255 15 1 8 160 255 184 123 112 120 54 8 1 0 0 0 0 0 0 0 0 0 0 0 0 0 0 1 4 27 103 110 113 158 255 255 28 1 0 0 0 0 0 0 0 0 0 0 0 0 0 0 0 0 0 0 0 0 1 29 255 255 157 113 111 111 39 5 1 0 0 0 0 0 0 0 0 0 1 6 31 48 31 28 47 55 10 2 0 0 0 0 0 0 0 0 0 0 1 7 48 120 109 115 166 255 255 24 39 255 240 146 108 107 99 31 5 1 0 0 0 0 0 0 0 0 0 0 0 0 0 0 0 0 0 0 0 0 2 6 7 6 7 7 2 1 0 0 0 0 0 0 0 0 0 0 2 14 72 113 108 133 208 255 86 4 1 28 255 255 159 112 106 108 40 6 1 0 0 0 0 0 0 0 0 0 0 0 0 0 1 4 15 13 11 13 13 4 1 0 0 0 0 0 0 0 0 0 0 0 0 0 0 0 2 7 18 14 12 16 13 3 1 0 0 0 0 0 0 0 0 0 3 19 102 117 112 146 241 255 49 2 0 0 0 0 0 0 0 0 0 0 0 0 0 0 0 0 0 0 0 0 0 0 0 0 0 0 0 0 0 0 0 0 0 0 0 0 0 0 0 0 0 0 0 0 2 39 255 238 145 110 114 108 22 3 1 0 0 0 0 0 0 0 0 1 5 33 103 109 111 153 255 255 40 198 255 179 120 111 119 52 8 1 0 0 0 0 0 0 0 0 0 0 0 0 0 0 0 0 1 6 34 110 107 115 167 255 255 19 1 0 0 0 0 0 0 0
252 151 108 133 227 255 33 3 0 0 0 0 0 0 0 0 0 0 1 4 6 5 5 6 3 3 60 255 222 152 147 139 145 173 255 255 24 3 24 242 229 145 106 135 228 255 55 187 255 188 118 108 168 246 134 11 1 0 0 0 0 0 0 0 0 0 0 1 11 136 244 172 110 116 181 255 148 7 0 0 0 0 0 0 0 0 0 0 0 2 54 255 220 130 105 146 236 238 23 2 0 0 0 0 0 0 0 0 0 0 2 26 255 223 135 103 134 224 255 65 3 0 0 0 0 0 0 0 0 0 0 0 0 1 29 255 249 146 105 127 218 255 39 3 0 0 0 0 0 0 0 0 0 1 8 93 241 177 109 111 171 255 229 11 7 128 255 187 118 107 162 243 128 11 1 0 0 0 0 0 0 0 0 0 1 13 166 251 166 106 112 174 255 234 182 255 186 117 108 168 233 151 12 1 0 0 0 0 0 0 0 0 0 1 4 24 39 18 17 38 35 6 1 0 0 0 0 0 0 0 0 0 0 0 0 0 0 0 0 0 0 0 0 0 0 0 0 0 0 0 0 0 0 0 0 0 3 13 28 14 13 27 17 3 1 0 0 0 0 0 0 0 0 0 1 6 68 255 184 111 115 180 255 131 10 74 255 198 122 107 163 242 154 13 1 0 0 0 0 0 0 0 0 0 0 0 0 0 0 1 5 49 255 195 117 112 168 255 255 12 1 0 0 0 0 0 0 0 0 0 0 0 0 0 0 0 0 0 0 1 12 255 255 163 109 113 187 249 90 8 1 0 0 0 0 0 0 0 0 0 1 4 27 52 23 20 51 82 11 1 0 0 0 0 0 0 0 0 0 0 1 11 134 249 172 108 112 173 255 255 255 255 154 106 115 195 240 56 5 1 0 0 0 0 0 0 0 0 0 0 0 0 0 0 0 0 0 0 0 0 1 2 2 2 2 2 1 0 0 0 0 0 0 0 0 0 0 0 2 22 216 230 139 104 134 225 255 44 15 255 255 170 110 109 178 245 88 8 1 0 0 0 0 0 0 0 0 0 0 0 0 0 0 2 6 5 4 5 5 2 0 0 0 0 0 0 0 0 0 0 0 0 0 0 0 0 1 3 8 6 5 7 5 2 0 0 0 0 0 0 0 0 0 0 3 39 255 212 125 108 154 255 255 24 1 0 0 0 0 0 0 0 0 0 0 0 0 0 0 0 0 0 0 0 0 0 0 0 0 0 0 0 0 0 0 0 0 0 0 0 0 0 0 0 0 0 0 1 18 255 255 153 106 120 210 255 45 4 0 0 0 0 0 0 0 0 0 1 6 70 250 191 115 109 164 255 255 255 199 121 109 167 243 148 12 1 0 0 0 0 0 0 0 0 0 0 0 0 0 0 0 0 1 7 72 255 179 112 115 181 255 207 9 0 0 0 0 0 0 0
116 91 98 186 253 255 184 10 1 0 0 0 0 0 0 0 0 0 0 1 2 2 2 2 2 33 255 238 135 100 91 84 86 107 155 255 196 17 115 255 251 200 102 89 139 255 255 255 196 110 83 120 220 251 255 50 3 0 0 0 0 0 0 0 0 0 0 3 51 255 255 229 130 84 108 193 255 72 3 0 0 0 0 0 0 0 0 0 1 29 255 242 132 87 106 209 255 255 103 6 0 0 0 0 0 0 0 0 0 0 7 128 255 255 204 99 86 131 235 255 35 1 0 0 0 0 0 0 0 0 0 0 1 13 255 255 148 91 91 174 241 246 184 11 1 0 0 0 0 0 0 0 0 2 36 255 253 231 134 83 103 180 255 114 71 255 192 110 83 124 225 252 255 48 3 0 0 0 0 0 0 0 0 0 4 64 255 255 227 124 80 104 190 255 255 204 112 84 126 232 255 255 60 3 0 0 0 0 0 0 0 0 0 0 3 16 32 12 12 34 32 5 1 0 0 0 0 0 0 0 0 0 0 0 0 0 0 0 0 0 0 0 0 0 0 0 0 0 0 0 0 0 0 0 0 0 1 7 16 7 7 15 9 2 0 0 0 0 0 0 0 0 0 0 1 23 255 247 235 135 85 108 189 255 158 255 217 119 84 114 215 250 255 56 3 0 0 0 0 0 0 0 0 0 0 0 0 0 0 1 16 251 251 244 152 87 101 171 255 104 5 0 0 0 0 0 0 0 0 0 0 0 0 0 0 0 0 0 0 6 119 255 169 98 83 144 236 255 255 34 2 0 0 0 0 0 0 0 0 0 1 4 24 65 20 18 87 186 20 2 0 0 0 0 0 0 0 0 0 0 3 50 255 253 228 130 82 104 192 255 255 166 96 86 161 248 255 255 18 1 0 0 0 0 0 0 0 0 0 0 0 0 0 0 0 0 0 0 0 0 0 1 1 1 1 1 0 0 0 0 0 0 0 0 0 0 0 0 6 93 255 255 198 98 87 135 250 255 197 255 173 101 84 140 240 255 255 33 2 0 0 0 0 0 0 0 0 0 0 0 0 0 0 1 2 2 2 2 1 1 0 0 0 0 0 0 0 0 0 0 0 0 0 0 0 0 0 1 2 2 2 2 2 1 0 0 0 0 0 0 0 0 0 1 11 200 249 242 168 91 94 153 255 233 10 0 0 0 0 0 0 0 0 0 0 0 0 0 0 0 0 0 0 0 0 0 0 0 0 0 0 0 0 0 0 0 0 0 0 0 0 0 0 0 0 0 0 7 156 255 160 95 89 164 243 245 234 14 1 0 0 0 0 0 0 0 0 1 27 255 255 243 152 87 104 187 255 238 125 87 123 221 252 255 54 3 0 0 0 0 0 0 0 0 0 0 0 0 0 0 0 0 2 27 255 252 238 138 86 108 189 255 90 4 0 0 0 0 0 0
48 52 95 168 162 173 255 73 4 0 0 0 0 0 0 0 0 0 0 0 0 0 1 1 15 255 255 131 74 59 50 45 46 59 84 158 255 255 255 180 164 168 105 60 78 152 255 224 109 62 62 131 166 169 210 255 20 1 0 0 0 0 0 0 0 0 1 20 255 210 174 171 145 66 62 105 207 255 37 2 0 0 0 0 0 0 0 1 13 255 255 134 72 60 116 174 166 180 255 42 2 0 0 0 0 0 0 0 0 3 54 255 183 174 181 107 57 70 128 255 255 16 1 0 0 0 0 0 0 0 0 0 5 110 255 152 79 56 88 165 159 169 255 66 4 0 0 0 0 0 0 0 1 14 255 236 177 170 151 69 59 97 195 255 255 220 105 61 63 141 173 172 213 255 19 1 0 0 0 0 0 0 0 1 27 255 202 170 172 143 64 60 105 203 213 113 64 66 142 175 181 210 255 27 1 0 0 0 0 0 0 0 0 0 2 8 19 7 8 25 24 4 1 0 0 0 0 0 0 0 0 0 0 0 0 0 0 0 0 0 0 0 0 0 0 0 0 0 0 0 0 0 0 0 0 0 1 3 6 3 3 5 3 1 0 0 0 0 0 0 0 0 0 0 7 142 255 173 166 146 68 62 106 236 255 255 125 67 61 123 165 167 199 255 22 1 0 0 0 0 0 0 0 0 0 0 0 0 0 5 101 255 176 167 159 75 59 92 180 255 48 2 0 0 0 0 0 0 0 0 0 0 0 0 0 0 0 0 3 56 255 182 92 57 71 157 168 176 238 216 11 1 0 0 0 0 0 0 0 0 0 3 23 97 22 33 250 228 58 4 0 0 0 0 0 0 0 0 0 1 20 255 209 170 169 147 66 60 103 182 170 92 59 81 172 173 183 255 116 6 0 0 0 0 0 0 0 0 0 0 0 0 0 0 0 0 0 0 0 0 0 0 0 0 0 0 0 0 0 0 0 0 0 0 0 0 0 2 40 255 186 169 172 101 57 74 143 255 255 195 94 58 71 159 174 179 240 217 11 1 0 0 0 0 0 0 0 0 0 0 0 0 0 0 0 0 0 0 0 0 0 0 0 0 0 0 0 0 0 0 0 0 0 0 0 0 0 0 1 1 1 1 0 0 0 0 0 0 0 0 0 0 0 4 76 255 171 160 162 84 57 82 161 255 98 5 0 0 0 0 0 0 0 0 0 0 0 0 0 0 0 0 0 0 0 0 0 0 0 0 0 0 0 0 0 0 0 0 0 0 0 0 0 0 0 0 3 68 255 167 86 58 83 165 162 170 255 86 5 0 0 0 0 0 0 0 0 9 189 255 182 171 163 78 62 93 136 109 70 66 134 167 169 202 255 21 1 0 0 0 0 0 0 0 0 0 0 0 0 0 0 0 10 193 255 176 170 151 70 61 100 192 255 41 2 0 0 0 0 0
19 30 84 105 89 104 183 255 33 2 0 0 0 0 0 0 0 0 0 0 0 0 0 6 128 255 140 65 37 29 24 21 22 28 42 85 208 255 247 117 90 102 95 42 41 72 116 95 53 33 49 110 97 94 129 255 156 8 0 0 0 0 0 0 0 0 7 152 255 128 95 99 116 55 34 52 111 241 255 16 1 0 0 0 0 0 0 6 116 255 144 67 38 44 106 104 91 112 212 255 17 1 0 0 0 0 0 0 1 25 255 203 112 94 110 102 40 35 63 137 255 136 7 0 0 0 0 0 0 0 0 2 51 255 171 78 40 36 82 107 89 104 177 255 28 1 0 0 0 0 0 0 5 106 255 144 100 100 119 61 34 49 107 243 255 124 54 33 51 118 102 97 132 255 148 7 0 0 0 0 0 0 0 10 193 251 122 93 101 120 54 34 50 81 84 53 35 54 117 102 98 129 255 215 10 0 0 0 0 0 0 0 0 0 1 3 8 4 4 13 13 3 0 0 0 0 0 0 0 0 0 0 0 0 0 0 0 0 0 0 0 0 0 0 0 0 0 0 0 0 0 0 0 0 0 0 0 1 2 1 1 1 1 0 0 0 0 0 0 0 0 0 0 3 61 255 153 100 95 112 57 35 56 120 203 137 65 36 47 106 97 92 125 255 167 8 0 0 0 0 0 0 0 0 0 0 0 0 2 47 255 169 105 95 113 64 34 46 96 212 255 21 1 0 0 0 0 0 0 0 0 0 0 0 0 0 0 1 25 255 206 97 46 33 63 116 97 99 140 255 83 4 0 0 0 0 0 0 0 0 0 4 33 155 47 131 232 167 255 18 1 0 0 0 0 0 0 0 0 7 141 255 128 94 99 119 56 34 47 69 67 44 36 77 120 99 107 164 255 51 3 0 0 0 0 0 0 0 0 0 0 0 0 0 0 0 0 0 0 0 0 0 0 0 0 0 0 0 0 0 0 0 0 0 0 0 1 17 255 222 117 93 105 94 39 39 75 159 195 102 48 33 63 122 101 101 144 255 88 4 0 0 0 0 0 0 0 0 0 0 0 0 0 0 0 0 0 0 0 0 0 0 0 0 0 0 0 0 0 0 0 0 0 0 0 0 0 0 0 0 0 0 0 0 0 0 0 0 0 0 0 0 2 34 255 177 104 90 107 75 35 41 83 179 255 47 2 0 0 0 0 0 0 0 0 0 0 0 0 0 0 0 0 0 0 0 0 0 0 0 0 0 0 0 0 0 0 0 0 0 0 0 0 0 0 1 34 255 193 88 44 36 77 111 91 102 168 255 38 2 0 0 0 0 0 0 4 73 255 151 103 98 117 71 36 40 49 43 36 52 111 98 93 126 255 159 8 0 0 0 0 0 0 0 0 0 0 0 0 0 0 4 80 255 152 101 98 116 58 34 49 101 219 255 16 1 0 0 0 0
8 19 63 56 45 57 107 243 255 14 1 0 0 0 0 0 0 0 0 0 0 0 3 58 255 170 72 31 17 13 10 9 9 12 20 44 104 175 124 67 47 55 72 30 20 29 41 35 23 18 39 73 53 49 73 156 255 66 3 0 0 0 0 0 0 3 66 255 154 72 49 53 73 43 19 25 56 133 255 137 7 0 0 0 0 0 3 56 255 174 75 32 19 33 79 56 46 63 125 255 118 6 0 0 0 0 0 0 10 223 255 120 62 48 59 80 29 18 30 70 163 255 59 3 0 0 0 0 0 0 1 23 255 213 94 38 20 24 68 60 47 58 107 251 197 10 0 0 0 0 0 2 47 255 170 82 53 54 74 52 20 24 52 103 112 61 27 19 40 77 55 51 75 157 255 62 3 0 0 0 0 0 4 76 255 141 67 47 54 79 46 19 21 28 29 22 19 43 75 54 49 71 146 255 83 4 0 0 0 0 0 0 0 0 0 1 2 1 2 5 5 1 0 0 0 0 0 0 0 0 0 0 0 0 0 0 0 0 0 0 0 0 0 0 0 0 0 0 0 0 0 0 0 0 0 0 0 0 0 0 0 0 0 0 0 0 0 0 0 0 0 0 1 30 255 199 91 54 51 68 44 20 27 52 76 57 31 20 36 73 52 48 71 152 255 72 4 0 0 0 0 0 0 0 0 0 0 1 22 255 220 101 57 50 64 51 20 22 49 120 255 158 8 0 0 0 0 0 0 0 0 0 0 0 0 0 0 9 180 255 115 48 22 20 53 69 51 51 80 176 255 40 2 0 0 0 0 0 0 0 1 6 78 183 255 255 153 136 255 108 6 0 0 0 0 0 0 0 3 61 255 155 72 49 53 75 47 19 19 24 23 19 24 68 69 52 58 97 208 255 21 1 0 0 0 0 0 0 0 0 0 0 0 0 0 0 0 0 0 0 0 0 0 0 0 0 0 0 0 0 0 0 0 0 0 0 7 134 255 131 66 48 57 74 28 20 35 64 74 45 23 20 54 74 54 53 83 180 255 43 2 0 0 0 0 0 0 0 0 0 0 0 0 0 0 0 0 0 0 0 0 0 0 0 0 0 0 0 0 0 0 0 0 0 0 0 0 0 0 0 0 0 0 0 0 0 0 0 0 0 0 1 14 255 240 106 58 47 59 60 22 20 41 97 222 255 22 1 0 0 0 0 0 0 0 0 0 0 0 0 0 0 0 0 0 0 0 0 0 0 0 0 0 0 0 0 0 0 0 0 0 0 0 0 1 15 255 250 109 44 21 23 65 63 48 56 101 227 255 15 1 0 0 0 0 2 33 255 182 86 53 51 69 59 21 15 16 16 17 39 73 53 48 72 152 255 67 3 0 0 0 0 0 0 0 0 0 0 0 0 2 39 255 186 87 54 52 70 46 19 23 50 123 255 122 6 0 0 0 0
4 12 41 28 22 30 61 145 255 121 6 0 0 0 0 0 0 0 0 0 0 1 26 255 214 98 37 14 7 5 4 3 3 5 9 21 46 68 55 35 24 29 47 20 9 11 13 12 9 10 28 43 27 25 41 92 203 255 30 1 0 0 0 0 1 33 255 206 92 40 24 27 40 31 11 12 28 73 174 255 63 3 0 0 0 1 29 255 223 100 39 15 10 23 51 30 23 34 73 166 255 51 3 0 0 0 0 5 99 255 157 68 34 24 32 55 21 9 14 36 93 210 255 27 1 0 0 0 0 0 9 179 255 126 50 19 10 16 52 32 24 32 63 147 255 77 4 0 0 0 1 20 255 223 100 45 27 28 42 41 13 11 23 39 41 26 13 11 29 44 29 26 42 93 204 255 28 1 0 0 0 2 36 255 190 83 37 23 28 46 37 11 8 9 9 8 11 31 42 28 24 39 84 187 255 38 2 0 0 0 0 0 0 0 0 0 1 0 1 1 1 0 0 0 0 0 0 0 0 0 0 0 0 0 0 0 0 0 0 0 0 0 0 0 0 0 0 0 0 0 0 0 0 0 0 0 0 0 0 0 0 0 0 0 0 0 0 0 0 0 0 1 12 255 255 122 52 29 26 37 31 12 12 20 26 21 13 11 25 43 27 24 40 91 202 255 35 2 0 0 0 0 0 0 0 0 0 9 183 255 132 58 31 25 34 35 12 11 25 66 159 255 65 3 0 0 0 0 0 0 0 0 0 0 0 0 4 71 255 151 62 24 11 13 41 38 26 26 46 108 243 255 18 1 0 0 0 0 0 0 2 27 255 220 255 245 117 107 169 255 50 2 0 0 0 0 0 1 28 255 208 93 41 25 27 43 36 11 7 8 8 8 16 56 38 27 30 55 125 255 160 8 0 0 0 0 0 0 0 0 0 0 0 0 0 0 0 0 0 0 0 0 0 0 0 0 0 0 0 0 0 0 0 0 0 3 61 255 171 76 36 24 30 51 20 10 14 23 25 18 10 13 43 41 28 27 47 109 237 255 18 1 0 0 0 0 0 0 0 0 0 0 0 0 0 0 0 0 0 0 0 0 0 0 0 0 0 0 0 0 0 0 0 0 0 0 0 0 0 0 0 0 0 0 0 0 0 0 0 0 0 6 125 255 144 61 31 24 31 43 14 10 20 52 132 255 208 9 0 0 0 0 0 0 0 0 0 0 0 0 0 0 0 0 0 0 0 0 0 0 0 0 0 0 0 0 0 0 0 0 0 0 0 0 6 126 255 146 59 22 11 16 51 34 24 30 58 136 255 112 6 0 0 0 1 14 255 253 111 48 27 26 37 46 13 6 5 5 9 26 42 27 24 40 91 202 255 32 1 0 0 0 0 0 0 0 0 0 0 1 17 255 246 111 49 28 26 37 32 11 11 25 69 170 255 57 3 0 0 0
2 7 22 14 10 16 36 88 192 255 61 3 0 0 0 0 0 0 0 0 0 10 207 255 131 56 20 7 3 2 1 1 1 2 4 9 18 25 22 16 11 15 27 11 4 4 4 4 3 5 16 22 13 12 23 55 126 255 252 12 1 0 0 1 15 255 255 129 56 23 12 13 20 18 6 6 14 42 106 222 255 31 1 0 1 13 255 255 137 58 21 7 5 14 29 15 11 19 44 105 225 255 23 1 0 0 2 51 255 204 96 40 18 12 17 33 13 5 7 19 54 131 255 240 11 0 0 0 0 4 76 255 167 75 28 9 5 11 36 18 12 17 38 93 199 255 35 2 0 0 8 158 255 139 60 26 13 14 23 30 8 5 9 13 14 10 5 6 17 23 14 13 24 56 128 255 255 12 1 0 1 16 255 255 121 50 20 11 14 25 27 7 3 3 3 3 6 19 21 13 11 21 50 117 250 255 16 1 0 0 0 0 0 0 0 0 0 0 0 0 0 0 0 0 0 0 0 0 0 0 0 0 0 0 0 0 0 0 0 0 0 0 0 0 0 0 0 0 0 0 0 0 0 0 0 0 0 0 0 0 0 0 0 0 0 0 0 0 0 0 0 5 116 255 161 74 31 15 13 18 18 6 5 7 8 7 5 5 14 23 14 12 23 55 126 255 255 15 1 0 0 0 0 0 0 0 4 81 255 173 79 34 16 12 16 20 7 5 13 38 98 210 255 30 1 0 0 0 0 0 0 0 0 0 0 1 32 255 203 93 35 12 5 8 28 20 12 13 27 66 150 255 169 8 0 0 0 0 0 0 10 201 255 216 184 137 92 89 120 236 255 24 1 0 0 0 1 12 251 255 130 56 23 12 13 23 24 6 3 2 2 3 11 43 22 13 16 32 76 169 255 70 3 0 0 0 0 0 0 0 0 0 0 0 0 0 0 0 0 0 0 0 0 0 0 0 0 0 0 0 0 0 0 0 1 32 255 224 105 45 20 12 16 31 12 5 5 8 8 6 4 8 30 22 13 14 27 65 144 255 151 7 0 0 0 0 0 0 0 0 0 0 0 0 0 0 0 0 0 0 0 0 0 0 0 0 0 0 0 0 0 0 0 0 0 0 0 0 0 0 0 0 0 0 0 0 0 0 0 0 3 59 255 190 89 37 16 11 16 26 8 5 10 29 78 175 255 91 4 0 0 0 0 0 0 0 0 0 0 0 0 0 0 0 0 0 0 0 0 0 0 0 0 0 0 0 0 0 0 0 0 0 0 3 58 255 186 87 34 11 5 10 37 19 12 16 35 85 184 255 51 2 0 0 6 129 255 157 68 27 13 12 20 31 8 3 2 2 4 14 21 13 12 23 55 127 255 255 14 1 0 0 0 0 0 0 0 0 0 7 143 255 151 67 28 14 13 18 18 6 5 13 41 107 228 255 28 1 0 0
1 3 9 6 4 8 22 57 122 239 255 32 1 0 0 0 0 0 0 0 4 87 255 171 82 34 11 3 1 1 0 0 0 1 1 3 6 8 8 6 5 7 11 5 2 1 1 1 1 2 7 9 6 6 13 35 80 167 255 107 5 0 0 7 149 255 169 82 36 13 5 5 8 8 3 3 7 25 67 140 255 255 13 1 6 125 255 175 86 36 11 3 3 6 13 7 5 10 28 69 145 255 197 9 0 1 25 255 249 129 61 25 9 5 8 16 7 2 3 10 33 83 172 255 104 5 0 0 2 39 255 215 107 47 16 5 2 6 20 9 5 9 24 61 130 255 255 15 1 3 69 255 180 89 39 14 6 6 11 17 5 2 3 4 4 3 2 3 7 10 6 6 13 36 82 172 255 118 5 1 7 161 255 163 79 32 11 5 6 12 15 4 1 1 1 1 3 8 9 6 5 11 31 75 158 255 131 6 0 0 0 0 0 0 0 0 0 0 0 0 0 0 0 0 0 0 0 0 0 0 0 0 0 0 0 0 0 0 0 0 0 0 0 0 0 0 0 0 0 0 0 0 0 0 0 0 0 0 0 0 0 0 0 0 0 0 0 0 0 0 3 60 255 205 102 48 18 7 5 7 7 3 2 2 2 2 2 2 6 9 6 6 13 35 80 163 255 143 7 0 0 0 0 0 0 2 41 255 217 109 51 20 8 5 7 8 3 2 6 23 63 135 255 255 13 1 0 0 0 0 0 0 0 0 1 13 255 255 132 60 21 6 3 4 15 9 5 6 16 43 95 189 255 77 4 0 0 0 0 4 87 255 192 159 100 77 78 85 90 153 255 214 10 0 0 0 5 107 255 171 83 36 13 6 6 10 12 3 1 1 1 2 7 30 12 6 8 19 50 110 221 255 35 2 0 0 0 0 0 0 0 0 0 0 0 0 0 0 0 0 0 0 0 0 0 0 0 0 0 0 0 0 0 1 15 255 255 143 68 28 11 6 8 14 6 2 2 2 2 2 2 5 16 10 6 7 16 42 91 187 255 68 3 0 0 0 0 0 0 0 0 0 0 0 0 0 0 0 0 0 0 0 0 0 0 0 0 0 0 0 0 0 0 0 0 0 0 0 0 0 0 0 0 0 0 0 0 0 0 1 29 255 234 120 57 23 8 5 7 12 4 2 5 17 49 109 213 255 46 2 0 0 0 0 0 0 0 0 0 0 0 0 0 0 0 0 0 0 0 0 0 0 0 0 0 0 0 0 0 0 0 0 1 29 255 233 117 54 19 6 3 6 22 10 5 8 21 56 119 236 255 23 1 3 61 255 198 100 45 16 6 5 9 16 4 1 1 1 2 6 8 6 6 13 35 81 169 255 150 7 0 0 0 0 0 0 0 0 3 66 255 189 95 43 16 7 5 7 7 3 2 7 25 69 145 255 255 13 1 0
0 1 3 2 2 4 13 40 80 151 255 255 15 1 0 0 0 0 0 2 43 255 212 111 56 22 6 1 0 0 0 0 0 0 0 1 2 3 3 2 2 2 4 2 1 0 0 0 0 1 2 3 2 2 7 23 56 108 205 255 54 3 4 73 255 201 107 56 23 7 2 2 3 2 1 1 4 15 45 90 171 255 115 9 60 255 203 109 57 23 6 2 1 2 4 3 2 5 18 49 96 183 255 84 5 12 253 255 156 83 42 15 5 2 3 6 3 1 2 5 21 57 111 209 255 52 2 1 18 255 255 139 72 32 9 2 1 3 8 4 2 4 15 44 87 166 255 131 8 35 255 223 116 61 26 8 3 2 4 7 2 1 1 1 1 1 1 1 2 3 2 3 7 23 57 111 210 255 60 7 80 255 198 105 55 21 6 2 2 5 6 2 1 0 0 0 1 3 3 2 2 6 20 52 103 194 255 61 3 0 0 0 0 0 0 0 0 0 0 0 0 0 0 0 0 0 0 0 0 0 0 0 0 0 0 0 0 0 0 0 0 0 0 0 0 0 0 0 0 0 0 0 0 0 0 0 0 0 0 0 0 0 0 0 0 0 0 0 0 1 33 255 245 130 68 33 11 3 2 2 2 1 1 1 1 1 1 1 2 3 2 2 7 23 55 104 199 255 68 3 0 0 0 0 1 18 255 255 138 72 35 12 4 2 2 2 1 1 3 14 43 89 175 255 123 6 0 0 0 0 0 0 0 0 5 104 255 167 87 42 13 3 1 2 5 3 2 3 9 29 64 119 224 255 40 2 0 0 2 42 255 218 136 108 60 48 79 102 80 102 181 255 93 4 0 2 54 255 207 110 58 24 7 3 2 4 4 1 0 0 0 1 4 15 6 3 4 11 35 74 143 255 255 15 1 0 0 0 0 0 0 0 0 0 0 0 0 0 0 0 0 0 0 0 0 0 0 0 0 0 0 0 0 7 160 255 175 92 48 18 5 2 3 5 2 1 1 1 1 1 1 2 6 4 2 3 9 28 62 120 225 255 33 1 0 0 0 0 0 0 0 0 0 0 0 0 0 0 0 0 0 0 0 0 0 0 0 0 0 0 0 0 0 0 0 0 0 0 0 0 0 0 0 0 0 0 0 0 1 12 255 255 147 78 40 14 4 2 3 4 2 1 2 10 33 71 134 255 255 23 1 0 0 0 0 0 0 0 0 0 0 0 0 0 0 0 0 0 0 0 0 0 0 0 0 0 0 0 0 0 0 1 12 255 255 149 76 36 11 3 1 3 9 4 2 4 13 39 79 151 255 197 11 31 255 235 126 67 31 9 3 2 4 6 2 1 0 0 1 2 3 2 2 7 23 57 108 204 255 72 3 0 0 0 0 0 0 1 35 255 230 120 63 29 9 3 2 2 2 1 1 4 16 48 94 179 255 129 6 0
0 0 1 1 1 2 8 28 56 95 173 255 135 6 0 0 0 0 1 20 255 255 135 74 41 13 3 1 0 0 0 0 0 0 0 0 1 1 1 1 1 1 1 1 0 0 0 0 0 0 1 1 1 1 4 14 41 73 130 246 255 31 41 255 231 124 71 41 15 4 1 1 1 1 0 1 2 9 31 61 108 203 255 128 255 235 126 71 40 14 3 1 0 1 1 1 1 3 11 37 67 116 214 255 51 122 255 182 97 57 30 9 2 1 1 2 1 0 1 3 13 41 74 132 247 255 27 9 173 255 165 90 51 21 5 1 1 1 2 1 1 2 9 33 62 106 195 255 97 255 255 143 78 45 17 4 1 1 1 2 1 0 0 0 0 0 0 0 1 1 1 1 4 15 43 74 131 240 255 102 255 230 124 71 41 13 3 1 1 1 2 1 0 0 0 0 0 1 1 1 1 3 12 39 70 124 233 255 32 1 0 0 0 0 0 0 0 0 0 0 0 0 0 0 0 0 0 0 0 0 0 0 0 0 0 0 0 0 0 0 0 0 0 0 0 0 0 0 0 0 0 0 0 0 0 0 0 0 0 0 0 0 0 0 0 0 0 0 1 15 255 255 152 84 49 22 6 2 1 1 1 0 0 0 0 0 0 0 1 1 1 1 4 14 40 70 125 230 255 35 2 0 0 0 7 147 255 161 88 52 24 6 2 1 1 1 0 1 2 8 31 63 111 203 255 58 3 0 0 0 0 0 0 2 49 255 199 107 61 30 8 2 1 1 1 1 1 1 5 19 46 78 140 255 255 18 1 1 18 255 254 140 96 75 40 38 113 160 96 77 115 212 255 48 3 29 255 246 130 73 42 15 4 1 1 1 1 1 0 0 0 0 2 5 2 1 2 6 25 54 92 166 255 128 6 0 0 0 0 0 0 0 0 0 0 0 0 0 0 0 0 0 0 0 0 0 0 0 0 0 0 0 4 75 255 201 109 63 35 11 3 1 1 1 1 0 0 0 0 0 0 1 2 1 1 1 5 18 46 79 142 255 255 15 1 0 0 0 0 0 0 0 0 0 0 0 0 0 0 0 0 0 0 0 0 0 0 0 0 0 0 0 0 0 0 0 0 0 0 0 0 0 0 0 0 0 0 0 5 112 255 175 94 55 28 8 2 1 1 1 1 0 1 5 22 49 86 159 255 209 10 0 0 0 0 0 0 0 0 0 0 0 0 0 0 0 0 0 0 0 0 0 0 0 0 0 0 0 0 0 0 5 104 255 174 95 54 24 6 1 1 1 3 2 1 2 7 28 57 98 181 255 130 255 255 147 81 48 21 5 1 1 1 2 1 0 0 0 0 1 1 1 1 4 15 42 72 126 229 255 36 2 0 0 0 0 1 15 255 255 146 79 46 19 5 1 1 1 1 0 1 2 9 34 64 111 203 255 62 3
0 0 0 0 0 1 4 18 41 62 105 194 255 63 3 0 0 0 8 166 255 157 86 53 30 8 2 0 0 0 0 0 0 0 0 0 0 0 0 0 0 0 0 0 0 0 0 0 0 0 0 0 0 0 2 9 31 52 83 153 255 255 255 255 142 78 50 30 9 2 0 0 0 0 0 0 1 5 21 44 71 129 255 255 255 149 79 49 28 8 2 0 0 0 0 0 0 1 7 27 50 76 134 255 255 255 210 111 64 41 20 5 1 0 0 0 0 0 0 2 8 30 52 83 153 255 255 121 255 191 102 61 38 14 3 1 0 0 1 0 0 1 5 23 47 71 123 250 255 255 170 91 56 33 11 2 1 0 0 0 0 0 0 0 0 0 0 0 0 0 0 1 2 9 33 53 82 149 255 255 255 143 78 51 30 8 2 0 0 0 0 0 0 0 0 0 0 0 0 0 0 2 7 29 51 80 146 255 255 15 1 0 0 0 0 0 0 0 0 0 0 0 0 0 0 0 0 0 0 0 0 0 0 0 0 0 0 0 0 0 0 0 0 0 0 0 0 0 0 0 0 0 0 0 0 0 0 0 0 0 0 0 0 0 0 0 0 0 6 133 255 169 93 57 37 14 3 1 0 0 0 0 0 0 0 0 0 0 0 0 0 0 2 8 30 50 79 142 255 255 16 1 0 3 67 255 186 99 59 39 16 4 1 0 0 0 0 0 1 5 22 47 72 125 232 255 27 1 0 0 0 0 1 22 255 239 126 71 45 20 5 1 0 0 0 0 0 1 3 11 34 54 87 161 255 159 8 8 159 255 157 90 71 55 31 51 217 226 175 76 77 133 252 255 43 255 255 152 83 52 32 9 2 1 0 0 0 0 0 0 0 0 1 1 1 0 1 4 17 41 62 103 193 255 60 3 0 0 0 0 0 0 0 0 0 0 0 0 0 0 0 0 0 0 0 0 0 0 0 0 0 2 37 255 223 122 70 46 25 6 1 0 0 0 0 0 0 0 0 0 0 0 0 0 0 1 2 11 35 55 90 169 255 141 7 0 0 0 0 0 0 0 0 0 0 0 0 0 0 0 0 0 0 0 0 0 0 0 0 0 0 0 0 0 0 0 0 0 0 0 0 0 0 0 0 0 0 3 55 255 203 108 63 40 18 4 1 0 0 0 0 0 1 3 13 35 58 98 180 255 88 4 0 0 0 0 0 0 0 0 0 0 0 0 0 0 0 0 0 0 0 0 0 0 0 0 0 0 0 0 2 49 255 200 107 63 40 16 4 1 0 0 1 0 0 1 4 19 43 66 115 229 255 255 174 92 56 35 13 3 1 0 0 0 0 0 0 0 0 0 0 0 0 2 9 32 51 78 140 255 255 17 1 0 0 0 6 134 255 166 91 56 34 12 3 1 0 0 0 0 0 1 6 23 47 71 124 232 255 34
0 0 0 0 0 0 2 11 29 43 65 118 227 255 31 1 0 4 71 255 180 96 57 39 21 5 1 0 0 0 0 0 0 0 0 0 0 0 0 0 0 0 0 0 0 0 0 0 0 0 0 0 0 0 1 5 22 39 55 93 180 255 255 167 86 51 36 20 5 1 0 0 0 0 0 0 1 3 12 32 49 82 152 243 177 95 53 34 18 4 1 0 0 0 0 0 0 1 4 18 37 52 85 169 255 255 132 70 44 29 12 3 1 0 0 0 0 0 0 1 5 19 37 55 92 176 255 255 235 117 65 43 28 8 2 0 0 0 0 0 0 1 3 15 37 50 79 150 255 203 107 60 41 23 6 1 0 0 0 0 0 0 0 0 0 0 0 0 0 0 0 0 1 5 23 38 54 94 179 255 165 88 52 37 20 5 1 0 0 0 0 0 0 0 0 0 0 0 0 0 0 1 4 19 37 54 89 169 255 151 7 0 0 0 0 0 0 0 0 0 0 0 0 0 0 0 0 0 0 0 0 0 0 0 0 0 0 0 0 0 0 0 0 0 0 0 0 0 0 0 0 0 0 0 0 0 0 0 0 0 0 0 0 0 0 0 0 3 64 255 192 101 58 40 27 8 2 0 0 0 0 0 0 0 0 0 0 0 0 0 0 0 1 5 20 37 52 86 164 255 156 7 2 35 255 223 115 63 42 28 9 2 0 0 0 0 0 0 1 3 14 35 49 76 142 255 255 12 1 0 0 0 8 171 255 147 79 50 33 12 3 1 0 0 0 0 0 0 1 6 24 39 57 97 183 255 78 78 255 184 97 62 56 44 35 143 232 217 243 128 62 83 155 255 255 255 174 92 55 38 22 5 1 0 0 0 0 0 0 0 0 0 0 0 0 0 0 2 10 30 44 66 119 229 255 30 1 0 0 0 0 0 0 0 0 0 0 0 0 0 0 0 0 0 0 0 0 0 0 0 1 17 255 255 134 74 47 33 16 4 1 0 0 0 0 0 0 0 0 0 0 0 0 0 0 0 1 6 26 40 59 103 193 255 67 3 0 0 0 0 0 0 0 0 0 0 0 0 0 0 0 0 0 0 0 0 0 0 0 0 0 0 0 0 0 0 0 0 0 0 0 0 0 0 0 0 1 27 255 237 124 68 44 30 11 2 1 0 0 0 0 0 0 2 7 24 41 62 108 206 255 43 2 0 0 0 0 0 0 0 0 0 0 0 0 0 0 0 0 0 0 0 0 0 0 0 0 0 0 1 22 255 237 123 67 43 29 9 2 0 0 0 0 0 0 1 2 12 33 47 75 139 247 211 110 60 40 24 7 2 0 0 0 0 0 0 0 0 0 0 0 0 0 1 5 22 37 51 84 163 255 154 7 0 0 3 63 255 192 100 58 40 23 7 1 0 0 0 0 0 0 1 3 14 34 47 76 142 255 255
0 0 0 0 0 0 1 6 19 30 43 73 142 255 255 13 2 35 255 217 112 61 39 27 12 3 1 0 0 0 0 0 0 0 0 0 0 0 0 0 0 0 0 0 0 0 0 0 0 0 0 0 0 0 1 3 13 27 39 60 110 193 184 103 56 36 25 11 3 1 0 0 0 0 0 0 0 1 7 21 35 54 82 108 89 59 37 23 10 2 0 0 0 0 0 0 0 0 2 10 27 37 57 99 150 132 81 47 31 19 6 1 0 0 0 0 0 0 0 1 3 11 25 38 59 113 221 255 144 74 44 30 17 4 1 0 0 0 0 0 0 0 2 8 27 37 53 85 118 100 66 43 31 14 3 1 0 0 0 0 0 0 0 0 0 0 0 0 0 0 0 0 1 3 14 27 38 59 91 114 86 56 37 26 11 3 1 0 0 0 0 0 0 0 0 0 0 0 0 0 0 0 2 11 26 38 58 103 199 255 74 3 0 0 0 0 0 0 0 0 0 0 0 0 0 0 0 0 0 0 0 0 0 0 0 0 0 0 0 0 0 0 0 0 0 0 0 0 0 0 0 0 0 0 0 0 0 0 0 0 0 0 0 0 0 0 1 34 255 233 119 63 39 28 17 4 1 0 0 0 0 0 0 0 0 0 0 0 0 0 0 0 1 3 12 26 36 55 100 196 255 75 21 255 255 141 73 43 29 18 5 1 0 0 0 0 0 0 0 2 8 24 34 50 88 174 255 113 5 0 0 4 74 255 178 92 52 36 23 7 1 0 0 0 0 0 0 0 1 3 14 28 38 61 114 227 255 255 227 115 63 47 50 45 111 255 189 173 202 251 83 58 98 193 255 220 110 59 38 27 13 3 1 0 0 0 0 0 0 0 0 0 0 0 0 0 0 1 6 20 31 45 75 144 255 255 13 1 0 0 0 0 0 0 0 0 0 0 0 0 0 0 0 0 0 0 0 0 0 0 7 161 255 163 82 47 32 22 9 2 0 0 0 0 0 0 0 0 0 0 0 0 0 0 0 0 1 4 16 28 41 65 118 230 255 35 2 0 0 0 0 0 0 0 0 0 0 0 0 0 0 0 0 0 0 0 0 0 0 0 0 0 0 0 0 0 0 0 0 0 0 0 0 0 0 1 12 255 255 147 77 46 32 19 6 1 0 0 0 0 0 0 0 1 4 15 28 41 68 129 253 255 19 1 0 0 0 0 0 0 0 0 0 0 0 0 0 0 0 0 0 0 0 0 0 0 0 0 0 9 178 255 149 77 45 30 19 5 1 0 0 0 0 0 0 0 1 6 23 35 51 80 112 102 68 42 29 14 4 1 0 0 0 0 0 0 0 0 0 0 0 0 0 1 3 13 25 35 54 99 189 255 68 3 2 32 255 231 119 63 39 29 14 4 1 0 0 0 0 0 0 0 2 7 23 33 49 88 178 255
0 0 0 0 0 0 1 3 10 20 31 52 95 179 255 130 24 255 255 147 77 44 28 17 6 1 0 0 0 0 0 0 0 0 0 0 0 0 0 0 0 0 0 0 0 0 0 0 0 0 0 0 0 0 0 2 7 17 29 44 69 94 91 66 40 26 15 5 1 0 0 0 0 0 0 0 0 1 3 12 25 37 44 49 45 39 27 14 5 1 0 0 0 0 0 0 0 0 1 5 17 28 43 58 70 66 52 34 22 10 3 1 0 0 0 0 0 0 0 0 1 5 15 27 44 76 114 124 88 53 33 20 9 2 0 0 0 0 0 0 0 0 1 4 17 28 39 48 54 51 43 32 21 7 2 0 0 0 0 0 0 0 0 0 0 0 0 0 0 0 0 0 0 2 7 17 28 39 47 51 46 37 27 16 5 1 0 0 0 0 0 0 0 0 0 0 0 0 0 0 0 0 1 5 16 28 42 71 131 242 255 40 2 0 0 0 0 0 0 0 0 0 0 0 0 0 0 0 0 0 0 0 0 0 0 0 0 0 0 0 0 0 0 0 0 0 0 0 0 0 0 0 0 0 0 0 0 0 0 0 0 0 0 0 0 1 16 255 255 156 81 45 28 18 9 2 0 0 0 0 0 0 0 0 0 0 0 0 0 0 0 0 0 1 6 16 26 40 69 129 239 255 255 255 178 95 53 32 20 9 2 1 0 0 0 0 0 0 0 1 4 13 23 37 62 117 218 255 59 3 2 37 255 229 121 65 39 26 13 3 1 0 0 0 0 0 0 0 0 2 7 18 28 44 79 157 255 255 157 81 48 44 63 151 255 254 168 145 168 243 229 65 70 113 156 122 75 43 28 17 6 2 0 0 0 0 0 0 0 0 0 0 0 0 0 0 0 1 3 11 22 33 54 97 183 255 124 6 0 0 0 0 0 0 0 0 0 0 0 0 0 0 0 0 0 0 0 0 0 4 75 255 204 109 58 33 22 12 4 1 0 0 0 0 0 0 0 0 0 0 0 0 0 0 0 0 0 2 8 18 31 46 80 153 255 255 16 1 0 0 0 0 0 0 0 0 0 0 0 0 0 0 0 0 0 0 0 0 0 0 0 0 0 0 0 0 0 0 0 0 0 0 0 0 0 6 118 255 188 99 54 33 22 11 3 1 0 0 0 0 0 0 0 0 2 7 18 29 48 87 167 255 169 8 0 0 0 0 0 0 0 0 0 0 0 0 0 0 0 0 0 0 0 0 0 0 0 0 4 77 255 190 101 55 33 20 10 3 1 0 0 0 0 0 0 0 1 3 14 26 37 47 52 50 44 31 20 7 2 0 0 0 0 0 0 0 0 0 0 0 0 0 0 0 1 6 15 25 39 68 125 234 255 36 16 255 255 154 81 46 28 19 7 2 0 0 0 0 0 0 0 0 1 4 13 22 36 63 119 202
0 0 0 0 0 0 0 1 4 11 24 48 82 136 235 255 255 255 200 117 71 40 20 9 3 1 0 0 0 0 0 0 0 0 0 0 0 0 0 0 0 0 0 0 0 0 0 0 0 0 0 0 0 0 0 1 3 9 21 37 51 51 51 49 34 18 7 2 1 0 0 0 0 0 0 0 0 0 2 6 16 25 25 24 25 26 18 7 2 1 0 0 0 0 0 0 0 0 1 2 9 20 36 39 37 36 37 26 13 5 1 0 0 0 0 0 0 0 0 0 1 2 8 19 39 61 66 67 63 47 26 11 4 1 0 0 0 0 0 0 0 0 0 2 9 19 30 30 27 28 30 23 12 3 1 0 0 0 0 0 0 0 0 0 0 0 0 0 0 0 0 0 0 1 3 9 19 28 26 25 26 26 18 8 2 1 0 0 0 0 0 0 0 0 0 0 0 0 0 0 0 0 1 2 8 20 36 64 104 172 255 255 21 1 0 0 0 0 0 0 0 0 0 0 0 0 0 0 0 0 0 0 0 0 0 0 0 0 0 0 0 0 0 0 0 0 0 0 0 0 0 0 0 0 0 0 0 0 0 0 0 0 0 0 0 7 157 255 199 120 73 40 20 10 4 1 0 0 0 0 0 0 0 0 0 0 0 0 0 0 0 0 0 1 3 8 17 35 63 104 177 255 255 242 136 83 49 25 11 4 1 0 0 0 0 0 0 0 0 0 2 6 15 32 59 97 159 255 255 34 19 255 255 169 102 62 34 17 6 2 0 0 0 0 0 0 0 0 0 1 3 10 20 39 74 122 173 173 122 77 53 83 255 255 255 202 172 157 167 211 255 207 78 76 82 76 63 38 20 9 3 1 0 0 0 0 0 0 0 0 0 0 0 0 0 0 0 0 1 5 13 28 50 85 137 230 255 63 3 0 0 0 0 0 0 0 0 0 0 0 0 0 0 0 0 0 0 0 2 40 255 253 150 91 54 27 14 6 2 0 0 0 0 0 0 0 0 0 0 0 0 0 0 0 0 0 0 1 4 10 23 41 73 119 198 255 163 7 0 0 0 0 0 0 0 0 0 0 0 0 0 0 0 0 0 0 0 0 0 0 0 0 0 0 0 0 0 0 0 0 0 0 0 0 3 59 255 234 140 86 50 26 14 5 1 0 0 0 0 0 0 0 0 0 1 3 10 21 44 78 129 217 255 82 4 0 0 0 0 0 0 0 0 0 0 0 0 0 0 0 0 0 0 0 0 0 0 2 39 255 244 144 87 51 26 11 4 1 0 0 0 0 0 0 0 0 0 2 7 18 28 29 26 26 30 23 11 3 1 0 0 0 0 0 0 0 0 0 0 0 0 0 0 0 1 3 7 17 34 60 102 172 255 255 219 255 200 119 73 42 20 10 3 1 0 0 0 0 0 0 0 0 0 2 6 14 31 59 91 112
0 0 0 0 0 0 0 1 2 6 20 70 120 140 188 255 255 255 168 137 117 51 14 4 1 0 0 0 0 0 0 0 0 0 0 0 0 0 0 0 0 0 0 0 0 0 0 0 0 0 0 0 0 0 0 0 1 4 14 36 48 34 35 47 31 11 3 1 0 0 0 0 0 0 0 0 0 0 1 3 8 14 14 12 13 15 9 3 1 0 0 0 0 0 0 0 0 0 0 1 4 13 31 29 22 22 29 18 7 2 1 0 0 0 0 0 0 0 0 0 0 1 4 13 43 72 50 47 62 58 22 6 2 0 0 0 0 0 0 0 0 0 0 1 4 11 22 18 14 15 20 14 6 2 0 0 0 0 0 0 0 0 0 0 0 0 0 0 0 0 0 0 0 0 1 4 10 18 14 12 15 16 9 4 1 0 0 0 0 0 0 0 0 0 0 0 0 0 0 0 0 0 0 1 4 13 42 105 128 149 212 255 220 10 0 0 0 0 0 0 0 0 0 0 0 0 0 0 0 0 0 0 0 0 0 0 0 0 0 0 0 0 0 0 0 0 0 0 0 0 0 0 0 0 0 0 0 0 0 0 0 0 0 0 4 79 255 240 161 132 114 54 15 5 2 0 0 0 0 0 0 0 0 0 0 0 0 0 0 0 0 0 0 0 1 4 11 41 101 131 157 209 238 178 143 123 72 22 6 2 0 0 0 0 0 0 0 0 0 0 1 3 9 34 97 128 146 201 255 255 255 255 212 152 134 103 37 10 3 1 0 0 0 0 0 0 0 0 0 0 1 5 14 52 124 126 113 113 128 139 179 255 255 255 213 183 210 222 209 207 254 255 255 87 57 64 84 44 14 4 1 0 0 0 0 0 0 0 0 0 0 0 0 0 0 0 0 0 1 2 7 25 76 124 139 179 255 255 36 1 0 0 0 0 0 0 0 0 0 0 0 0 0 0 0 0 0 1 21 255 255 190 142 123 88 26 8 2 1 0 0 0 0 0 0 0 0 0 0 0 0 0 0 0 0 0 0 0 2 5 17 51 119 133 161 239 255 79 4 0 0 0 0 0 0 0 0 0 0 0 0 0 0 0 0 0 0 0 0 0 0 0 0 0 0 0 0 0 0 0 0 0 0 1 30 255 255 180 139 125 76 23 7 2 1 0 0 0 0 0 0 0 0 0 0 1 5 16 62 119 137 173 255 255 47 2 0 0 0 0 0 0 0 0 0 0 0 0 0 0 0 0 0 0 0 0 1 18 255 255 189 143 126 77 23 6 2 1 0 0 0 0 0 0 0 0 0 1 3 9 19 18 14 14 19 14 5 2 0 0 0 0 0 0 0 0 0 0 0 0 0 0 0 0 0 1 3 11 39 91 130 153 224 255 255 255 165 134 113 58 15 5 1 0 0 0 0 0 0 0 0 0 0 1 3 9 34 91 102 80
0 0 0 0 0 0 0 0 1 4 33 255 255 216 173 194 222 182 177 242 255 178 17 2 1 0 0 0 0 0 0 0 0 0 0 0 0 0 0 0 0 0 0 0 0 0 0 0 0 0 0 0 0 0 0 0 1 2 9 42 68 29 30 62 32 7 2 0 0 0 0 0 0 0 0 0 0 0 0 1 3 6 6 5 5 6 4 1 0 0 0 0 0 0 0 0 0 0 0 0 2 7 25 20 13 13 19 10 3 1 0 0 0 0 0 0 0 0 0 0 0 0 2 11 85 176 64 53 121 145 24 4 1 0 0 0 0 0 0 0 0 0 0 0 2 5 11 9 6 7 10 6 2 1 0 0 0 0 0 0 0 0 0 0 0 0 0 0 0 0 0 0 0 0 0 2 4 8 6 5 6 7 4 1 0 0 0 0 0 0 0 0 0 0 0 0 0 0 0 0 0 0 0 0 2 12 114 255 255 180 171 233 255 108 5 0 0 0 0 0 0 0 0 0 0 0 0 0 0 0 0 0 0 0 0 0 0 0 0 0 0 0 0 0 0 0 0 0 0 0 0 0 0 0 0 0 0 0 0 0 0 0 0 2 43 255 255 183 170 228 255 214 20 3 1 0 0 0 0 0 0 0 0 0 0 0 0 0 0 0 0 0 0 0 0 2 11 114 255 255 180 143 142 154 216 255 255 34 4 1 0 0 0 0 0 0 0 0 0 0 0 1 8 84 255 255 190 169 226 255 255 248 175 186 255 255 89 9 2 0 0 0 0 0 0 0 0 0 0 0 1 3 18 196 255 207 110 111 223 255 255 255 255 200 170 194 241 255 248 215 208 255 255 255 81 112 240 100 13 2 1 0 0 0 0 0 0 0 0 0 0 0 0 0 0 0 0 0 0 1 5 42 255 255 211 168 202 255 255 17 1 0 0 0 0 0 0 0 0 0 0 0 0 0 0 0 0 11 255 255 216 167 195 255 255 53 6 1 0 0 0 0 0 0 0 0 0 0 0 0 0 0 0 0 0 0 0 0 1 3 19 168 255 234 171 182 255 255 41 2 0 0 0 0 0 0 0 0 0 0 0 0 0 0 0 0 0 0 0 0 0 0 0 0 0 0 0 0 0 0 0 0 1 15 255 255 201 166 206 255 255 37 5 1 0 0 0 0 0 0 0 0 0 0 0 1 3 23 254 255 220 170 196 255 255 24 1 0 0 0 0 0 0 0 0 0 0 0 0 0 0 0 0 0 0 0 9 194 255 213 170 205 255 255 40 4 1 0 0 0 0 0 0 0 0 0 0 0 1 4 9 9 6 6 9 6 2 1 0 0 0 0 0 0 0 0 0 0 0 0 0 0 0 0 0 0 2 10 98 255 255 185 181 242 255 192 175 234 255 237 21 3 1 0 0 0 0 0 0 0 0 0 0 0 1 8 76 255 219 102
0 0 0 0 0 0 0 0 1 12 228 255 255 255 174 126 121 134 198 255 255 255 84 5 0 0 0 0 0 0 0 0 0 0 0 0 0 0 0 0 0 0 0 0 0 0 0 0 0 0 0 0 0 0 0 0 0 1 9 81 198 41 39 154 43 6 1 0 0 0 0 0 0 0 0 0 0 0 0 0 1 2 2 2 2 2 1 0 0 0 0 0 0 0 0 0 0 0 0 0 1 4 14 11 7 6 9 4 1 0 0 0 0 0 0 0 0 0 0 0 0 0 2 35 255 255 246 196 255 255 82 6 1 0 0 0 0 0 0 0 0 0 0 0 1 2 4 3 2 3 3 2 1 0 0 0 0 0 0 0 0 0 0 0 0 0 0 0 0 0 0 0 0 0 0 1 1 3 2 2 2 2 1 0 0 0 0 0 0 0 0 0 0 0 0 0 0 0 0 0 0 0 0 0 3 54 255 255 255 227 155 160 237 255 58 3 0 0 0 0 0 0 0 0 0 0 0 0 0 0 0 0 0 0 0 0 0 0 0 0 0 0 0 0 0 0 0 0 0 0 0 0 0 0 0 0 0 0 0 0 0 0 1 22 255 255 177 149 202 255 255 255 120 6 0 0 0 0 0 0 0 0 0 0 0 0 0 0 0 0 0 0 0 0 0 3 55 255 255 255 213 119 102 159 253 255 255 222 12 1 0 0 0 0 0 0 0 0 0 0 0 2 41 255 255 255 238 163 160 222 238 169 161 226 255 255 255 39 2 0 0 0 0 0 0 0 0 0 0 0 0 6 99 255 255 255 186 189 255 255 255 206 162 137 148 190 206 212 211 194 166 176 229 255 255 255 255 255 46 3 0 0 0 0 0 0 0 0 0 0 0 0 0 0 0 0 0 0 0 1 16 255 255 255 255 180 150 197 255 170 8 0 0 0 0 0 0 0 0 0 0 0 0 0 0 0 6 121 255 216 154 169 247 255 255 255 24 1 0 0 0 0 0 0 0 0 0 0 0 0 0 0 0 0 0 0 0 0 0 5 89 255 255 255 203 149 175 255 255 20 1 0 0 0 0 0 0 0 0 0 0 0 0 0 0 0 0 0 0 0 0 0 0 0 0 0 0 0 0 0 0 0 7 160 255 203 150 177 255 255 255 238 13 1 0 0 0 0 0 0 0 0 0 0 0 1 8 140 255 255 255 188 150 190 255 255 11 0 0 0 0 0 0 0 0 0 0 0 0 0 0 0 0 0 0 4 89 255 217 155 172 249 255 255 255 15 1 0 0 0 0 0 0 0 0 0 0 0 0 1 3 3 2 2 3 2 1 0 0 0 0 0 0 0 0 0 0 0 0 0 0 0 0 0 0 0 3 49 255 255 255 224 154 138 141 145 201 255 255 255 120 7 1 0 0 0 0 0 0 0 0 0 0 0 2 37 255 255 255 255
0 0 0 0 0 0 0 0 5 102 255 211 185 180 145 84 68 100 162 178 185 223 255 39 2 0 0 0 0 0 0 0 0 0 0 0 0 0 0 0 0 0 0 0 0 0 0 0 0 0 0 0 0 0 0 0 0 2 30 255 255 182 154 255 167 11 1 0 0 0 0 0 0 0 0 0 0 0 0 0 0 1 1 1 1 1 0 0 0 0 0 0 0 0 0 0 0 0 0 0 0 2 5 4 3 2 3 1 1 0 0 0 0 0 0 0 0 0 0 0 0 1 14 255 255 250 255 255 255 248 255 37 2 0 0 0 0 0 0 0 0 0 0 0 0 1 1 1 1 1 1 1 0 0 0 0 0 0 0 0 0 0 0 0 0 0 0 0 0 0 0 0 0 0 0 0 0 1 1 1 1 1 0 0 0 0 0 0 0 0 0 0 0 0 0 0 0 0 0 0 0 0 0 1 24 255 243 192 183 181 135 105 138 239 255 31 1 0 0 0 0 0 0 0 0 0 0 0 0 0 0 0 0 0 0 0 0 0 0 0 0 0 0 0 0 0 0 0 0 0 0 0 0 0 0 0 0 0 0 0 0 0 10 208 255 162 109 120 174 185 188 223 255 58 3 0 0 0 0 0 0 0 0 0 0 0 0 0 0 0 0 0 0 0 1 26 255 245 195 180 170 110 87 147 177 182 210 255 94 5 0 0 0 0 0 0 0 0 0 0 1 17 255 255 197 182 181 143 105 106 110 105 136 176 178 192 255 255 16 1 0 0 0 0 0 0 0 0 0 0 2 48 255 221 185 194 239 237 187 158 134 108 91 91 120 142 139 136 138 137 118 107 132 195 255 255 230 255 255 20 1 0 0 0 0 0 0 0 0 0 0 0 0 0 0 0 0 0 0 6 124 255 209 183 183 159 110 117 190 255 77 4 0 0 0 0 0 0 0 0 0 0 0 0 0 3 57 255 205 125 108 150 184 184 201 255 223 10 0 0 0 0 0 0 0 0 0 0 0 0 0 0 0 0 0 0 0 0 2 42 255 228 185 182 173 120 109 161 255 174 8 0 0 0 0 0 0 0 0 0 0 0 0 0 0 0 0 0 0 0 0 0 0 0 0 0 0 0 0 0 0 4 74 255 197 121 111 158 183 182 204 255 102 5 0 0 0 0 0 0 0 0 0 0 0 3 64 255 212 185 182 163 113 114 182 255 115 5 0 0 0 0 0 0 0 0 0 0 0 0 0 0 0 0 2 43 255 211 128 109 150 180 182 207 255 111 6 0 0 0 0 0 0 0 0 0 0 0 0 0 1 1 1 1 1 1 0 0 0 0 0 0 0 0 0 0 0 0 0 0 0 0 0 0 0 1 24 255 255 203 183 175 122 78 74 106 167 183 187 214 255 54 3 0 0 0 0 0 0 0 0 0 0 1 16 255 255 209 216 255
0 0 0 0 0 0 0 2 51 255 196 120 99 100 96 55 40 69 101 97 99 132 238 255 15 1 0 0 0 0 0 0 0 0 0 0 0 0 0 0 0 0 0 0 0 0 0 0 0 0 0 0 0 0 0 0 1 10 195 255 227 255 255 240 255 68 4 0 0 0 0 0 0 0 0 0 0 0 0 0 0 0 0 0 0 0 0 0 0 0 0 0 0 0 0 0 0 0 0 0 0 1 1 1 1 1 1 0 0 0 0 0 0 0 0 0 0 0 0 0 0 5 108 255 169 151 198 213 162 158 246 255 15 1 0 0 0 0 0 0 0 0 0 0 0 0 0 0 0 0 0 0 0 0 0 0 0 0 0 0 0 0 0 0 0 0 0 0 0 0 0 0 0 0 0 0 0 0 0 0 0 0 0 0 0 0 0 0 0 0 0 0 0 0 0 0 0 0 0 0 0 0 0 9 180 255 145 104 100 110 99 67 75 134 255 255 13 1 0 0 0 0 0 0 0 0 0 0 0 0 0 0 0 0 0 0 0 0 0 0 0 0 0 0 0 0 0 0 0 0 0 0 0 0 0 0 0 0 0 0 0 4 88 255 165 87 65 88 112 103 101 129 222 255 28 1 0 0 0 0 0 0 0 0 0 0 0 0 0 0 0 0 0 0 10 219 255 145 104 98 105 96 82 109 101 98 120 193 255 45 2 0 0 0 0 0 0 0 0 0 6 127 255 152 106 99 107 102 64 48 47 60 96 105 97 104 151 255 113 6 0 0 0 0 0 0 0 0 0 1 23 255 231 130 102 119 169 166 109 78 61 51 47 57 85 89 81 76 78 82 74 60 70 105 154 149 130 158 255 159 8 0 0 0 0 0 0 0 0 0 0 0 0 0 0 0 0 0 3 54 255 182 117 98 104 108 76 67 104 203 255 38 2 0 0 0 0 0 0 0 0 0 0 0 1 26 255 216 111 69 72 106 107 99 111 172 255 94 5 0 0 0 0 0 0 0 0 0 0 0 0 0 0 0 0 0 0 1 17 255 236 134 101 101 110 88 65 87 167 255 77 4 0 0 0 0 0 0 0 0 0 0 0 0 0 0 0 0 0 0 0 0 0 0 0 0 0 0 0 0 2 34 255 205 107 69 77 110 105 98 116 190 255 49 2 0 0 0 0 0 0 0 0 0 1 32 255 213 123 99 102 108 79 66 98 189 255 54 3 0 0 0 0 0 0 0 0 0 0 0 0 0 0 1 18 255 232 117 71 73 104 103 98 117 184 255 50 2 0 0 0 0 0 0 0 0 0 0 0 0 0 0 0 0 0 0 0 0 0 0 0 0 0 0 0 0 0 0 0 0 0 0 0 0 0 10 211 255 152 108 100 104 83 44 40 71 105 100 99 125 218 255 26 1 0 0 0 0 0 0 0 0 0 7 143 255 160 117 124 161
0 0 0 0 0 0 1 25 255 230 113 64 49 51 55 35 25 44 55 49 50 72 139 255 129 6 0 0 0 0 0 0 0 0 0 0 0 0 0 0 0 0 0 0 0 0 0 0 0 0 0 0 0 0 0 0 4 76 255 169 152 222 234 176 211 255 33 1 0 0 0 0 0 0 0 0 0 0 0 0 0 0 0 0 0 0 0 0 0 0 0 0 0 0 0 0 0 0 0 0 0 0 0 0 0 0 0 0 0 0 0 0 0 0 0 0 0 0 0 0 2 49 255 182 100 83 95 98 85 91 147 255 115 6 0 0 0 0 0 0 0 0 0 0 0 0 0 0 0 0 0 0 0 0 0 0 0 0 0 0 0 0 0 0 0 0 0 0 0 0 0 0 0 0 0 0 0 0 0 0 0 0 0 0 0 0 0 0 0 0 0 0 0 0 0 0 0 0 0 0 0 0 4 74 255 157 80 53 50 60 65 42 40 71 150 255 116 6 0 0 0 0 0 0 0 0 0 0 0 0 0 0 0 0 0 0 0 0 0 0 0 0 0 0 0 0 0 0 0 0 0 0 0 0 0 0 0 0 0 0 2 43 255 194 91 46 39 58 63 53 51 69 129 255 255 12 1 0 0 0 0 0 0 0 0 0 0 0 0 0 0 0 0 5 95 255 158 80 53 50 61 83 84 73 54 49 64 113 234 255 21 1 0 0 0 0 0 0 0 3 56 255 169 84 54 49 57 63 37 21 20 33 59 56 49 54 86 172 255 49 2 0 0 0 0 0 0 0 0 10 218 255 137 72 55 67 95 92 59 36 26 22 23 34 54 51 43 39 41 44 42 32 35 50 68 69 68 90 168 255 70 3 0 0 0 0 0 0 0 0 0 0 0 0 0 0 0 1 24 255 214 105 61 49 54 64 50 38 55 116 247 255 17 1 0 0 0 0 0 0 0 0 0 0 10 227 255 124 58 37 46 65 57 50 59 96 193 255 46 2 0 0 0 0 0 0 0 0 0 0 0 0 0 0 0 0 0 7 148 255 138 73 52 52 62 58 39 47 94 202 255 39 2 0 0 0 0 0 0 0 0 0 0 0 0 0 0 0 0 0 0 0 0 0 0 0 0 0 0 1 13 255 249 116 56 38 51 66 55 50 63 112 230 255 24 1 0 0 0 0 0 0 0 1 15 255 255 126 67 50 53 62 51 38 52 105 220 255 25 1 0 0 0 0 0 0 0 0 0 0 0 0 0 7 149 255 135 62 39 46 62 54 50 62 107 223 255 25 1 0 0 0 0 0 0 0 0 0 0 0 0 0 0 0 0 0 0 0 0 0 0 0 0 0 0 0 0 0 0 0 0 0 0 0 4 90 255 161 83 55 50 55 50 25 22 43 57 50 49 68 130 255 226 10 0 0 0 0 0 0 0 0 3 64 255 177 90 62 65 78
0 0 0 0 0 0 10 225 255 141 65 34 24 25 29 21 15 26 28 23 25 40 84 185 255 63 3 0 0 0 0 0 0 0 0 0 0 0 0 0 0 0 0 0 0 0 0 0 0 0 0 0 0 0 0 2 35 255 202 113 96 111 117 114 144 255 255 15 1 0 0 0 0 0 0 0 0 0 0 0 0 0 0 0 0 0 0 0 0 0 0 0 0 0 0 0 0 0 0 0 0 0 0 0 0 0 0 0 0 0 0 0 0 0 0 0 0 0 0 1 23 255 233 113 60 44 43 43 43 52 89 185 255 55 3 0 0 0 0 0 0 0 0 0 0 0 0 0 0 0 0 0 0 0 0 0 0 0 0 0 0 0 0 0 0 0 0 0 0 0 0 0 0 0 0 0 0 0 0 0 0 0 0 0 0 0 0 0 0 0 0 0 0 0 0 0 0 0 0 0 0 2 37 255 205 96 45 27 25 31 40 26 22 38 87 190 255 57 3 0 0 0 0 0 0 0 0 0 0 0 0 0 0 0 0 0 0 0 0 0 0 0 0 0 0 0 0 0 0 0 0 0 0 0 0 0 0 0 0 1 20 255 247 118 51 25 23 36 34 26 25 38 75 165 255 119 6 0 0 0 0 0 0 0 0 0 0 0 0 0 0 0 2 49 255 202 95 45 27 25 38 79 102 54 30 25 34 66 145 255 203 9 0 0 0 0 0 0 1 26 255 223 105 48 27 24 29 35 20 9 9 17 32 29 24 28 49 107 226 255 21 1 0 0 0 0 0 0 4 91 255 172 80 40 29 37 49 47 30 16 10 9 11 19 32 27 22 19 20 22 21 16 16 22 28 30 35 52 103 214 255 35 2 0 0 0 0 0 0 0 0 0 0 0 0 0 0 10 209 255 133 61 32 24 27 35 30 21 30 66 150 255 150 7 0 0 0 0 0 0 0 0 0 5 93 255 164 72 31 20 28 37 29 24 31 54 117 244 255 23 1 0 0 0 0 0 0 0 0 0 0 0 0 0 0 0 3 70 255 181 82 40 26 26 33 36 23 26 53 124 255 255 19 1 0 0 0 0 0 0 0 0 0 0 0 0 0 0 0 0 0 0 0 0 0 0 0 0 0 5 102 255 150 66 30 21 32 37 28 25 34 65 142 255 218 10 0 0 0 0 0 0 0 6 137 255 160 74 37 25 26 33 31 21 28 59 134 255 237 11 0 0 0 0 0 0 0 0 0 0 0 0 3 66 255 177 79 34 21 28 34 27 24 33 63 140 255 242 11 0 0 0 0 0 0 0 0 0 0 0 0 0 0 0 0 0 0 0 0 0 0 0 0 0 0 0 0 0 0 0 0 0 0 2 45 255 202 95 46 27 24 27 27 14 12 23 28 24 24 38 77 167 255 101 5 0 0 0 0 0 0 1 29 255 218 107 51 33 32 35
0 0 0 0 0 5 99 255 180 89 40 18 11 11 13 10 8 13 13 10 12 23 55 122 237 255 32 1 0 0 0 0 0 0 0 0 0 0 0 0 0 0 0 0 0 0 0 0 0 0 0 0 0 0 1 16 255 255 136 81 63 56 60 76 101 173 255 143 7 0 0 0 0 0 0 0 0 0 0 0 0 0 0 0 0 0 0 0 0 0 0 0 0 0 0 0 0 0 0 0 0 0 0 0 0 0 0 0 0 0 0 0 0 0 0 0 0 0 0 10 217 255 151 74 38 23 19 19 21 31 59 122 241 255 28 1 0 0 0 0 0 0 0 0 0 0 0 0 0 0 0 0 0 0 0 0 0 0 0 0 0 0 0 0 0 0 0 0 0 0 0 0 0 0 0 0 0 0 0 0 0 0 0 0 0 0 0 0 0 0 0 0 0 0 0 0 0 0 0 0 1 17 255 255 136 62 27 14 12 16 22 15 12 22 55 123 242 255 29 1 0 0 0 0 0 0 0 0 0 0 0 0 0 0 0 0 0 0 0 0 0 0 0 0 0 0 0 0 0 0 0 0 0 0 0 0 0 0 0 8 166 255 158 74 31 13 12 20 17 12 12 21 47 105 207 255 57 3 0 0 0 0 0 0 0 0 0 0 0 0 0 1 23 255 253 131 61 26 13 13 29 106 161 56 18 12 19 42 93 189 255 91 4 0 0 0 0 0 11 236 255 146 68 29 14 11 14 17 10 4 4 8 15 13 11 14 30 70 148 255 202 9 0 0 0 0 0 2 44 255 212 109 51 23 15 19 24 23 14 7 4 3 4 9 16 13 10 8 8 10 9 7 7 9 11 13 17 32 67 140 255 255 15 1 0 0 0 0 0 0 0 0 0 0 0 0 4 92 255 180 87 38 17 11 13 18 16 11 17 41 95 195 255 71 3 0 0 0 0 0 0 0 2 45 255 209 106 45 18 11 15 19 14 11 16 33 74 157 255 217 10 0 0 0 0 0 0 0 0 0 0 0 0 0 0 2 36 255 231 118 54 23 13 12 17 20 13 14 33 78 164 255 190 8 0 0 0 0 0 0 0 0 0 0 0 0 0 0 0 0 0 0 0 0 0 0 0 0 2 49 255 197 97 41 17 11 18 19 13 12 19 41 90 181 255 95 5 0 0 0 0 0 3 68 255 200 101 47 21 12 12 16 17 11 15 36 85 180 255 102 5 0 0 0 0 0 0 0 0 0 0 1 33 255 227 115 50 20 11 15 17 13 12 18 40 90 183 255 106 5 0 0 0 0 0 0 0 0 0 0 0 0 0 0 0 0 0 0 0 0 0 0 0 0 0 0 0 0 0 0 0 0 1 21 255 255 131 61 27 13 11 12 12 6 6 11 12 11 12 21 49 107 214 255 53 2 0 0 0 0 1 12 240 255 140 67 31 17 15 15
0 0 0 0 2 52 255 220 119 63 27 10 5 4 5 4 3 5 5 4 6 14 40 85 155 255 255 16 1 0 0 0 0 0 0 0 0 0 0 0 0 0 0 0 0 0 0 0 0 0 0 0 0 0 7 157 255 177 99 67 46 31 33 57 80 118 209 255 69 3 0 0 0 0 0 0 0 0 0 0 0 0 0 0 0 0 0 0 0 0 0 0 0 0 0 0 0 0 0 0 0 0 0 0 0 0 0 0 0 0 0 0 0 0 0 0 0 0 5 103 255 192 104 55 25 12 8 8 10 19 44 87 160 255 255 12 1 0 0 0 0 0 0 0 0 0 0 0 0 0 0 0 0 0 0 0 0 0 0 0 0 0 0 0 0 0 0 0 0 0 0 0 0 0 0 0 0 0 0 0 0 0 0 0 0 0 0 0 0 0 0 0 0 0 0 0 0 0 0 0 8 182 255 176 95 46 16 7 5 7 10 7 6 13 39 84 158 255 255 13 1 0 0 0 0 0 0 0 0 0 0 0 0 0 0 0 0 0 0 0 0 0 0 0 0 0 0 0 0 0 0 0 0 0 0 0 0 0 4 72 255 194 105 53 19 7 6 9 7 5 5 12 33 73 135 245 255 28 1 0 0 0 0 0 0 0 0 0 0 0 0 9 202 255 163 89 44 16 7 8 41 223 235 118 16 6 10 29 67 124 225 255 46 2 0 0 0 5 99 255 185 100 50 18 7 5 6 7 4 2 1 3 6 5 5 7 19 52 103 194 255 92 4 0 0 0 1 21 255 255 140 75 36 14 7 8 10 9 6 3 1 1 2 4 6 5 4 3 3 3 3 2 2 3 4 5 8 20 49 95 175 255 135 6 0 0 0 0 0 0 0 0 0 0 0 2 46 255 222 122 63 26 9 5 5 7 7 5 9 28 67 129 236 255 36 2 0 0 0 0 0 1 23 255 255 138 74 31 10 5 6 8 6 5 8 21 53 105 193 255 96 5 0 0 0 0 0 0 0 0 0 0 0 0 1 16 255 255 151 83 39 13 6 5 7 9 6 8 21 56 109 202 255 88 4 0 0 0 0 0 0 0 0 0 0 0 0 0 0 0 0 0 0 0 0 0 0 1 24 255 253 134 69 28 9 5 8 8 6 5 10 28 64 120 220 255 48 2 0 0 0 2 37 255 243 132 71 32 12 5 5 7 7 5 8 24 61 120 217 255 49 2 0 0 0 0 0 0 0 0 1 15 255 255 150 80 36 12 5 6 7 5 5 9 27 65 120 218 255 53 2 0 0 0 0 0 0 0 0 0 0 0 0 0 0 0 0 0 0 0 0 0 0 0 0 0 0 0 0 0 0 0 9 185 255 166 90 44 16 6 4 4 4 3 2 4 4 4 5 12 34 76 141 255 255 27 1 0 0 0 5 109 255 178 95 48 20 8 6 6
0 0 0 1 28 255 255 144 86 51 19 5 2 1 1 1 1 2 1 1 3 8 32 68 106 184 255 168 7 0 0 0 0 0 0 0 0 0 0 0 0 0 0 0 0 0 0 0 0 0 0 0 0 4 74 255 206 121 85 70 40 18 21 50 76 90 138 239 255 35 2 0 0 0 0 0 0 0 0 0 0 0 0 0 0 0 0 0 0 0 0 0 0 0 0 0 0 0 0 0 0 0 0 0 0 0 0 0 0 0 0 0 0 0 0 0 0 2 56 255 225 128 80 48 17 6 3 3 4 12 38 71 109 187 255 118 6 0 0 0 0 0 0 0 0 0 0 0 0 0 0 0 0 0 0 0 0 0 0 0 0 0 0 0 0 0 0 0 0 0 0 0 0 0 0 0 0 0 0 0 0 0 0 0 0 0 0 0 0 0 0 0 0 0 0 0 0 0 0 4 84 255 206 118 74 38 10 3 2 2 3 2 3 8 30 66 107 187 255 128 6 0 0 0 0 0 0 0 0 0 0 0 0 0 0 0 0 0 0 0 0 0 0 0 0 0 0 0 0 0 0 0 0 0 0 0 0 2 36 255 228 129 78 43 13 4 2 3 2 2 2 7 25 58 93 158 255 255 12 1 0 0 0 0 0 0 0 0 0 0 4 86 255 190 109 69 35 10 4 12 153 255 239 255 45 5 6 20 55 88 146 255 255 23 1 0 2 48 255 215 123 77 41 12 3 2 2 2 1 1 1 1 2 2 2 3 12 44 81 130 226 255 46 2 0 0 9 182 255 169 97 60 27 8 3 3 4 3 2 1 0 0 1 1 2 2 1 1 1 1 1 1 1 1 1 2 4 12 41 74 117 206 255 64 3 0 0 0 0 0 0 0 0 0 1 21 255 255 145 88 54 18 5 2 2 2 2 2 5 19 55 91 154 255 255 16 1 0 0 0 0 10 209 255 170 97 59 23 6 2 2 3 2 2 4 14 44 78 126 222 255 49 2 0 0 0 0 0 0 0 0 0 0 0 7 148 255 177 103 66 31 8 3 2 2 3 2 4 14 45 80 131 228 255 44 2 0 0 0 0 0 0 0 0 0 0 0 0 0 0 0 0 0 0 0 0 0 11 253 255 167 97 57 20 5 2 3 3 2 2 5 19 52 86 144 255 255 23 1 0 1 17 255 255 158 92 57 23 6 2 2 2 2 2 4 16 50 86 142 252 255 23 1 0 0 0 0 0 0 0 7 160 255 183 104 64 27 7 2 2 2 2 2 5 19 53 86 142 253 255 26 1 0 0 0 0 0 0 0 0 0 0 0 0 0 0 0 0 0 0 0 0 0 0 0 0 0 0 0 0 0 4 79 255 194 111 69 35 10 3 2 1 1 1 1 1 1 1 2 7 25 61 97 165 255 255 13 1 0 3 58 255 218 121 74 39 12 4 2 2
0 0 1 12 255 255 164 97 71 48 13 3 1 0 0 0 0 0 0 1 1 5 26 62 80 118 206 255 80 4 0 0 0 0 0 0 0 0 0 0 0 0 0 0 0 0 0 0 0 0 0 0 2 37 255 231 132 90 92 105 44 12 15 57 98 84 95 151 255 255 16 1 0 0 0 0 0 0 0 0 0 0 0 0 0 0 0 0 0 0 0 0 0 0 0 0 0 0 0 0 0 0 0 0 0 0 0 0 0 0 0 0 0 0 0 0 1 31 255 255 143 90 72 49 12 3 1 1 2 8 35 68 82 120 211 255 58 3 0 0 0 0 0 0 0 0 0 0 0 0 0 0 0 0 0 0 0 0 0 0 0 0 0 0 0 0 0 0 0 0 0 0 0 0 0 0 0 0 0 0 0 0 0 0 0 0 0 0 0 0 0 0 0 0 0 0 0 0 2 42 255 226 130 85 68 34 7 2 1 1 1 1 1 5 24 59 79 120 209 255 63 3 0 0 0 0 0 0 0 0 0 0 0 0 0 0 0 0 0 0 0 0 0 0 0 0 0 0 0 0 0 0 0 0 0 0 1 17 255 255 147 90 67 38 8 2 1 1 1 1 1 4 18 53 73 105 184 255 124 6 0 0 0 0 0 0 0 0 0 2 42 255 217 123 80 62 29 6 5 63 255 213 202 247 255 17 4 15 52 71 97 166 255 230 10 1 24 255 253 139 88 68 37 8 2 1 1 1 0 0 0 0 0 0 1 2 8 41 72 91 143 255 255 21 1 4 79 255 190 111 76 56 20 4 1 1 1 1 1 0 0 0 0 0 1 0 0 0 0 0 0 0 0 0 0 1 2 8 37 66 85 133 236 255 31 1 0 0 0 0 0 0 0 0 9 215 255 164 98 73 52 13 3 1 1 1 1 1 3 14 52 72 101 172 255 142 7 0 0 0 4 91 255 189 111 77 54 17 3 1 1 1 1 1 2 9 42 66 88 142 255 255 26 1 0 0 0 0 0 0 0 0 0 3 72 255 201 115 78 60 25 5 1 1 1 1 1 2 9 41 67 89 144 255 255 20 1 0 0 0 0 0 0 0 0 0 0 0 0 0 0 0 0 0 0 0 5 107 255 190 110 78 55 15 3 1 1 1 1 1 3 13 50 71 97 163 255 191 9 1 8 170 255 173 103 73 54 17 4 1 1 1 1 1 2 11 47 69 95 160 255 206 9 0 0 0 0 0 0 4 74 255 205 118 80 59 20 4 1 1 1 1 1 3 14 49 70 95 160 255 236 11 0 0 0 0 0 0 0 0 0 0 0 0 0 0 0 0 0 0 0 0 0 0 0 0 0 0 0 0 2 38 255 220 125 81 62 30 6 1 1 0 0 0 0 0 0 0 1 4 19 58 75 107 186 255 127 6 2 32 255 252 141 88 67 34 8 2 1 1
0 0 5 104 255 177 102 71 69 55 10 2 0 0 0 0 0 0 0 0 1 4 22 67 69 79 126 224 255 40 2 0 0 0 0 0 0 0 0 0 0 0 0 0 0 0 0 0 0 0 0 1 16 255 255 143 87 81 150 221 91 12 16 114 180 110 75 96 169 255 142 7 0 0 0 0 0 0 0 0 0 0 0 0 0 0 0 0 0 0 0 0 0 0 0 0 0 0 0 0 0 0 0 0 0 0 0 0 0 0 0 0 0 0 0 1 15 255 255 157 91 71 80 63 10 2 0 0 1 6 38 81 71 81 131 239 255 29 1 0 0 0 0 0 0 0 0 0 0 0 0 0 0 0 0 0 0 0 0 0 0 0 0 0 0 0 0 0 0 0 0 0 0 0 0 0 0 0 0 0 0 0 0 0 0 0 0 0 0 0 0 0 0 0 0 0 0 1 20 255 255 139 84 70 73 34 5 1 0 0 0 0 1 3 20 63 67 80 129 236 255 33 1 0 0 0 0 0 0 0 0 0 0 0 0 0 0 0 0 0 0 0 0 0 0 0 0 0 0 0 0 0 0 0 0 0 7 162 255 170 95 70 67 37 6 1 0 0 0 0 1 2 14 58 66 75 115 206 255 59 3 0 0 0 0 0 0 0 1 18 255 254 137 82 67 66 25 6 31 255 226 163 150 179 255 124 8 12 58 68 71 104 185 255 100 16 235 255 158 91 70 71 36 6 1 0 0 0 0 0 0 0 0 0 0 1 7 45 78 71 91 157 255 201 11 41 255 217 119 77 69 65 16 3 1 0 0 0 0 0 0 0 0 0 0 0 0 0 0 0 0 0 0 0 0 0 1 6 38 73 70 87 147 255 255 13 1 0 0 0 0 0 0 5 104 255 188 104 72 70 62 11 2 0 0 0 0 0 2 11 58 67 72 108 194 255 67 3 0 2 46 255 213 117 77 70 57 13 2 0 0 0 0 0 1 7 45 67 68 91 159 255 246 11 0 0 0 0 0 0 0 0 2 39 255 230 125 78 68 65 21 4 1 0 0 0 0 1 7 41 67 67 91 160 255 171 8 0 0 0 0 0 0 0 0 0 0 0 0 0 0 0 0 0 0 2 50 255 207 117 78 72 63 12 2 0 0 0 0 0 2 10 57 70 71 102 181 255 80 8 81 255 196 107 72 68 63 13 2 0 0 0 0 0 1 9 52 65 70 102 183 255 92 4 0 0 0 0 2 35 255 224 126 80 70 65 16 3 1 0 0 0 0 2 10 52 68 70 101 178 255 96 5 0 0 0 0 0 0 0 0 0 0 0 0 0 0 0 0 0 0 0 0 0 0 0 0 0 0 1 16 255 255 138 83 68 66 28 5 1 0 0 0 0 0 0 0 0 1 3 15 68 68 75 115 205 255 62 18 255 255 155 92 72 74 33 6 1 0 0
0 2 48 255 196 105 65 60 89 88 11 1 0 0 0 0 0 0 0 0 0 3 21 93 74 58 77 135 255 255 19 1 0 0 0 0 0 0 0 0 0 0 0 0 0 0 0 0 0 0 0 7 133 255 160 87 65 112 245 255 255 40 45 255 255 207 82 66 102 187 255 62 3 0 0 0 0 0 0 0 0 0 0 0 0 0 0 0 0 0 0 0 0 0 0 0 0 0 0 0 0 0 0 0 0 0 0 0 0 0 0 0 0 0 0 7 152 255 172 93 62 69 126 139 14 2 0 0 1 6 55 133 80 60 81 145 255 255 13 1 0 0 0 0 0 0 0 0 0 0 0 0 0 0 0 0 0 0 0 0 0 0 0 0 0 0 0 0 0 0 0 0 0 0 0 0 0 0 0 0 0 0 0 0 0 0 0 0 0 0 0 0 0 0 0 0 0 8 180 255 157 84 59 69 101 39 5 1 0 0 0 0 0 3 18 84 68 58 79 143 255 255 15 1 0 0 0 0 0 0 0 0 0 0 0 0 0 0 0 0 0 0 0 0 0 0 0 0 0 0 0 0 0 0 0 4 73 255 189 103 65 63 85 41 6 1 0 0 0 0 0 2 13 82 78 59 73 123 229 255 27 1 0 0 0 0 0 0 7 147 255 154 84 60 69 91 25 17 255 255 151 115 109 124 191 255 60 16 90 84 60 67 110 205 255 255 255 177 96 63 66 94 41 6 1 0 0 0 0 0 0 0 0 0 0 1 7 63 106 66 62 96 181 255 160 255 255 134 75 59 82 107 17 2 0 0 0 0 0 0 0 0 0 0 0 0 0 0 0 0 0 0 0 0 0 0 1 6 49 107 70 61 89 165 255 121 6 0 0 0 0 0 2 55 255 213 114 68 61 89 103 13 1 0 0 0 0 0 1 12 88 78 58 69 119 225 255 35 2 23 255 248 130 74 58 78 77 12 2 0 0 0 0 0 1 8 65 88 62 62 95 175 255 101 5 0 0 0 0 0 0 1 19 255 255 140 78 59 75 89 20 3 0 0 0 0 0 1 7 49 85 59 61 96 179 255 74 4 0 0 0 0 0 0 0 0 0 0 0 0 0 0 0 0 1 23 255 235 124 73 61 83 97 14 2 0 0 0 0 0 1 11 93 92 60 67 110 207 255 119 255 220 118 69 57 84 107 14 2 0 0 0 0 0 1 10 74 77 59 67 112 210 255 46 2 0 0 1 15 255 255 135 77 59 76 92 16 2 0 0 0 0 0 1 10 71 86 60 66 107 200 255 46 2 0 0 0 0 0 0 0 0 0 0 0 0 0 0 0 0 0 0 0 0 0 0 0 0 0 7 135 255 157 85 60 68 90 29 4 1 0 0 0 0 0 0 0 0 0 2 17 112 79 58 72 122 231 255 255 255 168 92 63 70 111 40 5 1 0 0
1 22 255 230 116 62 45 67 176 230 24 2 0 0 0 0 0 0 0 0 0 3 29 169 118 51 48 78 152 255 175 8 0 0 0 0 0 0 0 0 0 0 0 0 0 0 0 0 0 0 3 59 255 179 93 56 67 192 208 205 255 255 255 240 217 233 143 55 61 110 215 255 30 1 0 0 0 0 0 0 0 0 0 0 0 0 0 0 0 0 0 0 0 0 0 0 0 0 0 0 0 0 0 0 0 0 0 0 0 0 0 0 0 0 3 69 255 187 97 56 48 104 239 255 45 3 0 0 1 13 179 218 140 55 51 84 163 255 117 6 0 0 0 0 0 0 0 0 0 0 0 0 0 0 0 0 0 0 0 0 0 0 0 0 0 0 0 0 0 0 0 0 0 0 0 0 0 0 0 0 0 0 0 0 0 0 0 0 0 0 0 0 0 0 0 0 4 77 255 175 91 53 47 96 171 70 7 1 0 0 0 0 0 3 25 157 98 48 50 83 161 255 141 7 0 0 0 0 0 0 0 0 0 0 0 0 0 0 0 0 0 0 0 0 0 0 0 0 0 0 0 0 0 0 2 36 255 212 109 62 48 75 146 68 7 1 0 0 0 0 0 2 22 180 139 59 48 71 135 255 229 11 0 0 0 0 0 3 65 255 175 90 53 50 105 174 48 150 255 164 95 79 77 83 118 223 255 74 215 165 66 46 65 125 255 255 220 105 59 49 87 158 67 7 1 0 0 0 0 0 0 0 0 0 0 1 14 162 179 85 48 59 108 223 255 255 157 79 50 57 154 227 33 3 0 0 0 0 0 0 0 0 0 0 0 0 0 0 0 0 0 0 0 0 0 0 1 10 118 195 105 49 55 97 192 255 61 3 0 0 0 1 27 255 237 124 67 48 70 171 229 29 2 0 0 0 0 0 2 23 204 142 59 47 70 134 255 255 28 210 255 147 76 48 53 124 154 18 2 0 0 0 0 0 1 15 178 169 79 46 57 100 194 255 48 2 0 0 0 0 0 8 183 255 156 81 50 53 121 167 28 3 0 0 0 0 0 1 9 93 150 69 44 58 106 207 255 36 2 0 0 0 0 0 0 0 0 0 0 0 0 0 0 0 9 176 255 140 73 48 58 139 205 26 2 0 0 0 0 0 2 25 235 184 69 47 66 127 255 255 255 131 69 46 59 166 237 31 2 0 0 0 0 0 2 18 179 137 64 47 67 124 240 255 20 1 0 6 130 255 154 78 49 51 119 179 25 2 0 0 0 0 0 2 16 157 159 68 46 64 119 237 255 22 1 0 0 0 0 0 0 0 0 0 0 0 0 0 0 0 0 0 0 0 0 0 0 0 3 60 255 181 92 54 49 99 167 44 5 1 0 0 0 0 0 0 0 0 0 3 32 220 149 57 47 71 141 255 255 202 98 56 49 99 197 85 8 1 0 0
9 180 255 133 64 36 37 133 252 249 103 6 0 0 0 0 0 0 0 0 0 6 74 212 221 67 32 44 83 169 255 75 4 0 0 0 0 0 0 0 0 0 0 0 0 0 0 0 0 1 27 255 208 102 52 40 102 192 138 129 169 255 255 169 141 162 213 69 39 61 124 255 255 12 1 0 0 0 0 0 0 0 0 0 0 0 0 0 0 0 0 0 0 0 0 0 0 0 0 0 0 0 0 0 0 0 0 0 0 0 0 0 0 1 33 255 206 103 53 34 55 212 223 209 255 15 1 0 4 63 255 224 231 81 35 47 90 185 255 56 3 0 0 0 0 0 0 0 0 0 0 0 0 0 0 0 0 0 0 0 0 0 0 0 0 0 0 0 0 0 0 0 0 0 0 0 0 0 0 0 0 0 0 0 0 0 0 0 0 0 0 0 0 0 0 2 37 255 197 97 50 33 53 189 209 255 20 1 0 0 0 0 0 5 65 217 201 57 32 46 88 177 255 63 3 0 0 0 0 0 0 0 0 0 0 0 0 0 0 0 0 0 0 0 0 0 0 0 0 0 0 0 0 1 15 255 248 121 60 36 43 141 217 229 18 1 0 0 0 0 0 5 69 244 248 96 34 40 74 153 255 91 5 0 0 0 1 32 255 206 100 51 34 62 218 236 255 255 191 93 58 52 52 53 69 131 255 255 255 255 131 38 38 70 135 183 114 59 36 49 169 208 221 18 1 0 0 0 0 0 0 0 0 0 0 3 51 255 223 165 48 36 61 123 219 177 90 46 36 92 246 220 129 8 1 0 0 0 0 0 0 0 0 0 0 0 0 0 0 0 0 0 0 0 0 0 2 40 255 231 210 58 35 54 109 220 255 31 1 0 0 11 226 255 133 67 39 41 138 243 224 113 7 0 0 0 0 0 5 78 240 248 102 36 41 73 149 255 255 255 164 80 43 34 75 223 237 48 4 0 0 0 0 0 4 63 255 255 172 45 34 55 110 226 255 23 1 0 0 0 4 79 255 170 84 45 34 74 227 219 76 6 0 0 0 0 0 2 28 255 231 137 40 35 59 119 248 255 16 1 0 0 0 0 0 0 0 0 0 0 0 0 0 4 71 255 158 77 41 34 87 227 221 91 6 0 0 0 0 0 6 96 241 249 140 40 40 74 152 231 149 74 40 36 110 252 224 121 8 0 0 0 0 0 4 63 255 249 117 38 39 67 136 255 175 8 3 60 255 176 85 44 32 67 219 216 65 5 0 0 0 0 0 3 51 255 244 132 38 37 66 137 255 181 9 0 0 0 0 0 0 0 0 0 0 0 0 0 0 0 0 0 0 0 0 0 0 1 27 255 208 102 52 35 57 204 218 162 11 1 0 0 0 0 0 0 0 0 1 7 112 211 246 98 34 41 80 153 189 109 55 34 52 189 216 255 29 2 0 0
89 255 154 70 33 22 53 233 179 172 255 43 2 0 0 0 0 0 0 0 1 24 255 170 196 143 28 23 42 89 190 255 36 2 0 0 0 0 0 0 0 0 0 0 0 0 0 0 0 11 239 255 116 53 28 39 163 123 82 73 98 170 169 103 82 99 156 115 29 32 65 143 255 99 5 0 0 0 0 0 0 0 0 0 0 0 0 0 0 0 0 0 0 0 0 0 0 0 0 0 0 0 0 0 0 0 0 0 0 0 0 0 1 14 255 245 113 52 27 25 102 200 145 147 255 104 5 2 26 255 186 161 181 169 33 25 46 99 209 255 25 1 0 0 0 0 0 0 0 0 0 0 0 0 0 0 0 0 0 0 0 0 0 0 0 0 0 0 0 0 0 0 0 0 0 0 0 0 0 0 0 0 0 0 0 0 0 0 0 0 0 0 0 0 1 15 255 234 108 50 26 25 98 210 188 255 95 6 0 0 0 0 1 23 255 179 214 117 26 24 44 94 199 255 30 1 0 0 0 0 0 0 0 0 0 0 0 0 0 0 0 0 0 0 0 0 0 0 0 0 0 0 0 6 132 255 136 62 31 22 62 225 203 255 84 5 0 0 0 0 1 27 255 180 196 209 39 22 38 82 176 255 41 2 0 1 12 241 248 114 52 27 28 126 215 217 255 226 104 50 32 30 32 31 38 71 156 255 205 194 241 54 23 34 56 69 50 30 24 80 216 192 255 82 5 0 0 0 0 0 0 0 0 0 1 17 255 181 175 214 79 25 31 56 85 73 44 26 39 192 178 165 255 49 3 0 0 0 0 0 0 0 0 0 0 0 0 0 0 0 0 0 0 0 0 1 13 243 210 181 206 108 27 29 56 120 255 255 13 1 4 87 255 146 67 33 23 58 232 177 163 255 44 2 0 0 0 2 30 255 170 193 223 44 23 38 81 186 255 211 91 41 23 32 158 196 177 235 14 1 0 0 0 1 27 255 190 195 239 77 22 28 56 126 255 181 9 0 0 2 37 255 189 89 42 24 32 160 198 176 255 27 1 0 0 0 0 8 131 232 205 241 62 22 30 62 137 255 130 6 0 0 0 0 0 0 0 0 0 0 0 0 1 32 255 184 85 40 23 35 176 181 165 255 36 2 0 0 0 2 37 255 163 174 232 58 24 38 67 89 65 37 23 47 227 178 162 255 47 2 0 0 0 1 25 255 184 203 239 51 23 34 71 157 255 79 34 255 204 95 44 24 28 137 192 163 255 21 1 0 0 0 1 17 255 185 192 237 55 22 34 71 154 255 73 4 0 0 0 0 0 0 0 0 0 0 0 0 0 0 0 0 0 0 0 0 0 10 190 255 115 53 28 27 112 214 195 255 61 3 0 0 0 0 0 0 0 0 2 41 255 159 182 214 40 23 39 63 72 49 28 24 86 201 178 239 188 10 0 0
255 190 80 34 16 18 111 165 109 115 210 255 17 1 0 0 0 0 0 0 7 131 238 131 128 217 45 13 20 43 101 232 255 15 1 0 0 0 0 0 0 0 0 0 0 0 0 0 5 100 255 139 58 25 17 49 153 74 43 37 47 66 67 51 42 54 90 166 33 17 31 73 165 255 44 2 0 0 0 0 0 0 0 0 0 0 0 0 0 0 0 0 0 0 0 0 0 0 0 0 0 0 0 0 0 0 0 0 0 0 0 0 6 126 255 133 55 24 14 31 194 119 82 90 161 255 47 12 199 250 117 94 113 201 52 15 22 48 112 255 185 9 0 0 0 0 0 0 0 0 0 0 0 0 0 0 0 0 0 0 0 0 0 0 0 0 0 0 0 0 0 0 0 0 0 0 0 0 0 0 0 0 0 0 0 0 0 0 0 0 0 0 0 0 6 116 255 126 53 23 13 32 207 140 126 152 255 38 2 0 0 0 8 146 255 142 141 224 38 13 20 45 107 246 253 12 1 0 0 0 0 0 0 0 0 0 0 0 0 0 0 0 0 0 0 0 0 0 0 0 0 0 3 60 255 160 69 29 15 20 126 164 139 161 255 35 2 0 0 0 10 204 245 130 123 195 68 15 18 40 94 215 255 16 1 5 87 255 131 56 25 15 40 216 139 135 145 100 50 24 16 15 15 15 18 34 69 107 108 118 171 110 19 15 20 23 19 14 26 167 148 133 161 255 35 2 0 0 0 0 0 0 0 0 5 97 255 121 109 145 173 26 15 22 29 26 18 16 66 190 111 114 192 255 20 1 0 0 0 0 0 0 0 0 0 0 0 0 0 0 0 0 0 0 0 5 96 255 133 109 129 197 34 15 26 58 137 255 110 7 38 255 168 74 32 16 19 114 161 109 114 199 255 16 1 0 0 10 186 230 123 121 192 85 16 18 39 85 134 94 44 20 14 53 209 127 132 255 88 5 0 0 0 10 216 252 126 116 152 177 25 14 27 62 144 255 70 4 1 16 255 228 100 43 20 14 50 213 128 134 236 146 8 0 0 0 3 49 255 145 133 173 153 21 15 30 68 156 255 56 3 0 0 0 0 0 0 0 0 0 0 1 12 250 235 100 42 19 14 58 193 117 121 218 255 14 1 0 1 13 252 210 111 105 159 118 20 17 25 30 24 16 17 94 182 110 112 196 255 19 1 0 0 9 166 253 130 127 183 104 18 16 34 82 187 255 255 255 110 46 21 13 43 208 124 126 252 114 6 0 0 0 6 105 255 131 120 170 114 19 17 34 79 178 255 32 1 0 0 0 0 0 0 0 0 0 0 0 0 0 0 0 0 0 0 0 4 73 255 134 57 25 15 36 211 140 136 187 255 27 1 0 0 0 0 0 0 1 15 255 199 115 115 193 74 16 16 22 24 19 13 26 163 129 114 146 255 74 4 0
252 105 39 15 9 30 210 93 59 66 119 255 123 6 0 0 0 0 0 3 51 255 135 84 81 143 92 12 9 19 49 125 255 110 6 0 0 0 0 0 0 0 0 0 0 0 0 2 48 255 170 71 27 12 12 64 90 42 21 16 19 23 23 21 19 26 53 133 43 10 14 34 87 207 255 18 1 0 0 0 0 0 0 0 0 0 0 0 0 0 0 0 0 0 0 0 0 0 0 0 0 0 0 0 0 0 0 0 0 0 0 3 58 255 160 66 26 11 9 53 168 72 43 49 90 206 255 152 255 137 64 49 66 120 94 13 10 22 54 135 255 70 4 0 0 0 0 0 0 0 0 0 0 0 0 0 0 0 0 0 0 0 0 0 0 0 0 0 0 0 0 0 0 0 0 0 0 0 0 0 0 0 0 0 0 0 0 0 0 0 0 0 0 3 52 255 156 63 25 10 10 63 183 90 72 95 209 255 15 1 0 3 60 255 144 91 91 167 77 11 9 20 52 132 255 106 5 0 0 0 0 0 0 0 0 0 0 0 0 0 0 0 0 0 0 0 0 0 0 0 0 1 28 255 195 83 32 13 8 32 202 99 80 103 220 247 13 1 0 4 80 255 138 78 71 108 138 17 9 18 45 116 255 108 8 37 255 159 66 26 11 11 71 155 84 66 56 38 21 10 6 6 6 6 8 14 26 39 47 60 95 204 29 7 6 7 6 8 42 192 93 77 104 223 250 13 1 0 0 0 0 0 0 2 39 255 145 73 61 91 202 46 9 8 9 8 7 17 132 108 65 67 113 255 139 7 0 0 0 0 0 0 0 0 0 0 0 0 0 0 0 0 0 0 2 45 255 162 77 59 78 163 57 10 12 27 68 160 255 81 255 216 90 35 14 8 28 196 91 60 66 114 255 106 6 0 4 71 255 128 74 69 107 187 23 9 16 32 45 35 19 9 14 114 132 79 87 158 255 40 2 0 4 83 255 139 72 61 90 204 45 9 12 29 73 174 255 31 8 126 255 124 48 19 9 13 97 132 79 83 132 255 57 3 0 1 18 255 185 91 75 105 232 41 9 13 32 81 194 255 26 1 0 0 0 0 0 0 0 0 0 5 100 255 127 49 19 9 15 118 116 71 74 126 255 97 5 0 5 95 255 121 64 57 90 203 31 8 8 9 8 7 25 206 102 62 66 115 255 134 7 0 3 65 255 137 77 70 102 203 27 8 15 39 104 255 255 146 55 21 9 12 85 142 79 83 141 255 47 2 0 2 43 255 148 80 67 96 208 30 9 15 37 96 232 252 12 1 0 0 0 0 0 0 0 0 0 0 0 0 0 0 0 0 0 2 33 255 171 69 27 11 11 64 166 88 79 113 250 196 10 0 0 0 0 0 0 6 108 255 119 70 66 106 161 19 7 7 7 6 8 43 176 80 64 85 175 255 33 2
101 50 18 7 8 61 163 60 31 34 63 148 255 51 3 0 0 0 1 21 255 188 81 48 47 81 216 23 5 8 23 63 155 255 48 2 0 0 0 0 0 0 0 0 0 0 1 23 255 213 90 34 12 6 12 83 45 21 9 6 7 7 7 7 8 12 30 72 53 9 6 15 43 115 255 133 7 0 0 0 0 0 0 0 0 0 0 0 0 0 0 0 0 0 0 0 0 0 0 0 0 0 0 0 0 0 0 0 0 0 1 28 255 200 84 31 11 5 11 102 91 41 21 24 46 117 255 255 195 75 33 24 34 66 178 22 5 9 25 70 172 255 29 1 0 0 0 0 0 0 0 0 0 0 0 0 0 0 0 0 0 0 0 0 0 0 0 0 0 0 0 0 0 0 0 0 0 0 0 0 0 0 0 0 0 0 0 0 0 0 0 0 1 22 255 200 83 30 11 5 15 161 101 53 38 53 120 255 115 6 1 26 255 186 83 53 53 91 195 19 5 9 25 68 168 255 49 2 0 0 0 0 0 0 0 0 0 0 0 0 0 0 0 0 0 0 0 0 0 0 0 11 221 253 106 40 15 6 7 57 145 62 43 57 123 255 94 5 2 36 255 173 76 43 37 64 195 33 6 8 21 59 149 255 75 255 218 87 31 11 6 16 146 81 45 28 20 13 7 4 2 2 2 2 3 5 9 13 18 28 59 161 54 6 2 2 2 8 73 114 57 42 58 124 255 90 5 0 0 0 0 0 1 14 255 206 84 40 32 55 117 89 9 3 3 3 4 30 199 65 34 36 61 145 255 57 3 0 0 0 0 0 0 0 0 0 0 0 0 0 0 0 0 1 20 255 215 91 41 30 44 88 111 12 5 12 32 86 227 255 255 120 44 16 6 7 49 153 57 31 35 62 149 255 45 4 32 255 172 72 40 36 67 191 45 6 6 11 14 11 7 5 29 228 79 45 51 94 220 255 18 2 36 255 170 74 37 31 53 116 91 10 5 13 35 96 237 252 81 255 153 62 23 8 5 23 194 73 44 46 77 183 255 25 1 6 121 255 107 50 40 64 140 90 10 6 14 39 107 255 193 10 0 0 0 0 0 0 0 0 2 48 255 165 66 23 8 5 29 213 70 39 41 69 157 255 41 4 42 255 159 66 34 30 57 152 55 7 3 3 3 6 50 185 65 33 35 62 145 255 55 4 30 255 179 75 41 36 63 168 51 7 7 18 52 118 141 72 27 9 5 21 205 81 46 49 85 197 255 18 2 16 255 202 85 43 35 61 159 57 8 7 17 48 127 255 94 5 0 0 0 0 0 0 0 0 0 0 0 0 0 0 0 0 1 13 255 233 95 34 12 5 14 135 89 50 42 61 134 255 78 4 0 0 0 0 2 46 255 152 66 39 35 66 202 38 5 2 2 2 8 78 106 49 33 44 97 232 255 13
35 20 8 4 14 172 88 36 16 16 31 82 198 255 22 1 0 0 7 143 255 109 44 26 26 60 195 59 6 4 10 31 84 206 255 22 1 0 0 0 0 0 0 0 0 0 9 203 255 119 45 16 5 3 15 107 27 9 4 2 2 2 2 2 3 5 15 34 62 9 3 7 20 59 150 255 56 3 0 0 0 0 0 0 0 0 0 0 0 0 0 0 0 0 0 0 0 0 0 0 0 0 0 0 0 0 0 0 0 1 11 240 255 111 41 14 5 3 25 213 55 21 10 11 23 65 162 207 104 39 16 11 17 48 175 43 5 4 12 35 97 239 193 10 0 0 0 0 0 0 0 0 0 0 0 0 0 0 0 0 0 0 0 0 0 0 0 0 0 0 0 0 0 0 0 0 0 0 0 0 0 0 0 0 0 0 0 0 0 0 0 0 9 178 255 112 42 14 5 4 40 242 69 29 19 28 65 162 255 55 13 204 255 106 44 28 30 65 217 49 5 4 11 33 91 211 255 21 1 0 0 0 0 0 0 0 0 0 0 0 0 0 0 0 0 0 0 0 0 0 4 85 255 137 53 19 6 3 12 119 76 36 22 30 67 164 255 43 16 255 228 96 39 21 19 44 132 67 7 4 10 29 84 228 255 255 126 45 15 5 4 34 202 54 22 11 7 4 2 1 1 1 1 1 1 2 3 4 7 13 34 85 123 11 1 1 2 15 153 61 31 21 30 67 161 255 39 2 0 0 0 0 5 93 255 117 45 20 16 30 65 202 20 2 1 1 5 54 139 46 18 17 31 80 191 255 24 1 0 0 0 0 0 0 0 0 0 0 0 0 0 0 0 7 147 255 120 47 20 14 23 54 207 26 4 5 15 45 124 248 181 68 22 7 3 9 90 80 34 15 17 32 84 207 255 36 251 240 99 38 20 19 42 106 93 9 3 3 4 3 3 6 65 169 58 26 28 51 124 255 139 23 255 226 94 37 18 15 28 64 210 22 3 6 16 49 134 255 255 218 84 30 10 4 5 48 178 53 24 24 42 108 255 196 13 53 255 148 58 26 20 35 76 225 22 4 6 19 54 137 255 76 4 0 0 0 0 0 0 1 22 255 216 91 33 11 4 7 66 159 52 21 20 35 88 212 255 39 255 216 90 34 17 15 33 79 113 10 1 1 1 10 108 98 41 17 17 32 80 192 255 39 237 248 103 39 20 18 38 89 106 10 3 8 22 44 50 30 12 4 5 54 204 61 26 27 46 113 255 127 13 111 255 115 45 22 18 36 84 136 12 3 8 23 67 164 255 41 2 0 0 0 0 0 0 0 0 0 0 0 0 0 0 0 5 103 255 130 49 16 5 4 31 213 58 26 20 31 72 177 255 37 2 0 0 1 19 255 205 85 34 19 19 45 123 84 7 1 1 2 18 188 61 27 16 22 50 130 255 125
11 7 3 4 46 255 67 21 8 7 15 43 115 255 165 8 1 3 57 255 147 60 23 13 15 44 109 219 16 2 5 14 44 120 255 164 8 0 0 0 0 0 0 0 0 4 88 255 152 62 22 7 2 3 22 123 23 5 2 1 1 1 1 1 1 2 7 19 75 10 2 3 9 30 83 200 255 26 1 0 0 0 0 0 0 0 0 0 0 0 0 0 0 0 0 0 0 0 0 0 0 0 0 0 0 0 0 0 0 5 100 255 142 57 20 6 2 5 64 182 49 12 4 5 11 31 66 79 47 19 7 5 9 36 102 97 8 2 5 17 51 133 255 72 4 0 0 0 0 0 0 0 0 0 0 0 0 0 0 0 0 0 0 0 0 0 0 0 0 0 0 0 0 0 0 0 0 0 0 0 0 0 0 0 0 0 0 0 0 0 0 4 72 255 149 59 20 6 2 9 112 143 53 17 9 14 34 91 213 255 180 255 143 57 23 13 17 48 122 155 11 2 5 16 46 118 255 149 8 0 0 0 0 0 0 0 0 0 0 0 0 0 0 0 0 0 0 0 0 2 38 255 175 74 26 8 3 3 30 229 53 20 11 15 35 94 222 255 204 255 129 50 19 10 10 28 75 206 17 2 4 14 46 130 255 182 73 23 7 3 7 74 133 42 11 4 2 1 1 0 0 0 0 0 0 1 1 1 2 6 19 58 252 31 2 1 3 37 208 48 16 10 15 35 92 223 255 16 1 0 0 2 40 255 161 65 23 10 8 16 53 198 50 4 1 1 10 119 74 30 10 8 15 41 109 255 168 8 0 0 0 0 0 0 0 0 0 0 0 0 0 0 3 62 255 151 63 24 9 6 12 47 168 58 5 2 7 22 58 98 78 34 11 3 2 21 199 49 18 7 7 16 45 121 255 255 255 135 53 19 9 9 24 63 229 23 2 1 1 1 2 15 193 91 40 15 14 26 66 159 255 255 255 130 49 18 8 7 15 53 198 59 5 3 8 25 77 193 254 123 45 14 4 2 10 125 100 38 13 11 22 58 144 255 164 255 204 85 31 13 10 19 59 203 61 5 3 9 27 74 181 255 36 2 0 0 0 0 0 9 183 255 123 47 16 5 3 17 221 90 36 12 9 17 46 123 255 255 255 124 47 17 8 7 18 53 228 27 2 0 2 27 240 61 23 9 8 15 42 112 255 255 255 138 55 20 9 9 20 56 230 26 3 3 8 14 16 10 5 2 13 186 115 47 16 13 24 62 152 255 183 255 157 63 23 10 9 20 59 248 35 3 3 11 34 93 219 255 16 1 0 0 0 0 0 0 0 0 0 0 0 0 0 2 45 255 168 70 24 8 3 6 70 147 46 14 9 15 38 102 235 255 15 1 0 7 148 255 119 45 17 9 10 27 73 252 22 2 1 4 50 219 54 15 8 10 25 71 180 255
3 2 2 11 171 148 58 14 4 3 7 22 62 150 255 70 5 25 255 195 84 32 12 6 9 30 84 255 64 5 2 7 22 65 152 255 65 3 0 0 0 0 0 0 2 43 255 189 83 31 10 3 1 3 30 107 24 3 1 0 0 0 0 0 0 1 3 16 94 13 2 1 4 15 44 116 255 237 11 0 0 0 0 0 0 0 0 0 0 0 0 0 0 0 0 0 0 0 0 0 0 0 0 0 0 0 0 0 2 50 255 180 77 29 9 3 2 19 255 108 42 8 2 2 5 13 24 27 18 8 3 2 6 24 68 255 27 2 2 8 26 75 179 255 32 1 0 0 0 0 0 0 0 0 0 0 0 0 0 0 0 0 0 0 0 0 0 0 0 0 0 0 0 0 0 0 0 0 0 0 0 0 0 0 0 0 0 0 0 0 1 33 255 188 83 30 10 3 3 33 255 88 37 10 4 6 17 49 126 255 255 207 82 30 11 6 10 32 84 255 46 3 2 7 23 62 151 255 61 3 0 0 0 0 0 0 0 0 0 0 0 0 0 0 0 0 0 0 1 16 255 231 100 38 13 4 2 7 92 170 51 12 5 7 18 51 132 255 255 187 73 26 9 4 5 18 68 253 59 4 2 7 24 63 103 80 37 12 3 2 19 233 78 30 7 2 1 0 0 0 0 0 0 0 0 0 0 0 1 3 12 55 173 102 7 1 8 108 135 45 10 5 7 18 50 130 255 135 7 0 1 16 255 222 94 35 12 4 4 10 44 112 156 11 1 2 30 243 54 17 5 4 7 21 59 146 255 66 3 0 0 0 0 0 0 0 0 0 0 0 0 1 30 255 198 84 32 11 4 3 8 38 96 187 14 2 3 10 23 34 29 15 5 2 5 59 198 48 11 3 3 8 24 70 178 255 200 79 28 9 4 5 14 56 202 68 5 1 0 0 4 53 252 70 25 8 6 13 35 93 238 255 190 75 26 8 3 3 9 43 115 250 17 2 4 13 40 84 102 60 23 7 2 3 36 255 71 25 7 5 11 31 82 208 255 255 122 46 16 6 5 12 44 112 232 17 2 4 13 39 105 241 255 15 1 0 0 0 4 74 255 153 65 24 7 2 5 62 255 76 24 7 4 8 24 72 188 255 182 72 25 8 3 3 11 51 175 69 5 1 6 86 184 55 14 4 3 7 22 64 167 255 203 80 29 10 4 4 12 52 184 76 6 1 3 4 5 3 2 4 53 255 85 33 9 6 12 33 90 237 255 248 94 34 11 5 4 13 54 162 109 8 2 5 17 49 126 255 124 6 0 0 0 0 0 0 0 0 0 0 0 0 1 18 255 216 95 36 12 3 2 18 224 84 34 9 4 7 19 54 131 255 109 6 3 63 255 157 65 23 8 4 5 17 66 221 76 5 1 13 210 130 52 10 4 5 13 38 105 236
1 1 3 52 255 99 46 10 2 1 3 11 33 85 196 255 52 221 255 115 45 16 5 3 5 22 68 149 255 21 2 3 11 34 85 192 255 29 1 0 0 0 0 1 19 255 234 107 43 15 5 1 1 4 39 75 23 3 0 0 0 0 0 0 0 0 2 18 120 19 2 1 2 7 23 64 152 255 100 5 0 0 0 0 0 0 0 0 0 0 0 0 0 0 0 0 0 0 0 0 0 0 0 0 0 0 0 1 24 255 227 103 40 14 4 1 6 94 255 91 36 6 1 1 2 5 8 8 6 3 1 1 3 17 70 207 103 7 1 4 13 41 106 246 242 12 1 0 0 0 0 0 0 0 0 0 0 0 0 0 0 0 0 0 0 0 0 0 0 0 0 0 0 0 0 0 0 0 0 0 0 0 0 0 0 0 0 0 0 1 14 255 248 109 44 15 4 2 9 153 194 71 26 6 2 3 8 26 71 157 206 113 45 15 5 3 6 22 69 170 243 14 2 3 11 33 86 197 255 28 1 0 0 0 0 0 0 0 0 0 0 0 0 0 0 0 0 0 6 134 255 134 54 19 6 2 2 32 255 110 46 9 2 3 9 27 76 172 202 105 40 13 4 2 3 14 66 145 255 19 2 3 11 26 37 31 17 5 2 5 69 241 72 21 4 1 0 0 0 0 0 0 0 0 0 0 0 0 0 2 9 49 108 255 35 4 36 255 94 39 7 2 3 9 27 73 168 255 62 3 6 123 255 130 52 18 5 2 2 7 34 82 255 47 3 7 99 176 57 12 3 2 3 10 31 83 189 255 28 1 0 0 0 0 0 0 0 0 0 0 1 12 255 255 117 45 16 5 2 1 6 29 79 255 54 4 1 4 8 11 9 5 2 2 18 255 122 49 8 2 1 4 12 38 87 134 95 43 14 4 2 2 10 50 117 255 21 1 0 1 16 255 145 60 17 4 3 6 18 51 115 159 97 41 13 4 1 2 6 34 92 255 80 5 2 6 17 32 37 25 10 3 1 10 171 182 68 18 4 2 5 16 45 114 212 163 71 25 8 3 2 7 32 85 255 69 5 2 6 20 57 138 255 127 6 0 0 2 34 255 190 84 33 11 3 2 20 255 142 66 18 4 2 4 13 40 90 130 87 39 13 4 1 2 8 46 101 255 19 3 30 255 114 47 9 2 1 3 11 35 83 131 95 43 15 4 2 2 9 46 111 255 25 2 1 1 1 1 1 16 253 157 70 23 6 3 6 17 52 125 201 129 54 18 5 2 2 9 46 102 255 35 3 2 8 26 70 165 255 54 3 0 0 0 0 0 0 0 0 0 0 0 7 136 255 125 51 18 6 2 5 66 247 73 24 5 2 3 9 28 72 168 255 53 33 255 200 89 35 12 4 2 3 13 59 126 255 25 5 67 255 100 48 8 2 2 6 20 54 100
0 1 16 255 173 77 38 7 1 1 1 5 17 47 119 255 255 255 160 66 25 8 2 1 3 15 53 104 255 123 7 2 5 17 46 115 255 239 11 1 0 0 0 7 152 255 137 58 22 7 2 1 1 6 52 48 19 3 0 0 0 0 0 0 0 0 3 26 133 30 3 0 1 3 12 35 86 190 255 49 2 0 0 0 0 0 0 0 0 0 0 0 0 0 0 0 0 0 0 0 0 0 0 0 0 0 0 11 234 255 133 56 21 7 2 2 40 255 157 80 33 5 1 0 1 1 2 2 2 1 0 1 2 15 73 131 255 39 3 2 7 22 60 144 255 93 5 0 0 0 0 0 0 0 0 0 0 0 0 0 0 0 0 0 0 0 0 0 0 0 0 0 0 0 0 0 0 0 0 0 0 0 0 0 0 0 0 0 0 6 129 255 147 61 23 7 2 4 56 255 126 57 18 4 1 1 4 13 36 68 83 54 24 8 2 1 3 16 55 116 255 88 5 2 5 17 48 119 255 255 12 1 0 0 0 0 0 0 0 0 0 0 0 0 0 0 0 3 61 255 176 76 29 9 3 1 10 189 227 97 45 7 1 1 4 14 40 74 82 51 21 6 2 1 2 12 64 108 255 102 6 2 4 9 12 10 6 2 2 24 255 141 70 16 3 0 0 0 0 0 0 0 0 0 0 0 0 0 0 1 7 44 90 215 191 24 210 211 90 36 6 1 1 4 14 40 98 215 255 36 57 255 171 75 29 9 3 1 1 5 28 76 176 255 18 37 255 117 61 10 2 1 1 5 16 46 114 255 223 11 0 0 0 0 0 0 0 0 0 0 5 105 255 151 65 24 8 2 1 1 4 23 76 160 255 18 1 1 2 3 3 2 1 6 108 255 106 52 8 1 1 2 6 18 37 50 40 20 7 2 1 1 8 45 96 255 110 6 1 5 91 255 107 50 12 2 1 3 9 25 49 61 43 20 6 2 1 1 5 28 77 157 255 31 2 2 7 11 12 9 4 1 4 64 255 125 65 14 3 1 2 8 24 55 85 71 37 13 4 1 1 5 24 69 152 255 25 2 3 10 31 78 175 255 59 3 1 14 255 251 113 46 17 5 2 6 99 255 103 58 13 2 1 2 6 19 38 48 37 18 6 2 1 1 7 42 88 255 85 15 175 234 96 43 7 1 1 1 5 17 36 49 40 21 7 2 1 1 7 42 95 248 131 7 1 0 0 1 5 84 255 108 55 17 3 1 3 9 27 57 80 59 28 9 3 1 1 7 40 86 207 177 10 2 4 13 39 97 214 255 24 1 0 0 0 0 0 0 0 0 0 3 60 255 166 71 27 9 3 2 23 255 144 69 18 3 1 1 4 14 39 100 228 255 255 255 119 49 18 6 2 1 2 10 53 97 247 139 38 255 170 86 48 7 1 1 3 9 24 38
0 5 96 255 117 60 31 5 1 0 1 2 8 27 72 164 255 223 100 39 13 4 1 1 2 11 44 75 158 255 52 3 2 8 26 67 155 255 100 5 0 0 3 64 255 168 78 32 11 3 1 0 1 9 91 34 12 2 0 0 0 0 0 0 0 0 4 40 120 58 5 1 0 1 6 18 48 112 234 255 24 1 0 0 0 0 0 0 0 0 0 0 0 0 0 0 0 0 0 0 0 0 0 0 0 0 5 101 255 167 76 31 10 3 2 15 255 233 111 74 33 5 1 0 0 0 1 1 1 0 0 0 2 15 86 106 222 255 14 1 3 11 35 85 184 255 42 2 0 0 0 0 0 0 0 0 0 0 0 0 0 0 0 0 0 0 0 0 0 0 0 0 0 0 0 0 0 0 0 0 0 0 0 0 0 0 0 0 3 65 255 187 86 34 12 3 2 22 255 196 94 49 13 2 1 1 2 6 16 27 30 23 11 3 1 1 2 11 46 84 176 255 39 3 2 8 27 70 159 255 112 5 0 0 0 0 0 0 0 0 0 0 0 0 0 0 1 28 255 216 104 44 15 4 1 4 71 255 143 85 49 7 1 1 2 7 18 28 30 22 10 3 1 0 2 11 69 85 158 255 41 3 2 3 4 3 2 1 8 135 255 109 72 14 2 0 0 0 0 0 0 0 0 0 0 0 0 0 0 1 7 44 75 137 255 255 255 139 87 37 5 1 1 2 7 22 56 129 255 255 255 222 103 43 15 4 1 0 1 4 24 71 126 255 169 255 226 104 78 11 1 0 1 2 8 26 67 154 255 89 4 0 0 0 0 0 0 0 0 2 49 255 185 87 37 13 4 1 0 1 3 20 75 118 255 112 6 1 1 1 1 1 3 49 255 169 98 70 9 1 0 1 3 7 14 17 15 8 3 1 0 1 7 44 81 157 255 47 4 39 255 168 83 47 9 2 1 1 4 11 18 22 17 9 3 1 0 1 4 24 65 110 244 199 11 1 2 3 4 3 1 2 29 255 195 97 68 12 2 1 1 3 11 23 32 28 17 6 2 1 1 3 18 56 108 255 150 8 2 5 16 44 104 220 255 30 7 123 255 149 65 25 8 2 3 40 255 156 78 54 11 2 0 1 3 8 14 17 14 7 3 1 0 1 6 43 83 153 255 182 255 145 80 44 7 1 0 1 2 7 14 17 15 8 3 1 0 1 6 42 82 152 255 52 3 0 0 2 34 255 165 79 46 12 2 1 1 4 12 23 29 24 13 4 1 0 1 6 37 72 132 255 66 4 2 6 21 56 129 255 184 9 0 0 0 0 0 0 0 0 1 29 255 214 100 41 14 4 1 7 131 255 110 68 15 2 1 1 2 7 22 59 143 255 255 167 70 27 9 3 1 0 1 9 53 77 151 255 255 255 118 76 54 7 1 0 1 4 9 13
2 41 255 166 81 50 24 4 1 0 0 1 4 15 41 85 130 105 57 22 7 2 0 0 1 8 36 55 103 214 255 22 2 4 14 39 91 190 255 47 2 1 30 255 206 98 43 17 5 1 0 0 2 23 220 41 8 1 0 0 0 0 0 0 0 1 7 84 106 208 15 1 0 1 3 9 27 63 138 255 211 10 0 0 0 0 0 0 0 0 0 0 0 0 0 0 0 0 0 0 0 0 0 0 0 2 50 255 195 94 42 16 5 2 6 112 255 141 78 75 34 5 1 0 0 0 0 0 0 0 0 0 2 19 119 89 140 255 106 6 2 6 19 49 110 234 255 18 1 0 0 0 0 0 0 0 0 0 0 0 0 0 0 0 0 0 0 0 0 0 0 0 0 0 0 0 0 0 0 0 0 0 0 0 0 0 0 1 34 255 223 109 49 19 6 2 8 153 255 124 67 43 9 2 0 0 1 2 6 9 10 8 4 1 0 0 1 8 39 61 113 237 255 16 2 4 14 40 92 191 255 56 3 0 0 0 0 0 0 0 0 0 0 0 0 1 12 255 255 126 59 24 8 2 2 32 255 190 97 78 63 8 1 0 1 3 7 10 10 8 4 1 0 0 2 13 87 71 105 222 255 15 1 1 1 1 1 3 55 255 152 86 83 14 2 0 0 0 0 0 0 0 0 0 0 0 0 0 0 1 7 47 68 98 222 255 217 103 89 43 5 1 0 1 3 11 31 74 164 255 255 137 60 24 8 2 1 0 0 3 21 72 93 190 255 255 151 99 134 16 2 0 0 1 4 14 39 91 189 255 40 2 0 0 0 0 0 0 1 23 255 228 109 49 20 6 2 0 0 0 3 19 83 90 170 255 51 3 0 0 0 1 21 255 224 114 98 135 14 1 0 0 1 3 5 5 5 3 1 0 0 1 7 48 72 107 221 255 40 255 234 111 65 46 7 1 0 0 1 4 6 7 6 3 1 0 0 0 3 19 57 75 145 255 77 4 1 1 1 1 1 11 232 255 125 77 83 13 2 0 0 1 4 8 11 10 6 2 1 0 0 2 13 47 76 153 255 62 4 2 8 24 59 130 255 255 91 255 181 86 37 13 4 2 14 255 223 105 62 54 9 1 0 0 1 3 5 5 4 3 1 0 0 1 7 52 83 115 255 255 223 100 70 51 7 1 0 0 1 2 4 5 5 3 1 0 0 1 6 45 74 104 207 255 21 1 1 13 249 239 109 58 40 8 1 0 1 2 5 8 10 8 5 2 0 0 1 5 34 64 93 190 255 30 2 3 11 32 74 160 255 75 4 0 0 0 0 0 0 1 12 254 255 128 58 23 7 2 3 53 255 156 85 74 14 2 0 0 1 3 12 35 83 157 173 95 41 15 4 1 0 0 1 9 58 65 106 244 255 171 84 77 74 9 1 0 0 1 3 4
17 255 227 105 56 42 17 3 0 0 0 0 2 7 21 38 50 44 29 12 3 1 0 0 1 5 28 41 64 128 255 164 9 2 7 21 51 110 228 255 21 13 235 255 122 55 23 8 2 1 0 0 5 77 216 104 10 1 0 0 0 0 0 0 0 2 26 255 163 255 69 4 0 0 1 4 14 35 76 162 255 85 4 0 0 0 0 0 0 0 0 0 0 0 0 0 0 0 0 0 0 0 0 0 1 24 255 230 111 52 23 8 2 3 50 255 173 85 58 84 41 5 1 0 0 0 0 0 0 0 0 0 3 32 160 88 91 179 255 49 3 3 10 27 62 138 255 144 7 0 0 0 0 0 0 0 0 0 0 0 0 0 0 0 0 0 0 0 0 0 0 0 0 0 0 0 0 0 0 0 0 0 0 0 0 0 1 14 255 255 128 60 27 10 3 4 63 255 158 76 49 38 7 1 0 0 0 1 2 3 3 3 1 1 0 0 1 6 32 44 69 139 255 117 6 2 7 22 51 109 227 255 29 1 0 0 0 0 0 0 0 0 0 0 0 5 110 255 156 70 32 12 4 2 12 246 252 117 67 82 113 12 1 0 0 1 2 3 3 2 1 0 0 0 2 18 125 72 69 135 255 109 6 1 0 0 1 24 255 206 99 73 108 18 2 0 0 0 0 0 0 0 0 0 0 0 0 0 0 1 7 58 68 70 117 169 116 77 98 66 7 1 0 0 1 5 17 42 90 164 151 79 35 13 4 1 0 0 0 3 21 81 72 116 218 193 105 115 207 35 3 0 0 0 2 7 22 51 111 234 255 16 1 0 0 0 0 0 10 219 255 135 61 27 10 3 1 0 0 0 3 21 101 73 108 221 255 24 1 0 0 8 156 255 134 79 127 234 38 3 0 0 0 1 1 2 1 1 0 0 0 1 8 62 69 72 135 255 255 255 140 70 53 49 7 1 0 0 1 1 2 2 2 1 0 0 0 0 2 14 49 53 89 189 255 36 2 0 0 0 5 91 255 152 78 70 118 17 2 0 0 1 1 3 3 3 2 1 0 0 0 1 9 38 54 96 202 255 29 2 4 12 33 73 160 255 255 240 105 48 20 6 2 6 97 255 134 67 53 60 9 1 0 0 0 1 1 2 1 1 0 0 0 1 9 85 95 87 152 208 126 69 68 76 9 1 0 0 0 1 1 2 1 1 0 0 0 1 7 56 71 70 126 255 157 8 5 96 255 142 69 44 33 6 1 0 0 1 1 3 3 3 2 1 0 0 1 5 31 59 65 120 255 221 11 2 5 17 42 92 195 255 35 2 0 0 0 0 0 5 102 255 154 72 32 12 3 2 22 255 206 101 70 90 15 2 0 0 0 1 6 19 43 66 70 48 23 7 2 1 0 0 1 10 76 64 72 121 151 95 64 100 146 15 1 0 0 0 1 1
161 255 137 64 39 33 11 2 0 0 0 0 1 3 9 15 18 16 12 5 1 0 0 0 1 4 18 29 39 74 160 255 70 4 3 11 27 60 133 255 176 123 255 149 68 30 12 4 1 0 0 2 29 255 162 255 34 2 0 0 0 0 0 0 0 8 145 255 239 186 255 27 1 0 0 2 6 18 41 91 192 255 40 2 0 0 0 0 0 0 0 0 0 0 0 0 0 0 0 0 0 0 0 0 10 220 255 135 61 27 11 4 2 24 255 222 103 52 51 112 67 7 1 0 0 0 0 0 0 0 0 0 6 81 155 106 63 108 224 255 22 2 5 14 35 78 168 255 60 3 0 0 0 0 0 0 0 0 0 0 0 0 0 0 0 0 0 0 0 0 0 0 0 0 0 0 0 0 0 0 0 0 0 0 0 0 6 118 255 148 69 32 13 4 3 28 255 202 95 47 35 31 6 1 0 0 0 0 1 1 1 1 0 0 0 0 1 4 22 31 42 81 173 255 53 3 3 11 27 60 132 255 255 13 1 0 0 0 0 0 0 0 0 0 2 52 255 186 88 39 16 6 2 6 103 255 148 70 53 122 226 29 2 0 0 0 1 1 1 1 0 0 0 0 3 34 168 99 51 81 172 255 47 2 0 0 9 175 255 127 65 76 143 27 3 0 0 0 0 0 0 0 0 0 0 0 0 0 0 1 11 99 84 51 56 68 57 62 123 171 15 1 0 0 1 2 8 22 44 66 63 40 18 6 2 0 0 0 0 3 23 101 60 65 92 87 75 148 173 110 8 1 0 0 1 3 11 28 62 137 255 141 7 0 0 0 0 4 90 255 164 75 33 14 4 1 0 0 0 0 3 28 129 69 68 132 255 206 10 1 3 63 255 162 79 68 173 187 179 10 1 0 0 0 0 0 0 0 0 0 0 1 12 114 78 52 84 186 255 198 87 46 46 59 8 1 0 0 0 0 1 1 0 0 0 0 0 0 2 10 41 38 54 115 246 255 14 1 0 2 42 255 186 89 52 81 166 30 3 0 0 0 0 1 1 1 1 0 0 0 0 1 6 27 37 59 123 255 218 11 2 6 17 40 93 200 255 138 60 26 10 3 3 43 255 173 81 45 53 82 11 1 0 0 0 0 0 0 0 0 0 0 0 2 21 215 139 70 73 85 63 51 88 181 18 1 0 0 0 0 0 0 0 0 0 0 0 1 10 92 78 50 76 163 255 73 51 255 181 85 44 33 24 4 1 0 0 0 0 1 1 1 0 0 0 0 1 4 28 59 47 72 150 255 86 5 3 8 22 51 116 249 255 15 1 0 0 0 2 48 255 184 87 39 17 6 2 8 147 255 125 64 67 124 20 2 0 0 0 1 3 9 19 25 26 20 10 3 1 0 0 0 1 16 138 81 48 54 60 49 62 186 239 41 3 0 0 0 0 0
255 184 82 39 26 23 6 1 0 0 0 0 0 1 3 5 6 5 4 2 1 0 0 0 0 2 9 17 23 43 95 203 255 34 3 5 14 33 75 170 255 255 198 87 38 15 5 2 0 0 1 10 186 252 163 226 213 11 1 0 0 0 0 0 3 64 255 179 187 146 255 198 10 1 0 1 3 8 21 50 113 240 255 17 1 0 0 0 0 0 0 0 0 0 0 0 0 0 0 0 0 0 0 5 99 255 163 75 33 13 5 2 10 207 255 134 60 34 62 173 225 18 1 0 0 0 0 0 0 0 0 2 28 255 145 140 54 64 133 255 162 9 2 7 18 43 98 206 255 27 1 0 0 0 0 0 0 0 0 0 0 0 0 0 0 0 0 0 0 0 0 0 0 0 0 0 0 0 0 0 0 0 0 0 0 3 55 255 178 83 37 16 6 2 12 231 255 122 55 29 23 21 4 1 0 0 0 0 0 0 0 0 0 0 0 0 0 3 12 19 25 47 103 221 255 26 3 5 13 32 73 159 255 125 6 0 0 0 0 0 0 0 0 1 25 255 226 108 49 21 8 3 3 50 255 187 87 45 63 211 208 110 7 0 0 0 0 0 0 0 0 0 0 1 7 93 164 183 52 50 104 221 255 19 1 4 68 255 157 76 49 104 152 51 4 0 0 0 0 0 0 0 0 0 0 0 0 0 0 2 26 228 158 45 26 26 28 64 189 255 56 4 0 0 0 1 3 10 18 24 24 17 8 3 1 0 0 0 0 3 34 135 61 35 37 38 62 156 145 255 40 2 0 0 0 1 5 14 34 79 176 255 66 3 0 0 2 41 255 193 93 41 17 6 2 1 0 0 0 0 4 48 147 84 47 77 164 255 85 6 28 255 202 96 51 75 166 159 255 68 4 0 0 0 0 0 0 0 0 0 0 2 31 239 138 46 52 94 136 98 52 32 47 94 11 1 0 0 0 0 0 0 0 0 0 0 0 0 1 7 30 27 34 67 143 255 105 5 1 19 255 237 111 52 43 133 164 75 6 0 0 0 0 0 0 0 0 0 0 0 0 1 4 16 24 36 71 153 255 91 5 3 8 22 50 90 107 70 33 13 4 2 19 255 230 106 49 34 73 153 18 2 0 0 0 0 0 0 0 0 0 0 0 5 78 249 215 73 35 33 30 49 190 254 59 4 0 0 0 0 0 0 0 0 0 0 0 2 23 215 123 44 47 98 211 255 255 241 109 50 27 21 14 3 0 0 0 0 0 0 0 0 0 0 0 0 0 4 24 63 37 44 88 187 255 40 3 4 11 28 65 146 255 118 6 0 0 1 24 255 230 108 48 21 8 3 4 61 255 159 75 46 85 159 34 3 0 0 0 0 1 3 7 9 9 7 4 1 0 0 0 0 3 41 226 169 41 23 23 28 95 228 193 176 11 1 0 0 0 0
227 110 49 23 15 12 3 1 0 0 0 0 0 0 1 1 2 2 1 1 0 0 0 0 0 1 4 8 12 24 54 120 254 255 14 3 6 17 43 103 222 241 118 50 20 7 2 1 0 0 4 73 255 157 135 158 255 83 4 0 0 0 0 1 32 255 212 125 115 104 156 255 81 4 0 0 1 4 10 27 63 141 255 144 7 0 0 0 0 0 0 0 0 0 0 0 0 0 0 0 0 0 2 49 255 195 92 41 17 6 2 5 91 255 163 76 35 30 135 223 255 82 5 0 0 0 0 0 0 0 0 9 180 247 164 163 61 41 76 162 255 66 4 3 9 23 54 122 255 219 10 0 0 0 0 0 0 0 0 0 0 0 0 0 0 0 0 0 0 0 0 0 0 0 0 0 0 0 0 0 0 0 0 0 1 27 255 220 103 45 19 7 3 6 94 255 153 70 32 16 12 10 2 0 0 0 0 0 0 0 0 0 0 0 0 0 0 1 5 9 13 26 59 131 255 232 11 2 6 16 40 88 183 255 60 3 0 0 0 0 0 0 0 10 201 255 132 59 26 10 3 2 24 255 228 110 51 35 120 195 167 255 44 2 0 0 0 0 0 0 0 0 0 2 34 255 163 210 86 35 60 131 255 134 8 30 255 193 92 46 49 163 138 179 12 1 0 0 0 0 0 0 0 0 0 0 0 0 0 6 109 233 247 72 15 10 19 101 195 191 255 21 1 0 0 0 1 4 7 8 8 6 3 1 0 0 0 0 1 6 79 154 83 22 14 19 57 127 139 217 255 16 1 0 0 1 2 6 18 45 102 212 255 33 1 1 16 255 233 111 51 22 8 3 1 0 0 0 0 1 11 148 140 131 40 45 93 193 255 59 211 255 120 55 38 99 125 132 195 255 30 1 0 0 0 0 0 0 0 0 0 8 135 214 242 70 32 43 53 43 29 25 72 203 23 2 0 0 0 0 0 0 0 0 0 0 0 0 1 4 17 17 20 38 82 175 255 47 10 151 255 140 63 33 55 200 151 255 25 1 0 0 0 0 0 0 0 0 0 0 0 0 2 7 13 20 41 88 190 255 44 3 4 10 23 36 40 31 16 6 2 8 155 255 137 62 30 36 192 221 44 3 0 0 0 0 0 0 0 0 0 0 2 32 255 177 186 104 22 13 18 87 240 188 255 22 1 0 0 0 0 0 0 0 0 0 0 6 89 232 227 62 32 58 129 255 255 147 64 29 15 11 6 1 0 0 0 0 0 0 0 0 0 0 0 0 0 3 22 76 32 27 51 111 237 255 17 2 5 14 36 83 175 255 52 3 1 10 205 255 136 60 26 10 3 2 29 255 203 95 45 42 145 151 85 7 1 0 0 0 0 1 2 3 3 2 1 0 0 0 0 1 12 202 197 250 64 13 10 28 191 164 158 255 66 4 0 0 0 0
95 57 27 12 7 4 1 0 0 0 0 0 0 0 0 0 0 0 0 0 0 0 0 0 0 0 1 3 5 12 29 65 141 255 106 6 3 8 23 54 95 101 60 27 10 3 1 0 0 2 34 255 189 100 97 106 184 255 37 2 0 0 1 14 255 255 126 78 65 68 94 189 255 39 2 0 0 1 5 13 34 77 167 255 63 3 0 0 0 0 0 0 0 0 0 0 0 0 0 0 0 1 22 255 226 109 49 21 8 3 3 46 255 192 90 41 22 54 255 186 182 255 35 2 0 0 0 0 0 0 4 71 255 157 148 143 88 30 42 91 194 255 29 3 4 11 29 67 151 255 90 4 0 0 0 0 0 0 0 0 0 0 0 0 0 0 0 0 0 0 0 0 0 0 0 0 0 0 0 0 0 0 0 0 11 231 255 127 56 24 9 3 3 44 255 183 86 38 17 8 5 4 1 0 0 0 0 0 0 0 0 0 0 0 0 0 0 1 2 3 6 14 32 72 156 255 93 6 3 8 20 46 101 215 255 31 1 0 0 0 0 0 4 82 255 154 71 31 13 4 2 10 194 255 130 60 30 47 227 137 136 217 255 18 1 0 0 0 0 0 0 0 1 13 255 232 165 152 189 37 35 73 158 255 82 252 252 113 51 31 70 179 156 255 63 4 0 0 0 0 0 0 0 0 0 0 0 0 2 47 255 175 181 184 18 6 24 186 141 143 255 143 7 0 0 0 0 1 2 2 2 2 1 0 0 0 0 0 2 27 255 154 148 21 7 12 55 91 112 142 255 130 6 0 0 0 1 3 9 24 55 120 254 255 14 7 120 255 132 59 26 10 4 1 0 0 0 0 0 3 50 255 157 183 50 28 51 110 255 255 255 148 66 32 37 139 91 95 122 252 221 11 1 0 0 0 0 0 0 0 3 54 255 168 189 170 29 18 19 17 14 31 213 214 68 5 0 0 0 0 0 0 0 0 0 0 0 0 0 2 7 8 10 20 45 101 219 255 117 255 163 76 35 26 106 171 164 252 171 8 0 0 0 0 0 0 0 0 0 0 0 0 1 3 5 10 22 48 109 229 255 19 2 4 9 13 14 11 6 3 4 71 255 166 76 35 22 84 255 184 188 12 1 0 0 0 0 0 0 0 0 1 12 255 244 135 123 152 23 7 24 215 161 152 255 165 8 0 0 0 0 0 0 0 0 0 2 37 255 175 199 155 30 33 70 132 141 79 36 15 7 4 2 1 0 0 0 0 0 0 0 0 0 0 0 0 0 3 23 105 33 17 28 61 136 255 127 7 2 7 19 44 99 212 255 23 5 83 255 158 73 32 13 4 2 12 238 255 119 53 29 59 197 145 255 28 2 0 0 0 0 0 1 1 1 1 0 0 0 0 0 4 79 255 168 170 154 16 7 46 202 116 121 189 255 30 1 0 0 0
35 25 13 5 3 1 1 0 0 0 0 0 0 0 0 0 0 0 0 0 0 0 0 0 0 0 0 1 2 6 14 33 76 172 255 49 4 4 11 24 36 37 26 13 4 1 0 0 1 14 255 242 110 60 61 65 107 230 255 14 1 0 6 122 255 143 68 44 35 40 53 107 232 255 16 1 0 1 2 6 16 40 91 198 255 29 1 0 0 0 0 0 0 0 0 0 0 0 0 0 0 8 171 255 124 55 24 10 3 2 20 255 226 106 46 22 23 169 185 129 124 232 255 13 1 0 0 0 0 1 31 255 185 101 107 108 148 30 23 48 109 248 192 10 2 5 14 35 82 181 255 42 2 0 0 0 0 0 0 0 0 0 0 0 0 0 0 0 0 0 0 0 0 0 0 0 0 0 0 0 0 0 0 5 89 255 147 66 28 11 4 2 19 255 222 101 44 19 8 3 2 1 0 0 0 0 0 0 0 0 0 0 0 0 0 0 0 0 1 1 2 6 16 37 83 178 255 41 3 3 9 22 52 120 255 255 13 1 0 0 0 2 40 255 183 82 36 15 6 2 5 77 255 151 68 31 22 94 178 99 94 132 255 140 7 0 0 0 0 0 0 0 5 104 255 148 124 113 211 64 22 39 89 216 255 255 144 61 28 27 128 136 154 182 255 28 1 0 0 0 0 0 0 0 0 0 0 1 21 255 216 127 122 236 44 8 42 181 101 94 155 255 58 3 0 0 0 0 1 1 1 1 0 0 0 0 0 0 8 149 242 169 200 36 5 9 51 61 78 87 169 255 60 3 0 0 0 1 4 11 27 62 140 255 134 63 255 159 70 30 12 4 1 0 0 0 0 0 1 19 255 189 162 158 85 21 27 60 143 255 207 86 36 20 48 148 72 63 71 140 255 87 4 0 0 0 0 0 0 1 24 255 201 125 127 237 51 9 6 6 11 88 252 163 255 23 1 0 0 0 0 0 0 0 0 0 0 0 0 1 2 3 4 10 23 53 127 255 255 217 90 39 20 37 222 123 135 157 255 70 4 0 0 0 0 0 0 0 0 0 0 0 0 1 2 4 10 25 56 126 255 137 7 2 3 4 4 4 2 2 35 255 199 91 40 20 34 255 166 153 255 64 4 0 0 0 0 0 0 0 0 5 107 255 144 88 82 147 30 8 51 215 109 104 159 255 73 4 0 0 0 0 0 0 0 1 14 255 228 134 137 253 57 20 33 51 53 36 18 7 3 1 1 0 0 0 0 0 0 0 0 0 0 0 0 0 0 3 33 141 44 11 14 32 73 161 255 53 4 3 9 22 51 120 255 190 55 255 182 84 37 16 6 2 5 93 255 144 64 29 24 114 153 156 232 169 9 0 0 0 0 0 0 0 0 0 0 0 0 0 2 37 255 184 122 112 237 37 11 82 118 79 82 118 252 250 12 1 0 0
12 9 5 2 1 0 0 0 0 0 0 0 0 0 0 0 0 0 0 0 0 0 0 0 0 0 0 0 1 2 6 16 38 94 210 255 20 2 4 9 12 12 9 5 2 1 0 0 6 127 255 135 58 33 34 36 56 128 255 111 6 3 56 255 168 74 34 22 16 20 27 55 127 255 121 6 0 0 1 2 7 19 45 109 251 214 11 0 0 0 0 0 0 0 0 0 0 0 0 0 4 69 255 148 63 26 11 4 2 8 161 255 123 53 22 13 54 255 115 78 75 132 255 102 5 0 0 0 1 12 245 240 106 59 67 84 172 44 14 24 56 133 255 70 4 2 6 17 41 99 220 255 17 1 0 0 0 0 0 0 0 0 0 0 0 0 0 0 0 0 0 0 0 0 0 0 0 0 0 0 0 0 2 39 255 172 76 32 13 5 2 7 130 255 123 51 21 9 3 1 1 0 0 0 0 0 0 0 0 0 0 0 0 0 0 0 0 0 0 0 1 3 7 17 41 96 216 255 16 2 4 10 25 60 141 255 124 6 0 0 1 18 255 230 101 41 17 7 2 2 34 255 179 80 33 16 30 205 103 65 58 75 156 255 60 3 0 0 0 0 0 2 48 255 171 88 79 81 126 138 22 20 48 121 250 191 81 31 16 38 194 101 112 122 254 220 11 0 0 0 0 0 0 0 0 0 0 8 163 255 126 79 81 134 107 17 81 105 67 58 88 190 255 24 1 0 0 0 0 0 0 0 0 0 0 0 0 3 57 255 147 140 146 75 8 8 42 38 47 49 93 202 255 28 1 0 0 0 2 5 12 30 73 173 255 255 213 88 35 14 5 2 1 0 0 0 0 0 7 135 255 128 122 112 173 26 14 30 67 112 90 44 18 16 77 107 59 39 39 76 174 255 40 2 0 0 0 0 0 9 183 255 119 79 83 142 120 11 3 3 29 255 154 136 252 139 7 0 0 0 0 0 0 0 0 0 0 0 0 0 1 1 2 4 11 27 70 163 222 116 47 19 15 81 186 95 90 97 186 255 31 1 0 0 0 0 0 0 0 0 0 0 0 0 1 2 4 11 27 65 154 255 58 3 1 1 1 1 1 14 255 241 109 46 20 15 91 221 109 112 171 255 25 1 0 0 0 0 0 0 2 49 255 172 80 52 54 92 37 15 122 115 69 64 91 192 255 36 2 0 0 0 0 0 0 5 107 255 132 86 92 159 158 20 14 17 18 13 7 3 1 0 0 0 0 0 0 0 0 0 0 0 0 0 0 0 1 6 64 135 86 11 7 15 36 87 196 255 22 2 4 10 25 62 149 255 255 247 101 41 17 7 2 3 41 255 171 76 32 16 36 210 109 124 146 255 67 3 0 0 0 0 0 0 0 0 0 0 0 1 15 255 232 109 76 78 146 88 27 177 66 48 49 66 139 255 106 5 0 0
3 3 2 1 0 0 0 0 0 0 0 0 0 0 0 0 0 0 0 0 0 0 0 0 0 0 0 0 0 1 2 7 18 47 115 255 122 7 2 3 4 4 3 2 1 0 0 3 60 255 166 70 29 16 16 18 29 68 161 255 53 28 255 203 90 36 16 9 7 8 13 27 66 159 255 53 3 0 0 1 3 8 21 55 135 255 86 4 0 0 0 0 0 0 0 0 0 0 0 1 31 255 184 79 30 12 4 2 4 68 255 151 63 25 11 17 174 153 73 44 42 72 165 255 46 2 0 0 5 96 255 133 56 33 39 66 118 78 12 11 27 72 172 255 29 2 3 7 19 49 121 255 118 6 0 0 0 0 0 0 0 0 0 0 0 0 0 0 0 0 0 0 0 0 0 0 0 0 0 0 0 1 16 255 221 94 37 15 5 2 3 53 255 150 63 25 9 4 1 0 0 0 0 0 0 0 0 0 0 0 0 0 0 0 0 0 0 0 0 0 0 1 3 7 19 48 119 255 101 6 2 4 11 29 72 170 255 57 3 0 7 157 255 128 51 19 7 3 1 13 243 232 99 39 16 11 58 191 70 39 33 40 85 196 255 28 1 0 0 0 1 23 255 214 95 49 45 51 78 216 38 12 24 57 98 80 39 16 12 66 147 80 71 73 141 255 87 4 0 0 0 0 0 0 0 0 3 68 255 151 68 45 47 78 255 65 204 62 39 32 47 107 255 190 9 0 0 0 0 0 0 0 0 0 0 0 1 23 255 186 94 92 94 221 20 7 29 22 24 26 47 111 255 227 11 1 0 0 1 2 5 14 36 97 231 255 123 46 17 6 2 1 0 0 0 0 0 3 57 255 153 79 78 87 195 50 9 13 27 39 33 19 9 20 158 72 44 23 20 39 97 222 255 16 1 0 0 0 4 75 255 145 66 46 49 83 244 29 3 8 110 218 104 96 148 255 57 3 0 0 0 0 0 0 0 0 0 0 0 0 0 0 1 2 5 13 33 67 85 52 22 10 25 231 109 68 55 55 105 241 238 12 1 0 0 0 0 0 0 0 0 0 0 0 0 1 2 5 12 32 84 195 255 25 1 0 0 1 5 95 255 130 54 22 10 29 255 120 68 71 106 250 161 8 0 0 0 0 0 1 21 255 210 94 42 29 32 46 43 43 250 70 39 36 48 106 239 255 15 1 0 0 0 0 2 49 255 163 74 51 56 97 255 44 7 6 5 4 2 1 0 0 0 0 0 0 0 0 0 0 0 0 0 0 0 0 1 16 207 121 230 24 4 7 17 43 110 255 150 8 2 4 11 31 84 211 255 139 53 20 7 3 2 15 255 216 94 37 15 12 71 169 85 83 92 184 255 30 1 0 0 0 0 0 0 0 0 0 0 6 118 255 130 59 43 48 82 255 118 203 53 28 26 35 74 173 255 50 2 0
1 1 1 0 0 0 0 0 0 0 0 0 0 0 0 0 0 0 0 0 0 0 0 0 0 0 0 0 0 0 1 3 8 23 60 146 255 49 3 1 1 1 1 0 0 0 1 30 255 207 90 35 14 7 6 8 14 34 90 214 255 255 255 114 45 17 7 4 3 3 5 12 33 88 204 255 23 1 0 0 1 3 10 27 73 178 255 43 2 0 0 0 0 0 0 0 0 0 1 11 221 244 104 40 14 5 2 2 32 255 192 82 31 11 7 49 255 92 42 23 22 38 93 215 255 20 1 2 44 255 171 72 29 17 22 47 75 184 20 6 13 37 99 242 193 10 1 3 8 24 63 156 255 51 3 0 0 0 0 0 0 0 0 0 0 0 0 0 0 0 0 0 0 0 0 0 0 0 0 0 0 6 130 255 125 48 17 6 2 2 23 255 197 83 31 11 4 1 0 0 0 0 0 0 0 0 0 0 0 0 0 0 0 0 0 0 0 0 0 0 0 0 1 3 8 23 64 157 255 43 3 2 5 13 36 92 205 255 25 5 68 255 158 66 25 9 3 1 5 96 255 130 51 19 8 15 146 106 47 22 16 20 44 111 255 220 11 0 0 0 9 205 255 121 49 25 23 30 56 147 80 11 11 23 34 29 16 8 17 150 87 58 42 42 78 177 255 40 2 0 0 0 0 0 0 1 32 255 190 82 36 24 27 62 211 255 245 59 22 16 24 57 145 255 78 4 0 0 0 0 0 0 0 0 0 0 8 155 255 110 55 55 82 234 68 8 14 10 11 12 23 57 141 255 90 5 0 0 0 1 2 6 17 48 99 116 61 23 8 2 1 0 0 0 0 0 1 26 255 198 87 46 47 69 123 138 13 6 9 12 11 7 7 43 208 66 31 12 10 19 50 124 255 114 6 0 0 2 35 255 185 80 35 24 28 60 171 71 8 36 255 121 65 63 91 195 255 24 1 0 0 0 0 0 0 0 0 0 0 0 0 0 0 1 2 5 13 24 28 20 10 9 67 223 80 44 30 29 55 136 255 89 5 0 0 0 0 0 0 0 0 0 0 0 0 0 1 2 5 15 43 110 255 180 9 1 0 2 40 255 162 68 26 10 10 82 209 79 40 42 61 139 255 65 3 0 0 0 0 8 156 255 118 47 21 14 16 23 62 192 175 56 22 18 24 55 132 255 120 6 0 0 0 1 23 255 215 92 39 27 32 64 151 114 10 2 2 1 1 0 0 0 0 0 0 0 0 0 0 0 0 0 0 0 0 0 4 71 255 161 223 76 6 3 7 21 58 145 255 59 4 2 5 15 42 92 115 67 26 9 3 1 6 100 255 121 47 18 8 19 190 100 63 51 54 107 249 255 12 1 0 0 0 0 0 0 0 0 3 51 255 161 69 31 23 29 69 250 255 155 48 16 12 17 38 95 215 255 22 1
0 0 0 0 0 0 0 0 0 0 0 0 0 0 0 0 0 0 0 0 0 0 0 0 0 0 0 0 0 0 0 1 3 10 30 84 201 255 20 1 0 0 0 0 0 1 13 255 255 117 46 17 6 3 2 3 6 17 48 128 255 255 158 61 22 8 3 1 1 1 2 5 16 46 116 255 184 9 0 0 0 1 4 13 38 102 232 255 20 1 0 0 0 0 0 0 0 0 4 85 255 136 54 19 6 2 1 13 255 250 109 42 15 6 13 169 151 61 24 11 10 19 49 123 255 167 9 21 255 223 97 37 14 8 12 32 68 220 51 6 6 18 53 135 255 70 4 1 4 11 33 89 206 255 22 1 0 0 0 0 0 0 0 0 0 0 0 0 0 0 0 0 0 0 0 0 0 0 0 0 3 60 255 165 68 24 8 3 1 9 183 255 115 43 15 5 2 1 0 0 0 0 0 0 0 0 0 0 0 0 0 0 0 0 0 0 0 0 0 0 0 0 0 1 4 11 33 91 216 255 18 1 2 6 17 46 115 255 204 48 255 196 86 33 12 4 1 2 44 255 173 72 26 9 6 39 254 72 29 12 7 9 22 59 143 255 88 4 0 4 86 255 155 65 25 12 11 17 38 85 226 22 5 8 10 9 6 6 40 232 68 39 23 22 41 101 230 255 18 1 0 0 0 0 1 12 240 249 109 43 18 11 16 51 143 255 176 65 15 8 12 30 81 187 255 36 2 0 0 0 0 0 0 0 0 3 61 255 145 61 32 34 71 137 255 27 6 4 4 5 11 29 76 178 255 42 2 0 0 0 1 3 8 20 37 41 26 10 3 1 0 0 0 0 0 0 10 205 255 115 47 26 28 50 90 255 41 4 3 4 3 3 10 123 138 71 22 7 4 9 25 67 161 255 50 2 1 14 255 240 106 42 17 12 16 40 93 247 33 178 199 80 40 38 52 113 255 182 9 0 0 0 0 0 0 0 0 0 0 0 0 0 0 0 1 2 5 8 9 7 5 20 244 123 58 28 16 15 29 75 173 255 40 2 0 0 0 0 0 0 0 0 0 0 0 0 0 1 2 7 21 59 144 255 70 4 1 16 255 219 93 35 12 6 24 255 112 49 23 23 34 80 190 255 31 1 0 0 3 66 255 153 62 24 9 6 7 23 238 255 119 42 13 8 12 27 71 168 255 55 3 0 0 9 184 255 124 49 20 14 18 39 87 255 30 2 1 0 0 0 0 0 0 0 0 0 0 0 0 0 0 0 0 0 0 1 31 255 171 169 146 255 26 2 3 10 30 82 190 255 24 2 2 7 18 34 40 27 12 4 1 3 43 255 161 66 24 8 6 51 238 77 43 30 30 59 142 255 115 5 0 0 0 0 0 0 0 1 24 255 209 90 35 15 11 18 59 152 217 118 45 11 6 8 18 49 121 255 182 9
0 0 0 0 0 0 0 0 0 0 0 0 0 0 0 0 0 0 0 0 0 0 0 0 0 0 0 0 0 0 0 0 1 5 15 46 119 255 136 7 0 0 0 0 0 6 120 255 147 62 23 8 3 1 1 1 3 8 25 70 149 172 87 32 11 3 1 0 0 0 1 2 7 23 63 153 255 80 4 0 0 1 2 6 19 54 132 255 183 8 0 0 0 0 0 0 0 2 39 255 177 75 28 9 3 1 5 103 255 141 58 21 7 5 51 255 94 37 13 5 4 9 25 67 159 255 94 203 255 129 52 19 7 4 6 23 69 134 205 14 3 9 28 77 178 255 29 2 2 5 16 47 120 255 186 9 0 0 0 0 0 0 0 0 0 0 0 0 0 0 0 0 0 0 0 0 0 0 0 1 30 255 209 93 36 12 4 1 4 78 255 153 63 22 7 2 1 0 0 0 0 0 0 0 0 0 0 0 0 0 0 0 0 0 0 0 0 0 0 0 0 0 0 0 1 5 17 50 127 255 138 7 1 2 8 23 61 151 255 255 255 113 45 16 5 2 1 17 255 222 100 38 13 4 10 128 159 60 19 6 3 4 11 30 79 181 255 41 4 40 255 188 84 33 12 5 5 9 25 70 226 64 6 3 3 3 2 10 133 151 64 26 12 11 21 54 132 255 144 7 0 0 0 0 5 90 255 138 58 22 8 5 10 39 82 122 99 72 13 4 5 15 43 106 237 255 14 1 0 0 0 0 0 0 1 26 255 191 83 34 18 22 57 101 255 166 10 2 1 2 5 14 40 102 227 255 17 1 0 0 0 1 3 7 12 13 9 4 1 0 0 0 0 0 0 4 87 255 148 62 25 13 16 37 79 176 177 11 1 1 1 3 38 255 101 80 18 4 2 4 12 35 92 212 255 23 6 109 255 134 56 21 8 5 8 26 75 255 255 255 119 49 23 21 29 63 148 255 77 4 0 0 0 0 0 0 0 0 0 0 0 0 0 0 0 1 1 2 3 2 6 71 254 88 40 16 7 7 14 39 99 228 255 17 1 0 0 0 0 0 0 0 0 0 0 0 0 0 1 3 10 30 81 187 255 32 7 112 255 127 50 17 6 7 81 226 78 29 13 11 18 45 112 255 255 13 1 1 31 255 196 86 32 11 4 2 7 65 255 192 86 33 8 4 5 13 37 95 210 255 24 1 4 77 255 152 66 25 10 6 9 23 65 186 99 7 1 0 0 0 0 0 0 0 0 0 0 0 0 0 0 0 0 0 1 12 255 251 128 130 118 243 143 8 2 4 15 44 111 255 155 8 1 3 7 11 13 9 4 2 1 17 255 218 94 35 12 4 14 179 137 64 29 16 16 32 79 180 255 55 3 0 0 0 0 0 0 9 186 255 122 48 18 7 5 12 45 76 94 74 43 8 3 3 9 25 64 154 255 90
0 0 0 0 0 0 0 0 0 0 0 0 0 0 0 0 0 0 0 0 0 0 0 0 0 0 0 0 0 0 0 0 1 2 7 24 66 156 255 54 3 0 0 0 3 57 255 178 79 32 11 3 1 0 0 0 1 4 12 34 60 67 41 16 5 1 0 0 0 0 0 1 3 11 33 86 194 255 40 2 0 0 1 3 9 28 71 163 255 81 4 0 0 0 0 0 1 16 255 232 103 40 14 4 1 3 46 255 174 77 30 10 4 17 255 164 66 23 7 2 2 4 12 35 89 209 255 255 166 70 27 9 3 2 4 18 68 103 255 65 5 4 14 42 105 246 205 10 1 2 8 25 66 157 255 80 4 0 0 0 0 0 0 0 0 0 0 0 0 0 0 0 0 0 0 0 0 0 1 13 255 255 120 49 18 6 2 2 37 255 193 86 34 11 3 1 0 0 0 0 0 0 0 0 0 0 0 0 0 0 0 0 0 0 0 0 0 0 0 0 0 0 0 0 1 2 8 26 70 162 255 60 3 1 3 11 32 89 215 255 156 63 23 7 2 1 6 126 255 126 53 20 6 4 42 255 102 46 12 3 1 2 5 15 41 104 230 255 39 255 232 106 44 16 6 2 2 4 17 58 127 255 19 2 1 1 3 43 255 104 57 18 6 5 10 28 72 163 255 63 3 0 0 2 41 255 174 76 30 10 4 2 6 26 40 49 52 80 13 2 2 7 22 56 134 255 110 5 0 0 0 0 0 0 9 182 255 112 45 17 9 14 46 72 150 255 68 4 1 1 2 6 20 54 129 255 124 6 0 0 0 0 1 2 4 4 3 1 0 0 0 0 0 0 2 44 255 188 82 33 12 6 9 27 64 114 255 58 4 0 1 10 169 190 96 100 19 3 1 2 5 18 50 124 255 201 71 255 173 74 29 10 4 2 4 18 66 176 255 213 80 30 13 11 15 34 84 192 255 39 2 0 0 0 0 0 0 0 0 0 0 0 0 0 0 0 0 1 1 2 23 255 138 63 27 9 3 3 7 20 54 133 255 144 7 0 0 0 0 0 0 0 0 0 0 0 0 0 0 1 5 15 43 109 249 255 77 255 163 71 26 8 4 27 255 124 52 17 6 5 9 24 61 144 255 105 6 13 255 254 113 46 16 5 2 2 16 203 151 98 56 24 5 2 2 6 18 50 120 255 186 11 38 255 191 84 34 12 4 3 4 14 45 109 255 33 2 0 0 0 0 0 0 0 0 0 0 0 0 0 0 0 0 0 5 104 255 149 87 88 89 145 255 56 4 2 7 23 61 145 255 60 3 1 2 3 4 3 2 1 7 125 255 127 51 18 6 5 52 255 95 50 19 8 8 16 42 100 215 255 25 1 0 0 0 0 4 76 255 152 66 25 8 3 3 8 29 33 37 40 38 7 1 1 4 12 33 86 201 255
0 0 0 0 0 0 0 0 0 0 0 0 0 0 0 0 0 0 0 0 0 0 0 0 0 0 0 0 0 0 0 0 0 1 3 12 36 89 199 255 21 1 0 1 27 255 214 99 41 15 5 1 0 0 0 0 0 2 5 14 21 23 16 7 2 1 0 0 0 0 0 0 1 5 17 46 110 240 255 18 1 0 0 1 4 14 37 89 196 255 41 2 0 0 0 0 6 119 255 133 56 21 7 2 1 20 255 219 99 40 15 5 6 85 255 107 43 14 3 1 1 2 6 18 49 120 252 213 96 37 13 4 1 1 2 15 73 86 162 255 24 3 7 22 58 140 255 76 4 1 4 12 35 88 193 255 37 2 0 0 0 0 0 0 0 0 0 0 0 0 0 0 0 0 0 0 0 0 6 119 255 148 64 25 9 2 1 14 255 240 110 46 17 5 1 0 0 0 0 0 0 0 0 0 0 0 0 0 0 0 0 0 0 0 0 0 0 0 0 0 0 0 0 0 0 1 4 13 37 92 205 255 29 2 1 5 17 47 98 125 77 33 11 3 1 3 56 255 164 69 27 9 3 14 231 188 78 35 8 2 1 1 2 7 21 55 133 255 255 255 134 56 22 8 2 1 1 2 11 46 93 255 81 5 1 1 12 207 185 86 52 13 3 2 5 14 37 91 203 255 31 1 1 18 255 229 101 40 15 5 2 1 3 13 17 19 29 88 15 2 1 3 10 29 74 173 255 52 2 0 0 0 0 4 70 255 145 61 24 9 5 9 34 50 91 192 255 29 1 0 1 3 10 28 70 162 255 52 3 0 0 0 0 1 1 1 1 0 0 0 0 0 0 1 21 255 235 108 44 16 6 3 5 19 51 80 174 255 21 1 3 55 255 121 95 136 25 3 1 1 2 9 26 68 159 255 255 235 100 39 14 5 2 1 3 13 56 101 154 108 50 18 6 5 7 17 45 111 243 255 18 1 0 0 0 0 0 0 0 0 0 0 0 0 0 0 0 0 1 7 116 247 94 42 17 5 1 1 3 10 28 73 165 255 64 3 0 0 0 0 0 0 0 0 0 0 0 0 0 1 2 7 22 60 145 255 255 237 96 38 13 4 8 123 231 86 33 10 3 2 4 12 32 78 174 255 57 117 255 143 61 24 8 2 1 4 59 253 90 48 32 15 3 1 1 3 9 25 64 150 255 125 255 243 110 44 17 6 2 1 2 8 31 82 211 163 9 1 0 0 0 0 0 0 0 0 0 0 0 0 0 0 0 2 47 255 177 86 56 56 63 93 195 255 23 2 3 11 33 84 191 255 25 1 1 1 1 1 1 3 53 255 162 70 27 9 3 16 246 160 72 38 12 4 3 8 21 52 122 255 219 10 0 0 0 2 36 255 189 84 34 12 4 1 1 4 14 13 14 20 28 5 1 1 2 5 17 47 118 255
0 0 0 0 0 0 0 0 0 0 0 0 0 0 0 0 0 0 0 0 0 0 0 0 0 0 0 0 0 0 0 0 0 0 2 6 18 48 116 255 134 7 1 10 204 255 123 52 20 7 2 1 0 0 0 0 0 1 2 5 7 7 5 3 1 0 0 0 0 0 0 0 1 2 8 23 59 136 255 157 7 0 0 0 2 6 18 47 111 242 255 19 1 0 0 3 53 255 168 73 29 10 3 1 8 154 255 128 53 20 7 4 35 255 159 70 28 8 2 0 0 1 3 9 25 60 104 92 49 19 6 2 1 0 2 15 87 72 108 255 132 8 4 11 31 81 181 255 33 2 2 6 18 47 110 239 255 15 1 0 0 0 0 0 0 0 0 0 0 0 0 0 0 0 0 0 0 3 54 255 178 81 33 12 4 1 6 101 255 135 59 23 8 2 1 0 0 0 0 0 0 0 0 0 0 0 0 0 0 0 0 0 0 0 0 0 0 0 0 0 0 0 0 0 0 0 2 6 19 49 119 255 247 12 1 2 8 22 39 46 33 15 5 2 2 25 255 209 95 37 14 4 6 81 255 120 57 25 5 1 0 0 1 3 10 29 77 188 255 189 77 29 10 3 1 0 0 1 8 35 68 143 255 29 2 4 66 255 117 67 49 10 2 1 2 6 19 49 118 255 255 14 8 156 255 134 55 21 7 2 1 1 2 5 6 8 21 94 17 2 1 1 5 14 40 100 219 255 25 1 0 0 1 31 255 187 83 33 12 4 2 5 21 33 52 113 253 197 10 1 0 1 4 14 37 93 207 255 22 1 0 0 0 0 0 0 0 0 0 0 0 0 0 8 164 255 134 58 23 8 3 1 3 12 38 55 111 255 123 8 20 255 178 90 109 155 42 4 0 0 1 4 13 36 93 216 255 136 56 20 7 2 1 0 2 10 43 51 60 47 27 10 3 2 3 8 24 60 139 255 152 7 0 0 0 0 0 0 0 0 0 0 0 0 0 0 0 0 2 44 255 141 61 28 9 2 1 1 1 4 14 39 93 205 255 31 1 0 0 0 0 0 0 0 0 0 0 0 0 0 1 3 11 32 85 197 255 137 55 20 6 4 47 255 133 57 21 5 1 1 2 5 16 41 99 231 255 255 184 80 32 11 3 1 1 19 255 146 57 24 15 7 2 0 0 1 4 12 34 86 209 255 255 141 60 23 8 2 1 0 1 5 21 56 126 255 60 3 0 0 0 0 0 0 0 0 0 0 0 0 0 0 1 21 255 221 101 48 34 34 42 57 117 255 147 8 2 5 17 46 114 255 177 9 1 0 0 0 1 22 255 207 94 38 14 4 6 83 255 105 52 27 7 2 1 3 10 26 65 155 255 89 4 0 1 15 255 244 110 45 17 6 2 1 1 2 5 5 5 8 14 3 1 0 1 2 8 24 62 114
0 0 0 0 0 0 0 0 0 0 0 0 0 0 0 0 0 0 0 0 0 0 0 0 0 0 0 0 0 0 0 0 0 0 1 3 9 26 66 153 255 54 7 81 255 151 67 27 10 3 1 0 0 0 0 0 0 0 1 1 2 2 2 1 0 0 0 0 0 0 0 0 0 1 4 11 31 75 170 255 70 3 0 0 1 3 9 24 60 141 255 184 8 0 1 24 255 216 98 40 15 5 1 4 68 255 163 72 28 10 4 14 250 236 102 44 17 4 1 0 0 0 1 4 12 26 39 35 22 9 3 1 0 0 2 19 117 71 73 149 255 51 4 5 16 45 108 244 222 12 1 3 8 24 59 138 255 113 6 0 0 0 0 0 0 0 0 0 0 0 0 0 0 0 0 0 1 24 255 217 101 43 16 6 2 3 45 255 172 76 31 11 4 1 0 0 0 0 0 0 0 0 0 0 0 0 0 0 0 0 0 0 0 0 0 0 0 0 0 0 0 0 0 0 0 0 1 3 9 26 66 153 255 99 5 1 3 8 14 15 12 6 2 1 9 195 255 123 52 20 6 4 35 255 173 80 41 17 3 1 0 0 0 1 5 15 42 92 132 92 42 15 5 1 0 0 0 1 5 25 49 98 238 153 10 25 255 169 79 55 46 8 1 0 1 3 9 26 65 151 255 129 86 255 170 76 30 10 3 1 0 0 1 1 2 4 19 94 20 2 0 1 2 7 21 55 128 255 229 10 0 1 11 231 252 112 46 17 5 2 1 3 11 19 30 64 145 255 77 4 0 1 2 6 19 51 123 255 165 8 0 0 0 0 0 0 0 0 0 0 0 0 3 70 255 162 73 30 11 3 1 1 2 7 26 38 69 151 255 64 124 255 116 72 137 141 112 9 1 0 0 2 6 19 50 98 116 69 30 10 3 1 0 0 1 6 28 23 22 18 12 4 1 1 1 4 12 32 76 168 255 66 3 0 0 0 0 0 0 0 0 0 0 0 0 0 0 1 15 255 209 92 40 17 5 1 0 0 1 2 7 20 50 121 255 255 13 1 0 0 0 0 0 0 0 0 0 0 0 0 0 1 5 17 46 89 109 69 30 10 4 19 255 205 89 37 12 3 1 0 1 2 7 21 56 141 255 255 111 44 16 5 2 1 6 111 255 104 36 12 6 3 1 0 0 0 2 6 18 49 121 233 185 83 32 11 3 1 0 0 1 3 13 38 83 190 255 26 1 0 0 0 0 0 0 0 0 0 0 0 0 0 8 167 255 131 56 26 19 19 26 34 68 154 255 60 4 2 8 25 65 152 255 69 4 0 0 0 9 180 255 123 52 20 7 4 35 255 161 72 37 17 4 1 1 1 4 13 35 88 189 255 40 2 6 123 255 142 61 23 8 2 1 0 0 1 1 1 2 3 5 2 0 0 0 1 4 12 28 44
0 0 0 0 0 0 0 0 0 0 0 0 0 0 0 0 0 0 0 0 0 0 0 0 0 0 0 0 0 0 0 0 0 0 0 1 4 13 38 95 211 255 81 255 195 89 37 13 4 1 0 0 0 0 0 0 0 0 0 0 1 1 0 0 0 0 0 0 0 0 0 0 0 0 2 5 16 42 100 211 255 34 2 0 0 1 4 12 33 80 175 255 80 4 10 207 255 132 56 22 7 2 2 34 255 212 98 41 15 5 6 97 255 145 64 28 9 2 0 0 0 0 0 2 5 10 13 12 8 4 1 0 0 0 3 32 164 98 56 97 208 255 21 3 8 25 63 145 255 87 5 1 4 12 33 81 180 255 53 3 0 0 0 0 0 0 0 0 0 0 0 0 0 0 0 0 10 224 255 131 57 22 8 2 2 20 255 231 106 43 16 5 2 0 0 0 0 0 0 0 0 0 0 0 0 0 0 0 0 0 0 0 0 0 0 0 0 0 0 0 0 0 0 0 0 0 0 1 4 14 37 89 190 255 47 3 1 3 4 5 4 2 1 4 79 255 162 71 29 10 4 14 255 246 112 53 29 10 2 0 0 0 0 1 2 7 21 40 51 40 21 7 2 1 0 0 0 1 3 15 36 67 142 255 78 183 255 113 56 48 45 7 1 0 0 1 4 13 36 88 192 255 255 223 101 43 16 5 1 0 0 0 0 0 1 3 19 93 23 3 0 0 1 3 10 30 74 166 255 97 5 5 92 255 150 65 25 8 2 1 0 1 4 9 16 37 88 194 255 36 2 0 1 3 10 28 72 165 255 69 3 0 0 0 0 0 0 0 0 0 0 2 36 255 208 95 40 15 5 1 0 0 1 4 14 25 44 97 229 255 255 165 79 76 163 153 255 37 2 0 0 1 3 9 24 40 45 31 14 5 1 0 0 0 1 4 13 10 8 6 4 2 1 0 1 2 5 16 42 98 211 255 32 1 0 0 0 0 0 0 0 0 0 0 0 0 0 5 99 255 130 59 26 9 2 1 0 0 0 1 3 10 28 69 154 255 113 5 0 0 0 0 0 0 0 0 0 0 0 0 0 1 2 8 22 36 42 31 15 5 8 137 255 131 58 24 7 1 0 0 0 1 3 11 32 78 136 119 63 24 8 2 1 3 48 255 164 76 24 6 2 1 0 0 0 0 1 3 9 27 62 99 84 45 17 5 2 0 0 0 0 2 7 25 55 124 255 217 10 0 0 0 0 0 0 0 0 0 0 0 0 3 70 255 167 76 31 14 9 9 14 20 41 95 208 255 27 2 4 13 37 92 198 255 30 1 0 4 76 255 166 72 29 10 4 14 255 245 109 50 26 9 2 0 0 1 2 6 19 49 113 240 255 21 58 255 180 83 34 12 4 1 0 0 0 0 0 0 1 1 1 1 0 0 0 0 2 5 11 15
0 0 0 0 0 0 0 0 0 0 0 0 0 0 0 0 0 0 0 0 0 0 0 0 0 0 0 0 0 0 0 0 0 0 0 0 2 7 22 59 136 255 255 255 124 53 20 6 2 1 0 0 0 0 0 0 0 0 0 0 0 0 0 0 0 0 0 0 0 0 0 0 0 0 1 2 8 24 59 129 255 255 14 1 0 0 2 6 18 47 104 209 255 45 94 255 170 79 33 11 3 2 14 255 255 131 59 23 7 4 46 255 190 93 43 17 5 1 0 0 0 0 0 1 2 3 4 4 3 1 0 0 0 0 6 86 183 195 63 66 133 255 134 8 4 13 38 91 194 255 42 2 2 6 18 48 112 232 255 26 1 0 0 0 0 0 0 0 0 0 0 0 0 0 0 5 102 255 171 78 33 11 4 1 8 169 255 145 65 25 8 2 1 0 0 0 0 0 0 0 0 0 0 0 0 0 0 0 0 0 0 0 0 0 0 0 0 0 0 0 0 0 0 0 0 0 0 1 2 7 21 53 116 240 255 23 1 1 1 1 1 1 2 37 255 202 99 43 16 5 7 100 255 152 73 37 19 5 1 0 0 0 0 0 1 3 9 15 18 15 9 3 1 0 0 0 0 0 2 8 25 48 98 221 255 255 167 78 44 48 46 7 1 0 0 0 2 6 20 52 121 255 255 139 61 24 8 2 1 0 0 0 0 0 0 3 21 94 27 3 0 0 0 1 5 16 44 99 201 255 51 48 255 195 92 39 14 4 1 0 0 1 2 4 8 21 54 123 255 255 14 1 0 1 5 16 44 102 210 255 32 1 0 0 0 0 0 0 0 0 1 16 255 255 130 57 22 7 2 1 0 0 0 2 7 15 29 66 150 255 255 116 64 111 169 192 230 243 13 1 0 0 1 4 10 15 16 12 6 2 1 0 0 0 0 2 4 3 2 2 1 1 0 0 0 1 2 8 23 58 131 255 255 14 1 0 0 0 0 0 0 0 0 0 0 0 2 44 255 178 84 39 16 5 1 0 0 0 0 0 1 4 15 41 92 192 255 53 3 0 0 0 0 0 0 0 0 0 0 0 0 0 1 3 9 13 15 12 6 5 62 255 179 86 40 14 3 1 0 0 0 0 1 5 17 39 56 51 32 13 4 1 1 21 255 228 111 57 17 4 1 0 0 0 0 0 0 1 4 13 29 39 35 22 8 2 1 0 0 0 0 1 4 15 38 80 166 255 93 5 0 0 0 0 0 0 0 0 0 0 1 32 255 209 102 45 17 7 4 4 6 10 25 59 132 255 211 11 2 7 22 56 124 255 235 12 2 36 255 208 102 44 16 5 7 102 255 152 74 37 16 5 1 0 0 0 1 3 9 28 67 148 255 255 255 228 110 49 19 6 2 0 0 0 0 0 0 0 0 0 0 0 0 0 0 0 1 2 4 5
0 0 0 0 0 0 0 0 0 0 0 0 0 0 0 0 0 0 0 0 0 0 0 0 0 0 0 0 0 0 0 0 0 0 0 0 1 3 13 39 91 186 255 165 79 33 11 3 1 0 0 0 0 0 0 0 0 0 0 0 0 0 0 0 0 0 0 0 0 0 0 0 0 0 0 1 4 13 36 78 158 255 120 6 0 0 1 3 9 27 62 128 255 255 255 210 104 49 19 6 2 6 113 255 158 79 37 13 5 22 255 241 120 61 29 9 2 1 0 0 0 0 0 0 1 1 1 1 1 0 0 0 0 2 32 255 195 241 134 57 87 172 255 57 5 7 23 58 124 249 255 19 2 3 10 30 69 144 255 255 12 0 0 0 0 0 0 0 0 0 0 0 0 0 2 51 255 207 104 49 19 6 2 4 72 255 178 89 41 14 4 1 0 0 0 0 0 0 0 0 0 0 0 0 0 0 0 0 0 0 0 0 0 0 0 0 0 0 0 0 0 0 0 0 0 0 0 0 1 3 11 32 71 149 255 220 10 1 0 0 0 1 16 255 255 126 61 26 8 5 46 255 190 96 50 26 10 3 1 0 0 0 0 0 0 1 3 5 6 5 3 1 0 0 0 0 0 0 1 4 16 37 71 145 255 235 114 58 41 57 53 7 1 0 0 0 1 3 11 32 72 121 128 80 38 13 4 1 0 0 0 0 0 0 0 3 24 102 34 4 0 0 0 1 2 8 26 60 122 247 255 255 250 122 58 24 7 2 0 0 0 0 1 1 4 12 35 77 154 255 122 6 0 1 2 8 27 63 130 255 255 13 1 0 0 0 0 0 0 0 7 141 255 159 79 35 12 3 1 0 0 0 0 1 3 8 19 47 90 141 128 81 77 204 167 182 169 255 102 5 0 0 0 1 3 5 5 4 2 1 0 0 0 0 0 1 1 1 1 1 0 0 0 0 0 0 1 4 13 36 80 163 255 127 6 0 0 0 0 0 0 0 0 0 0 1 19 255 238 116 57 26 9 2 1 0 0 0 0 0 1 2 8 24 56 118 232 255 24 1 0 0 0 0 0 0 0 0 0 0 0 0 0 1 3 4 5 4 3 29 255 222 114 58 27 8 2 0 0 0 0 0 1 2 8 17 21 20 15 6 2 1 9 193 255 144 76 45 11 2 0 0 0 0 0 0 0 0 2 6 12 14 13 9 3 1 0 0 0 0 0 0 2 8 27 54 104 204 255 46 2 0 0 0 0 0 0 0 0 1 13 255 255 130 62 27 9 3 1 1 2 5 14 38 82 165 255 86 5 3 12 35 77 160 255 98 21 255 255 129 63 27 9 5 47 255 192 98 52 26 9 2 1 0 0 0 0 1 5 15 41 93 202 255 255 146 68 30 10 3 1 0 0 0 0 0 0 0 0 0 0 0 0 0 0 0 0 1 1 1
0 0 0 0 0 0 0 0 0 0 0 0 0 0 0 0 0 0 0 0 0 0 0 0 0 0 0 0 0 0 0 0 0 0 0 0 0 2 7 26 59 96 121 88 51 21 6 1 0 0 0 0 0 0 0 0 0 0 0 0 0 0 0 0 0 0 0 0 0 0 0 0 0 0 0 0 2 7 21 49 97 194 255 57 3 0 0 1 5 15 39 80 168 255 255 135 66 31 11 3 3 54 255 193 97 50 23 7 11 190 255 151 77 42 19 5 1 0 0 0 0 0 0 0 0 0 0 0 0 0 0 0 1 12 242 255 205 196 255 91 64 112 221 255 26 5 14 39 78 154 255 152 8 2 5 18 44 88 175 255 110 5 0 0 0 0 0 0 0 0 0 0 0 1 24 255 243 127 65 31 10 3 2 34 255 213 110 57 26 8 2 0 0 0 0 0 0 0 0 0 0 0 0 0 0 0 0 0 0 0 0 0 0 0 0 0 0 0 0 0 0 0 0 0 0 0 0 0 0 1 6 19 46 91 180 255 101 5 0 0 0 7 152 255 159 78 39 15 5 21 255 240 121 63 36 16 5 1 0 0 0 0 0 0 0 0 1 2 2 2 1 0 0 0 0 0 0 0 0 2 9 28 55 89 131 116 77 50 52 104 86 9 1 0 0 0 0 1 6 19 40 54 55 43 23 7 2 0 0 0 0 0 0 0 0 3 33 123 56 5 1 0 0 0 1 4 15 37 76 158 255 255 161 78 38 14 4 1 0 0 0 0 0 1 2 6 22 50 96 194 255 61 3 0 1 4 16 41 81 161 255 117 6 0 0 0 0 0 0 3 65 255 188 96 49 21 6 2 0 0 0 0 0 0 1 4 12 33 51 62 61 66 160 227 168 149 131 202 255 50 2 0 0 0 1 1 2 1 1 0 0 0 0 0 0 0 0 0 0 0 0 0 0 0 0 0 0 2 7 22 50 99 192 255 59 3 0 0 0 0 0 0 0 0 0 8 162 255 151 77 41 16 4 1 0 0 0 0 0 0 0 1 4 13 35 72 143 255 197 9 0 0 0 0 0 0 0 0 0 0 0 0 0 0 1 1 1 2 12 224 255 138 73 41 17 4 1 0 0 0 0 0 0 1 3 6 7 7 5 2 1 4 89 255 181 92 56 35 8 1 0 0 0 0 0 0 0 0 1 2 4 5 4 3 1 0 0 0 0 0 0 0 1 4 17 38 67 127 247 255 21 1 0 0 0 0 0 0 0 5 107 255 162 81 40 15 5 1 1 0 1 2 8 25 53 103 203 255 41 4 6 22 51 101 201 255 255 255 158 79 40 16 5 21 255 238 122 65 39 17 5 1 0 0 0 0 0 1 2 8 26 61 120 200 171 93 44 18 5 1 0 0 0 0 0 0 0 0 0 0 0 0 0 0 0 0 0 0 0 0
0 0 0 0 0 0 0 0 0 0 0 0 0 0 0 0 0 0 0 0 0 0 0 0 0 0 0 0 0 0 0 0 0 0 0 0 0 1 4 16 37 47 52 45 31 12 3 1 0 0 0 0 0 0 0 0 0 0 0 0 0 0 0 0 0 0 0 0 0 0 0 0 0 0 0 0 1 3 12 32 63 123 237 255 28 1 0 1 2 8 24 53 102 163 145 86 44 19 6 2 25 255 239 124 63 33 13 8 92 255 187 97 53 29 11 3 1 0 0 0 0 0 0 0 0 0 0 0 0 0 0 0 5 105 255 183 171 163 230 254 74 78 144 255 206 12 8 26 53 97 185 255 67 4 3 10 29 58 108 205 255 53 2 0 0 0 0 0 0 0 0 0 0 10 220 255 151 79 42 19 5 2 15 255 255 136 70 38 15 4 1 0 0 0 0 0 0 0 0 0 0 0 0 0 0 0 0 0 0 0 0 0 0 0 0 0 0 0 0 0 0 0 0 0 0 0 0 0 0 1 3 11 30 59 112 215 255 52 2 0 3 73 255 197 101 53 25 9 11 190 255 154 79 45 25 9 2 1 0 0 0 0 0 0 0 0 0 0 1 0 0 0 0 0 0 0 0 0 0 1 5 21 45 53 59 56 53 58 153 255 255 24 2 0 0 0 0 1 3 9 20 23 23 21 12 3 1 0 0 0 0 0 0 0 1 6 70 169 189 14 1 0 0 0 0 2 8 23 51 100 170 171 101 53 25 7 2 0 0 0 0 0 0 0 1 3 13 33 64 124 239 255 32 1 1 2 8 26 54 103 203 255 60 3 0 0 0 0 1 34 255 230 118 61 32 12 3 1 0 0 0 0 0 0 0 2 6 20 27 27 33 92 255 186 162 126 107 136 246 255 23 1 0 0 0 0 0 0 0 0 0 0 0 0 0 0 0 0 0 0 0 0 0 0 0 0 0 1 3 12 33 63 120 235 255 31 1 0 0 0 0 0 0 0 3 71 255 186 98 55 31 10 2 1 0 0 0 0 0 0 0 0 2 7 22 47 90 177 255 85 4 0 0 0 0 0 0 0 0 0 0 0 0 0 0 0 1 5 93 255 170 88 51 30 10 2 0 0 0 0 0 0 0 0 1 2 2 2 2 1 2 46 255 219 115 64 44 26 5 1 0 0 0 0 0 0 0 0 0 1 1 1 1 1 0 0 0 0 0 0 0 0 0 2 10 26 46 81 155 255 175 8 0 0 0 0 0 0 2 49 255 198 103 53 26 8 2 1 0 0 0 1 4 15 36 68 131 255 255 19 4 13 35 67 135 255 255 217 104 53 26 9 10 160 255 151 79 48 28 10 2 1 0 0 0 0 0 0 1 4 16 41 68 90 82 58 30 10 2 1 0 0 0 0 0 0 0 0 0 0 0 0 0 0 0 0 0 0 0 0
0 0 0 0 0 0 0 0 0 0 0 0 0 0 0 0 0 0 0 0 0 0 0 0 0 0 0 0 0 0 0 0 0 0 0 0 0 0 2 8 21 22 22 22 17 6 1 0 0 0 0 0 0 0 0 0 0 0 0 0 0 0 0 0 0 0 0 0 0 0 0 0 0 0 0 0 0 2 6 20 45 82 153 255 255 12 1 0 1 4 15 38 61 76 71 55 31 11 3 11 210 255 154 83 46 21 9 53 255 226 121 68 41 20 6 1 0 0 0 0 0 0 0 0 0 0 0 0 0 0 0 2 53 255 214 136 137 138 168 255 185 74 99 181 255 91 9 16 38 67 121 228 255 33 3 5 18 41 72 132 246 255 27 1 0 0 0 0 0 0 0 0 5 101 255 186 98 54 28 10 3 7 138 255 172 91 51 25 8 2 0 0 0 0 0 0 0 0 0 0 0 0 0 0 0 0 0 0 0 0 0 0 0 0 0 0 0 0 0 0 0 0 0 0 0 0 0 0 0 0 1 6 20 42 75 138 252 255 24 3 38 255 234 127 70 39 16 9 89 255 194 103 59 35 16 5 1 0 0 0 0 0 0 0 0 0 0 0 0 0 0 0 0 0 0 0 0 0 0 1 3 13 36 32 27 28 47 189 255 255 255 128 7 0 0 0 0 0 1 4 8 9 9 8 5 1 0 0 0 0 0 0 0 0 1 24 255 255 255 70 4 0 0 0 0 1 4 14 36 62 81 82 64 39 15 4 1 0 0 0 0 0 0 0 0 2 7 22 47 84 154 255 255 15 1 1 4 16 39 72 133 246 255 31 1 0 0 1 16 255 255 150 79 43 20 6 2 0 0 0 0 0 0 0 0 1 3 10 13 13 31 211 210 157 152 125 103 99 159 255 201 9 0 0 0 0 0 0 0 0 0 0 0 0 0 0 0 0 0 0 0 0 0 0 0 0 0 0 2 6 21 44 81 153 255 255 15 1 0 0 0 0 0 2 35 255 226 122 70 44 22 5 1 0 0 0 0 0 0 0 0 0 1 3 13 33 63 116 219 255 44 2 0 0 0 0 0 0 0 0 0 0 0 0 0 0 2 46 255 212 113 63 39 20 5 1 0 0 0 0 0 0 0 0 0 1 1 1 1 1 21 255 255 141 79 51 38 18 3 1 0 0 0 0 0 0 0 0 0 0 0 0 0 0 0 0 0 0 0 0 0 0 0 1 5 17 34 57 101 187 255 78 4 0 0 0 0 1 22 255 245 130 70 38 16 4 1 0 0 0 0 0 2 8 25 50 88 165 255 159 10 7 24 51 93 158 197 131 74 39 16 9 78 255 191 101 59 38 19 5 1 0 0 0 0 0 0 0 0 2 9 26 37 40 39 35 18 5 1 0 0 0 0 0 0 0 0 0 0 0 0 0 0 0 0 0 0 0 0 0
0 0 0 0 0 0 0 0 0 0 0 0 0 0 0 0 0 0 0 0 0 0 0 0 0 0 0 0 0 0 0 0 0 0 0 0 0 0 1 4 9 9 9 9 7 3 1 0 0 0 0 0 0 0 0 0 0 0 0 0 0 0 0 0 0 0 0 0 0 0 0 0 0 0 0 0 0 1 3 12 35 62 102 183 255 109 5 0 0 2 9 26 36 36 35 35 21 6 6 92 255 185 104 63 37 15 33 255 255 146 85 56 35 12 3 1 0 0 0 0 0 0 0 0 0 0 0 0 0 0 1 27 255 253 145 111 118 126 132 189 255 142 84 123 218 255 50 12 28 53 85 151 255 255 15 3 10 30 54 89 160 255 255 12 1 0 0 0 0 0 0 2 52 255 221 122 71 41 18 5 5 71 255 208 115 68 41 16 4 1 0 0 0 0 0 0 0 0 0 0 0 0 0 0 0 0 0 0 0 0 0 0 0 0 0 0 0 0 0 0 0 0 0 0 0 0 0 0 0 0 1 3 12 32 57 92 160 255 223 31 255 255 151 87 55 30 12 50 255 225 128 77 51 28 10 2 1 0 0 0 0 0 0 0 0 0 0 0 0 0 0 0 0 0 0 0 0 0 0 0 2 8 26 18 13 20 124 255 255 214 217 255 57 3 0 0 0 0 0 1 3 3 3 3 2 1 0 0 0 0 0 0 0 0 8 168 255 255 232 255 32 1 0 0 0 0 2 8 26 39 39 40 40 27 9 2 0 0 0 0 0 0 0 0 0 1 3 14 38 63 102 180 255 145 7 1 2 9 29 56 91 158 255 255 14 1 0 7 152 255 179 101 60 33 11 3 1 0 0 0 0 0 0 0 0 0 1 4 5 9 66 255 159 140 151 152 129 88 108 188 255 90 4 0 0 0 0 0 0 0 0 0 0 0 0 0 0 0 0 0 0 0 0 0 0 0 0 0 1 3 12 33 61 103 183 255 164 7 0 0 0 0 1 17 255 255 149 86 58 38 15 3 1 0 0 0 0 0 0 0 0 0 0 2 7 23 49 83 144 255 255 22 1 0 0 0 0 0 0 0 0 0 0 0 0 1 21 255 255 141 82 53 32 12 3 1 0 0 0 0 0 0 0 0 0 0 0 0 1 9 192 255 165 95 62 48 34 11 2 0 0 0 0 0 0 0 0 0 0 0 0 0 0 0 0 0 0 0 0 0 0 0 0 1 2 9 26 46 73 124 226 255 41 2 0 0 0 9 193 255 160 90 55 28 9 2 0 0 0 0 0 0 1 4 16 41 67 110 197 255 75 8 16 43 68 84 93 78 58 31 12 45 255 232 128 76 51 32 11 3 1 0 0 0 0 0 0 0 0 1 4 14 19 18 18 19 9 3 1 0 0 0 0 0 0 0 0 0 0 0 0 0 0 0 0 0 0 0 0 0
0 0 0 0 0 0 0 0 0 0 0 0 0 0 0 0 0 0 0 0 0 0 0 0 0 0 0 0 0 0 0 0 0 0 0 0 0 0 0 1 3 3 3 3 2 1 0 0 0 0 0 0 0 0 0 0 0 0 0 0 0 0 0 0 0 0 0 0 0 0 0 0 0 0 0 0 0 0 2 7 28 53 76 119 210 255 54 3 0 1 4 15 19 16 17 20 11 5 48 255 217 121 77 55 33 26 255 255 166 98 70 55 32 8 2 0 0 0 0 0 0 0 0 0 0 0 0 0 0 0 11 240 255 162 104 105 120 130 116 138 211 255 120 93 143 255 255 33 22 49 69 102 176 255 143 8 6 22 47 69 106 187 255 124 6 0 0 0 0 0 1 25 255 253 142 86 59 35 11 4 41 255 241 135 83 60 37 10 2 0 0 0 0 0 0 0 0 0 0 0 0 0 0 0 0 0 0 0 0 0 0 0 0 0 0 0 0 0 0 0 0 0 0 0 0 0 0 0 0 0 0 1 7 24 50 69 105 188 255 255 255 173 100 68 49 25 35 255 255 144 89 68 54 23 5 1 0 0 0 0 0 0 0 0 0 0 0 0 0 0 0 0 0 0 0 0 0 0 0 0 1 4 13 9 8 48 255 226 163 140 161 240 255 26 1 0 0 0 0 0 1 1 1 1 0 0 0 0 0 0 0 0 0 4 72 255 204 187 179 255 255 14 1 0 0 0 1 4 15 23 19 19 24 16 5 1 0 0 0 0 0 0 0 0 0 0 2 8 33 55 75 116 205 255 70 4 1 5 22 51 70 104 181 255 144 7 4 67 255 200 115 75 53 26 6 1 0 0 0 0 0 0 0 0 0 0 0 1 3 19 233 175 132 139 163 199 196 113 86 124 221 255 46 2 0 0 0 0 0 0 0 0 0 0 0 0 0 0 0 0 0 0 0 0 0 0 0 0 0 2 7 26 54 76 118 208 255 80 4 0 0 0 7 155 255 176 101 71 59 36 9 2 0 0 0 0 0 0 0 0 0 0 0 1 4 15 44 67 98 169 255 232 10 0 0 0 0 0 0 0 0 0 0 0 0 9 199 255 164 97 70 56 27 7 1 0 0 0 0 0 0 0 0 0 0 0 0 0 4 86 255 192 108 72 60 56 31 7 1 0 0 0 0 0 0 0 0 0 0 0 0 0 0 0 0 0 0 0 0 0 0 0 0 0 1 5 18 43 61 87 148 255 255 21 1 0 4 86 255 188 107 71 49 20 5 1 0 0 0 0 0 0 0 2 10 37 60 81 128 229 255 42 13 39 53 46 45 48 50 27 31 255 255 150 91 69 56 27 6 1 0 0 0 0 0 0 0 0 0 0 2 5 8 7 7 8 4 1 0 0 0 0 0 0 0 0 0 0 0 0 0 0 0 0 0 0 0 0 0 0
0 0 0 0 0 0 0 0 0 0 0 0 0 0 0 0 0 0 0 0 0 0 0 0 0 0 0 0 0 0 0 0 0 0 0 0 0 0 0 0 1 1 1 1 1 0 0 0 0 0 0 0 0 0 0 0 0 0 0 0 0 0 0 0 0 0 0 0 0 0 0 0 0 0 0 0 0 0 1 4 21 53 64 82 133 246 255 29 1 1 2 6 8 7 7 9 6 25 255 254 139 84 66 59 47 228 255 185 105 73 70 72 32 5 1 0 0 0 0 0 0 0 0 0 0 0 0 0 0 5 104 255 180 105 86 123 148 150 122 108 144 224 227 98 97 164 255 255 34 56 67 75 113 205 255 74 7 15 47 62 76 118 211 255 63 3 0 0 0 0 10 228 255 157 92 67 60 32 8 23 255 255 150 90 69 65 36 7 1 0 0 0 0 0 0 0 0 0 0 0 0 0 0 0 0 0 0 0 0 0 0 0 0 0 0 0 0 0 0 0 0 0 0 0 0 0 0 0 0 0 0 1 4 18 53 61 76 125 241 255 214 114 73 63 53 42 255 255 166 95 71 76 78 19 3 1 0 0 0 0 0 0 0 0 0 0 0 0 0 0 0 0 0 0 0 0 0 0 0 0 0 2 5 4 17 244 230 145 102 94 114 157 255 225 11 0 0 0 0 0 0 0 0 0 0 0 0 0 0 0 0 0 2 35 255 223 141 125 130 180 255 125 6 0 0 0 0 2 7 10 8 8 11 7 2 0 0 0 0 0 0 0 0 0 0 0 1 5 28 57 64 80 129 232 255 36 2 3 16 53 63 74 114 206 255 73 37 255 225 125 79 63 55 20 4 1 0 0 0 0 0 0 0 0 0 0 0 1 5 85 255 143 122 152 179 208 223 204 96 88 141 255 255 21 1 0 0 0 0 0 0 0 0 0 0 0 0 0 0 0 0 0 0 0 0 0 0 0 0 1 4 20 58 64 80 128 229 255 42 2 0 3 70 255 196 112 76 72 80 37 7 1 0 0 0 0 0 0 0 0 0 0 0 0 2 10 44 63 73 108 190 255 109 5 0 0 0 0 0 0 0 0 0 0 4 95 255 191 107 75 75 82 25 4 1 0 0 0 0 0 0 0 0 0 0 0 0 2 44 255 220 122 77 68 85 100 32 5 1 0 0 0 0 0 0 0 0 0 0 0 0 0 0 0 0 0 0 0 0 0 0 0 0 0 1 3 13 45 63 70 97 169 255 197 9 2 44 255 219 121 78 65 49 14 3 1 0 0 0 0 0 0 0 1 7 37 66 69 87 145 255 255 31 37 44 26 22 30 47 41 255 255 169 98 74 81 86 25 4 1 0 0 0 0 0 0 0 0 0 0 1 2 3 2 3 2 1 0 0 0 0 0 0 0 0 0 0 0 0 0 0 0 0 0 0 0 0 0 0 0
0 0 0 0 0 0 0 0 0 0 0 0 0 0 0 0 0 0 0 0 0 0 0 0 0 0 0 0 0 0 0 0 0 0 0 0 0 0 0 0 0 0 0 0 0 0 0 0 0 0 0 0 0 0 0 0 0 0 0 0 0 0 0 0 0 0 0 0 0 0 0 0 0 0 0 0 0 0 1 3 17 64 67 62 86 153 255 255 14 1 1 2 3 2 3 3 12 213 255 157 89 65 73 111 255 255 205 112 71 65 108 157 44 5 1 0 0 0 0 0 0 0 0 0 0 0 0 0 2 52 255 206 112 75 94 171 188 177 149 98 101 148 223 153 80 103 182 255 255 118 90 65 76 127 231 255 42 14 59 71 61 77 129 238 255 33 1 0 0 5 97 255 178 97 65 62 78 33 16 222 255 167 93 66 70 95 43 6 1 0 0 0 0 0 0 0 0 0 0 0 0 0 0 0 0 0 0 0 0 0 0 0 0 0 0 0 0 0 0 0 0 0 0 0 0 0 0 0 0 0 0 0 2 15 74 69 63 83 127 163 118 77 63 77 105 255 255 182 102 68 73 136 193 27 3 0 0 0 0 0 0 0 0 0 0 0 0 0 0 0 0 0 0 0 0 0 0 0 0 0 0 1 2 6 91 255 153 92 67 67 82 102 176 255 100 5 0 0 0 0 0 0 0 0 0 0 0 0 0 0 0 1 15 255 255 143 97 86 94 115 198 255 57 3 0 0 0 1 2 3 3 3 4 2 1 0 0 0 0 0 0 0 0 0 0 0 1 4 26 74 68 61 82 143 255 255 16 3 14 70 70 61 75 126 231 255 255 255 141 80 60 65 74 17 3 0 0 0 0 0 0 0 0 0 0 0 0 2 37 255 186 128 131 165 175 175 190 233 166 77 90 156 255 178 8 0 0 0 0 0 0 0 0 0 0 0 0 0 0 0 0 0 0 0 0 0 0 0 0 0 3 17 81 65 60 81 139 255 255 21 2 35 255 223 121 75 68 114 178 56 7 1 0 0 0 0 0 0 0 0 0 0 0 0 1 9 54 74 63 72 116 213 255 56 3 0 0 0 0 0 0 0 0 2 51 255 219 119 74 71 128 210 37 4 1 0 0 0 0 0 0 0 0 0 0 0 1 21 255 255 136 80 64 100 223 255 64 6 1 0 0 0 0 0 0 0 0 0 0 0 0 0 0 0 0 0 0 0 0 0 0 0 0 0 0 2 10 62 89 67 69 103 185 255 89 25 255 254 136 80 64 75 60 11 2 0 0 0 0 0 0 0 0 1 6 46 100 73 66 92 165 255 255 54 38 15 11 21 70 255 255 188 104 70 78 158 228 40 4 1 0 0 0 0 0 0 0 0 0 0 0 0 1 1 1 1 0 0 0 0 0 0 0 0 0 0 0 0 0 0 0 0 0 0 0 0 0 0 0 0
0 0 0 0 0 0 0 0 0 0 0 0 0 0 0 0 0 0 0 0 0 0 0 0 0 0 0 0 0 0 0 0 0 0 0 0 0 0 0 0 0 0 0 0 0 0 0 0 0 0 0 0 0 0 0 0 0 0 0 0 0 0 0 0 0 0 0 0 0 0 0 0 0 0 0 0 0 0 0 2 18 113 97 56 58 92 172 255 140 6 1 1 1 1 1 5 94 255 177 94 60 63 158 255 255 222 120 69 54 94 253 255 175 11 1 0 0 0 0 0 0 0 0 0 0 0 0 1 25 255 239 125 71 65 141 198 193 182 177 112 78 98 152 205 91 69 108 205 255 255 226 80 56 77 138 255 255 39 121 122 61 53 78 142 255 255 14 1 2 48 255 202 107 62 51 79 155 58 133 255 183 98 60 56 108 201 94 8 1 0 0 0 0 0 0 0 0 0 0 0 0 0 0 0 0 0 0 0 0 0 0 0 0 0 0 0 0 0 0 0 0 0 0 0 0 0 0 0 0 0 0 0 2 21 179 130 67 55 63 70 61 54 75 197 255 255 201 107 64 59 131 255 255 97 6 0 0 0 0 0 0 0 0 0 0 0 0 0 0 0 0 0 0 0 0 0 0 0 0 0 0 0 2 39 255 185 103 61 47 50 61 68 108 205 255 52 2 0 0 0 0 0 0 0 0 0 0 0 0 0 0 7 145 255 162 89 68 63 69 75 120 225 255 26 1 0 0 0 1 1 1 1 1 1 0 0 0 0 0 0 0 0 0 0 0 0 0 4 31 145 108 57 55 85 159 255 130 9 18 141 115 63 53 77 143 255 255 174 87 54 54 98 157 22 2 0 0 0 0 0 0 0 0 0 0 0 1 15 255 249 137 121 152 160 148 134 141 176 228 103 64 94 177 255 78 4 0 0 0 0 0 0 0 0 0 0 0 0 0 0 0 0 0 0 0 0 0 0 0 0 3 25 179 100 55 54 83 157 255 201 28 255 255 136 74 56 97 255 255 227 16 1 0 0 0 0 0 0 0 0 0 0 0 0 1 11 104 127 69 53 71 127 237 255 27 1 0 0 0 0 0 0 1 26 255 247 131 74 60 114 255 255 167 10 1 0 0 0 0 0 0 0 0 0 0 0 9 198 255 153 83 57 83 255 255 255 255 23 1 0 0 0 0 0 0 0 0 0 0 0 0 0 0 0 0 0 0 0 0 0 0 0 0 0 0 2 15 165 199 96 55 65 110 211 255 255 255 152 83 57 65 123 114 13 2 0 0 0 0 0 0 0 0 1 9 105 210 123 60 61 99 189 255 255 53 10 7 34 255 255 210 111 66 61 144 255 255 190 11 1 0 0 0 0 0 0 0 0 0 0 0 0 0 0 0 0 0 0 0 0 0 0 0 0 0 0 0 0 0 0 0 0 0 0 0 0 0 0 0 0
0 0 0 0 0 0 0 0 0 0 0 0 0 0 0 0 0 0 0 0 0 0 0 0 0 0 0 0 0 0 0 0 0 0 0 0 0 0 0 0 0 0 0 0 0 0 0 0 0 0 0 0 0 0 0 0 0 0 0 0 0 0 0 0 0 0 0 0 0 0 0 0 0 0 0 0 0 0 0 3 37 237 209 74 42 54 96 189 255 68 3 0 0 0 2 45 255 197 101 56 45 113 255 255 188 115 66 43 60 223 250 238 255 71 4 0 0 0 0 0 0 0 0 0 0 0 0 11 232 255 139 72 48 80 195 166 153 152 161 141 71 65 98 160 129 53 63 113 202 255 255 183 54 47 77 150 255 255 255 255 101 42 47 79 154 255 115 7 24 255 235 117 62 41 54 173 255 255 255 204 102 56 41 74 231 254 255 34 2 0 0 0 0 0 0 0 0 0 0 0 0 0 0 0 0 0 0 0 0 0 0 0 0 0 0 0 0 0 0 0 0 0 0 0 0 0 0 0 0 0 0 0 5 68 255 255 126 41 29 28 30 48 183 255 255 187 107 60 43 85 254 227 209 255 41 2 0 0 0 0 0 0 0 0 0 0 0 0 0 0 0 0 0 0 0 0 0 0 0 0 0 1 15 255 233 116 66 41 33 38 45 46 64 119 233 255 25 1 0 0 0 0 0 0 0 0 0 0 0 0 3 66 255 182 93 55 48 47 50 49 70 132 255 238 11 0 0 0 0 0 0 0 0 0 0 0 0 0 0 0 0 0 0 0 0 0 1 6 78 247 239 84 40 51 90 179 255 67 54 255 245 108 43 47 82 144 163 97 54 40 76 226 252 63 5 0 0 0 0 0 0 0 0 0 0 0 6 127 255 149 97 119 151 134 114 97 97 119 170 166 58 57 102 203 255 39 2 0 0 0 0 0 0 0 0 0 0 0 0 0 0 0 0 0 0 0 0 0 0 0 5 74 247 233 77 38 49 88 173 255 255 255 155 78 47 59 211 239 225 255 93 5 0 0 0 0 0 0 0 0 0 0 0 0 2 32 255 242 123 46 44 71 136 255 220 10 0 0 0 0 0 0 11 237 255 142 74 48 72 233 229 212 255 68 4 0 0 0 0 0 0 0 0 0 0 4 85 255 172 87 50 54 193 251 201 194 255 146 8 0 0 0 0 0 0 0 0 0 0 0 0 0 0 0 0 0 0 0 0 0 0 0 0 0 0 4 61 255 255 219 63 42 63 127 255 255 187 89 50 45 105 236 255 34 3 0 0 0 0 0 0 0 0 2 37 255 254 247 87 44 58 105 197 255 255 20 12 166 255 189 111 63 45 85 245 214 205 255 73 4 0 0 0 0 0 0 0 0 0 0 0 0 0 0 0 0 0 0 0 0 0 0 0 0 0 0 0 0 0 0 0 0 0 0 0 0 0 0 0 0
0 0 0 0 0 0 0 0 0 0 0 0 0 0 0 0 0 0 0 0 0 0 0 0 0 0 0 0 0 0 0 0 0 0 0 0 0 0 0 0 0 0 0 0 0 0 0 0 0 0 0 0 0 0 0 0 0 0 0 0 0 0 0 0 0 0 0 0 0 0 0 0 0 0 0 0 0 0 1 9 153 214 238 168 39 31 51 102 208 255 34 2 0 1 19 255 225 109 53 33 54 231 194 137 88 54 33 32 117 226 161 153 201 255 34 2 0 0 0 0 0 0 0 0 0 0 5 101 255 155 74 40 39 128 159 118 103 106 119 144 77 45 60 100 153 52 36 55 93 133 174 238 89 32 41 82 179 255 255 236 231 51 28 42 82 173 255 76 208 255 132 62 34 31 104 253 237 255 237 112 54 31 37 161 220 197 238 215 11 1 0 0 0 0 0 0 0 0 0 0 0 0 0 0 0 0 0 0 0 0 0 0 0 0 0 0 0 0 0 0 0 0 0 0 0 0 0 0 0 0 0 1 26 255 195 222 252 52 14 11 17 78 255 190 137 87 52 32 40 180 196 142 143 229 255 18 1 0 0 0 0 0 0 0 0 0 0 0 0 0 0 0 0 0 0 0 0 0 0 0 0 5 103 255 133 66 39 25 22 26 30 28 36 63 129 255 214 10 0 0 0 0 0 0 0 0 0 0 0 1 31 255 203 99 50 32 31 33 33 29 38 71 153 255 97 5 0 0 0 0 0 0 0 0 0 0 0 0 0 0 0 0 0 0 0 0 2 28 255 208 230 208 43 29 48 99 211 255 255 208 229 245 57 29 41 59 64 47 31 42 193 236 198 255 24 1 0 0 0 0 0 0 0 0 0 3 59 255 173 86 68 105 118 98 79 65 62 73 106 173 70 36 55 114 239 255 17 1 0 0 0 0 0 0 0 0 0 0 0 0 0 0 0 0 0 0 0 0 0 1 28 255 188 231 193 39 28 47 97 218 255 188 86 43 34 101 215 153 142 186 255 43 2 0 0 0 0 0 0 0 0 0 0 1 9 159 229 226 239 64 28 37 71 150 255 85 4 0 0 0 0 5 97 255 154 74 40 38 134 202 143 139 200 255 32 1 0 0 0 0 0 0 0 0 2 39 255 190 93 47 33 85 231 153 113 114 162 255 58 3 0 0 0 0 0 0 0 0 0 0 0 0 0 0 0 0 0 0 0 0 0 0 0 0 1 25 255 201 195 231 122 33 36 69 130 164 97 49 31 54 217 220 216 151 9 1 0 0 0 0 0 0 1 12 234 227 192 211 189 43 33 53 97 171 255 113 77 255 157 91 53 33 40 163 181 131 131 190 255 31 1 0 0 0 0 0 0 0 0 0 0 0 0 0 0 0 0 0 0 0 0 0 0 0 0 0 0 0 0 0 0 0 0 0 0 0 0 0 0 0
0 0 0 0 0 0 0 0 0 0 0 0 0 0 0 0 0 0 0 0 0 0 0 0 0 0 0 0 0 0 0 0 0 0 0 0 0 0 0 0 0 0 0 0 0 0 0 0 0 0 0 0 0 0 0 0 0 0 0 0 0 0 0 0 0 0 0 0 0 0 0 0 0 0 0 0 0 0 3 58 255 158 163 238 67 19 25 50 113 248 255 15 1 7 148 255 125 55 27 23 96 187 108 64 38 23 17 40 220 137 92 85 120 246 255 15 1 0 0 0 0 0 0 0 0 2 48 255 181 82 37 22 45 173 105 74 62 66 80 110 90 34 35 61 119 58 21 24 38 60 93 149 180 32 22 41 87 148 149 153 211 110 21 21 41 95 228 255 255 153 68 31 19 41 239 175 148 149 108 55 26 19 59 227 142 120 147 255 80 4 0 0 0 0 0 0 0 0 0 0 0 0 0 0 0 0 0 0 0 0 0 0 0 0 0 0 0 0 0 0 0 0 0 0 0 0 0 0 0 0 0 10 198 254 138 135 187 100 12 5 20 172 156 101 62 37 22 19 58 208 118 80 84 135 255 146 7 0 0 0 0 0 0 0 0 0 0 0 0 0 0 0 0 0 0 0 0 0 0 0 2 44 255 161 72 35 21 13 12 14 16 15 18 31 66 147 255 88 4 0 0 0 0 0 0 0 0 0 1 13 255 249 111 50 25 16 17 19 18 15 19 36 81 177 255 44 2 0 0 0 0 0 0 0 0 0 0 0 0 0 0 0 0 0 0 0 9 165 242 152 153 230 85 20 24 51 121 255 255 162 151 208 130 23 18 21 22 19 20 84 242 157 150 255 149 8 0 0 0 0 0 0 0 0 1 29 255 206 95 47 47 80 78 64 50 40 36 41 63 113 95 27 28 58 131 255 132 7 0 0 0 0 0 0 0 0 0 0 0 0 0 0 0 0 0 0 0 0 0 9 176 245 142 152 240 78 19 23 49 100 140 89 43 23 37 184 130 87 79 113 224 255 18 1 0 0 0 0 0 0 0 0 0 3 63 255 154 147 192 148 25 19 35 79 175 255 38 2 0 0 2 46 255 177 80 37 22 46 201 122 81 79 118 247 245 12 1 0 0 0 0 0 0 1 15 255 227 103 46 24 31 161 140 84 58 60 93 191 255 24 1 0 0 0 0 0 0 0 0 0 0 0 0 0 0 0 0 0 0 0 0 0 0 0 9 190 255 133 114 144 217 44 20 32 52 61 42 24 23 103 201 146 149 255 57 3 0 0 0 0 0 0 5 87 255 143 115 134 213 71 20 24 44 85 167 255 255 193 87 41 23 19 55 195 108 72 73 112 239 219 11 1 0 0 0 0 0 0 0 0 0 0 0 0 0 0 0 0 0 0 0 0 0 0 0 0 0 0 0 0 0 0 0 0 0 0 0 0 0 0
0 0 0 0 0 0 0 0 0 0 0 0 0 0 0 0 0 0 0 0 0 0 0 0 0 0 0 0 0 0 0 0 0 0 0 0 0 0 0 0 0 0 0 0 0 0 0 0 0 0 0 0 0 0 0 0 0 0 0 0 0 0 0 0 0 0 0 0 0 0 0 0 0 0 0 0 0 1 25 255 192 112 103 155 169 21 12 24 57 139 255 140 10 61 255 154 65 27 14 28 185 106 56 28 15 9 12 73 176 84 49 44 66 140 255 125 6 0 0 0 0 0 0 0 1 20 255 219 99 41 18 15 66 139 70 43 35 38 50 75 104 30 20 36 72 66 15 10 15 25 46 89 196 52 13 19 37 58 70 86 130 242 35 11 20 50 128 255 207 86 34 15 15 96 201 111 78 61 43 24 12 18 136 150 87 67 88 175 255 36 2 0 0 0 0 0 0 0 0 0 0 0 0 0 0 0 0 0 0 0 0 0 0 0 0 0 0 0 0 0 0 0 0 0 0 0 0 0 0 0 4 86 255 150 86 76 106 203 23 6 39 212 91 48 26 15 9 16 105 128 69 43 46 75 161 255 63 3 0 0 0 0 0 0 0 0 0 0 0 0 0 0 0 0 0 0 0 0 0 1 18 255 213 92 37 17 9 6 5 6 6 6 8 14 32 78 182 255 42 2 0 0 0 0 0 0 0 0 5 114 255 140 57 24 11 7 7 9 8 7 9 17 40 97 218 255 18 1 0 0 0 0 0 0 0 0 0 0 0 0 0 0 0 0 0 3 64 255 143 95 93 140 218 27 12 25 63 130 148 105 91 128 248 40 9 7 7 8 27 232 152 97 98 150 255 60 3 0 0 0 0 0 0 1 12 255 255 116 49 26 31 53 47 38 29 22 18 21 35 67 128 27 15 28 68 160 255 58 3 0 0 0 0 0 0 0 0 0 0 0 0 0 0 0 0 0 0 0 4 71 255 144 93 94 148 221 26 12 22 39 50 36 20 15 59 178 80 46 41 62 128 255 145 7 0 0 0 0 0 0 0 0 1 29 255 192 102 87 122 241 46 11 17 39 98 228 255 15 1 1 21 255 222 98 40 17 15 73 150 73 43 42 64 138 255 91 5 0 0 0 0 0 0 6 117 255 127 52 22 14 46 189 82 43 28 29 49 111 255 178 9 0 0 0 0 0 0 0 0 0 0 0 0 0 0 0 0 0 0 0 0 0 0 4 80 255 148 78 63 88 170 86 15 13 18 20 16 12 32 214 126 88 103 190 255 24 1 0 0 0 0 2 39 255 171 85 64 80 132 150 21 11 19 41 102 245 255 118 46 19 10 15 95 128 64 38 38 60 135 255 83 4 0 0 0 0 0 0 0 0 0 0 0 0 0 0 0 0 0 0 0 0 0 0 0 0 0 0 0 0 0 0 0 0 0 0 0 0 0 0
0 0 0 0 0 0 0 0 0 0 0 0 0 0 0 0 0 0 0 0 0 0 0 0 0 0 0 0 0 0 0 0 0 0 0 0 0 0 0 0 0 0 0 0 0 0 0 0 0 0 0 0 0 0 0 0 0 0 0 0 0 0 0 0 0 0 0 0 0 0 0 0 0 0 0 0 0 10 210 255 124 74 65 104 251 48 8 11 29 75 174 255 137 255 201 88 34 13 9 52 193 70 28 12 6 4 18 183 104 50 25 22 35 77 174 255 56 3 0 0 0 0 0 0 8 168 255 126 52 20 9 16 127 91 47 25 18 20 30 55 115 33 12 20 42 77 13 4 5 10 22 55 124 110 14 8 14 21 30 46 88 197 90 11 10 26 63 109 92 44 17 8 30 255 124 66 38 24 16 9 7 39 255 99 51 37 51 106 242 255 15 1 0 0 0 0 0 0 0 0 0 0 0 0 0 0 0 0 0 0 0 0 0 0 0 0 0 0 0 0 0 0 0 0 0 0 0 0 0 2 44 255 195 90 51 42 73 193 53 12 87 133 57 23 11 5 5 26 201 78 38 22 24 40 92 204 255 29 1 0 0 0 0 0 0 0 0 0 0 0 0 0 0 0 0 0 0 0 0 7 135 255 126 50 19 8 4 2 2 2 2 2 3 6 15 41 105 235 255 18 1 0 0 0 0 0 0 3 55 255 181 78 29 11 5 3 3 3 3 2 3 8 20 51 127 255 143 7 0 0 0 0 0 0 0 0 0 0 0 0 0 0 0 0 1 29 255 193 90 57 56 96 227 66 10 12 29 52 61 58 53 86 179 100 9 3 3 7 66 232 103 59 60 92 200 255 29 1 0 0 0 0 0 5 110 255 151 62 25 13 18 30 25 20 15 10 8 10 19 47 142 35 9 14 35 91 209 255 28 1 0 0 0 0 0 0 0 0 0 0 0 0 0 0 0 0 0 2 35 255 194 89 58 57 101 242 70 9 9 14 16 13 8 16 136 114 51 24 20 33 71 164 255 66 3 0 0 0 0 0 0 1 11 236 255 120 64 52 83 165 132 13 8 19 53 134 255 126 6 8 165 255 130 52 19 9 18 149 90 43 22 21 34 77 176 255 40 2 0 0 0 0 3 55 255 170 70 26 11 12 87 128 53 21 12 14 26 62 151 255 74 4 0 0 0 0 0 0 0 0 0 0 0 0 0 0 0 0 0 0 0 0 2 39 255 194 87 45 34 53 105 224 24 6 6 6 6 9 68 197 87 54 66 121 255 179 9 0 0 0 1 17 255 235 104 49 35 45 87 227 40 7 8 20 56 111 118 64 24 8 5 24 197 80 37 19 19 32 77 180 255 38 2 0 0 0 0 0 0 0 0 0 0 0 0 0 0 0 0 0 0 0 0 0 0 0 0 0 0 0 0 0 0 0 0 0 0 0 0 0
0 0 0 0 0 0 0 0 0 0 0 0 0 0 0 0 0 0 0 0 0 0 0 0 0 0 0 0 0 0 0 0 0 0 0 0 0 0 0 0 0 0 0 0 0 0 0 0 0 0 0 0 0 0 0 0 0 0 0 0 0 0 0 0 0 0 0 0 0 0 0 0 0 0 0 0 4 93 255 162 78 50 44 80 163 162 13 6 14 41 104 241 255 255 126 50 18 7 13 145 127 52 15 5 2 5 51 251 83 31 13 10 18 43 103 221 255 27 1 0 0 0 0 4 75 255 169 72 27 10 6 35 238 78 32 13 8 10 18 49 118 42 9 11 30 105 15 3 2 4 11 34 87 255 32 5 5 8 13 25 61 126 255 30 6 12 28 41 36 20 8 9 96 226 96 41 18 9 6 4 11 133 184 81 32 21 30 64 149 255 151 7 0 0 0 0 0 0 0 0 0 0 0 0 0 0 0 0 0 0 0 0 0 0 0 0 0 0 0 0 0 0 0 0 0 0 0 0 1 21 255 247 118 54 31 26 55 122 189 46 255 87 36 11 4 2 6 63 194 66 22 11 11 21 52 124 255 248 12 1 0 0 0 0 0 0 0 0 0 0 0 0 0 0 0 0 0 0 3 59 255 172 75 28 9 3 1 1 1 1 1 1 1 2 7 22 60 140 255 158 7 0 0 0 0 0 1 26 255 227 107 44 15 5 2 1 1 1 1 1 1 3 9 28 74 174 255 67 3 0 0 0 0 0 0 0 0 0 0 0 0 0 0 1 12 253 255 123 56 34 35 70 141 251 21 6 12 19 24 29 32 59 116 255 30 2 2 17 233 138 73 38 38 57 127 255 255 13 1 0 0 0 2 50 255 188 87 34 12 6 9 14 12 9 6 4 3 4 11 41 121 57 8 7 18 52 128 255 227 11 0 0 0 0 0 0 0 0 0 0 0 0 0 0 0 0 1 16 255 255 122 56 37 37 74 149 255 23 4 4 5 4 5 39 255 89 33 13 10 17 40 99 216 255 34 1 0 0 0 0 0 5 103 255 156 73 40 32 57 116 255 43 6 10 29 80 181 255 67 81 255 166 74 28 10 6 42 234 72 26 11 10 18 44 108 237 255 16 1 0 0 1 27 255 226 104 40 13 6 24 230 86 35 11 5 6 13 35 92 202 255 36 2 0 0 0 0 0 0 0 0 0 0 0 0 0 0 0 0 0 0 1 17 255 250 119 51 25 19 34 88 235 73 6 2 2 3 19 228 126 65 35 43 76 160 255 77 4 0 0 7 136 255 144 62 29 19 28 70 162 103 9 4 10 28 45 47 31 12 4 6 56 210 70 22 9 9 17 45 112 245 255 15 1 0 0 0 0 0 0 0 0 0 0 0 0 0 0 0 0 0 0 0 0 0 0 0 0 0 0 0 0 0 0 0 0 0 0 0 0
0 0 0 0 0 0 0 0 0 0 0 0 0 0 0 0 0 0 0 0 0 0 0 0 0 0 0 0 0 0 0 0 0 0 0 0 0 0 0 0 0 0 0 0 0 0 0 0 0 0 0 0 0 0 0 0 0 0 0 0 0 0 0 0 0 0 0 0 0 0 0 0 0 0 0 2 48 255 205 100 52 34 33 65 119 255 54 5 7 23 63 138 234 173 81 30 9 6 46 255 103 41 9 2 2 15 230 161 81 22 7 5 9 24 61 136 255 255 12 1 0 0 2 37 255 212 103 43 15 5 9 107 189 98 26 7 4 4 13 55 116 75 9 7 32 155 24 3 1 2 6 24 88 209 121 8 2 3 5 14 45 106 239 139 10 5 11 14 13 8 5 34 255 141 77 27 9 4 2 4 47 255 131 70 23 11 17 40 91 189 255 74 3 0 0 0 0 0 0 0 0 0 0 0 0 0 0 0 0 0 0 0 0 0 0 0 0 0 0 0 0 0 0 0 0 0 0 0 9 214 255 149 71 33 18 17 45 108 255 255 255 91 25 6 2 2 19 255 132 65 15 5 5 11 30 74 160 255 109 5 0 0 0 0 0 0 0 0 0 0 0 0 0 0 0 0 0 1 26 255 217 106 46 15 4 1 0 0 0 0 0 0 0 1 3 11 35 84 179 255 74 4 0 0 0 0 11 237 255 138 63 25 7 2 1 0 0 0 0 0 0 1 4 15 45 108 220 255 34 1 0 0 0 0 0 0 0 0 0 0 0 0 0 5 110 255 163 77 37 21 24 55 112 255 85 7 4 7 9 13 19 44 100 225 137 8 5 67 255 107 54 25 23 37 79 165 255 121 6 0 0 1 23 255 230 113 51 19 6 3 3 5 4 3 2 1 1 2 7 39 99 158 14 4 10 30 77 162 255 94 5 0 0 0 0 0 0 0 0 0 0 0 0 0 0 0 7 152 255 158 76 37 23 26 58 117 255 103 7 2 1 2 10 144 190 94 25 7 4 8 23 60 133 255 255 16 1 0 0 0 2 51 255 199 95 46 25 21 44 101 203 226 15 5 16 48 112 233 255 255 219 101 43 15 5 12 159 171 79 19 6 4 9 25 65 145 255 124 6 0 1 11 234 255 139 63 23 7 7 78 237 89 25 6 2 2 6 20 56 125 255 255 17 1 0 0 0 0 0 0 0 0 0 0 0 0 0 0 0 0 0 7 140 255 149 71 31 14 10 25 82 152 255 25 2 1 5 72 255 108 52 25 29 49 100 208 255 41 2 3 60 255 180 88 38 16 10 18 59 114 255 32 3 4 11 17 17 13 5 3 16 228 140 75 16 5 4 9 27 68 149 255 117 6 0 0 0 0 0 0 0 0 0 0 0 0 0 0 0 0 0 0 0 0 0 0 0 0 0 0 0 0 0 0 0 0 0 0 0 0
0 0 0 0 0 0 0 0 0 0 0 0 0 0 0 0 0 0 0 0 0 0 0 0 0 0 0 0 0 0 0 0 0 0 0 0 0 0 0 0 0 0 0 0 0 0 0 0 0 0 0 0 0 0 0 0 0 0 0 0 0 0 0 0 0 0 0 0 0 0 0 0 0 0 1 24 255 244 123 62 34 23 26 59 101 189 255 21 5 13 37 71 100 83 49 18 6 15 231 190 105 37 7 1 5 79 255 126 87 19 4 2 4 13 37 81 167 255 123 6 0 1 17 255 255 127 62 26 8 4 38 255 139 142 30 5 2 2 12 84 127 229 21 8 52 167 50 4 1 1 4 21 96 145 255 45 3 1 2 9 37 90 151 255 55 5 4 4 4 3 11 181 229 109 65 19 5 1 1 17 255 206 110 68 17 6 9 24 55 112 220 255 39 2 0 0 0 0 0 0 0 0 0 0 0 0 0 0 0 0 0 0 0 0 0 0 0 0 0 0 0 0 0 0 0 0 0 5 94 255 176 87 43 20 10 12 45 118 223 255 184 111 24 4 1 6 95 255 122 76 13 3 2 5 17 45 96 196 255 54 3 0 0 0 0 0 0 0 0 0 0 0 0 0 0 0 0 10 220 255 132 64 27 8 2 1 0 0 0 0 0 0 0 0 1 6 20 50 107 216 255 38 2 0 0 5 96 255 166 81 37 13 4 1 0 0 0 0 0 0 0 1 2 8 27 64 132 255 255 16 1 0 0 0 0 0 0 0 0 0 0 0 3 55 255 195 98 49 23 12 17 49 95 164 255 33 3 2 3 5 11 37 87 146 255 53 26 255 157 89 44 17 14 24 49 98 193 255 57 3 1 9 188 255 139 66 29 10 3 1 1 1 1 1 1 0 0 1 6 44 119 255 50 4 5 17 46 96 196 255 46 2 0 0 0 0 0 0 0 0 0 0 0 0 0 3 67 255 183 93 47 23 14 18 51 92 159 255 40 2 1 3 48 255 134 104 24 4 2 4 13 36 78 159 255 149 7 0 0 1 23 255 234 119 58 29 15 14 38 88 139 255 85 7 9 29 68 144 255 255 137 62 25 8 6 59 255 135 101 18 3 2 4 14 40 88 178 255 56 3 5 92 255 163 81 38 13 5 29 255 152 105 24 4 1 1 3 11 34 75 156 255 149 7 0 0 0 0 0 0 0 0 0 0 0 0 0 0 0 0 3 65 255 181 88 43 18 7 6 20 82 123 255 128 7 2 26 255 163 99 47 18 18 32 62 128 255 255 21 29 255 216 108 53 23 9 5 13 57 107 220 152 9 2 4 6 6 4 2 5 75 255 123 92 15 3 2 4 15 42 89 181 255 52 3 0 0 0 0 0 0 0 0 0 0 0 0 0 0 0 0 0 0 0 0 0 0 0 0 0 0 0 0 0 0 0 0 0 0 0
0 0 0 0 0 0 0 0 0 0 0 0 0 0 0 0 0 0 0 0 0 0 0 0 0 0 0 0 0 0 0 0 0 0 0 0 0 0 0 0 0 0 0 0 0 0 0 0 0 0 0 0 0 0 0 0 0 0 0 0 0 0 0 0 0 0 0 0 0 0 0 0 0 0 10 207 255 141 70 37 21 15 22 61 85 129 255 142 9 7 19 32 39 35 25 10 7 82 255 131 102 39 6 2 34 255 174 105 106 21 3 1 2 7 21 47 95 193 255 62 3 7 142 255 148 72 35 14 5 14 234 217 131 173 53 5 1 2 22 200 183 255 84 18 136 132 191 13 1 1 3 22 111 116 210 255 16 1 1 6 32 76 105 204 255 23 2 1 1 4 66 255 141 81 57 14 3 1 6 109 255 135 90 75 15 4 5 13 32 63 127 252 255 17 1 0 0 0 0 0 0 0 0 0 0 0 0 0 0 0 0 0 0 0 0 0 0 0 0 0 0 0 0 0 0 0 2 45 255 199 100 50 25 10 5 10 60 119 123 149 116 133 30 4 2 39 255 163 115 117 16 2 1 3 9 26 55 114 226 255 24 1 0 0 0 0 0 0 0 0 0 0 0 0 0 0 5 95 255 159 76 37 15 4 1 0 0 0 0 0 0 0 0 0 1 3 10 29 61 126 252 255 17 1 2 44 255 190 95 46 21 7 2 0 0 0 0 0 0 0 0 0 1 4 15 37 75 154 255 139 7 0 0 0 0 0 0 0 0 0 0 1 27 255 228 113 57 30 13 7 12 48 79 114 237 191 11 1 1 2 7 34 78 105 204 255 216 255 112 73 39 11 7 14 29 56 110 221 255 28 5 78 255 165 79 38 16 5 1 0 0 0 0 0 0 0 0 1 8 76 166 187 255 17 3 9 26 55 115 235 255 22 1 0 0 0 0 0 0 0 0 0 0 0 1 31 255 208 104 53 28 13 8 13 49 73 107 221 255 14 2 17 255 193 110 117 28 4 1 2 6 20 45 89 179 255 66 3 1 9 194 255 135 67 35 16 8 9 35 78 98 181 255 39 6 16 40 80 136 131 77 37 14 5 26 255 196 122 146 24 3 1 2 7 23 51 105 217 255 30 43 255 187 93 46 21 7 11 170 248 123 125 28 4 1 0 1 6 19 44 88 177 255 67 3 0 0 0 0 0 0 0 0 0 0 0 0 0 0 1 31 255 214 105 51 24 9 3 4 20 89 97 151 255 49 11 148 254 119 91 49 13 10 19 38 73 148 255 238 255 255 128 62 31 13 4 3 11 65 98 140 255 56 4 1 2 2 1 2 30 255 170 117 135 20 2 1 2 8 24 52 106 218 255 23 1 0 0 0 0 0 0 0 0 0 0 0 0 0 0 0 0 0 0 0 0 0 0 0 0 0 0 0 0 0 0 0 0 0 0
0 0 0 0 0 0 0 0 0 0 0 0 0 0 0 0 0 0 0 0 0 0 0 0 0 0 0 0 0 0 0 0 0 0 0 0 0 0 0 0 0 0 0 0 0 0 0 0 0 0 0 0 0 0 0 0 0 0 0 0 0 0 0 0 0 0 0 0 0 0 0 0 0 4 85 255 159 76 38 21 11 8 19 71 73 85 162 255 63 6 8 12 14 13 11 6 36 255 171 94 96 49 7 14 255 242 114 90 131 28 3 1 1 3 10 25 51 107 221 255 37 65 255 171 81 39 19 7 7 89 255 141 117 149 167 12 1 5 73 245 207 173 255 128 255 157 255 64 4 1 3 28 121 91 130 255 98 6 1 4 27 63 70 125 255 138 8 1 2 27 255 184 91 61 51 11 2 3 44 255 164 87 77 94 16 3 2 6 17 34 67 141 255 139 7 0 0 0 0 0 0 0 0 0 0 0 0 0 0 0 0 0 0 0 0 0 0 0 0 0 0 0 0 0 0 1 19 255 229 112 53 27 12 5 3 14 123 107 65 64 71 128 49 6 15 255 225 111 114 187 30 3 1 1 4 13 30 61 129 255 184 9 0 0 0 0 0 0 0 0 0 0 0 0 0 2 47 255 191 90 42 20 7 2 0 0 0 0 0 0 0 0 0 0 0 1 5 15 33 68 142 255 138 8 18 255 226 108 51 25 10 3 1 0 0 0 0 0 0 0 0 0 0 2 7 20 41 84 175 255 61 3 0 0 0 0 0 0 0 0 0 11 224 255 131 61 31 16 6 4 10 53 68 75 138 255 66 4 1 1 5 32 71 73 129 255 255 165 79 62 35 8 4 7 15 30 59 127 255 246 56 255 194 93 43 20 8 2 1 0 0 0 0 0 0 0 0 1 20 229 174 139 255 99 7 5 13 30 63 135 255 185 9 0 0 0 0 0 0 0 0 0 0 1 13 255 255 119 56 28 14 6 4 10 50 59 70 134 255 98 11 107 255 125 91 120 38 4 1 1 3 10 24 48 99 205 255 32 5 79 255 159 74 36 19 8 4 7 33 69 68 112 235 255 17 9 21 38 54 52 37 20 7 12 187 255 129 112 166 43 4 1 1 4 12 28 58 128 255 255 255 232 108 50 25 11 7 69 255 148 98 131 43 4 1 0 1 3 10 24 48 98 207 255 34 1 0 0 0 0 0 0 0 0 0 0 0 0 1 12 249 255 123 58 28 12 4 2 3 21 99 78 98 203 255 102 255 145 83 83 58 11 5 10 21 40 81 176 255 255 160 71 34 16 6 2 2 13 91 91 98 192 255 22 1 1 0 1 11 221 246 117 116 171 36 3 1 1 4 12 28 59 127 255 174 8 0 0 0 0 0 0 0 0 0 0 0 0 0 0 0 0 0 0 0 0 0 0 0 0 0 0 0 0 0 0 0 0 0 0
0 0 0 0 0 0 0 0 0 0 0 0 0 0 0 0 0 0 0 0 0 0 0 0 0 0 0 0 0 0 0 0 0 0 0 0 0 0 0 0 0 0 0 0 0 0 0 0 0 0 0 0 0 0 0 0 0 0 0 0 0 0 0 0 0 0 0 0 0 0 0 0 2 41 255 187 86 39 19 10 5 5 20 96 68 55 95 202 255 30 4 4 4 4 4 15 244 234 106 66 86 78 15 108 255 141 72 84 133 49 5 1 0 1 5 12 26 56 123 255 255 255 206 95 42 20 9 5 41 255 174 92 99 134 255 54 5 28 255 169 155 134 255 255 234 180 181 255 25 2 4 40 110 74 80 159 255 39 2 4 20 48 46 72 149 255 52 3 9 183 254 110 55 45 45 9 2 17 255 210 97 56 74 126 21 3 1 3 7 16 34 75 167 255 62 3 0 0 0 0 0 0 0 0 0 0 0 0 0 0 0 0 0 0 0 0 0 0 0 0 0 0 0 0 0 7 142 255 129 58 27 13 5 2 3 36 245 106 37 28 44 100 129 17 109 255 134 76 118 170 78 6 1 1 2 6 15 31 68 150 255 74 4 0 0 0 0 0 0 0 0 0 0 0 1 20 255 225 107 48 22 9 3 1 0 0 0 0 0 0 0 0 0 0 0 1 2 7 16 35 76 167 255 81 166 255 129 57 26 12 4 1 0 0 0 0 0 0 0 0 0 0 0 1 3 9 20 44 95 203 255 28 1 0 0 0 0 0 0 0 4 87 255 149 69 32 15 7 3 2 10 65 59 49 82 175 255 26 1 1 5 31 63 52 79 163 191 99 55 52 30 6 2 3 7 15 31 67 152 255 255 255 111 49 22 10 3 1 0 0 0 0 0 0 0 0 0 5 84 249 157 104 163 255 43 4 6 15 33 72 159 255 79 4 0 0 0 0 0 0 0 0 0 5 107 255 145 64 29 14 6 3 2 9 53 49 45 78 167 255 145 255 163 80 77 105 64 6 1 0 1 4 11 24 52 116 253 255 59 255 188 88 39 18 9 3 2 5 29 60 47 65 133 255 102 9 9 16 19 19 15 9 7 77 255 153 82 101 130 117 9 1 0 2 5 14 31 70 162 255 255 138 58 26 12 6 33 255 190 93 80 112 97 8 1 0 0 1 4 11 24 52 118 253 255 15 1 0 0 0 0 0 0 0 0 0 0 0 5 94 255 143 65 30 14 5 2 1 3 26 105 67 62 125 255 255 216 90 58 78 84 12 3 4 10 20 43 97 195 187 90 39 17 7 3 1 2 21 155 94 68 118 255 145 8 1 0 5 86 255 145 80 113 141 84 7 1 0 2 5 14 31 69 154 255 73 4 0 0 0 0 0 0 0 0 0 0 0 0 0 0 0 0 0 0 0 0 0 0 0 0 0 0 0 0 0 0 0 0 0
0 0 0 0 0 0 0 0 0 0 0 0 0 0 0 0 0 0 0 0 0 0 0 0 0 0 0 0 0 0 0 0 0 0 0 0 0 0 0 0 0 0 0 0 0 0 0 0 0 0 0 0 0 0 0 0 0 0 0 0 0 0 0 0 0 0 0 0 0 0 0 1 17 255 230 105 44 19 8 4 2 4 27 142 74 38 53 116 255 223 12 2 1 2 6 93 255 134 62 48 85 183 101 255 171 79 48 80 112 148 11 1 0 1 2 5 12 28 65 154 255 255 122 49 21 9 4 18 255 227 103 60 81 117 176 255 34 203 248 125 97 94 149 220 153 145 126 255 157 9 7 65 86 59 49 94 215 255 15 3 13 33 28 40 85 192 255 25 71 255 143 62 33 32 35 7 7 120 255 121 54 38 84 141 34 3 1 1 3 7 16 38 92 202 255 29 1 0 0 0 0 0 0 0 0 0 0 0 0 0 0 0 0 0 0 0 0 0 0 0 0 0 0 0 3 61 255 156 68 29 12 5 2 1 10 160 183 115 26 13 28 96 255 173 255 166 77 56 109 127 255 25 1 0 1 2 6 15 34 82 186 255 34 2 0 0 0 0 0 0 0 0 0 0 8 154 255 125 55 24 10 4 1 0 0 0 0 0 0 0 0 0 0 0 0 0 1 3 7 16 39 93 217 255 255 166 70 29 12 5 2 1 0 0 0 0 0 0 0 0 0 0 0 0 1 4 9 21 49 115 255 214 10 0 0 0 0 0 0 2 40 255 178 80 34 15 7 3 1 2 13 102 58 33 47 104 250 147 8 1 4 29 54 36 43 68 76 51 37 42 23 4 1 1 3 6 15 35 86 202 255 148 61 25 10 4 1 0 0 0 0 0 0 0 0 0 2 35 255 158 115 76 101 218 255 18 3 7 16 37 86 191 255 38 2 0 0 0 0 0 0 0 2 48 255 171 78 32 14 6 2 1 1 9 61 41 29 44 99 255 255 248 100 52 65 90 175 15 1 0 1 2 5 11 26 61 143 255 255 255 107 45 19 8 3 1 1 4 24 48 32 36 73 165 255 44 6 5 6 6 5 5 36 255 186 87 54 84 112 255 37 2 0 1 2 6 15 37 86 168 160 76 31 12 6 14 228 248 112 57 64 105 255 29 2 0 0 0 2 5 11 26 61 140 255 130 6 0 0 0 0 0 0 0 0 0 0 2 42 255 171 76 33 14 6 2 1 1 4 33 97 62 41 76 171 235 123 55 43 83 150 19 2 2 4 9 21 46 78 75 44 19 8 3 1 1 4 45 183 114 51 68 147 255 56 3 2 38 255 178 84 57 99 111 255 25 2 0 1 2 6 15 36 85 191 255 35 2 0 0 0 0 0 0 0 0 0 0 0 0 0 0 0 0 0 0 0 0 0 0 0 0 0 0 0 0 0 0 0 0
0 0 0 0 0 0 0 0 0 0 0 0 0 0 0 0 0 0 0 0 0 0 0 0 0 0 0 0 0 0 0 0 0 0 0 0 0 0 0 0 0 0 0 0 0 0 0 0 0 0 0 0 0 0 0 0 0 0 0 0 0 0 0 0 0 0 0 0 0 0 0 7 134 255 130 54 22 8 3 1 1 5 54 163 109 30 29 62 143 255 86 5 1 2 40 255 170 75 36 40 124 255 255 239 98 44 34 81 122 255 50 3 0 0 1 2 5 13 33 80 150 136 65 25 9 4 8 131 255 131 58 39 66 90 121 255 255 255 147 82 58 58 71 91 84 93 82 146 255 67 18 159 70 47 30 52 126 255 109 7 7 17 15 21 46 114 255 255 255 184 81 34 18 19 22 8 58 255 162 68 30 32 112 122 67 6 1 0 1 3 7 19 48 115 255 250 12 1 0 0 0 0 0 0 0 0 0 0 0 0 0 0 0 0 0 0 0 0 0 0 0 0 0 1 30 255 201 87 35 13 5 2 1 4 63 255 135 109 23 8 24 119 236 255 248 98 44 43 91 118 240 135 7 0 0 1 2 6 17 43 107 243 255 14 1 0 0 0 0 0 0 0 0 3 68 255 156 66 27 11 4 1 0 0 0 0 0 0 0 0 0 0 0 0 0 0 0 1 3 7 19 50 125 255 224 97 37 14 5 2 1 0 0 0 0 0 0 0 0 0 0 0 0 0 0 1 4 9 24 60 144 255 85 4 0 0 0 0 1 18 255 231 101 41 16 6 3 1 1 2 25 184 79 24 26 58 137 255 56 3 4 24 42 24 21 26 27 23 22 29 14 3 1 0 1 2 6 17 44 90 116 71 31 12 4 2 1 0 0 0 0 0 0 0 0 1 13 255 232 111 76 54 60 128 255 131 8 3 7 18 44 108 238 255 16 1 0 0 0 0 0 1 22 255 216 95 39 16 6 2 1 0 1 11 81 38 18 24 57 134 212 130 58 35 60 112 255 54 3 0 0 1 2 5 12 31 82 197 255 148 59 23 9 3 1 1 1 3 16 33 20 20 39 95 214 255 17 2 2 2 2 14 255 239 106 48 36 70 113 196 203 11 1 0 1 2 7 18 40 65 63 36 15 6 7 82 255 138 61 36 57 126 216 156 8 0 0 0 1 2 5 12 31 74 172 255 62 3 0 0 0 0 0 0 0 0 1 19 255 224 98 39 15 6 2 1 0 1 5 45 81 61 29 41 75 94 60 33 37 118 195 42 4 1 2 4 9 19 27 27 18 8 3 1 0 1 10 155 139 137 47 40 85 193 255 24 16 255 229 102 48 42 83 114 229 116 7 0 0 1 2 7 17 44 109 244 255 14 1 0 0 0 0 0 0 0 0 0 0 0 0 0 0 0 0 0 0 0 0 0 0 0 0 0 0 0 0 0 0 0
0 0 0 0 0 0 0 0 0 0 0 0 0 0 0 0 0 0 0 0 0 0 0 0 0 0 0 0 0 0 0 0 0 0 0 0 0 0 0 0 0 0 0 0 0 0 0 0 0 0 0 0 0 0 0 0 0 0 0 0 0 0 0 0 0 0 0 0 0 0 3 60 255 167 71 28 10 4 1 1 1 14 207 148 179 36 17 33 80 181 255 39 3 14 255 225 100 41 22 50 193 212 244 133 55 24 28 97 148 192 255 20 1 0 0 1 2 6 15 36 57 54 31 12 4 4 57 255 168 74 32 26 53 68 85 180 255 217 93 51 33 31 30 35 41 52 52 88 198 255 138 255 93 39 19 29 73 172 255 55 5 7 7 10 25 67 174 255 255 113 45 18 9 9 11 34 255 216 96 38 18 36 152 114 229 18 1 0 0 1 3 9 24 62 147 255 101 5 0 0 0 0 0 0 0 0 0 0 0 0 0 0 0 0 0 0 0 0 0 0 0 0 1 13 255 255 118 47 17 6 2 1 2 30 255 195 107 94 22 7 28 137 148 206 131 56 26 35 76 102 147 255 55 3 0 0 1 3 8 22 58 140 255 118 6 0 0 0 0 0 0 0 2 35 255 203 89 34 13 5 2 1 0 0 0 0 0 0 0 0 0 0 0 0 0 0 0 0 1 3 9 25 63 110 97 50 19 6 2 1 0 0 0 0 0 0 0 0 0 0 0 0 0 0 0 0 1 4 11 31 80 184 255 39 2 0 0 0 7 148 255 135 55 20 7 3 1 0 0 5 71 195 179 28 15 32 82 193 255 24 4 16 29 14 9 9 9 9 11 15 7 2 0 0 0 1 3 8 19 35 42 30 14 5 2 1 0 0 0 0 0 0 0 0 0 5 96 255 138 72 48 36 36 73 165 255 56 4 3 8 22 57 136 255 125 6 0 0 0 0 0 8 173 255 128 51 19 7 2 1 0 0 2 17 138 46 12 13 29 60 83 59 32 25 72 153 169 255 19 1 0 0 1 2 5 16 43 89 115 72 31 11 4 1 0 0 0 2 8 18 11 10 20 52 125 255 94 6 1 1 5 95 255 137 58 26 25 64 105 133 255 80 4 0 0 1 3 7 16 23 22 15 6 4 34 255 173 78 34 24 64 135 149 255 64 3 0 0 0 1 2 5 15 39 97 214 255 31 1 0 0 0 0 0 0 0 7 154 255 132 53 20 7 2 1 0 0 1 8 77 71 67 22 20 29 34 26 19 47 176 156 151 10 1 1 1 3 6 9 9 6 3 1 0 0 3 53 255 131 136 53 25 47 115 255 207 155 255 132 56 27 32 73 110 145 255 47 2 0 0 1 3 8 23 59 139 255 127 6 0 0 0 0 0 0 0 0 0 0 0 0 0 0 0 0 0 0 0 0 0 0 0 0 0 0 0 0 0 0 0
0 0 0 0 0 0 0 0 0 0 0 0 0 0 0 0 0 0 0 0 0 0 0 0 0 0 0 0 0 0 0 0 0 0 0 0 0 0 0 0 0 0 0 0 0 0 0 0 0 0 0 0 0 0 0 0 0 0 0 0 0 0 0 0 0 0 0 0 0 1 28 255 212 98 39 14 4 1 0 0 4 72 255 171 191 69 13 17 44 108 238 255 21 94 255 133 57 23 19 103 180 129 109 66 30 15 32 145 156 144 255 155 8 0 0 0 1 2 6 14 20 19 12 5 3 24 255 209 99 41 18 17 42 52 59 97 146 107 56 31 18 15 12 13 18 27 31 53 124 255 255 220 172 47 13 16 42 104 227 255 29 3 3 5 13 40 99 181 149 68 25 9 4 4 18 255 255 128 54 21 14 61 164 162 255 80 5 0 0 0 1 4 12 33 84 185 255 47 2 0 0 0 0 0 0 0 0 0 0 0 0 0 0 0 0 0 0 0 0 0 0 0 6 119 255 153 67 25 8 3 1 1 12 251 255 127 84 77 22 7 39 128 87 86 61 30 16 30 66 88 102 207 255 24 1 0 0 1 3 11 31 80 179 255 55 3 0 0 0 0 0 1 15 255 255 121 50 18 6 2 1 0 0 0 0 0 0 0 0 0 0 0 0 0 0 0 0 0 0 1 4 12 27 41 38 23 9 3 1 0 0 0 0 0 0 0 0 0 0 0 0 0 0 0 0 0 1 2 5 16 44 109 239 255 16 1 0 3 63 255 169 76 29 10 3 1 0 0 1 26 255 173 247 67 11 18 48 120 255 180 11 9 15 7 4 3 3 3 4 6 3 1 0 0 0 0 1 3 7 12 14 11 5 2 1 0 0 0 0 0 0 0 0 0 2 44 255 178 83 46 30 23 21 41 97 210 255 24 2 3 11 30 76 171 255 55 3 0 0 0 4 72 255 160 72 27 9 3 1 0 0 0 3 37 205 109 13 6 13 24 30 24 16 25 134 169 140 255 128 7 0 0 0 1 2 7 20 36 43 31 14 5 2 0 0 0 0 1 3 7 5 5 10 28 73 165 255 38 2 2 40 255 177 79 32 15 20 67 97 98 189 255 40 2 0 0 1 3 5 7 7 5 3 13 232 239 105 43 19 21 96 128 115 203 255 29 1 0 0 0 1 2 7 20 53 125 255 255 13 1 0 0 0 0 0 3 67 255 168 75 29 10 3 1 0 0 0 1 19 219 89 90 19 9 10 11 10 15 93 176 150 255 53 3 0 0 1 2 3 3 2 1 0 0 1 20 255 193 137 120 75 19 27 68 163 255 255 188 78 31 16 26 72 104 109 216 255 21 1 0 0 1 3 11 31 79 180 255 63 3 0 0 0 0 0 0 0 0 0 0 0 0 0 0 0 0 0 0 0 0 0 0 0 0 0 0 0 0 0 0
0 0 0 0 0 0 0 0 0 0 0 0 0 0 0 0 0 0 0 0 0 0 0 0 0 0 0 0 0 0 0 0 0 0 0 0 0 0 0 0 0 0 0 0 0 0 0 0 0 0 0 0 0 0 0 0 0 0 0 0 0 0 0 0 0 0 0 0 0 10 214 255 127 55 21 7 2 1 0 2 30 255 189 173 154 220 22 10 25 63 142 255 255 255 174 80 33 14 35 255 134 75 47 30 15 11 57 189 149 110 173 255 71 3 0 0 0 1 2 5 6 6 4 2 9 167 255 125 56 23 10 11 32 41 39 47 58 48 30 17 8 6 4 5 7 12 18 32 76 159 228 172 222 109 14 9 24 60 136 255 239 12 1 2 7 22 50 74 65 37 13 4 2 7 126 255 158 73 31 12 19 184 156 196 180 255 34 2 0 0 0 2 5 17 47 110 231 255 21 1 0 0 0 0 0 0 0 0 0 0 0 0 0 0 0 0 0 0 0 0 0 3 56 255 186 88 37 13 4 1 1 5 108 255 156 81 68 64 20 10 69 100 51 35 25 15 10 26 64 80 73 131 255 209 10 0 0 0 1 5 16 45 106 223 255 27 1 0 0 0 0 7 141 255 151 69 27 9 3 1 0 0 0 0 0 0 0 0 0 0 0 0 0 0 0 0 0 0 0 0 2 5 10 14 13 9 4 1 0 0 0 0 0 0 0 0 0 0 0 0 0 0 0 0 0 0 0 1 2 8 24 63 141 255 121 6 2 28 255 208 98 42 15 5 1 0 0 0 9 172 255 175 179 255 24 10 28 72 160 255 79 7 5 3 1 1 1 1 1 2 1 0 0 0 0 0 0 1 2 4 4 3 2 1 0 0 0 0 0 0 0 0 0 1 21 255 235 109 50 28 17 12 11 23 56 127 255 187 10 2 5 16 43 102 217 255 25 1 0 2 35 255 202 94 40 14 4 1 0 0 0 1 8 126 192 255 40 5 5 8 10 9 9 46 242 161 119 173 255 56 3 0 0 0 1 3 8 13 14 11 6 2 1 0 0 0 0 0 1 2 2 2 5 15 42 104 231 255 15 15 255 230 108 46 17 8 18 86 96 76 122 250 255 19 1 0 0 1 2 2 2 2 5 91 255 144 62 24 11 29 188 123 90 129 255 244 12 1 0 0 0 1 3 10 29 70 154 255 117 6 0 0 0 0 1 33 255 209 98 42 15 4 1 0 0 0 0 5 79 255 215 177 27 5 3 4 5 29 255 149 151 201 255 21 1 0 0 1 1 1 1 0 0 0 7 152 255 137 130 115 155 23 16 41 102 216 230 115 47 17 9 24 88 103 83 138 255 176 8 0 0 0 1 5 16 45 107 224 255 33 1 0 0 0 0 0 0 0 0 0 0 0 0 0 0 0 0 0 0 0 0 0 0 0 0 0 0 0 0 0
0 0 0 0 0 0 0 0 0 0 0 0 0 0 0 0 0 0 0 0 0 0 0 0 0 0 0 0 0 0 0 0 0 0 0 0 0 0 0 0 0 0 0 0 0 0 0 0 0 0 0 0 0 0 0 0 0 0 0 0 0 0 0 0 0 0 0 0 4 87 255 156 73 31 11 3 1 0 1 12 236 255 137 140 145 255 80 9 13 37 86 197 255 255 112 47 19 15 118 218 112 46 21 12 7 18 202 167 133 89 109 213 255 37 2 0 0 0 1 1 2 2 1 4 69 255 161 73 32 12 5 7 22 30 24 21 21 19 14 7 3 2 1 2 3 5 9 19 43 75 102 120 180 255 39 7 13 35 77 160 255 97 5 1 3 10 22 28 26 17 6 2 3 57 255 185 90 41 17 10 68 255 169 166 142 250 255 14 1 0 0 1 2 9 26 63 138 255 174 8 0 0 0 0 0 0 0 0 0 0 0 0 0 0 0 0 0 0 0 0 1 27 255 223 109 50 20 6 2 1 3 55 255 191 93 54 59 55 19 22 208 84 32 15 10 6 6 24 73 81 56 81 164 255 92 4 0 0 1 2 8 25 61 133 255 229 11 0 0 0 3 69 255 183 86 39 14 4 1 0 0 0 0 0 0 0 0 0 0 0 0 0 0 0 0 0 0 0 0 0 1 2 3 4 4 3 1 0 0 0 0 0 0 0 0 0 0 0 0 0 0 0 0 0 0 0 0 0 1 4 13 36 82 175 255 54 14 218 255 125 56 23 8 2 1 0 0 4 70 255 167 144 146 255 112 12 16 43 96 201 255 41 3 1 0 0 0 0 0 0 0 0 0 0 0 0 0 0 1 1 1 1 1 0 0 0 0 0 0 0 0 0 0 9 213 255 142 65 30 15 8 5 5 12 32 74 162 255 75 5 2 8 24 59 131 255 226 10 1 15 255 255 122 54 22 7 2 1 0 0 0 3 48 255 187 230 255 15 2 3 3 3 13 162 195 145 104 113 216 255 25 1 0 0 0 1 3 4 4 4 2 1 0 0 0 0 0 0 0 1 1 1 2 8 25 63 140 255 121 125 255 136 63 26 9 5 24 148 113 66 77 148 255 173 8 0 0 0 0 1 1 2 41 255 187 88 37 13 10 73 216 137 79 82 157 255 98 5 0 0 0 0 1 5 15 39 88 187 255 56 3 0 0 1 15 255 255 125 56 23 7 2 1 0 0 0 2 34 255 192 255 254 77 6 1 1 8 103 233 145 134 141 255 148 7 0 0 0 0 0 0 0 0 3 66 255 171 100 119 141 241 52 12 24 58 96 100 62 27 9 6 29 136 113 71 87 171 255 74 4 0 0 1 2 8 25 61 132 255 255 14 1 0 0 0 0 0 0 0 0 0 0 0 0 0 0 0 0 0 0 0 0 0 0 0 0 0 0 0 0
0 0 0 0 0 0 0 0 0 0 0 0 0 0 0 0 0 0 0 0 0 0 0 0 0 0 0 0 0 0 0 0 0 0 0 0 0 0 0 0 0 0 0 0 0 0 0 0 0 0 0 0 0 0 0 0 0 0 0 0 0 0 0 0 0 0 0 2 42 255 191 90 41 17 5 1 0 0 5 98 255 154 94 105 129 170 255 34 8 21 51 109 183 141 69 29 13 46 255 141 88 30 10 5 7 72 255 152 111 76 69 126 255 255 17 1 0 0 0 0 1 1 2 31 255 200 96 43 17 6 2 3 11 17 12 9 7 7 5 3 1 1 0 1 1 2 4 9 21 33 45 78 135 220 232 15 7 19 43 90 187 255 45 3 1 4 8 10 9 7 3 2 27 255 217 107 49 22 10 30 255 188 158 121 104 154 255 123 6 0 0 0 1 4 14 35 78 165 255 75 4 0 0 0 0 0 0 0 0 0 0 0 0 0 0 0 0 0 0 0 11 243 255 131 60 27 10 3 1 1 28 255 229 112 54 37 55 49 22 93 255 113 24 7 3 2 4 26 104 99 50 51 95 197 255 47 2 0 0 1 4 13 34 75 159 255 95 5 0 2 36 255 217 105 48 21 7 2 0 0 0 0 0 0 0 0 0 0 0 0 0 0 0 0 0 0 0 0 0 0 0 1 1 1 1 1 0 0 0 0 0 0 0 0 0 0 0 0 0 0 0 0 0 0 0 0 0 0 0 2 6 19 47 103 216 255 167 255 152 71 31 12 3 1 0 0 2 33 255 200 109 107 112 164 255 49 11 25 55 119 248 255 19 1 0 0 0 0 0 0 0 0 0 0 0 0 0 0 0 0 0 0 0 0 0 0 0 0 0 0 0 0 5 94 255 171 81 38 17 7 3 2 2 6 17 43 95 195 255 34 3 4 12 33 75 161 255 98 12 137 255 149 69 30 11 3 1 0 0 0 1 20 255 217 162 160 255 100 6 1 1 4 53 255 145 116 92 75 130 255 228 10 0 0 0 0 1 1 1 1 1 0 0 0 0 0 0 0 0 0 0 0 1 4 14 38 84 184 255 255 185 81 36 14 5 6 55 209 159 73 51 85 173 255 75 4 0 0 0 0 1 16 255 233 112 52 21 8 27 255 159 143 83 55 92 187 255 45 2 0 0 0 1 2 7 21 49 108 221 255 26 1 0 6 132 255 153 71 32 12 3 1 0 0 0 1 13 255 251 157 180 198 255 30 2 2 36 255 151 127 111 97 165 255 63 3 0 0 0 0 0 0 1 31 255 207 105 76 114 170 179 213 19 14 28 38 39 29 14 5 7 58 193 142 72 57 100 200 255 34 2 0 0 1 4 13 34 73 151 255 124 6 0 0 0 0 0 0 0 0 0 0 0 0 0 0 0 0 0 0 0 0 0 0 0 0 0 0 0 0
0 0 0 0 0 0 0 0 0 0 0 0 0 0 0 0 0 0 0 0 0 0 0 0 0 0 0 0 0 0 0 0 0 0 0 0 0 0 0 0 0 0 0 0 0 0 0 0 0 0 0 0 0 0 0 0 0 0 0 0 0 0 0 0 0 0 1 18 255 235 111 50 22 8 2 1 0 2 48 255 186 92 64 76 101 121 243 223 16 11 28 52 73 62 38 17 21 240 204 101 65 21 5 3 29 255 177 126 93 68 45 70 146 255 166 8 0 0 0 0 0 1 12 236 253 117 54 23 8 3 1 2 4 7 5 3 2 2 2 1 0 0 0 0 0 1 1 4 9 13 20 48 89 146 255 91 8 9 22 49 108 229 255 21 1 1 2 3 3 2 1 11 207 255 127 58 26 11 14 177 255 133 118 85 73 92 178 255 55 3 0 0 0 2 6 18 42 93 199 255 37 2 0 0 0 0 0 0 0 0 0 0 0 0 0 0 0 0 0 5 104 255 157 72 32 14 5 1 1 12 255 255 131 62 32 27 54 49 78 255 176 161 29 4 1 1 5 43 175 151 57 33 54 113 234 255 22 1 0 0 2 6 18 41 88 187 255 45 3 16 255 254 123 57 26 10 3 1 0 0 0 0 0 0 0 0 0 0 0 0 0 0 0 0 0 0 0 0 0 0 0 0 0 0 0 0 0 0 0 0 0 0 0 0 0 0 0 0 0 0 0 0 0 0 0 0 0 0 0 1 3 9 25 57 130 255 255 205 88 39 16 5 2 0 0 1 13 253 251 120 70 74 80 107 213 255 22 14 30 66 144 255 157 8 0 0 0 0 0 0 0 0 0 0 0 0 0 0 0 0 0 0 0 0 0 0 0 0 0 0 0 2 45 255 195 94 45 20 8 3 1 1 1 3 9 23 52 113 245 255 13 2 6 17 41 90 191 255 212 255 175 82 38 16 5 1 0 0 0 0 8 170 255 143 116 108 178 255 44 2 1 18 255 182 110 89 80 52 75 158 255 96 5 0 0 0 0 0 0 0 0 0 0 0 0 0 0 0 0 0 0 0 0 2 7 21 49 111 243 241 113 48 20 7 3 18 255 178 185 113 39 48 97 199 255 35 2 0 0 0 5 101 255 134 62 29 12 11 134 255 135 128 102 42 52 108 225 255 18 1 0 0 0 1 3 10 26 59 127 255 205 10 3 59 255 175 84 39 16 5 2 0 0 0 0 6 116 255 153 108 105 146 250 181 10 11 188 215 113 100 86 67 99 204 255 30 1 0 0 0 0 1 12 247 255 121 63 62 112 150 143 255 82 11 12 14 14 11 6 3 17 239 177 165 94 41 56 115 245 255 13 1 0 0 2 6 17 39 83 180 255 58 3 0 0 0 0 0 0 0 0 0 0 0 0 0 0 0 0 0 0 0 0 0 0 0 0 0 0 0
0 0 0 0 0 0 0 0 0 0 0 0 0 0 0 0 0 0 0 0 0 0 0 0 0 0 0 0 0 0 0 0 0 0 0 0 0 0 0 0 0 0 0 0 0 0 0 0 0 0 0 0 0 0 0 0 0 0 0 0 0 0 0 0 0 0 7 149 255 133 60 26 10 3 1 0 1 22 255 226 107 53 43 55 73 81 144 255 92 10 13 21 26 24 17 14 94 255 125 68 46 13 3 11 193 249 119 93 79 64 31 38 79 171 255 74 4 0 0 0 0 5 88 255 143 64 28 12 4 1 0 1 1 2 2 1 1 1 0 0 0 0 0 0 0 0 1 1 3 5 9 28 55 92 177 255 41 6 11 25 58 132 255 178 9 1 1 1 1 1 4 81 255 149 68 30 13 9 69 255 149 86 78 58 49 53 100 210 255 24 1 0 0 1 3 9 22 50 114 244 255 15 1 0 0 0 0 0 0 0 0 0 0 0 0 0 0 0 2 50 255 185 86 38 16 6 2 1 6 112 255 153 70 32 18 21 63 114 255 247 133 160 49 5 1 1 11 159 201 199 105 26 29 60 132 255 178 9 0 0 1 3 8 21 47 106 227 255 28 131 255 142 65 29 12 4 1 0 0 0 0 0 0 0 0 0 0 0 0 0 0 0 0 0 0 0 0 0 0 0 0 0 0 0 0 0 0 0 0 0 0 0 0 0 0 0 0 0 0 0 0 0 0 0 0 0 0 0 0 0 1 4 12 31 75 162 209 113 49 20 8 2 1 0 0 5 98 255 141 67 43 48 55 66 126 255 114 13 16 35 78 166 255 67 3 0 0 0 0 0 0 0 0 0 0 0 0 0 0 0 0 0 0 0 0 0 0 0 0 0 1 20 255 228 108 49 23 10 4 1 0 0 0 1 4 11 27 61 140 255 102 6 3 8 21 48 111 255 255 239 101 44 19 7 2 1 0 0 0 4 71 255 164 87 75 69 106 222 255 19 6 101 255 118 77 67 68 37 43 88 187 255 45 2 0 0 0 0 0 0 0 0 0 0 0 0 0 0 0 0 0 0 0 1 3 11 27 59 104 103 60 27 10 3 7 110 255 158 156 190 44 28 51 113 243 255 13 1 0 2 40 255 162 74 33 15 8 57 255 152 105 107 131 40 30 58 129 255 132 7 0 0 0 0 1 5 13 30 68 151 255 86 35 255 209 97 44 20 8 2 1 0 0 0 3 55 255 179 90 67 60 91 146 255 77 72 255 128 77 74 64 45 57 119 255 232 11 1 0 0 0 5 101 255 144 66 39 56 104 110 111 172 255 35 6 5 4 4 2 6 85 255 160 151 147 39 32 62 139 255 100 5 0 0 1 3 8 19 44 101 212 255 26 1 0 0 0 0 0 0 0 0 0 0 0 0 0 0 0 0 0 0 0 0 0 0 0 0 0 0
0 0 0 0 0 0 0 0 0 0 0 0 0 0 0 0 0 0 0 0 0 0 0 0 0 0 0 0 0 0 0 0 0 0 0 0 0 0 0 0 0 0 0 0 0 0 0 0 0 0 0 0 0 0 0 0 0 0 0 0 0 0 0 0 0 3 67 255 166 73 31 13 5 1 0 1 9 198 255 129 58 29 27 37 49 52 85 180 255 44 7 8 9 8 9 42 255 165 77 44 29 8 6 71 255 145 75 66 69 65 23 21 41 94 200 255 35 2 0 0 2 38 255 176 80 34 14 5 2 0 0 0 0 1 0 0 0 0 0 0 0 0 0 0 0 0 0 0 1 2 4 14 32 54 105 227 255 16 5 12 30 71 161 255 77 4 0 0 0 2 37 255 184 82 35 15 7 30 255 184 88 54 47 37 30 30 54 121 255 214 10 0 0 0 1 4 10 26 60 136 255 123 6 0 0 0 0 0 0 0 0 0 0 0 0 0 0 1 23 255 222 104 45 19 7 3 1 3 54 255 183 82 36 16 10 22 156 255 255 143 95 117 125 10 1 3 58 255 185 178 240 38 17 31 70 158 255 74 4 0 0 1 3 9 24 56 130 255 255 255 171 76 33 14 5 2 1 0 0 0 0 0 0 0 0 0 0 0 0 0 0 0 0 0 0 0 0 0 0 0 0 0 0 0 0 0 0 0 0 0 0 0 0 0 0 0 0 0 0 0 0 0 0 0 0 0 0 0 0 0 1 2 6 16 38 69 83 54 25 10 3 1 0 0 2 46 255 175 78 37 25 29 34 40 73 159 255 48 10 17 40 92 199 255 32 1 0 0 0 0 0 0 0 0 0 0 0 0 0 0 0 0 0 0 0 0 0 0 0 0 7 149 255 130 56 25 10 4 1 0 0 0 0 0 2 5 13 32 78 175 255 47 3 4 10 25 61 133 197 123 55 22 9 3 1 0 0 0 1 33 255 195 93 51 45 42 60 130 255 145 55 255 157 75 53 51 55 26 24 47 105 227 255 20 1 0 0 0 0 0 0 0 0 0 0 0 0 0 0 0 0 0 0 0 1 5 13 27 39 39 27 13 5 4 51 255 173 124 124 181 75 19 26 60 137 255 99 5 1 14 255 216 95 39 17 8 27 255 202 99 79 94 143 51 19 31 70 159 255 56 3 0 0 0 1 2 6 14 35 84 188 255 255 255 121 51 22 9 3 1 0 0 0 1 26 255 216 102 51 38 33 53 88 192 255 255 183 81 52 52 45 30 32 65 144 255 96 5 0 0 2 48 255 180 80 36 25 54 89 77 79 112 236 187 12 2 1 1 2 36 255 170 128 127 179 53 20 33 77 173 255 45 2 0 0 1 3 9 22 53 120 255 201 10 0 0 0 0 0 0 0 0 0 0 0 0 0 0 0 0 0 0 0 0 0 0 0 0 0 0
0 0 0 0 0 0 0 0 0 0 0 0 0 0 0 0 0 0 0 0 0 0 0 0 0 0 0 0 0 0 0 0 0 0 0 0 0 0 0 0 0 0 0 0 0 0 0 0 0 0 0 0 0 0 0 0 0 0 0 0 0 0 0 0 1 33 255 205 94 38 15 6 2 1 0 4 87 255 161 70 30 15 15 23 30 32 49 106 229 255 18 3 3 3 15 232 225 101 46 26 15 6 30 255 183 87 48 48 65 72 19 11 21 49 113 246 255 15 1 1 15 255 230 103 43 17 6 2 1 0 0 0 0 0 0 0 0 0 0 0 0 0 0 0 0 0 0 0 0 1 2 6 16 30 58 131 255 95 7 6 15 38 90 197 255 37 2 0 1 15 255 237 107 44 18 7 12 176 253 110 50 31 26 21 16 15 28 66 156 255 96 5 0 0 0 1 4 12 31 75 173 255 59 3 0 0 0 0 0 0 0 0 0 0 0 0 0 9 195 255 128 55 22 9 3 1 1 25 255 220 103 43 18 7 8 66 255 240 139 78 66 103 255 38 4 25 255 198 148 147 212 100 14 16 37 88 194 255 35 2 0 0 1 4 11 29 74 183 255 248 101 40 16 6 2 1 0 0 0 0 0 0 0 0 0 0 0 0 0 0 0 0 0 0 0 0 0 0 0 0 0 0 0 0 0 0 0 0 0 0 0 0 0 0 0 0 0 0 0 0 0 0 0 0 0 0 0 0 0 0 0 1 2 7 16 26 29 22 11 4 1 0 0 1 21 255 226 102 42 19 13 15 19 22 41 94 208 255 19 9 20 48 116 255 255 14 1 0 0 0 0 0 0 0 0 0 0 0 0 0 0 0 0 0 0 0 0 0 0 3 62 255 160 70 29 11 4 2 1 0 0 0 0 0 1 2 6 16 42 101 222 255 21 2 4 12 30 58 76 55 27 11 4 1 0 0 0 1 14 255 250 113 50 28 24 24 34 73 165 255 255 234 99 47 36 38 42 18 13 24 56 131 255 183 8 0 0 0 0 0 0 0 0 0 0 0 0 0 0 0 0 0 0 0 1 2 5 10 13 13 10 5 3 24 255 220 111 89 95 123 178 23 14 31 76 172 255 44 8 104 255 127 52 20 8 12 163 255 123 62 61 88 124 89 16 16 37 92 205 255 25 1 0 0 0 1 2 6 17 45 114 255 255 161 67 26 10 4 1 0 0 0 0 11 234 255 125 55 27 20 17 29 52 120 255 255 119 51 34 34 29 18 17 34 80 183 255 48 2 1 20 255 223 103 43 19 17 57 73 54 55 68 136 255 62 4 1 1 15 255 235 114 94 106 141 103 17 17 41 101 222 255 18 1 0 0 1 4 10 27 64 150 255 85 4 0 0 0 0 0 0 0 0 0 0 0 0 0 0 0 0 0 0 0 0 0 0 0 0 0
0 0 0 0 0 0 0 0 0 0 0 0 0 0 0 0 0 0 0 0 0 0 0 0 0 0 0 0 0 0 0 0 0 0 0 0 0 0 0 0 0 0 0 0 0 0 0 0 0 0 0 0 0 0 0 0 0 0 0 0 0 0 0 1 15 255 255 119 51 20 7 2 1 0 2 43 255 197 90 38 15 7 7 11 16 17 27 59 134 255 107 6 1 5 75 255 132 58 26 14 7 13 205 252 110 50 30 37 74 98 18 6 10 25 61 142 255 133 7 6 116 255 135 57 22 8 3 1 0 0 0 0 0 0 0 0 0 0 0 0 0 0 0 0 0 0 0 0 0 0 1 3 7 15 32 75 169 255 41 4 7 19 49 114 245 255 15 1 6 120 255 138 59 23 8 7 69 255 147 63 28 16 12 10 7 7 14 36 89 195 255 49 2 0 0 1 2 5 15 41 101 219 255 30 1 0 0 0 0 0 0 0 0 0 0 0 4 83 255 160 70 28 11 4 1 1 10 192 255 127 55 22 8 4 27 255 202 131 70 42 50 112 196 215 23 198 255 131 104 109 139 255 34 9 19 47 114 250 255 15 1 0 1 2 5 15 41 95 155 119 56 21 7 2 1 0 0 0 0 0 0 0 0 0 0 0 0 0 0 0 0 0 0 0 0 0 0 0 0 0 0 0 0 0 0 0 0 0 0 0 0 0 0 0 0 0 0 0 0 0 0 0 0 0 0 0 0 0 0 0 0 0 1 3 6 9 10 8 4 2 1 0 0 9 182 255 133 56 22 9 6 7 8 11 22 53 123 255 89 9 10 25 64 149 255 118 6 0 0 0 0 0 0 0 0 0 0 0 0 0 0 0 0 0 0 0 0 0 1 27 255 201 92 37 14 5 2 1 0 0 0 0 0 0 0 1 2 8 22 56 131 255 162 8 2 5 13 22 27 21 12 5 1 0 0 0 0 6 132 255 146 63 27 14 11 12 18 41 101 238 255 143 61 29 23 26 28 11 6 12 29 73 166 255 83 4 0 0 0 0 0 0 0 0 0 0 0 0 0 0 0 0 0 0 0 1 2 3 4 4 3 2 10 188 255 131 68 63 71 99 237 56 10 16 41 102 224 255 89 255 173 74 29 10 7 63 255 153 71 41 51 88 111 223 27 9 19 51 122 255 205 10 0 0 0 0 1 3 8 24 64 131 155 86 36 13 4 1 0 0 0 0 5 95 255 157 69 29 13 9 8 14 30 68 127 131 70 32 20 19 15 9 9 18 44 108 233 255 24 9 153 255 129 56 23 10 14 66 61 39 36 42 82 177 255 22 1 6 116 255 143 74 69 85 108 237 31 10 22 55 130 255 134 7 0 0 0 1 4 13 34 86 193 255 43 2 0 0 0 0 0 0 0 0 0 0 0 0 0 0 0 0 0 0 0 0 0 0 0 0
0 0 0 0 0 0 0 0 0 0 0 0 0 0 0 0 0 0 0 0 0 0 0 0 0 0 0 0 0 0 0 0 0 0 0 0 0 0 0 0 0 0 0 0 0 0 0 0 0 0 0 0 0 0 0 0 0 0 0 0 0 0 0 7 141 255 152 67 27 10 3 1 0 1 19 255 241 116 50 20 7 3 3 4 6 8 14 33 78 171 255 44 4 27 255 171 80 34 14 6 7 87 255 150 65 29 19 35 124 169 28 4 5 12 33 82 182 255 73 63 255 179 80 32 11 4 1 0 0 0 0 0 0 0 0 0 0 0 0 0 0 0 0 0 0 0 0 0 0 0 0 1 3 7 17 43 105 231 255 17 4 9 26 64 143 255 114 9 56 255 180 80 33 12 5 31 255 195 90 37 15 8 5 4 3 3 7 19 50 114 239 255 25 1 0 0 1 2 7 22 57 130 255 255 13 1 0 0 0 0 0 0 0 0 0 2 41 255 200 93 38 14 5 1 1 4 76 255 158 71 29 11 4 10 179 255 136 69 35 23 45 118 142 255 255 255 163 85 73 81 109 222 136 12 9 25 64 149 255 130 6 0 0 1 2 7 21 43 61 51 28 10 3 1 0 0 0 0 0 0 0 0 0 0 0 0 0 0 0 0 0 0 0 0 0 0 0 0 0 0 0 0 0 0 0 0 0 0 0 0 0 0 0 0 0 0 0 0 0 0 0 0 0 0 0 0 0 0 0 0 0 0 0 1 2 3 3 2 1 1 0 0 4 82 255 169 76 31 11 4 2 2 3 5 11 30 74 166 255 36 6 13 35 85 180 255 52 3 0 0 0 0 0 0 0 0 0 0 0 0 0 0 0 0 0 0 0 0 11 238 255 121 51 20 7 2 1 0 0 0 0 0 0 0 0 0 1 3 11 31 75 168 255 70 4 2 5 7 9 7 4 2 1 0 0 0 3 64 255 185 85 35 14 6 5 5 9 23 58 113 134 80 37 17 13 15 15 5 3 5 15 40 96 206 255 43 2 0 0 0 0 0 0 0 0 0 0 0 0 0 0 0 0 0 0 0 1 1 1 1 1 5 79 255 163 77 43 45 59 91 157 232 18 9 22 58 137 255 255 255 108 43 15 6 26 255 195 92 42 28 51 103 136 234 80 9 10 28 70 159 255 90 4 0 0 0 0 1 4 12 32 55 61 41 18 6 2 1 0 0 0 2 44 255 191 90 38 15 6 3 3 7 16 34 52 53 37 18 11 8 6 4 4 9 24 61 138 255 220 92 255 165 73 30 11 5 15 97 59 30 23 26 49 113 255 129 10 52 255 179 86 50 54 74 108 212 95 11 11 30 75 167 255 57 3 0 0 1 2 6 18 49 116 244 255 19 1 0 0 0 0 0 0 0 0 0 0 0 0 0 0 0 0 0 0 0 0 0 0 0
0 0 0 0 0 0 0 0 0 0 0 0 0 0 0 0 0 0 0 0 0 0 0 0 0 0 0 0 0 0 0 0 0 0 0 0 0 0 0 0 0 0 0 0 0 0 0 0 0 0 0 0 0 0 0 0 0 0 0 0 0 0 3 67 255 186 89 38 14 4 1 0 0 8 162 255 143 66 28 10 3 1 1 1 2 3 7 18 46 107 226 255 27 146 253 111 49 19 7 5 42 255 196 93 39 17 14 64 249 224 74 6 2 6 18 47 109 231 255 255 237 110 47 17 5 2 0 0 0 0 0 0 0 0 0 0 0 0 0 0 0 0 0 0 0 0 0 0 0 0 0 0 1 3 9 25 64 142 255 126 8 5 13 36 84 181 255 116 255 224 109 47 18 6 12 193 255 122 55 21 7 3 2 1 1 1 3 10 28 65 142 255 213 10 0 0 0 1 3 11 32 75 160 255 108 5 0 0 0 0 0 0 0 0 1 19 255 249 120 53 21 7 2 1 2 36 255 198 94 40 15 5 5 73 255 165 86 38 17 15 51 124 118 223 255 230 105 58 53 64 86 143 255 51 7 13 37 87 181 255 57 3 0 0 1 3 9 17 22 19 12 5 1 0 0 0 0 0 0 0 0 0 0 0 0 0 0 0 0 0 0 0 0 0 0 0 0 0 0 0 0 0 0 0 0 0 0 0 0 0 0 0 0 0 0 0 0 0 0 0 0 0 0 0 0 0 0 0 0 0 0 0 0 0 1 1 1 1 0 0 0 2 41 255 208 100 44 17 5 2 1 1 1 2 5 17 46 108 238 209 14 7 19 48 107 222 255 22 1 0 0 0 0 0 0 0 0 0 0 0 0 0 0 0 0 0 0 5 99 255 161 72 29 10 3 1 0 0 0 0 0 0 0 0 0 0 0 1 5 16 44 101 209 255 33 2 2 2 3 2 1 1 0 0 0 1 31 255 223 109 49 19 7 3 2 2 4 12 30 48 54 40 21 9 6 6 6 2 1 2 7 22 55 123 249 255 20 1 0 0 0 0 0 0 0 0 0 0 0 0 0 0 0 0 0 0 0 0 0 0 2 38 255 202 97 46 28 34 57 90 127 255 84 9 12 34 87 193 255 149 67 26 8 11 164 255 122 55 25 22 72 154 172 163 255 30 6 15 41 95 202 255 46 2 0 0 0 0 2 5 14 21 22 17 8 3 1 0 0 0 1 20 255 238 114 51 20 7 3 1 1 3 7 15 19 20 16 9 5 3 2 1 2 4 12 34 80 172 255 255 227 101 42 16 5 4 25 184 87 25 13 15 30 72 158 255 110 255 224 109 53 35 47 79 115 147 255 37 7 16 44 102 214 255 25 1 0 0 1 3 9 27 67 145 255 162 8 0 0 0 0 0 0 0 0 0 0 0 0 0 0 0 0 0 0 0 0 0 0 0
0 0 0 0 0 0 0 0 0 0 0 0 0 0 0 0 0 0 0 0 0 0 0 0 0 0 0 0 0 0 0 0 0 0 0 0 0 0 0 0 0 0 0 0 0 0 0 0 0 0 0 0 0 0 0 0 0 0 0 0 0 1 35 255 222 110 52 21 7 2 1 0 4 71 255 177 84 38 15 5 1 0 0 0 1 1 3 10 28 66 140 255 255 255 150 71 30 10 4 18 255 244 121 57 24 10 25 255 229 205 255 29 2 3 9 27 65 143 255 255 148 67 28 9 2 1 0 0 0 0 0 0 0 0 0 0 0 0 0 0 0 0 0 0 0 0 0 0 0 0 0 0 0 1 4 14 39 88 182 255 57 5 7 20 50 114 255 255 255 138 65 28 9 7 76 255 154 75 34 12 4 1 1 0 0 0 1 5 15 38 82 167 255 90 4 0 0 0 1 5 17 43 94 190 255 49 2 0 0 0 0 0 0 0 8 169 255 149 71 31 11 3 1 1 16 255 255 122 56 23 8 4 34 255 204 105 55 21 9 13 85 129 103 126 174 122 67 42 41 58 74 107 208 255 22 8 21 51 108 219 255 26 1 0 0 1 3 6 7 7 4 2 1 0 0 0 0 0 0 0 0 0 0 0 0 0 0 0 0 0 0 0 0 0 0 0 0 0 0 0 0 0 0 0 0 0 0 0 0 0 0 0 0 0 0 0 0 0 0 0 0 0 0 0 0 0 0 0 0 0 0 0 0 0 0 0 0 0 0 0 1 18 255 251 125 59 25 8 2 1 0 0 0 1 2 9 28 69 144 255 76 7 10 27 63 136 255 171 8 0 0 0 0 0 0 0 0 0 0 0 0 0 0 0 0 0 2 48 255 196 97 43 16 5 1 0 0 0 0 0 0 0 0 0 0 0 0 1 2 8 25 60 127 255 253 13 1 1 1 1 0 0 0 0 1 13 255 255 133 64 28 10 3 1 1 1 2 5 13 19 20 17 10 4 2 2 2 1 1 1 3 11 32 71 148 255 168 8 0 0 0 0 0 0 0 0 0 0 0 0 0 0 0 0 0 0 0 0 0 1 16 255 253 124 58 28 18 28 72 107 112 179 255 37 8 20 52 93 113 78 41 15 8 71 255 162 76 34 16 28 195 212 184 146 254 170 12 8 24 57 123 244 255 21 1 0 0 0 1 2 5 7 7 6 3 1 0 0 0 0 8 176 255 145 67 29 11 3 1 0 0 1 3 5 7 7 6 3 2 1 1 0 1 2 6 19 47 106 223 255 139 62 25 8 3 6 66 222 225 36 8 8 18 47 105 246 255 255 140 65 33 27 53 114 134 129 236 218 15 9 25 61 132 255 204 10 0 0 0 1 4 15 39 85 176 255 71 3 0 0 0 0 0 0 0 0 0 0 0 0 0 0 0 0 0 0 0 0 0 0
0 0 0 0 0 0 0 0 0 0 0 0 0 0 0 0 0 0 0 0 0 0 0 0 0 0 0 0 0 0 0 0 0 0 0 0 0 0 0 0 0 0 0 0 0 0 0 0 0 0 0 0 0 0 0 0 0 0 0 0 1 15 255 255 134 65 30 11 3 1 0 2 34 255 213 106 50 22 7 2 1 0 0 0 0 0 1 5 16 42 90 198 255 247 104 47 18 6 8 128 255 147 73 35 14 12 126 255 181 183 255 214 11 2 4 15 39 82 140 144 86 42 16 5 1 0 0 0 0 0 0 0 0 0 0 0 0 0 0 0 0 0 0 0 0 0 0 0 0 0 0 0 0 1 2 7 24 55 112 222 255 26 4 11 31 71 149 246 178 87 39 16 6 37 255 197 96 47 20 6 2 0 0 0 0 0 1 2 7 21 48 99 202 255 45 2 0 0 1 2 9 25 55 115 232 255 22 1 0 0 0 0 0 4 77 255 178 88 42 17 5 1 1 7 153 255 156 74 33 12 4 15 255 255 127 66 35 12 6 24 228 145 99 70 74 59 41 32 36 63 74 82 137 255 141 11 11 30 64 134 255 216 10 1 0 0 1 2 2 2 1 1 0 0 0 0 0 0 0 0 0 0 0 0 0 0 0 0 0 0 0 0 0 0 0 0 0 0 0 0 0 0 0 0 0 0 0 0 0 0 0 0 0 0 0 0 0 0 0 0 0 0 0 0 0 0 0 0 0 0 0 0 0 0 0 0 0 0 0 0 7 147 255 149 73 35 13 4 1 0 0 0 0 0 1 5 17 45 93 188 255 34 6 15 38 81 168 255 70 4 0 0 0 0 0 0 0 0 0 0 0 0 0 0 0 1 24 255 240 119 58 26 8 2 1 0 0 0 0 0 0 0 0 0 0 0 0 0 1 4 14 36 75 155 255 99 5 0 0 0 0 0 0 0 5 111 255 159 77 37 15 5 1 0 0 0 1 2 5 7 7 6 4 2 1 1 0 0 0 0 2 6 18 42 87 177 255 73 4 0 0 0 0 0 0 0 0 0 0 0 0 0 0 0 0 0 0 0 0 6 126 255 153 74 35 16 12 32 150 156 110 127 249 255 17 12 28 41 46 37 23 9 36 255 209 103 48 21 14 93 255 211 166 131 163 255 69 8 13 34 72 146 255 197 9 0 0 0 0 1 2 2 2 2 1 0 0 0 0 4 76 255 177 87 40 16 5 1 0 0 0 0 1 2 2 2 2 1 1 0 0 0 0 1 3 10 28 62 105 118 77 39 14 4 2 23 255 193 255 130 11 4 11 32 72 147 249 183 89 41 21 25 105 206 165 120 155 255 84 9 14 37 80 165 255 88 4 0 0 1 2 7 22 50 105 213 255 35 2 0 0 0 0 0 0 0 0 0 0 0 0 0 0 0 0 0 0 0 0 0
0 0 0 0 0 0 0 0 0 0 0 0 0 0 0 0 0 0 0 0 0 0 0 0 0 0 0 0 0 0 0 0 0 0 0 0 0 0 0 0 0 0 0 0 0 0 0 0 0 0 0 0 0 0 0 0 0 0 0 0 6 125 255 160 79 39 17 5 1 0 1 15 255 255 131 64 30 12 3 1 0 0 0 0 0 0 1 2 9 27 60 113 176 134 73 33 11 6 59 255 184 90 45 21 11 62 255 190 138 142 176 255 94 5 2 8 23 44 61 62 46 25 9 2 1 0 0 0 0 0 0 0 0 0 0 0 0 0 0 0 0 0 0 0 0 0 0 0 0 0 0 0 0 0 1 4 13 34 69 138 255 201 11 6 18 44 78 107 88 53 24 9 18 255 255 127 61 30 11 3 1 0 0 0 0 0 0 1 3 11 28 60 125 248 255 21 1 0 0 1 4 14 33 69 144 255 185 9 0 0 0 0 2 41 255 217 108 53 25 9 2 1 4 72 255 191 95 46 20 6 8 132 255 160 79 43 22 7 8 90 255 189 117 43 31 27 24 24 37 100 99 73 94 179 255 66 9 17 39 82 169 255 93 5 0 0 0 1 1 1 0 0 0 0 0 0 0 0 0 0 0 0 0 0 0 0 0 0 0 0 0 0 0 0 0 0 0 0 0 0 0 0 0 0 0 0 0 0 0 0 0 0 0 0 0 0 0 0 0 0 0 0 0 0 0 0 0 0 0 0 0 0 0 0 0 0 0 0 0 3 68 255 181 89 44 20 7 2 0 0 0 0 0 0 1 2 9 29 61 123 255 255 16 8 22 50 104 208 255 33 1 0 0 0 0 0 0 0 0 0 0 0 0 0 0 11 233 255 148 72 35 14 4 1 0 0 0 0 0 0 0 0 0 0 0 0 0 0 0 2 7 21 46 95 193 255 47 2 0 0 0 0 0 3 54 255 196 96 47 21 7 2 1 0 0 0 0 1 1 2 2 2 1 1 0 0 0 0 0 0 1 3 9 24 52 107 214 255 37 2 0 0 0 0 0 0 0 0 0 0 0 0 0 0 0 0 0 0 3 56 255 183 93 46 21 9 11 81 255 223 137 97 157 255 111 11 13 17 17 16 11 19 255 255 132 66 32 14 46 255 204 167 140 122 118 207 255 33 8 20 43 87 179 255 89 4 0 0 0 0 0 1 1 1 0 0 0 0 2 36 255 211 107 53 24 8 2 1 0 0 0 0 0 0 1 1 1 0 0 0 0 0 0 0 1 5 16 33 46 49 39 22 7 2 8 156 255 182 193 255 52 4 6 21 49 80 109 90 55 27 15 54 255 242 192 129 113 195 255 40 9 22 50 102 207 255 45 2 0 0 1 3 12 30 64 132 255 255 16 1 0 0 0 0 0 0 0 0 0 0 0 0 0 0 0 0 0 0 0 0
0 0 0 0 0 0 0 0 0 0 0 0 0 0 0 0 0 0 0 0 0 0 0 0 0 0 0 0 0 0 0 0 0 0 0 0 0 0 0 0 0 0 0 0 0 0 0 0 0 0 0 0 0 0 0 0 0 0 0 3 58 255 190 97 49 23 8 2 1 0 6 133 255 162 81 40 18 6 2 0 0 0 0 0 0 0 0 1 4 17 39 61 77 68 51 23 7 30 255 227 116 58 29 13 36 255 232 133 106 109 121 210 255 50 3 4 11 21 25 25 22 13 4 1 0 0 0 0 0 0 0 0 0 0 0 0 0 0 0 0 0 0 0 0 0 0 0 0 0 0 0 0 0 0 0 2 7 21 44 86 172 255 90 7 10 25 38 45 40 30 14 11 129 255 161 82 42 18 5 1 0 0 0 0 0 0 0 0 1 5 16 37 77 153 255 196 9 0 0 0 2 7 19 44 89 176 255 81 4 0 0 1 20 255 255 135 67 33 14 4 1 2 36 255 224 116 60 29 11 6 67 255 197 101 52 28 12 5 39 255 190 195 170 38 14 12 12 19 69 248 205 95 73 117 224 255 35 10 24 52 105 207 255 47 2 0 0 0 0 0 0 0 0 0 0 0 0 0 0 0 0 0 0 0 0 0 0 0 0 0 0 0 0 0 0 0 0 0 0 0 0 0 0 0 0 0 0 0 0 0 0 0 0 0 0 0 0 0 0 0 0 0 0 0 0 0 0 0 0 0 0 0 0 0 0 0 0 0 2 36 255 224 113 56 27 10 3 1 0 0 0 0 0 0 0 1 5 18 43 82 163 255 121 10 13 32 65 132 255 255 14 1 0 0 0 0 0 0 0 0 0 0 0 0 5 109 255 178 91 45 21 7 2 0 0 0 0 0 0 0 0 0 0 0 0 0 0 0 0 1 3 11 29 60 122 243 255 22 1 0 0 0 1 25 255 236 123 60 29 11 3 1 0 0 0 0 0 0 0 1 1 1 0 0 0 0 0 0 0 0 0 1 4 13 32 66 134 255 255 18 1 0 0 0 0 0 0 0 0 0 0 0 0 0 0 0 0 1 28 255 229 114 58 29 12 6 36 255 230 214 188 95 106 194 255 54 7 6 6 6 10 116 255 161 83 44 21 27 255 253 152 124 120 120 92 137 255 235 16 11 26 55 110 214 255 46 2 0 0 0 0 0 0 0 0 0 0 1 15 255 255 131 66 33 13 4 1 0 0 0 0 0 0 0 0 0 0 0 0 0 0 0 0 0 1 2 7 15 19 19 18 10 4 4 69 255 185 152 151 226 255 22 4 12 31 41 46 42 32 17 28 255 255 203 181 153 94 129 252 255 20 13 32 65 129 252 255 21 1 0 0 2 6 18 40 81 162 255 136 7 0 0 0 0 0 0 0 0 0 0 0 0 0 0 0 0 0 0 0 0
0 0 0 0 0 0 0 0 0 0 0 0 0 0 0 0 0 0 0 0 0 0 0 0 0 0 0 0 0 0 0 0 0 0 0 0 0 0 0 0 0 0 0 0 0 0 0 0 0 0 0 0 0 0 0 0 0 0 1 30 255 231 117 60 30 13 4 1 0 3 60 255 191 99 52 25 9 3 1 0 0 0 0 0 0 0 0 1 2 9 24 30 33 33 33 15 16 245 255 142 74 38 18 23 255 255 148 94 88 87 86 133 249 255 26 3 5 8 9 10 9 5 2 0 0 0 0 0 0 0 0 0 0 0 0 0 0 0 0 0 0 0 0 0 0 0 0 0 0 0 0 0 0 0 0 1 3 12 29 56 108 209 255 48 7 12 17 18 17 15 10 64 255 190 100 55 29 10 3 1 0 0 0 0 0 0 0 0 1 2 8 23 49 93 181 255 86 4 0 0 1 3 10 28 57 109 213 255 42 2 0 8 184 255 159 82 43 20 7 2 1 16 255 255 136 71 38 17 7 37 255 231 121 65 36 17 7 18 255 251 157 166 194 55 9 5 7 34 255 255 255 207 78 80 140 255 255 19 15 34 67 128 247 255 22 1 0 0 0 0 0 0 0 0 0 0 0 0 0 0 0 0 0 0 0 0 0 0 0 0 0 0 0 0 0 0 0 0 0 0 0 0 0 0 0 0 0 0 0 0 0 0 0 0 0 0 0 0 0 0 0 0 0 0 0 0 0 0 0 0 0 0 0 0 0 0 0 1 15 255 255 139 71 36 15 5 1 0 0 0 0 0 0 0 0 1 2 10 30 57 104 197 255 62 10 19 43 83 165 255 139 6 0 0 0 0 0 0 0 0 0 0 0 3 56 255 209 108 57 29 11 3 1 0 0 0 0 0 0 0 0 0 0 0 0 0 0 0 0 0 1 6 17 40 77 151 255 199 9 0 0 0 11 236 255 144 75 39 17 6 2 0 0 0 0 0 0 0 0 0 0 0 0 0 0 0 0 0 0 0 0 0 2 7 19 43 83 163 255 160 8 0 0 0 0 0 0 0 0 0 0 0 0 0 0 0 1 11 241 255 144 72 37 17 6 17 255 255 176 165 189 126 80 123 233 255 24 3 2 4 52 255 191 100 55 30 23 188 255 163 110 96 110 126 85 92 163 255 100 11 15 35 68 130 252 255 23 1 0 0 0 0 0 0 0 0 0 6 132 255 158 81 42 19 7 2 0 0 0 0 0 0 0 0 0 0 0 0 0 0 0 0 0 0 0 1 3 6 7 7 7 4 3 33 255 219 129 120 115 153 255 170 10 7 17 19 19 18 16 18 167 255 181 146 150 166 99 90 157 255 127 14 20 42 80 153 255 204 9 0 0 1 3 9 25 52 99 189 255 63 3 0 0 0 0 0 0 0 0 0 0 0 0 0 0 0 0 0 0 0
0 0 0 0 0 0 0 0 0 0 0 0 0 0 0 0 0 0 0 0 0 0 0 0 0 0 0 0 0 0 0 0 0 0 0 0 0 0 0 0 0 0 0 0 0 0 0 0 0 0 0 0 0 0 0 0 0 1 13 255 255 142 72 38 18 6 2 1 1 28 255 222 115 61 33 14 4 1 0 0 0 0 0 0 0 0 0 0 1 4 11 13 13 14 17 14 120 255 167 86 47 25 18 153 255 170 93 71 80 77 66 83 150 255 255 12 2 3 3 3 3 2 1 0 0 0 0 0 0 0 0 0 0 0 0 0 0 0 0 0 0 0 0 0 0 0 0 0 0 0 0 0 0 0 0 0 1 6 18 37 67 128 249 255 26 6 6 6 6 7 34 255 225 116 63 37 18 5 1 0 0 0 0 0 0 0 0 0 0 1 4 13 31 57 108 209 255 42 2 0 0 1 5 16 36 67 130 255 255 21 5 82 255 180 93 51 27 11 3 1 7 150 255 158 81 45 23 10 20 255 255 139 73 43 24 10 10 129 255 161 122 131 154 129 12 3 13 220 255 206 206 255 148 65 87 163 255 127 15 21 43 77 149 255 205 9 0 0 0 0 0 0 0 0 0 0 0 0 0 0 0 0 0 0 0 0 0 0 0 0 0 0 0 0 0 0 0 0 0 0 0 0 0 0 0 0 0 0 0 0 0 0 0 0 0 0 0 0 0 0 0 0 0 0 0 0 0 0 0 0 0 0 0 0 0 0 0 6 127 255 158 83 45 22 8 2 1 0 0 0 0 0 0 0 0 0 1 5 20 41 66 119 230 255 35 12 28 53 100 194 255 65 3 0 0 0 0 0 0 0 0 0 1 27 255 236 125 65 36 17 5 1 0 0 0 0 0 0 0 0 0 0 0 0 0 0 0 0 0 0 1 3 9 26 50 91 177 255 87 4 0 5 98 255 172 87 47 24 9 3 1 0 0 0 0 0 0 0 0 0 0 0 0 0 0 0 0 0 0 0 0 0 1 3 10 27 52 96 183 255 70 3 0 0 0 0 0 0 0 0 0 0 0 0 0 0 5 103 255 167 87 47 24 9 10 140 255 173 123 120 149 179 80 80 143 255 151 8 2 21 255 225 117 63 37 25 112 255 188 105 82 84 115 135 96 68 102 194 255 51 10 22 43 78 152 255 237 11 0 0 0 0 0 0 0 0 3 63 255 191 96 51 26 10 3 1 0 0 0 0 0 0 0 0 0 0 0 0 0 0 0 0 0 0 0 0 1 2 2 2 2 2 14 255 255 137 90 93 89 102 177 255 78 7 7 8 7 7 11 88 255 186 120 104 119 148 127 73 99 188 255 66 14 27 50 91 181 255 97 5 0 0 1 4 14 33 60 114 224 255 32 1 0 0 0 0 0 0 0 0 0 0 0 0 0 0 0 0 0 0
0 0 0 0 0 0 0 0 0 0 0 0 0 0 0 0 0 0 0 0 0 0 0 0 0 0 0 0 0 0 0 0 0 0 0 0 0 0 0 0 0 0 0 0 0 0 0 0 0 0 0 0 0 0 0 0 0 6 118 255 163 83 44 23 9 3 1 1 11 238 255 133 67 37 20 7 2 1 0 0 0 0 0 0 0 0 0 0 0 2 4 5 5 6 10 69 255 197 99 52 30 19 83 255 187 99 60 59 84 79 57 54 88 172 255 110 6 1 1 1 1 1 0 0 0 0 0 0 0 0 0 0 0 0 0 0 0 0 0 0 0 0 0 0 0 0 0 0 0 0 0 0 0 0 0 0 1 3 9 24 42 76 148 255 224 12 2 2 3 15 253 255 136 69 40 23 10 3 1 0 0 0 0 0 0 0 0 0 0 0 2 6 18 35 64 124 246 255 19 1 0 1 2 8 22 41 76 152 255 218 59 255 209 105 55 31 15 5 2 4 71 255 185 92 48 27 13 13 166 255 160 81 45 27 14 8 63 255 184 104 94 102 130 255 37 8 91 255 187 136 137 179 245 86 58 97 189 255 70 15 26 47 87 173 255 88 4 0 0 0 0 0 0 0 0 0 0 0 0 0 0 0 0 0 0 0 0 0 0 0 0 0 0 0 0 0 0 0 0 0 0 0 0 0 0 0 0 0 0 0 0 0 0 0 0 0 0 0 0 0 0 0 0 0 0 0 0 0 0 0 0 0 0 0 0 0 3 56 255 182 92 49 28 12 4 1 0 0 0 0 0 0 0 0 0 0 1 3 11 27 42 71 138 255 255 21 17 34 60 114 220 255 31 1 0 0 0 0 0 0 0 0 10 220 255 139 72 39 21 9 3 1 0 0 0 0 0 0 0 0 0 0 0 0 0 0 0 0 0 0 0 1 5 15 31 55 104 206 255 44 4 46 255 197 102 52 28 13 4 1 0 0 0 0 0 0 0 0 0 0 0 0 0 0 0 0 0 0 0 0 0 0 0 1 5 15 32 56 107 213 255 35 2 0 0 0 0 0 0 0 0 0 0 0 0 2 51 255 197 98 53 30 14 8 72 255 194 109 85 88 116 178 110 59 86 166 255 59 11 147 255 137 70 40 27 74 255 211 112 68 66 88 133 147 136 62 65 119 236 255 27 13 26 47 88 174 255 102 5 0 0 0 0 0 0 1 31 255 223 114 58 31 15 5 1 0 0 0 0 0 0 0 0 0 0 0 0 0 0 0 0 0 0 0 0 0 0 1 1 1 1 6 121 255 157 84 65 74 73 70 109 210 255 40 4 3 2 4 44 255 214 115 79 75 95 124 163 76 66 114 223 255 38 17 31 55 106 209 255 50 2 0 1 2 7 19 37 67 135 255 255 13 1 0 0 0 0 0 0 0 0 0 0 0 0 0 0 0 0 0
0 0 0 0 0 0 0 0 0 0 0 0 0 0 0 0 0 0 0 0 0 0 0 0 0 0 0 0 0 0 0 0 0 0 0 0 0 0 0 0 0 0 0 0 0 0 0 0 0 0 0 0 0 0 0 0 3 54 255 188 93 48 26 12 4 1 1 5 98 255 161 77 39 21 10 3 1 0 0 0 0 0 0 0 0 0 0 0 0 1 1 1 2 3 36 255 230 116 58 31 19 52 255 215 108 58 41 60 113 107 59 38 52 99 195 255 52 3 0 0 0 0 0 0 0 0 0 0 0 0 0 0 0 0 0 0 0 0 0 0 0 0 0 0 0 0 0 0 0 0 0 0 0 0 0 0 0 1 4 13 25 45 85 171 255 90 5 1 6 104 255 158 79 41 24 12 4 1 0 0 0 0 0 0 0 0 0 0 0 0 1 3 9 20 37 71 146 255 158 8 0 0 1 4 11 24 45 87 179 255 255 255 125 61 32 17 7 2 2 37 255 217 109 54 28 15 10 79 255 182 92 47 26 15 8 36 255 223 111 68 74 86 127 200 164 62 255 199 116 86 87 119 189 167 52 58 112 226 255 43 16 27 51 101 202 255 43 2 0 0 0 0 0 0 0 0 0 0 0 0 0 0 0 0 0 0 0 0 0 0 0 0 0 0 0 0 0 0 0 0 0 0 0 0 0 0 0 0 0 0 0 0 0 0 0 0 0 0 0 0 0 0 0 0 0 0 0 0 0 0 0 0 0 0 0 1 25 255 218 108 53 28 15 6 2 0 0 0 0 0 0 0 0 0 0 0 0 1 5 15 26 42 80 163 255 143 16 20 35 65 130 255 255 13 1 0 0 0 0 0 0 4 90 255 162 79 41 22 11 4 1 0 0 0 0 0 0 0 0 0 0 0 0 0 0 0 0 0 0 0 0 1 2 7 18 33 60 122 245 255 50 255 235 116 58 31 16 6 2 0 0 0 0 0 0 0 0 0 0 0 0 0 0 0 0 0 0 0 0 0 0 0 0 1 2 7 18 33 62 128 255 255 14 1 0 0 0 0 0 0 0 0 0 0 1 24 255 234 117 58 31 17 8 40 255 223 115 69 60 68 94 138 175 59 54 101 204 255 131 255 168 82 42 26 50 255 234 122 66 47 64 120 159 161 187 81 46 71 142 255 197 17 14 27 51 100 198 255 50 2 0 0 0 0 1 13 255 255 132 66 35 18 7 2 1 0 0 0 0 0 0 0 0 0 0 0 0 0 0 0 0 0 0 0 0 0 0 0 0 0 3 56 255 188 93 53 49 63 63 51 66 126 252 255 17 2 1 17 255 244 128 70 53 59 81 110 163 110 51 69 134 255 249 23 18 32 61 122 239 255 23 1 0 1 3 10 21 40 78 156 255 116 6 0 0 0 0 0 0 0 0 0 0 0 0 0 0 0 0 0
0 0 0 0 0 0 0 0 0 0 0 0 0 0 0 0 0 0 0 0 0 0 0 0 0 0 0 0 0 0 0 0 0 0 0 0 0 0 0 0 0 0 0 0 0 0 0 0 0 0 0 0 0 0 0 1 25 255 223 111 53 27 13 5 2 1 2 47 255 193 95 45 22 10 4 1 0 0 0 0 0 0 0 0 0 0 0 0 0 0 0 0 1 14 255 255 135 66 33 19 31 255 252 127 62 34 33 92 187 190 98 31 31 56 114 229 255 24 1 0 0 0 0 0 0 0 0 0 0 0 0 0 0 0 0 0 0 0 0 0 0 0 0 0 0 0 0 0 0 0 0 0 0 0 0 0 0 1 2 6 13 25 49 98 194 255 40 4 47 255 188 92 45 24 12 5 2 1 0 0 0 0 0 0 0 0 0 0 0 0 0 1 4 10 20 41 84 173 255 70 3 0 0 2 5 12 25 51 108 226 255 159 74 35 17 8 3 2 16 255 255 128 62 31 15 9 40 255 209 105 52 27 14 8 20 255 255 135 67 47 63 84 119 144 255 255 255 122 70 55 56 77 126 225 78 40 66 134 255 255 24 15 29 57 119 243 255 19 1 0 0 0 0 0 0 0 0 0 0 0 0 0 0 0 0 0 0 0 0 0 0 0 0 0 0 0 0 0 0 0 0 0 0 0 0 0 0 0 0 0 0 0 0 0 0 0 0 0 0 0 0 0 0 0 0 0 0 0 0 0 0 0 0 0 0 9 189 255 131 62 30 15 7 2 1 0 0 0 0 0 0 0 0 0 0 0 0 1 2 7 14 25 46 93 185 255 72 14 19 37 74 157 255 124 6 0 0 0 0 0 2 43 255 195 95 45 22 11 5 2 0 0 0 0 0 0 0 0 0 0 0 0 0 0 0 0 0 0 0 0 0 0 1 3 8 18 35 70 146 255 255 255 143 67 33 17 7 3 1 0 0 0 0 0 0 0 0 0 0 0 0 0 0 0 0 0 0 0 0 0 0 0 0 0 1 3 8 17 35 73 151 255 123 6 0 0 0 0 0 0 0 0 0 0 10 200 255 139 67 33 17 9 22 255 255 131 67 44 45 57 81 112 190 92 40 61 129 255 255 237 105 49 25 32 255 255 137 69 39 37 91 185 173 167 182 162 44 44 83 170 255 99 12 15 28 56 116 235 255 24 1 0 0 0 6 124 255 158 75 38 19 9 3 1 0 0 0 0 0 0 0 0 0 0 0 0 0 0 0 0 0 0 0 0 0 0 0 0 0 1 25 255 223 112 55 34 39 59 60 39 42 73 148 255 128 7 6 107 255 144 74 43 37 50 77 106 139 186 55 43 78 157 255 117 15 18 35 68 139 255 218 10 1 0 1 4 10 22 44 90 187 255 56 3 0 0 0 0 0 0 0 0 0 0 0 0 0 0 0 0
0 0 0 0 0 0 0 0 0 0 0 0 0 0 0 0 0 0 0 0 0 0 0 0 0 0 0 0 0 0 0 0 0 0 0 0 0 0 0 0 0 0 0 0 0 0 0 0 0 0 0 0 0 0 0 10 221 255 133 63 30 14 6 2 1 1 22 255 236 115 55 26 11 4 2 1 0 0 0 0 0 0 0 0 0 0 0 0 0 0 0 0 5 95 255 153 76 37 19 18 156 255 148 73 36 21 44 231 231 242 255 46 20 32 64 137 255 223 10 0 0 0 0 0 0 0 0 0 0 0 0 0 0 0 0 0 0 0 0 0 0 0 0 0 0 0 0 0 0 0 0 0 0 0 0 0 0 0 1 2 6 13 27 55 115 238 255 40 255 229 114 53 25 12 5 2 1 0 0 0 0 0 0 0 0 0 0 0 0 0 0 0 1 4 10 22 48 102 212 255 35 2 0 1 2 5 13 29 61 107 129 84 43 19 8 3 1 7 143 255 152 73 35 16 8 19 255 251 124 59 29 14 7 11 173 255 160 78 42 36 64 100 115 123 237 255 156 74 42 34 36 52 89 164 184 39 40 77 153 255 129 14 16 32 68 145 255 161 8 0 0 0 0 0 0 0 0 0 0 0 0 0 0 0 0 0 0 0 0 0 0 0 0 0 0 0 0 0 0 0 0 0 0 0 0 0 0 0 0 0 0 0 0 0 0 0 0 0 0 0 0 0 0 0 0 0 0 0 0 0 0 0 0 0 4 75 255 161 76 36 16 7 3 1 0 0 0 0 0 0 0 0 0 0 0 0 0 0 1 3 6 13 26 53 107 214 255 37 11 20 43 91 191 255 59 3 0 0 0 1 19 255 240 117 55 25 11 5 2 1 0 0 0 0 0 0 0 0 0 0 0 0 0 0 0 0 0 0 0 0 0 0 0 1 3 8 19 40 88 190 255 188 87 39 18 8 3 1 0 0 0 0 0 0 0 0 0 0 0 0 0 0 0 0 0 0 0 0 0 0 0 0 0 0 0 1 3 8 19 42 88 186 255 59 3 0 0 0 0 0 0 0 0 4 81 255 164 79 38 18 8 12 164 255 152 74 39 28 35 55 78 100 147 198 44 40 83 175 234 137 65 30 22 135 255 157 78 39 24 45 202 203 168 155 158 239 78 31 49 100 204 255 52 9 15 31 66 140 255 209 10 0 0 3 60 255 192 92 43 20 9 4 1 0 0 0 0 0 0 0 0 0 0 0 0 0 0 0 0 0 0 0 0 0 0 0 0 0 0 9 193 255 132 64 33 22 33 64 68 33 26 43 86 176 255 61 51 255 172 84 43 26 27 50 90 113 128 198 98 33 46 92 186 255 57 12 19 38 79 170 255 91 5 0 1 2 5 11 24 52 112 228 255 28 1 0 0 0 0 0 0 0 0 0 0 0 0 0 0 0
0 0 0 0 0 0 0 0 0 0 0 0 0 0 0 0 0 0 0 0 0 0 0 0 0 0 0 0 0 0 0 0 0 0 0 0 0 0 0 0 0 0 0 0 0 0 0 0 0 0 0 0 0 0 5 96 255 168 78 36 16 6 2 1 1 10 207 255 144 67 31 13 5 2 1 0 0 0 0 0 0 0 0 0 0 0 0 0 0 0 0 2 41 255 182 90 43 20 13 70 255 172 86 42 20 20 148 255 204 207 254 177 21 18 37 80 170 255 101 5 0 0 0 0 0 0 0 0 0 0 0 0 0 0 0 0 0 0 0 0 0 0 0 0 0 0 0 0 0 0 0 0 0 0 0 0 0 0 0 1 2 6 14 31 68 147 255 255 255 140 67 31 13 5 2 1 0 0 0 0 0 0 0 0 0 0 0 0 0 0 0 0 1 2 4 11 27 60 129 255 255 15 1 0 1 2 6 15 31 46 52 40 23 10 4 1 4 67 255 184 89 42 19 8 10 131 255 151 72 34 15 6 7 82 255 188 92 46 26 32 94 152 127 105 122 134 86 46 25 20 23 36 66 121 252 80 28 44 89 179 255 59 11 18 40 85 175 255 74 4 0 0 0 0 0 0 0 0 0 0 0 0 0 0 0 0 0 0 0 0 0 0 0 0 0 0 0 0 0 0 0 0 0 0 0 0 0 0 0 0 0 0 0 0 0 0 0 0 0 0 0 0 0 0 0 0 0 0 0 0 0 0 0 2 35 255 200 97 45 20 8 3 1 0 0 0 0 0 0 0 0 0 0 0 0 0 0 0 0 1 2 6 13 29 62 130 255 226 17 11 24 54 114 226 255 28 1 0 0 8 160 255 145 68 31 13 5 2 1 0 0 0 0 0 0 0 0 0 0 0 0 0 0 0 0 0 0 0 0 0 0 0 0 0 1 4 9 23 51 96 131 95 51 22 9 3 1 0 0 0 0 0 0 0 0 0 0 0 0 0 0 0 0 0 0 0 0 0 0 0 0 0 0 0 0 0 1 4 10 23 52 113 227 255 29 1 0 0 0 0 0 0 2 38 255 200 97 46 21 9 7 78 255 181 88 43 23 17 29 66 95 103 127 233 97 32 51 84 101 71 39 21 66 255 183 93 45 22 21 119 247 177 148 137 139 184 231 37 30 59 123 239 255 25 8 17 38 81 168 255 86 4 1 29 255 226 114 54 24 10 4 1 0 0 0 0 0 0 0 0 0 0 0 0 0 0 0 0 0 0 0 0 0 0 0 0 0 0 4 79 255 163 77 37 19 14 33 98 105 32 17 25 50 108 226 255 255 237 108 50 24 15 21 71 141 140 129 155 234 43 29 54 113 225 255 27 10 21 46 100 201 255 43 2 0 1 2 5 13 30 65 138 255 255 12 1 0 0 0 0 0 0 0 0 0 0 0 0 0 0
0 0 0 0 0 0 0 0 0 0 0 0 0 0 0 0 0 0 0 0 0 0 0 0 0 0 0 0 0 0 0 0 0 0 0 0 0 0 0 0 0 0 0 0 0 0 0 0 0 0 0 0 0 2 47 255 205 103 48 21 8 3 1 1 5 95 255 177 87 41 17 6 2 1 0 0 0 0 0 0 0 0 0 0 0 0 0 0 0 0 1 16 255 238 116 54 24 12 34 255 210 107 52 24 14 65 255 189 154 151 184 255 80 14 22 49 103 208 255 53 2 0 0 0 0 0 0 0 0 0 0 0 0 0 0 0 0 0 0 0 0 0 0 0 0 0 0 0 0 0 0 0 0 0 0 0 0 0 0 0 1 2 7 17 42 96 209 255 200 91 41 17 6 2 1 0 0 0 0 0 0 0 0 0 0 0 0 0 0 0 0 0 0 1 2 5 15 36 77 156 255 131 6 0 0 1 2 7 14 18 19 17 10 4 1 2 34 255 224 112 53 24 10 7 65 255 189 92 43 19 7 5 42 255 216 112 55 27 18 48 223 221 165 100 63 58 44 27 14 11 13 26 56 102 176 255 39 27 54 112 222 255 29 10 23 51 107 218 255 39 2 0 0 0 0 0 0 0 0 0 0 0 0 0 0 0 0 0 0 0 0 0 0 0 0 0 0 0 0 0 0 0 0 0 0 0 0 0 0 0 0 0 0 0 0 0 0 0 0 0 0 0 0 0 0 0 0 0 0 0 0 0 1 14 255 255 126 59 27 10 3 1 0 0 0 0 0 0 0 0 0 0 0 0 0 0 0 0 0 0 1 2 6 16 37 78 159 255 90 10 13 32 67 137 255 253 12 1 4 73 255 181 88 41 17 6 2 1 0 0 0 0 0 0 0 0 0 0 0 0 0 0 0 0 0 0 0 0 0 0 0 0 0 0 0 1 4 12 28 44 53 44 28 12 4 1 0 0 0 0 0 0 0 0 0 0 0 0 0 0 0 0 0 0 0 0 0 0 0 0 0 0 0 0 0 0 0 1 4 12 31 68 139 255 255 13 1 0 0 0 0 1 16 255 253 125 59 27 11 6 40 255 217 110 53 25 12 11 31 130 164 138 126 171 255 51 31 38 41 34 23 36 255 219 115 57 26 15 52 255 188 143 129 123 124 147 255 107 24 36 73 145 255 183 12 9 21 48 101 203 255 42 15 255 255 137 67 32 13 5 2 1 0 0 0 0 0 0 0 0 0 0 0 0 0 0 0 0 0 0 0 0 0 0 0 0 0 2 38 255 205 101 47 21 10 11 54 232 234 55 12 14 30 67 147 255 255 156 70 31 13 9 28 201 229 191 148 141 235 121 25 33 69 141 255 178 14 11 27 59 122 245 255 19 1 0 1 2 6 17 39 82 170 255 119 6 0 0 0 0 0 0 0 0 0 0 0 0 0 0
0 0 0 0 0 0 0 0 0 0 0 0 0 0 0 0 0 0 0 0 0 0 0 0 0 0 0 0 0 0 0 0 0 0 0 0 0 0 0 0 0 0 0 0 0 0 0 0 0 0 0 0 1 22 255 245 126 64 30 11 4 1 0 2 50 255 212 108 54 25 9 3 1 0 0 0 0 0 0 0 0 0 0 0 0 0 0 0 0 0 6 131 255 149 73 34 14 17 211 255 135 67 32 14 33 255 218 140 113 108 134 210 255 41 14 30 64 127 246 255 28 1 0 0 0 0 0 0 0 0 0 0 0 0 0 0 0 0 0 0 0 0 0 0 0 0 0 0 0 0 0 0 0 0 0 0 0 0 0 0 0 1 3 9 27 62 111 148 108 60 26 9 3 1 0 0 0 0 0 0 0 0 0 0 0 0 0 0 0 0 0 0 0 0 1 2 7 21 48 96 194 255 65 3 0 0 1 2 5 6 7 6 4 2 1 16 255 255 138 69 33 13 6 34 255 230 119 58 26 10 4 21 255 255 132 67 33 16 21 195 255 222 199 120 38 25 20 14 7 5 7 19 57 93 136 255 137 24 34 70 141 255 196 15 13 31 67 136 255 255 18 1 0 0 0 0 0 0 0 0 0 0 0 0 0 0 0 0 0 0 0 0 0 0 0 0 0 0 0 0 0 0 0 0 0 0 0 0 0 0 0 0 0 0 0 0 0 0 0 0 0 0 0 0 0 0 0 0 0 0 0 0 6 111 255 158 78 38 15 5 1 0 0 0 0 0 0 0 0 0 0 0 0 0 0 0 0 0 0 0 0 1 3 8 22 49 100 194 255 43 9 18 41 83 170 255 117 7 37 255 219 112 55 25 9 3 1 0 0 0 0 0 0 0 0 0 0 0 0 0 0 0 0 0 0 0 0 0 0 0 0 0 0 0 0 1 2 5 13 19 21 19 13 5 2 1 0 0 0 0 0 0 0 0 0 0 0 0 0 0 0 0 0 0 0 0 0 0 0 0 0 0 0 0 0 0 0 1 2 6 18 42 84 170 255 120 6 0 0 0 0 7 147 255 155 77 37 15 6 18 255 255 134 67 32 14 6 9 75 255 255 217 149 144 246 195 29 16 16 15 21 177 255 139 73 35 16 24 255 229 146 117 118 121 119 123 177 255 52 24 45 89 179 255 83 8 12 29 62 127 252 255 195 255 170 83 41 18 6 2 1 0 0 0 0 0 0 0 0 0 0 0 0 0 0 0 0 0 0 0 0 0 0 0 0 0 1 16 255 255 129 63 29 11 5 19 242 255 255 248 21 8 18 44 91 157 163 98 49 19 7 10 103 255 239 211 179 142 169 255 57 23 44 89 176 255 79 10 15 36 74 152 255 178 8 0 0 1 3 8 23 51 103 200 255 59 3 0 0 0 0 0 0 0 0 0 0 0 0 0
0 0 0 0 0 0 0 0 0 0 0 0 0 0 0 0 0 0 0 0 0 0 0 0 0 0 0 0 0 0 0 0 0 0 0 0 0 0 0 0 0 0 0 0 0 0 0 0 0 0 0 0 9 186 255 149 76 40 17 5 2 0 1 26 255 248 129 66 34 14 4 1 0 0 0 0 0 0 0 0 0 0 0 0 0 0 0 0 0 3 64 255 188 95 49 21 12 90 255 164 86 44 20 19 220 255 147 101 86 82 97 142 255 255 23 19 40 77 149 255 255 13 1 0 0 0 0 0 0 0 0 0 0 0 0 0 0 0 0 0 0 0 0 0 0 0 0 0 0 0 0 0 0 0 0 0 0 0 0 0 0 0 1 5 16 39 55 63 54 38 15 4 1 0 0 0 0 0 0 0 0 0 0 0 0 0 0 0 0 0 0 0 0 0 0 1 3 11 30 60 119 231 255 34 2 0 0 1 2 2 2 2 1 1 7 139 255 163 83 43 19 7 17 255 255 141 74 38 15 5 10 195 255 157 80 41 20 13 93 255 204 174 180 165 34 11 8 6 3 2 4 15 76 102 111 171 255 67 25 46 89 172 255 88 11 19 43 82 158 255 156 7 0 0 0 0 0 0 0 0 0 0 0 0 0 0 0 0 0 0 0 0 0 0 0 0 0 0 0 0 0 0 0 0 0 0 0 0 0 0 0 0 0 0 0 0 0 0 0 0 0 0 0 0 0 0 0 0 0 0 0 2 51 255 190 97 50 23 8 2 1 0 0 0 0 0 0 0 0 0 0 0 0 0 0 0 0 0 0 0 0 0 1 4 12 31 63 124 247 255 22 10 25 53 104 204 255 99 255 255 134 69 35 14 4 1 0 0 0 0 0 0 0 0 0 0 0 0 0 0 0 0 0 0 0 0 0 0 0 0 0 0 0 0 0 0 1 2 5 7 7 7 5 2 1 0 0 0 0 0 0 0 0 0 0 0 0 0 0 0 0 0 0 0 0 0 0 0 0 0 0 0 0 0 0 0 0 0 1 3 9 25 53 103 198 255 57 3 0 0 3 71 255 189 95 49 22 8 9 142 255 156 81 42 19 7 4 32 255 247 230 226 186 131 166 255 81 11 6 10 76 255 169 89 48 22 15 132 255 156 111 103 119 132 127 111 131 233 246 31 29 57 111 211 255 43 8 17 39 78 159 255 255 213 105 53 25 9 3 1 0 0 0 0 0 0 0 0 0 0 0 0 0 0 0 0 0 0 0 0 0 0 0 0 0 0 7 151 255 156 80 41 18 6 8 107 255 210 208 255 106 9 10 28 53 71 73 57 33 12 6 47 255 211 181 178 181 150 138 224 255 33 30 58 110 209 255 40 10 21 47 93 185 255 82 4 0 0 1 4 13 32 63 121 235 255 31 1 0 0 0 0 0 0 0 0 0 0 0 0
0 0 0 0 0 0 0 0 0 0 0 0 0 0 0 0 0 0 0 0 0 0 0 0 0 0 0 0 0 0 0 0 0 0 0 0 0 0 0 0 0 0 0 0 0 0 0 0 0 0 0 4 77 255 173 88 47 24 9 3 1 1 11 248 255 148 76 41 20 7 2 1 0 0 0 0 0 0 0 0 0 0 0 0 0 0 0 0 1 34 255 228 116 61 32 15 46 255 196 102 55 29 17 101 255 171 98 76 71 69 73 93 160 255 151 18 25 47 87 170 255 119 6 0 0 0 0 0 0 0 0 0 0 0 0 0 0 0 0 0 0 0 0 0 0 0 0 0 0 0 0 0 0 0 0 0 0 0 0 0 0 0 1 2 8 20 25 26 25 21 8 2 1 0 0 0 0 0 0 0 0 0 0 0 0 0 0 0 0 0 0 0 0 0 0 0 2 6 17 38 72 138 255 255 16 1 0 0 0 1 1 1 0 3 66 255 187 96 51 26 11 10 123 255 162 84 46 23 8 7 91 255 183 94 49 25 13 48 255 208 143 125 142 175 45 7 3 2 1 1 3 20 162 140 101 120 215 255 43 32 57 106 204 255 47 12 27 50 93 182 255 72 3 0 0 0 0 0 0 0 0 0 0 0 0 0 0 0 0 0 0 0 0 0 0 0 0 0 0 0 0 0 0 0 0 0 0 0 0 0 0 0 0 0 0 0 0 0 0 0 0 0 0 0 0 0 0 0 0 0 1 24 255 231 116 60 32 13 4 1 0 0 0 0 0 0 0 0 0 0 0 0 0 0 0 0 0 0 0 0 0 0 0 2 6 18 41 77 153 255 164 13 15 33 63 123 254 255 255 161 80 43 21 7 2 1 0 0 0 0 0 0 0 0 0 0 0 0 0 0 0 0 0 0 0 0 0 0 0 0 0 0 0 0 0 0 0 1 2 2 2 2 2 1 0 0 0 0 0 0 0 0 0 0 0 0 0 0 0 0 0 0 0 0 0 0 0 0 0 0 0 0 0 0 0 0 0 0 0 1 5 14 33 62 118 229 255 28 1 2 38 255 223 114 59 31 13 7 68 255 186 93 50 26 10 4 13 228 255 179 157 167 178 129 119 189 255 28 5 30 255 198 106 58 32 16 67 255 185 107 90 105 135 154 146 112 99 151 255 127 26 37 68 129 253 255 23 10 24 50 99 187 219 125 65 33 14 4 1 0 0 0 0 0 0 0 0 0 0 0 0 0 0 0 0 0 0 0 0 0 0 0 0 0 0 3 73 255 186 94 50 26 10 5 51 255 198 145 145 194 255 49 8 16 28 30 31 30 20 7 22 255 240 148 123 131 150 149 116 151 255 146 28 39 69 129 255 255 22 13 30 58 111 213 255 41 2 0 0 2 6 19 39 72 141 255 255 13 1 0 0 0 0 0 0 0 0 0 0 0
0 0 0 0 0 0 0 0 0 0 0 0 0 0 0 0 0 0 0 0 0 0 0 0 0 0 0 0 0 0 0 0 0 0 0 0 0 0 0 0 0 0 0 0 0 0 0 0 0 0 2 36 255 204 103 53 28 13 4 1 1 5 105 255 170 85 45 25 10 3 1 0 0 0 0 0 0 0 0 0 0 0 0 0 0 0 0 1 16 255 255 137 70 39 21 28 255 244 121 63 36 20 57 255 197 106 67 62 67 66 60 63 98 188 255 82 18 28 51 98 194 255 56 3 0 0 0 0 0 0 0 0 0 0 0 0 0 0 0 0 0 0 0 0 0 0 0 0 0 0 0 0 0 0 0 0 0 0 0 0 0 0 0 1 4 8 10 10 10 9 3 1 0 0 0 0 0 0 0 0 0 0 0 0 0 0 0 0 0 0 0 0 0 0 0 0 1 3 9 23 43 80 159 255 132 6 0 0 0 0 0 0 2 34 255 222 111 57 31 15 8 61 255 188 95 50 28 13 6 48 255 209 107 56 30 15 25 255 243 134 96 90 110 135 79 8 1 1 0 1 4 56 255 211 117 89 139 255 231 35 37 64 124 247 255 27 16 30 55 108 217 255 38 2 0 0 0 0 0 0 0 0 0 0 0 0 0 0 0 0 0 0 0 0 0 0 0 0 0 0 0 0 0 0 0 0 0 0 0 0 0 0 0 0 0 0 0 0 0 0 0 0 0 0 0 0 0 0 0 0 9 199 255 140 70 37 19 6 2 0 0 0 0 0 0 0 0 0 0 0 0 0 0 0 0 0 0 0 0 0 0 0 0 1 3 10 26 49 92 182 255 78 12 20 39 74 147 255 198 98 49 26 11 3 1 0 0 0 0 0 0 0 0 0 0 0 0 0 0 0 0 0 0 0 0 0 0 0 0 0 0 0 0 0 0 0 0 0 0 1 1 1 0 0 0 0 0 0 0 0 0 0 0 0 0 0 0 0 0 0 0 0 0 0 0 0 0 0 0 0 0 0 0 0 0 0 0 0 0 1 2 7 19 37 69 138 255 229 12 19 255 255 133 68 36 18 8 35 255 219 112 57 30 14 5 6 101 255 169 116 101 112 136 128 90 125 249 115 17 163 255 125 65 38 22 39 255 222 117 76 83 126 161 169 163 129 85 101 184 255 73 27 42 76 152 255 188 14 14 31 57 86 95 66 39 20 7 2 1 0 0 0 0 0 0 0 0 0 0 0 0 0 0 0 0 0 0 0 0 0 0 0 0 0 2 39 255 221 111 57 31 14 6 24 255 234 129 95 96 128 233 255 24 8 12 12 12 13 10 12 168 255 152 98 83 94 114 132 104 105 178 255 84 29 43 78 156 255 174 15 18 35 65 127 250 255 18 1 0 1 3 10 23 43 82 162 255 117 6 0 0 0 0 0 0 0 0 0 0 0
0 0 0 0 0 0 0 0 0 0 0 0 0 0 0 0 0 0 0 0 0 0 0 0 0 0 0 0 0 0 0 0 0 0 0 0 0 0 0 0 0 0 0 0 0 0 0 0 0 1 15 255 255 124 61 31 16 6 2 1 2 50 255 198 100 50 26 13 5 1 0 0 0 0 0 0 0 0 0 0 0 0 0 0 0 0 0 7 157 255 160 80 42 24 22 186 255 149 74 40 23 37 255 240 120 66 49 59 81 82 59 46 62 114 219 255 49 18 30 57 115 228 255 27 1 0 0 0 0 0 0 0 0 0 0 0 0 0 0 0 0 0 0 0 0 0 0 0 0 0 0 0 0 0 0 0 0 0 0 0 0 0 0 0 1 3 3 3 3 3 1 0 0 0 0 0 0 0 0 0 0 0 0 0 0 0 0 0 0 0 0 0 0 0 0 0 0 1 4 12 25 47 92 184 255 59 3 0 0 0 0 1 16 255 255 135 65 33 17 9 34 255 228 114 56 30 15 7 27 255 248 125 62 33 17 16 166 255 149 84 66 69 86 106 211 19 2 0 0 1 19 255 204 210 167 80 92 170 255 132 31 40 74 150 255 187 18 17 32 64 132 255 255 19 1 0 0 0 0 0 0 0 0 0 0 0 0 0 0 0 0 0 0 0 0 0 0 0 0 0 0 0 0 0 0 0 0 0 0 0 0 0 0 0 0 0 0 0 0 0 0 0 0 0 0 0 0 0 0 4 83 255 170 83 42 22 9 3 1 0 0 0 0 0 0 0 0 0 0 0 0 0 0 0 0 0 0 0 0 0 0 0 0 0 1 5 14 31 56 109 213 255 43 13 23 43 77 111 94 57 30 14 5 1 0 0 0 0 0 0 0 0 0 0 0 0 0 0 0 0 0 0 0 0 0 0 0 0 0 0 0 0 0 0 0 0 0 0 0 0 0 0 0 0 0 0 0 0 0 0 0 0 0 0 0 0 0 0 0 0 0 0 0 0 0 0 0 0 0 0 0 0 0 0 0 0 0 0 0 0 1 3 10 21 41 80 163 255 121 197 255 157 77 40 21 10 18 255 255 132 66 34 17 7 5 53 255 201 107 74 65 76 100 121 78 85 148 255 204 255 155 77 42 25 28 250 255 136 75 62 102 168 175 168 165 158 90 72 117 225 255 49 27 46 90 181 255 92 12 18 30 36 38 32 21 10 3 1 0 0 0 0 0 0 0 0 0 0 0 0 0 0 0 0 0 0 0 0 0 0 0 0 0 1 17 255 255 132 66 34 17 7 12 187 255 144 82 64 64 82 145 255 184 12 4 4 4 5 8 82 255 177 94 65 58 69 89 111 100 77 114 216 255 54 29 48 93 186 255 87 14 20 38 73 150 255 155 7 0 0 1 4 12 25 48 94 190 255 54 3 0 0 0 0 0 0 0 0 0 0
0 0 0 0 0 0 0 0 0 0 0 0 0 0 0 0 0 0 0 0 0 0 0 0 0 0 0 0 0 0 0 0 0 0 0 0 0 0 0 0 0 0 0 0 0 0 0 0 0 6 139 255 155 75 36 17 7 3 1 1 22 255 235 119 59 29 14 6 2 1 0 0 0 0 0 0 0 0 0 0 0 0 0 0 0 0 4 76 255 189 94 48 25 19 105 255 183 91 47 25 26 228 255 148 74 43 42 79 156 162 85 39 41 69 132 255 255 29 18 34 68 139 255 241 11 0 0 0 0 0 0 0 0 0 0 0 0 0 0 0 0 0 0 0 0 0 0 0 0 0 0 0 0 0 0 0 0 0 0 0 0 0 0 0 0 1 1 1 1 1 0 0 0 0 0 0 0 0 0 0 0 0 0 0 0 0 0 0 0 0 0 0 0 0 0 0 0 0 2 5 13 27 54 111 222 255 28 1 0 0 0 7 141 255 161 80 39 19 9 18 255 255 140 68 34 17 8 14 230 255 150 74 37 19 13 87 255 184 93 56 49 59 79 122 253 70 5 0 0 7 133 255 168 162 194 103 68 106 196 255 75 29 46 90 179 255 93 13 19 38 78 158 255 176 8 0 0 0 0 0 0 0 0 0 0 0 0 0 0 0 0 0 0 0 0 0 0 0 0 0 0 0 0 0 0 0 0 0 0 0 0 0 0 0 0 0 0 0 0 0 0 0 0 0 0 0 0 0 2 40 255 204 102 51 25 11 4 1 0 0 0 0 0 0 0 0 0 0 0 0 0 0 0 0 0 0 0 0 0 0 0 0 0 0 1 2 7 17 34 65 129 255 255 24 13 24 37 45 41 30 16 7 2 1 0 0 0 0 0 0 0 0 0 0 0 0 0 0 0 0 0 0 0 0 0 0 0 0 0 0 0 0 0 0 0 0 0 0 0 0 0 0 0 0 0 0 0 0 0 0 0 0 0 0 0 0 0 0 0 0 0 0 0 0 0 0 0 0 0 0 0 0 0 0 0 0 0 0 0 0 0 1 4 11 24 48 99 209 255 255 189 92 46 23 11 11 140 255 162 79 40 20 8 4 29 255 243 125 69 49 44 55 79 112 82 64 110 255 255 237 105 50 27 23 147 255 164 84 52 68 170 190 168 154 156 171 129 63 76 141 255 255 32 29 55 108 211 255 51 10 13 14 14 14 9 4 1 0 0 0 0 0 0 0 0 0 0 0 0 0 0 0 0 0 0 0 0 0 0 0 0 0 0 7 148 255 154 77 39 20 9 7 87 255 173 88 54 44 45 55 90 177 255 79 5 1 1 3 44 255 216 109 60 46 44 57 78 99 105 66 75 135 255 255 35 31 57 111 214 255 49 13 22 44 89 181 255 70 3 0 1 2 5 13 28 56 115 228 255 25 1 0 0 0 0 0 0 0 0 0
0 0 0 0 0 0 0 0 0 0 0 0 0 0 0 0 0 0 0 0 0 0 0 0 0 0 0 0 0 0 0 0 0 0 0 0 0 0 0 0 0 0 0 0 0 0 0 0 3 69 255 190 94 46 21 9 3 1 1 9 205 255 143 70 35 16 6 2 1 0 0 0 0 0 0 0 0 0 0 0 0 0 0 0 0 2 41 255 222 113 56 28 17 59 255 212 110 57 30 21 116 255 173 89 47 31 55 211 255 255 240 55 30 43 79 155 255 170 18 20 41 83 168 255 103 5 0 0 0 0 0 0 0 0 0 0 0 0 0 0 0 0 0 0 0 0 0 0 0 0 0 0 0 0 0 0 0 0 0 0 0 0 0 0 0 0 0 0 0 0 0 0 0 0 0 0 0 0 0 0 0 0 0 0 0 0 0 0 0 0 0 0 0 0 0 0 0 0 1 2 6 15 32 66 137 255 232 11 1 0 3 65 255 187 95 48 23 10 11 134 255 166 84 42 20 9 8 100 255 174 88 44 21 12 50 255 218 113 60 39 40 62 99 158 173 255 28 2 3 62 255 183 130 124 163 168 66 69 119 221 255 45 30 55 107 209 255 49 12 23 47 93 183 255 82 4 0 0 0 0 0 0 0 0 0 0 0 0 0 0 0 0 0 0 0 0 0 0 0 0 0 0 0 0 0 0 0 0 0 0 0 0 0 0 0 0 0 0 0 0 0 0 0 0 0 0 0 1 17 255 250 125 62 31 14 5 2 0 0 0 0 0 0 0 0 0 0 0 0 0 0 0 0 0 0 0 0 0 0 0 0 0 0 0 0 1 3 9 20 40 78 157 255 176 14 11 16 17 17 14 7 3 1 0 0 0 0 0 0 0 0 0 0 0 0 0 0 0 0 0 0 0 0 0 0 0 0 0 0 0 0 0 0 0 0 0 0 0 0 0 0 0 0 0 0 0 0 0 0 0 0 0 0 0 0 0 0 0 0 0 0 0 0 0 0 0 0 0 0 0 0 0 0 0 0 0 0 0 0 0 0 1 2 5 13 29 61 130 252 230 116 56 27 12 8 68 255 191 97 48 23 10 4 14 255 255 147 77 46 33 31 45 73 110 108 61 85 152 211 137 73 34 21 90 255 196 100 54 46 133 221 176 148 137 141 162 196 80 55 88 166 255 132 25 34 65 127 249 255 27 6 5 5 5 3 2 1 0 0 0 0 0 0 0 0 0 0 0 0 0 0 0 0 0 0 0 0 0 0 0 0 0 3 67 255 184 91 46 23 10 6 46 255 210 106 56 36 31 32 38 58 108 206 255 36 2 1 19 255 254 132 67 40 33 36 54 81 104 124 71 54 84 157 255 139 27 35 66 128 253 255 28 13 26 54 110 218 255 35 2 0 1 2 6 15 34 69 139 255 207 10 0 0 0 0 0 0 0 0 0
0 0 0 0 0 0 0 0 0 0 0 0 0 0 0 0 0 0 0 0 0 0 0 0 0 0 0 0 0 0 0 0 0 0 0 0 0 0 0 0 0 0 0 0 0 0 0 2 37 255 226 115 58 28 11 4 1 1 5 91 255 176 86 43 20 8 3 1 0 0 0 0 0 0 0 0 0 0 0 0 0 0 0 0 1 21 255 255 133 67 34 17 32 255 239 127 66 36 21 64 255 196 103 55 32 34 193 255 244 242 255 212 34 28 49 93 183 255 86 15 24 50 101 200 255 51 2 0 0 0 0 0 0 0 0 0 0 0 0 0 0 0 0 0 0 0 0 0 0 0 0 0 0 0 0 0 0 0 0 0 0 0 0 0 0 0 0 0 0 0 0 0 0 0 0 0 0 0 0 0 0 0 0 0 0 0 0 0 0 0 0 0 0 0 0 0 0 0 0 1 2 7 19 41 82 165 255 99 5 2 33 255 222 112 57 28 13 8 65 255 191 98 51 25 11 6 48 255 199 102 53 27 13 28 255 254 132 69 40 29 40 104 184 181 150 255 204 12 32 255 226 123 100 99 133 207 103 52 73 137 255 198 31 35 65 127 245 255 26 13 28 55 108 216 255 44 2 0 0 0 0 0 0 0 0 0 0 0 0 0 0 0 0 0 0 0 0 0 0 0 0 0 0 0 0 0 0 0 0 0 0 0 0 0 0 0 0 0 0 0 0 0 0 0 0 0 0 7 158 255 152 75 38 17 6 2 1 0 0 0 0 0 0 0 0 0 0 0 0 0 0 0 0 0 0 0 0 0 0 0 0 0 0 0 0 0 1 4 10 24 48 94 186 255 81 8 6 6 6 5 3 1 0 0 0 0 0 0 0 0 0 0 0 0 0 0 0 0 0 0 0 0 0 0 0 0 0 0 0 0 0 0 0 0 0 0 0 0 0 0 0 0 0 0 0 0 0 0 0 0 0 0 0 0 0 0 0 0 0 0 0 0 0 0 0 0 0 0 0 0 0 0 0 0 0 0 0 0 0 0 0 0 1 2 6 16 39 74 114 106 67 34 15 7 34 255 221 114 59 30 12 5 8 121 255 171 87 48 31 22 22 43 88 129 176 87 70 80 92 73 49 26 56 255 225 118 62 40 78 255 190 147 128 124 130 150 196 164 54 58 101 185 255 72 24 39 75 151 255 189 11 2 2 1 1 1 0 0 0 0 0 0 0 0 0 0 0 0 0 0 0 0 0 0 0 0 0 0 0 0 0 1 32 255 218 111 55 27 12 5 22 255 249 128 65 36 24 20 21 25 38 65 127 253 255 14 8 147 255 152 78 43 27 23 32 70 120 141 157 111 48 55 97 182 255 77 25 40 77 154 255 180 16 15 33 66 133 255 255 15 1 0 1 3 7 19 42 83 169 255 92 4 0 0 0 0 0 0 0 0
0 0 0 0 0 0 0 0 0 0 0 0 0 0 0 0 0 0 0 0 0 0 0 0 0 0 0 0 0 0 0 0 0 0 0 0 0 0 0 0 0 0 0 0 0 0 1 18 255 255 136 69 36 16 5 2 1 2 45 255 208 106 53 25 10 3 1 0 0 0 0 0 0 0 0 0 0 0 0 0 0 0 0 0 9 188 255 156 78 40 20 19 179 255 144 75 40 23 39 255 231 120 62 34 27 115 255 210 165 162 201 255 130 24 31 57 111 214 255 49 16 31 61 121 239 255 25 1 0 0 0 0 0 0 0 0 0 0 0 0 0 0 0 0 0 0 0 0 0 0 0 0 0 0 0 0 0 0 0 0 0 0 0 0 0 0 0 0 0 0 0 0 0 0 0 0 0 0 0 0 0 0 0 0 0 0 0 0 0 0 0 0 0 0 0 0 0 0 0 0 1 3 10 24 50 99 200 255 51 17 255 255 135 67 34 16 7 34 255 224 115 59 31 14 6 23 255 237 121 61 31 15 16 199 255 153 79 43 27 24 78 255 250 180 131 169 255 141 255 255 141 83 81 89 116 169 213 59 49 85 164 255 104 27 40 76 149 255 181 16 16 33 64 130 254 255 21 1 0 0 0 0 0 0 0 0 0 0 0 0 0 0 0 0 0 0 0 0 0 0 0 0 0 0 0 0 0 0 0 0 0 0 0 0 0 0 0 0 0 0 0 0 0 0 0 0 4 75 255 185 91 46 23 9 3 1 0 0 0 0 0 0 0 0 0 0 0 0 0 0 0 0 0 0 0 0 0 0 0 0 0 0 0 0 0 0 0 1 5 13 29 57 111 210 255 37 4 2 2 2 1 0 0 0 0 0 0 0 0 0 0 0 0 0 0 0 0 0 0 0 0 0 0 0 0 0 0 0 0 0 0 0 0 0 0 0 0 0 0 0 0 0 0 0 0 0 0 0 0 0 0 0 0 0 0 0 0 0 0 0 0 0 0 0 0 0 0 0 0 0 0 0 0 0 0 0 0 0 0 0 0 0 0 1 3 8 23 39 48 46 35 19 8 16 255 255 134 68 35 17 6 5 59 255 196 100 53 30 19 13 17 61 161 184 219 205 75 42 39 36 32 42 255 253 135 71 41 49 249 217 149 121 116 120 124 135 163 249 97 44 62 115 222 255 43 25 46 89 172 255 73 4 1 0 0 0 0 0 0 0 0 0 0 0 0 0 0 0 0 0 0 0 0 0 0 0 0 0 0 0 1 13 255 255 133 66 33 15 6 10 159 255 149 76 41 23 14 11 11 15 24 41 76 153 255 120 79 255 176 90 47 27 17 16 38 166 226 211 193 223 70 40 61 114 219 255 46 26 47 91 174 255 81 12 19 40 79 156 255 133 6 0 0 1 3 10 25 51 103 207 255 49 2 0 0 0 0 0 0 0
0 0 0 0 0 0 0 0 0 0 0 0 0 0 0 0 0 0 0 0 0 0 0 0 0 0 0 0 0 0 0 0 0 0 0 0 0 0 0 0 0 0 0 0 0 0 8 184 255 159 79 41 21 8 2 1 1 21 255 243 124 63 32 14 5 1 0 0 0 0 0 0 0 0 0 0 0 0 0 0 0 0 0 4 80 255 176 90 46 24 15 86 255 167 85 44 24 26 223 255 142 72 38 24 70 255 207 136 105 102 130 203 255 74 22 35 67 130 252 255 29 19 37 71 144 255 213 10 0 0 0 0 0 0 0 0 0 0 0 0 0 0 0 0 0 0 0 0 0 0 0 0 0 0 0 0 0 0 0 0 0 0 0 0 0 0 0 0 0 0 0 0 0 0 0 0 0 0 0 0 0 0 0 0 0 0 0 0 0 0 0 0 0 0 0 0 0 0 0 0 0 1 4 13 30 60 121 243 255 255 255 161 80 40 20 8 17 255 255 136 68 35 17 7 11 184 255 144 71 36 18 13 96 255 173 90 48 26 18 45 255 255 204 156 118 115 221 255 255 165 85 60 73 92 108 137 224 128 42 55 103 196 255 60 27 46 89 179 255 87 12 19 39 76 150 255 175 8 0 0 0 0 0 0 0 0 0 0 0 0 0 0 0 0 0 0 0 0 0 0 0 0 0 0 0 0 0 0 0 0 0 0 0 0 0 0 0 0 0 0 0 0 0 0 0 2 38 255 217 111 55 28 12 4 1 0 0 0 0 0 0 0 0 0 0 0 0 0 0 0 0 0 0 0 0 0 0 0 0 0 0 0 0 0 0 0 0 1 2 6 17 34 65 126 251 255 15 1 1 0 0 0 0 0 0 0 0 0 0 0 0 0 0 0 0 0 0 0 0 0 0 0 0 0 0 0 0 0 0 0 0 0 0 0 0 0 0 0 0 0 0 0 0 0 0 0 0 0 0 0 0 0 0 0 0 0 0 0 0 0 0 0 0 0 0 0 0 0 0 0 0 0 0 0 0 0 0 0 0 0 0 0 0 0 1 4 11 17 19 18 16 9 9 106 255 159 79 41 20 9 4 30 255 228 116 59 32 17 10 7 22 207 252 217 200 255 144 29 16 17 31 219 255 151 79 44 36 156 255 154 113 103 113 126 127 123 134 190 252 58 42 71 139 255 227 29 28 52 102 199 255 32 2 0 0 0 0 0 0 0 0 0 0 0 0 0 0 0 0 0 0 0 0 0 0 0 0 0 0 0 5 106 255 157 78 40 19 8 6 71 255 175 88 46 25 13 6 5 5 7 13 25 47 94 193 255 255 227 108 54 28 15 9 15 116 255 252 222 203 233 204 44 40 71 137 255 227 30 29 54 104 204 255 43 12 24 47 93 188 255 62 3 0 0 1 5 14 31 62 125 246 255 25 1 0 0 0 0 0 0
0 0 0 0 0 0 0 0 0 0 0 0 0 0 0 0 0 0 0 0 0 0 0 0 0 0 0 0 0 0 0 0 0 0 0 0 0 0 0 0 0 0 0 0 0 4 85 255 182 91 46 24 10 4 1 1 8 167 255 144 71 37 18 7 2 1 0 0 0 0 0 0 0 0 0 0 0 0 0 0 0 0 2 39 255 203 102 51 26 15 47 255 202 101 50 26 19 108 255 163 84 43 24 42 255 232 130 83 65 64 81 126 223 255 44 22 40 76 149 255 183 20 21 42 83 165 255 91 4 0 0 0 0 0 0 0 0 0 0 0 0 0 0 0 0 0 0 0 0 0 0 0 0 0 0 0 0 0 0 0 0 0 0 0 0 0 0 0 0 0 0 0 0 0 0 0 0 0 0 0 0 0 0 0 0 0 0 0 0 0 0 0 0 0 0 0 0 0 0 0 0 1 2 6 17 36 71 148 255 255 203 95 47 23 10 10 127 255 158 79 40 20 9 7 88 255 174 84 42 21 11 53 255 202 101 52 28 15 25 255 255 179 137 122 105 83 133 236 201 100 54 48 81 117 113 113 159 255 71 39 64 121 233 255 36 29 53 106 206 255 45 12 22 44 85 170 255 76 4 0 0 0 0 0 0 0 0 0 0 0 0 0 0 0 0 0 0 0 0 0 0 0 0 0 0 0 0 0 0 0 0 0 0 0 0 0 0 0 0 0 0 0 0 0 1 18 255 255 128 64 33 15 6 2 0 0 0 0 0 0 0 0 0 0 0 0 0 0 0 0 0 0 0 0 0 0 0 0 0 0 0 0 0 0 0 0 0 0 1 3 8 19 38 73 150 255 110 6 0 0 0 0 0 0 0 0 0 0 0 0 0 0 0 0 0 0 0 0 0 0 0 0 0 0 0 0 0 0 0 0 0 0 0 0 0 0 0 0 0 0 0 0 0 0 0 0 0 0 0 0 0 0 0 0 0 0 0 0 0 0 0 0 0 0 0 0 0 0 0 0 0 0 0 0 0 0 0 0 0 0 0 0 0 0 0 2 4 6 7 6 6 6 51 255 187 93 47 23 10 4 14 255 255 136 67 34 18 8 4 8 92 255 223 183 157 181 243 42 9 12 104 255 171 87 46 30 80 255 172 107 88 95 121 138 133 116 109 137 235 160 38 45 83 159 255 114 23 31 60 122 254 226 11 1 0 0 0 0 0 0 0 0 0 0 0 0 0 0 0 0 0 0 0 0 0 0 0 0 0 2 48 255 187 92 46 23 10 5 35 255 209 104 51 27 13 6 3 2 2 3 6 13 28 57 122 255 255 140 65 32 15 8 7 52 255 220 184 169 165 179 255 114 33 45 82 156 255 116 24 32 61 124 252 255 24 13 27 55 111 220 255 29 1 0 1 2 6 17 37 72 145 255 219 10 0 0 0 0 0 0
0 0 0 0 0 0 0 0 0 0 0 0 0 0 0 0 0 0 0 0 0 0 0 0 0 0 0 0 0 0 0 0 0 0 0 0 0 0 0 0 0 0 0 0 2 44 255 210 104 51 26 12 5 1 1 4 73 255 169 82 40 20 9 3 1 0 0 0 0 0 0 0 0 0 0 0 0 0 0 0 0 1 17 255 249 121 57 29 15 26 255 249 123 60 29 17 54 255 189 96 49 26 25 199 255 142 78 51 40 39 50 76 136 255 255 27 24 44 86 174 255 88 16 24 47 95 199 255 47 2 0 0 0 0 0 0 0 0 0 0 0 0 0 0 0 0 0 0 0 0 0 0 0 0 0 0 0 0 0 0 0 0 0 0 0 0 0 0 0 0 0 0 0 0 0 0 0 0 0 0 0 0 0 0 0 0 0 0 0 0 0 0 0 0 0 0 0 0 0 0 0 0 1 3 8 20 42 87 167 199 115 56 27 12 8 62 255 187 91 45 22 10 6 46 255 208 103 49 24 12 30 255 241 121 58 30 15 15 137 255 173 112 89 91 94 63 73 101 91 57 35 47 128 169 135 101 119 207 229 43 41 72 141 255 146 25 32 61 122 244 255 23 12 24 48 99 206 255 39 2 0 0 0 0 0 0 0 0 0 0 0 0 0 0 0 0 0 0 0 0 0 0 0 0 0 0 0 0 0 0 0 0 0 0 0 0 0 0 0 0 0 0 0 0 7 153 255 151 73 37 18 7 2 1 0 0 0 0 0 0 0 0 0 0 0 0 0 0 0 0 0 0 0 0 0 0 0 0 0 0 0 0 0 0 0 0 0 0 0 1 3 9 21 43 89 184 255 51 2 0 0 0 0 0 0 0 0 0 0 0 0 0 0 0 0 0 0 0 0 0 0 0 0 0 0 0 0 0 0 0 0 0 0 0 0 0 0 0 0 0 0 0 0 0 0 0 0 0 0 0 0 0 0 0 0 0 0 0 0 0 0 0 0 0 0 0 0 0 0 0 0 0 0 0 0 0 0 0 0 0 0 0 0 0 0 1 1 2 2 2 3 25 255 231 112 54 27 12 5 7 111 255 161 77 38 19 9 4 4 40 255 199 154 130 113 121 180 85 11 39 255 186 98 50 28 41 255 200 112 75 74 103 141 151 142 117 94 99 156 255 79 33 50 95 188 255 61 20 35 72 150 255 86 4 0 0 0 0 0 0 0 0 0 0 0 0 0 0 0 0 0 0 0 0 0 0 0 0 1 20 255 228 112 53 26 12 5 16 255 255 126 60 30 14 6 2 1 1 1 1 2 6 16 35 70 119 126 78 39 18 7 4 23 255 229 148 117 112 117 128 185 255 60 30 49 94 186 255 63 21 36 73 151 255 155 14 15 31 63 130 255 255 12 1 0 1 3 9 20 41 81 165 255 86 4 0 0 0 0 0
0 0 0 0 0 0 0 0 0 0 0 0 0 0 0 0 0 0 0 0 0 0 0 0 0 0 0 0 0 0 0 0 0 0 0 0 0 0 0 0 0 0 0 1 21 255 250 125 59 28 13 5 2 1 2 38 255 211 101 48 22 10 4 1 0 0 0 0 0 0 0 0 0 0 0 0 0 0 0 0 0 7 146 255 150 71 33 16 16 162 255 152 74 36 17 28 255 232 117 57 28 19 92 255 160 85 48 31 24 24 31 46 82 161 255 121 19 26 51 104 205 255 46 15 26 56 121 246 255 23 1 0 0 0 0 0 0 0 0 0 0 0 0 0 0 0 0 0 0 0 0 0 0 0 0 0 0 0 0 0 0 0 0 0 0 0 0 0 0 0 0 0 0 0 0 0 0 0 0 0 0 0 0 0 0 0 0 0 0 0 0 0 0 0 0 0 0 0 0 0 0 0 0 1 4 10 24 48 75 84 59 32 14 7 31 255 225 112 53 25 11 5 23 255 249 125 60 29 13 16 216 255 146 71 34 16 11 65 255 191 107 70 60 73 88 53 39 41 38 30 26 80 229 211 178 111 95 146 255 119 33 45 87 172 255 71 22 35 71 148 255 151 13 13 27 58 127 255 255 18 1 0 0 0 0 0 0 0 0 0 0 0 0 0 0 0 0 0 0 0 0 0 0 0 0 0 0 0 0 0 0 0 0 0 0 0 0 0 0 0 0 0 0 3 66 255 178 88 42 20 9 3 1 0 0 0 0 0 0 0 0 0 0 0 0 0 0 0 0 0 0 0 0 0 0 0 0 0 0 0 0 0 0 0 0 0 0 0 0 0 1 4 10 25 54 114 230 255 22 1 0 0 0 0 0 0 0 0 0 0 0 0 0 0 0 0 0 0 0 0 0 0 0 0 0 0 0 0 0 0 0 0 0 0 0 0 0 0 0 0 0 0 0 0 0 0 0 0 0 0 0 0 0 0 0 0 0 0 0 0 0 0 0 0 0 0 0 0 0 0 0 0 0 0 0 0 0 0 0 0 0 0 0 0 0 0 0 1 1 1 10 206 255 143 67 31 14 6 4 53 255 190 94 45 21 9 4 2 17 255 244 136 100 88 80 82 115 241 39 208 228 115 56 29 24 136 255 129 74 59 80 139 166 162 152 132 95 78 109 196 255 45 32 58 117 230 255 33 21 43 92 192 255 40 2 0 0 0 0 0 0 0 0 0 0 0 0 0 0 0 0 0 0 0 0 0 0 0 8 158 255 139 65 31 14 5 8 122 255 155 74 35 16 6 2 1 0 0 0 0 1 3 8 20 37 50 52 39 22 9 4 10 171 255 150 94 74 74 81 90 127 227 237 35 31 57 117 230 255 34 22 43 90 181 255 73 11 17 36 76 161 255 114 5 0 0 1 4 10 23 46 96 196 255 40 2 0 0 0 0
0 0 0 0 0 0 0 0 0 0 0 0 0 0 0 0 0 0 0 0 0 0 0 0 0 0 0 0 0 0 0 0 0 0 0 0 0 0 0 0 0 0 0 8 174 255 152 74 35 15 6 2 1 1 17 255 255 133 62 28 12 4 1 0 0 0 0 0 0 0 0 0 0 0 0 0 0 0 0 0 3 66 255 187 91 43 19 12 78 255 183 93 46 21 17 151 255 146 72 35 18 47 255 197 101 53 29 17 13 13 18 28 52 100 191 255 61 17 31 63 128 251 255 24 15 34 73 151 255 216 10 0 0 0 0 0 0 0 0 0 0 0 0 0 0 0 0 0 0 0 0 0 0 0 0 0 0 0 0 0 0 0 0 0 0 0 0 0 0 0 0 0 0 0 0 0 0 0 0 0 0 0 0 0 0 0 0 0 0 0 0 0 0 0 0 0 0 0 0 0 0 0 0 0 1 4 12 24 32 34 27 16 7 16 255 255 139 68 32 14 6 11 181 255 151 75 36 16 12 103 255 175 88 43 19 9 32 255 223 120 68 46 45 69 93 53 22 16 15 15 37 255 229 201 197 158 95 109 181 255 63 32 56 111 214 255 38 22 44 91 186 255 75 10 15 35 77 157 255 147 7 0 0 0 0 0 0 0 0 0 0 0 0 0 0 0 0 0 0 0 0 0 0 0 0 0 0 0 0 0 0 0 0 0 0 0 0 0 0 0 0 0 1 32 255 217 108 52 24 10 4 1 0 0 0 0 0 0 0 0 0 0 0 0 0 0 0 0 0 0 0 0 0 0 0 0 0 0 0 0 0 0 0 0 0 0 0 0 0 0 1 2 5 14 33 70 143 255 190 9 0 0 0 0 0 0 0 0 0 0 0 0 0 0 0 0 0 0 0 0 0 0 0 0 0 0 0 0 0 0 0 0 0 0 0 0 0 0 0 0 0 0 0 0 0 0 0 0 0 0 0 0 0 0 0 0 0 0 0 0 0 0 0 0 0 0 0 0 0 0 0 0 0 0 0 0 0 0 0 0 0 0 0 0 0 0 0 0 0 4 88 255 175 87 41 18 7 3 27 255 236 117 57 26 11 4 2 7 134 255 156 92 68 63 61 61 103 255 255 255 148 71 34 20 62 255 161 87 54 59 134 197 182 167 163 162 125 76 82 137 255 177 30 37 73 146 255 166 21 27 58 122 251 255 18 1 0 0 0 0 0 0 0 0 0 0 0 0 0 0 0 0 0 0 0 0 0 3 67 255 175 85 40 17 7 5 62 255 195 95 45 20 8 3 1 0 0 0 0 0 0 1 3 9 17 20 20 17 10 4 5 77 255 180 98 63 49 51 58 67 89 150 255 118 25 37 74 146 255 166 22 26 55 111 217 255 37 10 20 46 99 199 255 57 3 0 0 1 4 11 27 58 123 251 255 18 1 0 0 0
0 0 0 0 0 0 0 0 0 0 0 0 0 0 0 0 0 0 0 0 0 0 0 0 0 0 0 0 0 0 0 0 0 0 0 0 0 0 0 0 0 0 4 74 255 178 92 46 20 7 3 1 1 7 150 255 160 82 40 16 6 2 1 0 0 0 0 0 0 0 0 0 0 0 0 0 0 0 0 1 32 255 222 115 58 26 12 42 255 218 114 59 29 16 74 255 180 94 47 22 26 255 249 129 67 34 17 9 6 6 9 16 34 64 121 229 255 34 19 40 80 155 255 134 15 21 46 91 178 255 95 5 0 0 0 0 0 0 0 0 0 0 0 0 0 0 0 0 0 0 0 0 0 0 0 0 0 0 0 0 0 0 0 0 0 0 0 0 0 0 0 0 0 0 0 0 0 0 0 0 0 0 0 0 0 0 0 0 0 0 0 0 0 0 0 0 0 0 0 0 0 0 0 0 1 2 5 10 12 13 11 7 9 123 255 171 86 43 18 7 6 83 255 180 92 47 21 11 55 255 207 107 55 26 11 16 242 255 140 76 45 33 41 89 122 72 15 7 6 15 148 255 186 164 177 205 135 93 127 227 255 40 39 74 139 255 194 24 28 59 117 223 255 40 9 21 48 95 184 255 64 3 0 0 0 0 0 0 0 0 0 0 0 0 0 0 0 0 0 0 0 0 0 0 0 0 0 0 0 0 0 0 0 0 0 0 0 0 0 0 0 1 15 255 255 136 67 32 13 4 1 0 0 0 0 0 0 0 0 0 0 0 0 0 0 0 0 0 0 0 0 0 0 0 0 0 0 0 0 0 0 0 0 0 0 0 0 0 0 0 0 1 2 7 20 45 89 177 255 82 4 0 0 0 0 0 0 0 0 0 0 0 0 0 0 0 0 0 0 0 0 0 0 0 0 0 0 0 0 0 0 0 0 0 0 0 0 0 0 0 0 0 0 0 0 0 0 0 0 0 0 0 0 0 0 0 0 0 0 0 0 0 0 0 0 0 0 0 0 0 0 0 0 0 0 0 0 0 0 0 0 0 0 0 0 0 0 0 2 43 255 209 108 55 25 9 3 12 229 255 148 73 35 14 5 2 4 63 255 191 102 66 50 49 51 56 112 203 255 228 107 48 22 32 255 215 113 64 50 112 249 210 178 165 169 186 194 110 74 100 175 255 90 29 49 93 174 255 83 21 39 78 157 255 160 8 0 0 0 0 0 0 0 0 0 0 0 0 0 0 0 0 0 0 0 0 1 32 255 216 110 54 24 9 4 34 255 235 121 61 28 11 3 1 0 0 0 0 0 0 0 0 1 3 6 7 7 6 4 3 39 255 216 114 66 44 35 37 45 55 68 104 185 255 63 27 50 93 172 255 83 20 35 69 136 255 255 19 12 29 62 123 239 255 30 1 0 1 2 5 15 36 77 156 255 172 8 0 0 0
0 0 0 0 0 0 0 0 0 0 0 0 0 0 0 0 0 0 0 0 0 0 0 0 0 0 0 0 0 0 0 0 0 0 0 0 0 0 0 0 0 2 36 255 211 108 56 28 11 3 1 0 3 67 255 186 96 52 25 8 2 1 0 0 0 0 0 0 0 0 0 0 0 0 0 0 0 0 1 13 255 255 136 71 37 16 24 255 255 135 72 39 19 42 255 217 114 62 32 20 124 255 155 83 46 22 9 4 2 2 4 9 22 43 77 144 255 211 23 26 52 97 185 255 67 15 29 57 107 207 255 47 2 0 0 0 0 0 0 0 0 0 0 0 0 0 0 0 0 0 0 0 0 0 0 0 0 0 0 0 0 0 0 0 0 0 0 0 0 0 0 0 0 0 0 0 0 0 0 0 0 0 0 0 0 0 0 0 0 0 0 0 0 0 0 0 0 0 0 0 0 0 0 0 0 1 2 3 4 4 4 5 60 255 199 104 55 27 10 5 44 255 213 110 57 29 13 30 255 241 127 67 35 15 11 114 255 170 88 50 31 26 59 181 191 182 19 3 5 58 255 183 137 127 146 186 204 106 94 149 255 155 38 52 90 168 255 93 23 39 73 137 255 255 21 13 30 59 112 218 255 31 1 0 0 0 0 0 0 0 0 0 0 0 0 0 0 0 0 0 0 0 0 0 0 0 0 0 0 0 0 0 0 0 0 0 0 0 0 0 0 6 131 255 165 84 43 19 6 2 1 0 0 0 0 0 0 0 0 0 0 0 0 0 0 0 0 0 0 0 0 0 0 0 0 0 0 0 0 0 0 0 0 0 0 0 0 0 0 0 0 0 1 3 11 29 57 109 210 255 41 2 0 0 0 0 0 0 0 0 0 0 0 0 0 0 0 0 0 0 0 0 0 0 0 0 0 0 0 0 0 0 0 0 0 0 0 0 0 0 0 0 0 0 0 0 0 0 0 0 0 0 0 0 0 0 0 0 0 0 0 0 0 0 0 0 0 0 0 0 0 0 0 0 0 0 0 0 0 0 0 0 0 0 0 0 0 1 19 255 249 129 67 35 15 5 6 100 255 171 90 47 21 7 2 2 31 255 226 119 69 51 42 42 51 74 134 135 168 125 77 35 23 170 255 143 81 57 92 255 229 178 156 153 162 182 216 219 100 82 118 205 255 59 36 61 111 212 255 51 28 52 96 182 255 73 3 0 0 0 0 0 0 0 0 0 0 0 0 0 0 0 0 0 0 1 14 255 255 134 69 35 14 5 15 255 255 144 75 39 16 5 1 0 0 0 0 0 0 0 0 0 0 1 2 2 2 2 2 17 255 255 134 73 47 32 25 28 38 51 58 75 123 229 255 43 36 61 109 211 255 49 24 45 84 162 255 122 12 17 39 75 145 255 255 13 1 0 1 2 8 22 49 96 186 255 82 4 0 0
0 0 0 0 0 0 0 0 0 0 0 0 0 0 0 0 0 0 0 0 0 0 0 0 0 0 0 0 0 0 0 0 0 0 0 0 0 0 0 0 1 15 255 255 129 65 35 16 5 1 0 2 32 255 217 111 58 32 14 4 1 0 0 0 0 0 0 0 0 0 0 0 0 0 0 0 0 0 6 123 255 161 81 44 23 17 167 255 158 82 46 26 27 255 255 134 72 42 24 68 255 182 96 55 32 13 4 1 1 1 1 4 12 28 50 90 173 255 116 22 34 61 115 221 255 39 18 35 64 124 242 255 21 1 0 0 0 0 0 0 0 0 0 0 0 0 0 0 0 0 0 0 0 0 0 0 0 0 0 0 0 0 0 0 0 0 0 0 0 0 0 0 0 0 0 0 0 0 0 0 0 0 0 0 0 0 0 0 0 0 0 0 0 0 0 0 0 0 0 0 0 0 0 0 0 0 1 1 1 1 2 29 255 228 119 63 35 16 6 22 255 253 129 67 36 18 17 199 255 145 76 42 22 11 62 255 200 104 56 34 22 32 207 255 247 255 60 6 23 255 211 126 100 100 117 147 196 159 84 101 181 255 109 44 61 106 199 255 58 28 46 82 157 255 157 14 18 37 68 134 255 255 13 1 0 0 0 0 0 0 0 0 0 0 0 0 0 0 0 0 0 0 0 0 0 0 0 0 0 0 0 0 0 0 0 0 0 0 0 0 3 58 255 188 98 52 27 10 3 1 0 0 0 0 0 0 0 0 0 0 0 0 0 0 0 0 0 0 0 0 0 0 0 0 0 0 0 0 0 0 0 0 0 0 0 0 0 0 0 0 0 0 0 1 5 18 37 67 128 252 255 19 1 0 0 0 0 0 0 0 0 0 0 0 0 0 0 0 0 0 0 0 0 0 0 0 0 0 0 0 0 0 0 0 0 0 0 0 0 0 0 0 0 0 0 0 0 0 0 0 0 0 0 0 0 0 0 0 0 0 0 0 0 0 0 0 0 0 0 0 0 0 0 0 0 0 0 0 0 0 0 0 0 0 0 0 0 8 157 255 150 77 42 21 8 5 51 255 201 102 55 30 12 3 2 14 255 255 137 73 48 44 39 45 76 158 154 90 76 64 53 31 91 255 175 96 65 90 255 246 168 135 129 135 143 154 181 237 207 89 82 131 252 255 49 43 71 132 255 255 39 36 59 109 217 255 39 2 0 0 0 0 0 0 0 0 0 0 0 0 0 0 0 0 0 6 119 255 161 81 44 22 7 8 121 255 161 84 47 25 9 2 1 0 0 0 0 0 0 0 0 0 0 0 1 1 1 1 7 151 255 154 80 48 33 22 16 20 33 54 58 59 82 145 255 223 39 42 70 133 255 255 33 30 53 98 191 255 61 13 24 46 85 166 255 128 6 0 0 1 4 13 31 59 111 217 255 43 2 0
0 0 0 0 0 0 0 0 0 0 0 0 0 0 0 0 0 0 0 0 0 0 0 0 0 0 0 0 0 0 0 0 0 0 0 0 0 0 0 0 6 121 255 152 76 40 20 8 2 1 1 13 254 255 130 65 35 18 7 2 0 0 0 0 0 0 0 0 0 0 0 0 0 0 0 0 0 3 60 255 191 95 49 27 17 87 255 184 94 50 29 23 134 255 156 81 46 29 47 255 224 113 60 36 20 7 2 1 0 0 1 2 6 17 33 56 105 203 255 74 25 39 69 135 255 255 25 21 38 72 143 255 180 8 0 0 0 0 0 0 0 0 0 0 0 0 0 0 0 0 0 0 0 0 0 0 0 0 0 0 0 0 0 0 0 0 0 0 0 0 0 0 0 0 0 0 0 0 0 0 0 0 0 0 0 0 0 0 0 0 0 0 0 0 0 0 0 0 0 0 0 0 0 0 0 0 0 0 0 1 11 229 255 136 69 38 21 8 11 180 255 150 76 40 22 14 91 255 166 85 46 26 14 37 255 234 119 63 36 22 20 128 255 220 202 199 255 32 142 255 137 85 75 82 95 111 147 194 104 74 115 215 255 84 45 66 124 247 255 43 30 49 92 185 255 82 13 22 41 79 158 255 106 5 0 0 0 0 0 0 0 0 0 0 0 0 0 0 0 0 0 0 0 0 0 0 0 0 0 0 0 0 0 0 0 0 0 0 0 1 27 255 219 111 58 32 15 5 1 0 0 0 0 0 0 0 0 0 0 0 0 0 0 0 0 0 0 0 0 0 0 0 0 0 0 0 0 0 0 0 0 0 0 0 0 0 0 0 0 0 0 0 0 1 3 9 23 41 75 150 255 163 8 0 0 0 0 0 0 0 0 0 0 0 0 0 0 0 0 0 0 0 0 0 0 0 0 0 0 0 0 0 0 0 0 0 0 0 0 0 0 0 0 0 0 0 0 0 0 0 0 0 0 0 0 0 0 0 0 0 0 0 0 0 0 0 0 0 0 0 0 0 0 0 0 0 0 0 0 0 0 0 0 0 0 0 3 66 255 175 88 46 26 11 5 25 255 237 120 60 33 17 6 2 7 140 255 163 81 46 35 40 43 82 243 255 168 67 36 31 36 71 255 208 110 67 80 255 255 163 114 100 106 116 120 121 134 172 237 151 68 84 156 255 207 44 47 80 153 255 191 35 37 65 131 255 255 18 1 0 0 0 0 0 0 0 0 0 0 0 0 0 0 0 3 54 255 187 95 49 27 12 6 58 255 188 94 50 28 14 4 1 0 0 0 0 0 0 0 0 0 0 0 0 0 0 0 4 70 255 184 91 49 31 21 13 9 12 30 71 72 53 57 91 174 255 144 38 47 81 151 255 156 28 34 59 115 224 255 34 15 28 50 96 193 255 62 3 0 0 2 6 18 35 65 129 251 255 20 1
0 0 0 0 0 0 0 0 0 0 0 0 0 0 0 0 0 0 0 0 0 0 0 0 0 0 0 0 0 0 0 0 0 0 0 0 0 0 0 3 54 255 181 89 44 23 10 4 1 1 5 102 255 154 75 38 20 9 3 1 0 0 0 0 0 0 0 0 0 0 0 0 0 0 0 0 1 30 255 225 112 55 29 17 50 255 210 107 55 30 21 78 255 183 92 48 29 35 255 255 136 68 38 22 11 3 1 0 0 0 0 1 3 8 20 35 62 120 233 255 51 26 42 79 160 255 131 19 22 41 82 170 255 79 4 0 0 0 0 0 0 0 0 0 0 0 0 0 0 0 0 0 0 0 0 0 0 0 0 0 0 0 0 0 0 0 0 0 0 0 0 0 0 0 0 0 0 0 0 0 0 0 0 0 0 0 0 0 0 0 0 0 0 0 0 0 0 0 0 0 0 0 0 0 0 0 0 0 0 5 92 255 160 78 40 21 11 8 83 255 173 86 44 23 14 50 255 197 98 49 26 15 22 255 255 138 69 37 22 16 71 255 206 151 135 150 255 255 255 162 86 59 60 74 81 85 107 159 157 67 73 129 236 255 60 44 75 149 255 216 31 30 54 109 215 255 46 14 24 46 92 187 255 48 2 0 0 0 0 0 0 0 0 0 0 0 0 0 0 0 0 0 0 0 0 0 0 0 0 0 0 0 0 0 0 0 0 0 0 11 230 255 131 63 33 17 7 2 1 0 0 0 0 0 0 0 0 0 0 0 0 0 0 0 0 0 0 0 0 0 0 0 0 0 0 0 0 0 0 0 0 0 0 0 0 0 0 0 0 0 0 0 0 0 1 4 12 24 44 86 174 255 70 3 0 0 0 0 0 0 0 0 0 0 0 0 0 0 0 0 0 0 0 0 0 0 0 0 0 0 0 0 0 0 0 0 0 0 0 0 0 0 0 0 0 0 0 0 0 0 0 0 0 0 0 0 0 0 0 0 0 0 0 0 0 0 0 0 0 0 0 0 0 0 0 0 0 0 0 0 0 0 0 0 0 1 30 255 207 103 51 27 14 6 11 196 255 140 69 35 18 8 3 4 69 255 190 94 48 29 26 45 104 255 255 221 160 62 19 16 49 255 249 125 68 60 183 255 162 102 76 75 89 101 99 93 94 115 165 218 84 58 94 174 255 130 38 49 90 176 255 109 28 39 75 152 255 155 7 0 0 0 0 0 0 0 0 0 0 0 0 0 0 1 25 255 222 110 55 29 15 7 29 255 223 112 54 28 15 6 2 0 0 0 0 0 0 0 0 0 0 0 0 0 0 0 2 33 255 214 108 53 29 18 11 6 4 8 35 150 142 61 42 58 103 194 255 97 36 49 89 178 255 92 25 36 67 134 255 254 20 16 29 55 112 223 255 30 1 0 1 3 9 20 38 73 146 255 177 9
0 0 0 0 0 0 0 0 0 0 0 0 0 0 0 0 0 0 0 0 0 0 0 0 0 0 0 0 0 0 0 0 0 0 0 0 0 0 1 23 255 219 107 51 25 12 5 1 1 2 49 255 186 89 43 21 10 4 1 0 0 0 0 0 0 0 0 0 0 0 0 0 0 0 0 1 13 255 255 133 64 31 16 28 255 245 123 61 32 19 47 255 219 109 53 29 25 149 255 158 79 41 22 11 5 1 0 0 0 0 0 0 1 4 10 20 36 69 136 255 255 33 25 46 92 182 255 67 15 23 47 99 205 255 40 2 0 0 0 0 0 0 0 0 0 0 0 0 0 0 0 0 0 0 0 0 0 0 0 0 0 0 0 0 0 0 0 0 0 0 0 0 0 0 0 0 0 0 0 0 0 0 0 0 0 0 0 0 0 0 0 0 0 0 0 0 0 0 0 0 0 0 0 0 0 0 0 0 2 43 255 192 93 45 22 11 7 44 255 205 100 49 24 13 28 255 242 118 56 28 14 15 147 255 158 78 40 21 13 41 255 225 130 95 86 109 192 255 247 106 55 43 54 75 78 70 81 119 186 85 50 76 140 254 183 41 46 86 166 255 105 23 32 62 125 249 255 24 13 26 53 111 227 255 21 1 0 0 0 0 0 0 0 0 0 0 0 0 0 0 0 0 0 0 0 0 0 0 0 0 0 0 0 0 0 0 0 0 5 95 255 160 76 36 18 8 3 1 0 0 0 0 0 0 0 0 0 0 0 0 0 0 0 0 0 0 0 0 0 0 0 0 0 0 0 0 0 0 0 0 0 0 0 0 0 0 0 0 0 0 0 0 0 0 0 2 5 12 25 49 101 207 255 34 2 0 0 0 0 0 0 0 0 0 0 0 0 0 0 0 0 0 0 0 0 0 0 0 0 0 0 0 0 0 0 0 0 0 0 0 0 0 0 0 0 0 0 0 0 0 0 0 0 0 0 0 0 0 0 0 0 0 0 0 0 0 0 0 0 0 0 0 0 0 0 0 0 0 0 0 0 0 0 0 1 12 252 255 124 59 29 14 7 7 83 255 164 80 39 19 9 3 3 36 255 220 109 53 28 17 24 131 255 255 199 144 125 66 14 18 180 255 145 74 48 94 249 157 95 62 52 60 81 92 86 74 67 75 108 173 147 51 57 101 191 255 74 33 52 102 196 255 56 25 43 86 175 255 70 3 0 0 0 0 0 0 0 0 0 0 0 0 0 10 212 255 133 63 31 15 7 14 217 255 132 64 31 15 7 3 1 0 0 0 0 0 0 0 0 0 0 0 0 0 0 1 13 255 255 126 61 31 16 9 5 2 2 8 91 255 255 139 40 37 60 113 214 255 61 31 53 106 210 255 53 23 39 77 162 255 115 14 15 31 63 131 255 255 12 1 0 1 4 10 21 41 82 172 255 92
0 0 0 0 0 0 0 0 0 0 0 0 0 0 0 0 0 0 0 0 0 0 0 0 0 0 0 0 0 0 0 0 0 0 0 0 0 0 9 176 255 131 61 29 13 5 2 1 1 24 255 234 112 51 24 10 4 1 0 0 0 0 0 0 0 0 0 0 0 0 0 0 0 0 0 6 130 255 160 75 36 17 16 147 255 145 69 34 18 27 255 255 131 63 31 20 74 255 180 91 46 23 11 5 2 1 0 0 0 0 0 0 0 1 4 10 20 39 77 154 255 143 22 27 52 107 217 255 35 13 26 57 122 250 255 18 1 0 0 0 0 0 0 0 0 0 0 0 0 0 0 0 0 0 0 0 0 0 0 0 0 0 0 0 0 0 0 0 0 0 0 0 0 0 0 0 0 0 0 0 0 0 0 0 0 0 0 0 0 0 0 0 0 0 0 0 0 0 0 0 0 0 0 0 0 0 0 1 20 255 240 115 54 25 11 6 22 255 248 122 57 27 13 16 194 255 146 68 32 15 10 76 255 186 90 44 22 11 21 255 255 137 79 59 56 77 110 163 126 67 37 33 59 97 92 68 67 94 151 145 45 45 81 154 255 87 32 50 96 186 255 52 20 35 70 145 255 147 14 14 30 63 136 255 159 8 0 0 0 0 0 0 0 0 0 0 0 0 0 0 0 0 0 0 0 0 0 0 0 0 0 0 0 0 0 0 0 2 45 255 193 94 43 20 8 3 1 0 0 0 0 0 0 0 0 0 0 0 0 0 0 0 0 0 0 0 0 0 0 0 0 0 0 0 0 0 0 0 0 0 0 0 0 0 0 0 0 0 0 0 0 0 0 0 0 1 2 5 12 27 57 124 255 255 14 1 0 0 0 0 0 0 0 0 0 0 0 0 0 0 0 0 0 0 0 0 0 0 0 0 0 0 0 0 0 0 0 0 0 0 0 0 0 0 0 0 0 0 0 0 0 0 0 0 0 0 0 0 0 0 0 0 0 0 0 0 0 0 0 0 0 0 0 0 0 0 0 0 0 0 0 0 0 0 5 103 255 155 72 33 15 7 5 40 255 198 95 45 21 9 4 2 16 255 255 129 61 30 15 12 73 255 255 175 117 89 90 83 17 60 255 154 81 45 49 195 167 95 55 38 37 54 85 94 82 64 50 50 71 120 211 73 37 59 114 215 255 40 31 58 116 225 236 30 24 48 102 213 255 36 2 0 0 0 0 0 0 0 0 0 0 0 4 87 255 164 77 36 16 7 8 91 255 159 75 36 16 7 3 1 0 0 0 0 0 0 0 0 0 0 0 0 0 0 0 5 113 255 151 71 34 16 7 3 2 1 2 35 255 228 236 255 80 26 35 65 128 242 247 35 32 61 126 243 255 29 22 45 94 188 255 56 10 16 35 74 156 255 102 5 0 0 1 4 10 22 47 101 215 255
0 0 0 0 0 0 0 0 0 0 0 0 0 0 0 0 0 0 0 0 0 0 0 0 0 0 0 0 0 0 0 0 0 0 0 0 0 4 74 255 163 77 35 15 6 2 1 1 11 237 255 142 66 29 12 4 2 1 0 0 0 0 0 0 0 0 0 0 0 0 0 0 0 0 3 62 255 191 93 43 19 12 67 255 173 85 40 19 16 135 255 155 76 37 18 37 255 208 107 52 26 12 5 2 1 0 0 0 0 0 0 0 0 1 2 4 10 21 44 89 175 255 67 18 30 62 133 255 218 18 14 32 70 149 255 154 7 0 0 0 0 0 0 0 0 0 0 0 0 0 0 0 0 0 0 0 0 0 0 0 0 0 0 0 0 0 0 0 0 0 0 0 0 0 0 0 0 0 0 0 0 0 0 0 0 0 0 0 0 0 0 0 0 0 0 0 0 0 0 0 0 0 0 0 0 0 0 8 186 255 145 67 31 13 5 10 173 255 148 70 32 14 10 86 255 174 85 40 18 9 40 255 219 110 52 24 11 12 130 255 159 82 48 37 37 52 58 68 58 40 25 31 101 174 156 93 67 82 120 210 65 30 48 96 182 255 44 30 55 114 230 255 27 20 40 85 179 255 69 10 16 36 80 169 255 69 3 0 0 0 0 0 0 0 0 0 0 0 0 0 0 0 0 0 0 0 0 0 0 0 0 0 0 0 0 0 1 19 255 237 116 54 24 10 4 1 0 0 0 0 0 0 0 0 0 0 0 0 0 0 0 0 0 0 0 0 0 0 0 0 0 0 0 0 0 0 0 0 0 0 0 0 0 0 0 0 0 0 0 0 0 0 0 0 0 0 1 2 6 14 33 72 152 255 110 6 0 0 0 0 0 0 0 0 0 0 0 0 0 0 0 0 0 0 0 0 0 0 0 0 0 0 0 0 0 0 0 0 0 0 0 0 0 0 0 0 0 0 0 0 0 0 0 0 0 0 0 0 0 0 0 0 0 0 0 0 0 0 0 0 0 0 0 0 0 0 0 0 0 0 0 0 0 2 50 255 191 92 42 18 7 3 18 255 247 120 55 25 10 4 2 7 142 255 154 73 34 16 9 35 255 233 153 98 66 56 72 132 47 255 182 93 46 32 90 221 111 58 32 22 28 60 114 121 100 67 41 35 50 92 173 175 36 35 67 134 255 122 25 33 68 138 255 103 19 27 59 128 255 255 15 1 0 0 0 0 0 0 0 0 0 2 42 255 198 97 45 19 8 5 43 255 195 94 43 19 8 3 1 0 0 0 0 0 0 0 0 0 0 0 0 0 0 0 3 55 255 189 89 41 18 8 3 1 1 1 13 254 249 169 164 219 255 40 21 37 75 148 255 106 25 36 73 146 255 115 19 26 54 112 225 255 27 9 19 42 91 188 255 47 2 0 1 2 4 11 26 59 132 255
0 0 0 0 0 0 0 0 0 0 0 0 0 0 0 0 0 0 0 0 0 0 0 0 0 0 0 0 0 0 0 0 0 0 0 0 2 36 255 207 100 46 20 7 2 1 0 5 110 255 173 84 39 16 6 2 1 0 0 0 0 0 0 0 0 0 0 0 0 0 0 0 0 1 30 255 225 113 54 24 11 33 255 212 106 50 23 13 64 255 182 93 45 21 20 187 255 131 64 30 13 5 2 1 0 0 0 0 0 0 0 0 0 0 1 2 4 10 24 52 108 211 255 33 18 37 80 163 255 92 12 18 41 88 181 255 69 3 0 0 0 0 0 0 0 0 0 0 0 0 0 0 0 0 0 0 0 0 0 0 0 0 0 0 0 0 0 0 0 0 0 0 0 0 0 0 0 0 0 0 0 0 0 0 0 0 0 0 0 0 0 0 0 0 0 0 0 0 0 0 0 0 0 0 0 0 4 85 255 179 87 40 17 6 6 76 255 178 87 41 18 9 42 255 203 104 51 23 10 20 255 255 132 64 30 13 8 59 255 187 95 50 30 22 24 33 29 27 25 22 18 54 255 255 255 216 110 88 111 176 160 30 30 60 122 248 138 25 33 70 146 255 121 17 23 51 109 216 255 34 9 20 48 103 213 255 35 2 0 0 0 0 0 0 0 0 0 0 0 0 0 0 0 0 0 0 0 0 0 0 0 0 0 0 0 0 8 164 255 143 68 31 13 4 1 0 0 0 0 0 0 0 0 0 0 0 0 0 0 0 0 0 0 0 0 0 0 0 0 0 0 0 0 0 0 0 0 0 0 0 0 0 0 0 0 0 0 0 0 0 0 0 0 0 0 0 0 1 2 7 18 42 91 187 255 52 2 0 0 0 0 0 0 0 0 0 0 0 0 0 0 0 0 0 0 0 0 0 0 0 0 0 0 0 0 0 0 0 0 0 0 0 0 0 0 0 0 0 0 0 0 0 0 0 0 0 0 0 0 0 0 0 0 0 0 0 0 0 0 0 0 0 0 0 0 0 0 0 0 0 0 0 1 25 255 237 116 55 24 9 3 8 140 255 149 71 32 13 5 2 4 67 255 186 90 42 19 8 15 226 255 145 85 53 38 38 82 224 255 255 126 57 28 41 243 155 80 37 18 13 25 110 195 194 169 105 41 26 38 76 135 255 74 25 41 85 162 255 55 21 41 88 177 255 47 17 35 75 154 255 121 6 0 0 0 0 0 0 0 0 1 20 255 248 121 57 26 10 4 19 255 242 120 56 25 10 3 1 0 0 0 0 0 0 0 0 0 0 0 0 0 0 0 1 27 255 233 116 53 23 9 3 1 0 0 5 108 255 164 115 109 149 255 153 20 22 45 92 172 255 51 23 44 89 176 255 53 17 31 66 140 255 182 13 10 24 54 115 235 255 21 1 0 1 2 5 14 35 76 127
0 0 0 0 0 0 0 0 0 0 0 0 0 0 0 0 0 0 0 0 0 0 0 0 0 0 0 0 0 0 0 0 0 0 0 1 16 255 255 128 61 27 10 3 1 0 3 57 255 204 102 50 23 8 2 1 0 0 0 0 0 0 0 0 0 0 0 0 0 0 0 0 1 13 255 255 135 66 32 14 16 197 255 133 65 30 14 33 255 219 112 56 27 16 82 255 161 81 39 17 6 2 1 0 0 0 0 0 0 0 0 0 0 0 0 1 2 5 13 31 66 133 255 166 19 23 49 100 195 255 45 11 24 52 109 216 255 34 2 0 0 0 0 0 0 0 0 0 0 0 0 0 0 0 0 0 0 0 0 0 0 0 0 0 0 0 0 0 0 0 0 0 0 0 0 0 0 0 0 0 0 0 0 0 0 0 0 0 0 0 0 0 0 0 0 0 0 0 0 0 0 0 0 0 0 2 43 255 212 107 52 24 9 4 38 255 210 107 52 24 10 20 255 247 125 62 30 12 12 143 255 156 78 38 16 7 27 255 220 114 58 30 17 12 13 18 13 10 10 10 25 255 255 227 233 255 255 154 120 143 255 68 22 40 83 157 255 61 23 45 93 181 255 57 15 31 66 133 255 218 16 11 29 63 131 255 255 14 1 0 0 0 0 0 0 0 0 0 0 0 0 0 0 0 0 0 0 0 0 0 0 0 0 0 0 4 75 255 179 86 41 17 6 2 1 0 0 0 0 0 0 0 0 0 0 0 0 0 0 0 0 0 0 0 0 0 0 0 0 0 0 0 0 0 0 0 0 0 0 0 0 0 0 0 0 0 0 0 0 0 0 0 0 0 0 0 0 0 1 3 9 25 55 114 233 255 27 1 0 0 0 0 0 0 0 0 0 0 0 0 0 0 0 0 0 0 0 0 0 0 0 0 0 0 0 0 0 0 0 0 0 0 0 0 0 0 0 0 0 0 0 0 0 0 0 0 0 0 0 0 0 0 0 0 0 0 0 0 0 0 0 0 0 0 0 0 0 0 0 0 0 0 10 222 255 145 70 33 13 4 5 68 255 185 90 43 18 6 2 2 34 255 222 111 54 24 10 8 95 255 161 87 47 29 21 35 156 251 255 190 90 38 24 123 243 120 61 25 10 9 49 255 243 240 249 245 72 22 32 73 114 182 254 36 27 55 109 217 251 28 26 57 118 232 236 24 21 45 91 184 255 55 3 0 0 0 0 0 0 0 9 194 255 152 72 34 14 5 8 127 255 146 72 34 13 4 1 0 0 0 0 0 0 0 0 0 0 0 0 0 0 0 0 11 234 255 141 69 32 13 4 1 0 0 3 52 255 196 108 78 74 100 165 255 65 15 27 58 113 230 245 28 27 56 113 224 255 27 18 40 85 170 255 81 9 13 32 69 144 255 201 9 0 0 1 2 7 19 39 54
0 0 0 0 0 0 0 0 0 0 0 0 0 0 0 0 0 0 0 0 0 0 0 0 0 0 0 0 0 0 0 0 0 0 0 7 136 255 154 76 37 15 5 1 0 1 30 255 236 120 60 29 12 4 1 0 0 0 0 0 0 0 0 0 0 0 0 0 0 0 0 0 5 110 255 161 78 39 18 11 82 255 158 80 40 18 18 215 255 135 68 34 17 41 255 196 101 51 23 8 3 1 0 0 0 0 0 0 0 0 0 0 0 0 0 0 1 2 6 18 41 83 163 255 75 17 30 61 120 240 255 23 14 31 64 130 255 255 15 1 0 0 0 0 0 0 0 0 0 0 0 0 0 0 0 0 0 0 0 0 0 0 0 0 0 0 0 0 0 0 0 0 0 0 0 0 0 0 0 0 0 0 0 0 0 0 0 0 0 0 0 0 0 0 0 0 0 0 0 0 0 0 0 0 1 19 255 247 126 63 31 13 5 18 255 255 126 63 31 13 11 130 255 148 74 37 16 9 68 255 184 92 46 22 9 13 200 255 133 68 35 17 9 5 6 7 5 4 4 10 123 255 183 155 163 200 255 255 165 130 191 255 36 29 58 107 205 255 33 30 59 114 221 255 30 19 40 79 155 255 89 10 16 38 77 154 255 112 6 0 0 0 0 0 0 0 0 0 0 0 0 0 0 0 0 0 0 0 0 0 0 0 0 0 2 37 255 213 107 52 24 9 3 1 0 0 0 0 0 0 0 0 0 0 0 0 0 0 0 0 0 0 0 0 0 0 0 0 0 0 0 0 0 0 0 0 0 0 0 0 0 0 0 0 0 0 0 0 0 0 0 0 0 0 0 0 0 0 0 1 4 13 33 68 142 255 255 12 1 0 0 0 0 0 0 0 0 0 0 0 0 0 0 0 0 0 0 0 0 0 0 0 0 0 0 0 0 0 0 0 0 0 0 0 0 0 0 0 0 0 0 0 0 0 0 0 0 0 0 0 0 0 0 0 0 0 0 0 0 0 0 0 0 0 0 0 0 0 0 0 0 5 98 255 168 84 42 19 6 3 35 255 221 111 55 25 9 3 1 14 255 255 133 65 32 13 7 46 255 193 99 52 26 15 14 63 238 181 164 108 64 29 57 255 160 95 51 17 6 18 244 239 202 196 216 253 255 38 32 83 99 132 255 134 25 38 73 140 255 109 22 38 75 142 255 105 17 26 54 110 223 255 26 1 0 0 0 0 0 4 82 255 177 89 44 19 7 5 56 255 176 87 43 19 7 2 1 0 0 0 0 0 0 0 0 0 0 0 0 0 0 0 5 94 255 164 82 41 18 6 2 1 0 1 24 255 232 120 71 55 52 67 109 202 255 32 17 37 74 146 255 106 22 35 71 140 255 135 17 25 52 103 205 255 41 8 18 42 86 175 255 94 4 0 0 1 3 9 18 21
0 0 0 0 0 0 0 0 0 0 0 0 0 0 0 0 0 0 0 0 0 0 0 0 0 0 0 0 0 0 0 0 0 0 3 59 255 179 89 45 21 8 2 1 1 14 255 255 138 68 34 16 6 2 0 0 0 0 0 0 0 0 0 0 0 0 0 0 0 0 0 2 52 255 188 93 45 22 11 41 255 192 95 48 24 15 100 255 161 80 41 20 22 228 247 121 62 31 13 4 1 0 0 0 0 0 0 0 0 0 0 0 0 0 0 0 0 1 3 9 25 51 101 200 255 40 19 36 71 144 255 131 14 18 37 74 153 255 136 6 0 0 0 0 0 0 0 0 0 0 0 0 0 0 0 0 0 0 0 0 0 0 0 0 0 0 0 0 0 0 0 0 0 0 0 0 0 0 0 0 0 0 0 0 0 0 0 0 0 0 0 0 0 0 0 0 0 0 0 0 0 0 0 0 8 159 255 144 71 36 17 7 9 149 255 152 73 36 17 9 63 255 179 88 44 21 10 35 255 214 108 54 27 11 9 90 255 164 79 40 20 8 4 2 2 2 2 1 4 53 255 185 119 98 102 122 162 209 200 129 140 255 162 30 42 71 131 255 143 27 38 69 135 255 172 20 23 46 92 188 255 44 10 22 45 89 180 255 51 2 0 0 0 0 0 0 0 0 0 0 0 0 0 0 0 0 0 0 0 0 0 0 0 1 15 255 253 126 62 31 13 4 1 0 0 0 0 0 0 0 0 0 0 0 0 0 0 0 0 0 0 0 0 0 0 0 0 0 0 0 0 0 0 0 0 0 0 0 0 0 0 0 0 0 0 0 0 0 0 0 0 0 0 0 0 0 0 0 0 1 2 6 18 40 82 165 255 115 5 0 0 0 0 0 0 0 0 0 0 0 0 0 0 0 0 0 0 0 0 0 0 0 0 0 0 0 0 0 0 0 0 0 0 0 0 0 0 0 0 0 0 0 0 0 0 0 0 0 0 0 0 0 0 0 0 0 0 0 0 0 0 0 0 0 0 0 0 0 0 0 2 49 255 199 97 49 24 9 4 17 255 255 130 64 32 14 4 2 6 121 255 152 75 38 17 7 21 255 236 117 59 30 14 8 20 199 179 117 78 57 44 40 255 213 114 76 46 12 8 99 255 171 137 133 146 184 255 202 55 120 96 100 168 255 73 29 50 90 173 255 58 28 48 89 181 255 54 17 31 64 134 255 232 11 0 0 0 0 2 38 255 201 102 51 25 10 4 25 255 216 106 51 25 10 3 1 0 0 0 0 0 0 0 0 0 0 0 0 0 0 0 2 43 255 191 95 47 23 9 3 1 0 0 9 191 255 137 71 46 38 37 46 70 129 255 176 19 24 49 93 176 255 54 25 45 86 171 255 63 17 31 61 123 248 255 20 10 24 50 102 206 255 48 2 0 0 1 3 6 7
0 0 0 0 0 0 0 0 0 0 0 0 0 0 0 0 0 0 0 0 0 0 0 0 0 0 0 0 0 0 0 0 0 1 26 255 212 104 50 25 11 3 1 1 6 126 255 160 77 38 18 7 2 1 0 0 0 0 0 0 0 0 0 0 0 0 0 0 0 0 1 24 255 227 110 52 25 12 20 255 247 118 56 28 15 53 255 194 95 47 24 16 96 255 146 72 37 18 6 2 0 0 0 0 0 0 0 0 0 0 0 0 0 0 0 0 0 0 1 4 13 31 60 123 255 247 24 22 42 84 172 255 60 12 20 42 88 183 255 63 3 0 0 0 0 0 0 0 0 0 0 0 0 0 0 0 0 0 0 0 0 0 0 0 0 0 0 0 0 0 0 0 0 0 0 0 0 0 0 0 0 0 0 0 0 0 0 0 0 0 0 0 0 0 0 0 0 0 0 0 0 0 0 3 67 255 171 82 40 20 8 6 69 255 179 87 42 20 10 32 255 218 107 51 25 11 17 232 255 127 61 30 14 7 47 255 199 97 46 22 10 4 1 1 1 1 1 1 22 255 218 116 74 60 61 70 92 128 163 131 106 169 255 102 35 48 85 171 255 80 27 42 80 167 255 83 17 27 54 115 238 255 21 12 25 50 107 224 255 24 1 0 0 0 0 0 0 0 0 0 0 0 0 0 0 0 0 0 0 0 0 0 0 6 121 255 147 70 35 16 6 2 0 0 0 0 0 0 0 0 0 0 0 0 0 0 0 0 0 0 0 0 0 0 0 0 0 0 0 0 0 0 0 0 0 0 0 0 0 0 0 0 0 0 0 0 0 0 0 0 0 0 0 0 0 0 0 0 0 0 1 3 9 22 46 94 194 255 57 3 0 0 0 0 0 0 0 0 0 0 0 0 0 0 0 0 0 0 0 0 0 0 0 0 0 0 0 0 0 0 0 0 0 0 0 0 0 0 0 0 0 0 0 0 0 0 0 0 0 0 0 0 0 0 0 0 0 0 0 0 0 0 0 0 0 0 0 0 0 1 22 255 234 117 55 27 12 5 8 140 255 154 74 36 17 6 2 3 58 255 185 87 42 20 9 11 160 255 140 68 34 16 7 7 67 255 130 71 38 29 37 156 255 136 80 65 43 11 48 255 185 113 88 84 91 118 180 255 255 203 117 82 113 215 255 52 36 58 109 225 255 39 31 56 113 229 255 29 18 37 77 162 255 93 5 0 0 1 16 255 244 118 56 28 13 5 11 198 255 130 61 29 13 4 1 0 0 0 0 0 0 0 0 0 0 0 0 0 0 0 1 19 255 235 113 53 26 12 4 1 0 0 4 78 255 161 78 41 29 25 26 31 45 80 162 255 84 19 32 57 109 225 255 33 28 52 104 210 255 34 18 35 71 146 255 143 12 13 28 58 119 238 255 21 1 0 0 1 2 2
0 0 0 0 0 0 0 0 0 0 0 0 0 0 0 0 0 0 0 0 0 0 0 0 0 0 0 0 0 0 0 0 0 11 240 255 127 58 27 12 5 1 1 3 58 255 186 90 42 20 9 3 1 0 0 0 0 0 0 0 0 0 0 0 0 0 0 0 0 0 10 208 255 135 62 29 13 12 125 255 147 69 33 16 28 255 233 116 55 27 15 48 255 180 87 42 21 9 3 1 0 0 0 0 0 0 0 0 0 0 0 0 0 0 0 0 0 0 1 2 6 17 36 73 153 255 108 17 24 49 102 213 255 30 11 23 49 106 217 255 30 1 0 0 0 0 0 0 0 0 0 0 0 0 0 0 0 0 0 0 0 0 0 0 0 0 0 0 0 0 0 0 0 0 0 0 0 0 0 0 0 0 0 0 0 0 0 0 0 0 0 0 0 0 0 0 0 0 0 0 0 0 1 31 255 205 100 46 21 9 5 34 255 211 104 49 23 10 16 227 255 130 61 29 13 10 94 255 151 72 34 16 8 24 255 242 118 56 26 11 4 1 1 0 0 0 1 8 145 255 135 70 45 36 35 39 50 74 109 122 85 110 209 255 77 36 55 107 211 255 47 27 48 100 202 255 43 16 31 67 142 255 127 12 13 28 61 135 255 197 9 0 0 0 0 0 0 0 0 0 0 0 0 0 0 0 0 0 0 0 0 0 3 55 255 177 84 39 18 8 3 1 0 0 0 0 0 0 0 0 0 0 0 0 0 0 0 0 0 0 0 0 0 0 0 0 0 0 0 0 0 0 0 0 0 0 0 0 0 0 0 0 0 0 0 0 0 0 0 0 0 0 0 0 0 0 0 0 0 0 0 1 4 11 25 52 112 226 255 27 1 0 0 0 0 0 0 0 0 0 0 0 0 0 0 0 0 0 0 0 0 0 0 0 0 0 0 0 0 0 0 0 0 0 0 0 0 0 0 0 0 0 0 0 0 0 0 0 0 0 0 0 0 0 0 0 0 0 0 0 0 0 0 0 0 0 0 0 0 9 182 255 136 65 30 14 6 5 64 255 180 87 41 19 8 3 2 27 255 222 109 50 23 10 8 76 255 173 81 39 19 8 4 25 255 170 96 45 19 18 83 255 174 88 59 58 45 33 255 234 118 72 55 51 55 72 114 216 255 254 178 84 77 133 255 255 43 38 67 137 255 172 29 35 68 137 255 143 17 20 44 93 191 255 44 2 0 6 132 255 145 66 31 14 6 6 82 255 162 76 35 16 6 2 1 0 0 0 0 0 0 0 0 0 0 0 0 0 0 0 8 158 255 140 64 30 13 5 2 0 0 2 37 255 197 94 44 23 16 14 15 19 29 50 99 200 255 51 22 35 66 137 255 149 25 32 62 127 255 190 20 20 40 84 178 255 68 9 15 32 66 138 255 163 8 0 0 0 1 1
0 0 0 0 0 0 0 0 0 0 0 0 0 0 0 0 0 0 0 0 0 0 0 0 0 0 0 0 0 0 0 0 5 98 255 162 73 33 14 5 2 1 1 26 255 218 107 50 22 9 4 1 0 0 0 0 0 0 0 0 0 0 0 0 0 0 0 0 0 4 83 255 163 77 35 15 9 59 255 179 86 40 18 17 154 255 137 66 31 15 25 255 234 111 52 24 10 4 1 0 0 0 0 0 0 0 0 0 0 0 0 0 0 0 0 0 0 0 0 1 3 8 20 43 90 181 255 53 15 28 60 129 255 192 15 12 27 60 127 255 250 12 1 0 0 0 0 0 0 0 0 0 0 0 0 0 0 0 0 0 0 0 0 0 0 0 0 0 0 0 0 0 0 0 0 0 0 0 0 0 0 0 0 0 0 0 0 0 0 0 0 0 0 0 0 0 0 0 0 0 0 1 13 255 255 122 56 25 10 5 16 255 255 125 58 27 12 10 97 255 156 74 35 15 8 45 255 184 88 41 18 8 12 180 255 144 67 32 14 5 2 1 0 0 0 0 3 59 255 160 79 42 26 20 18 20 26 42 71 103 75 72 126 240 255 54 38 65 127 253 207 28 29 58 121 245 229 22 18 39 83 174 255 57 9 15 35 77 163 255 79 4 0 0 0 0 0 0 0 0 0 0 0 0 0 0 0 0 0 0 0 1 26 255 220 105 47 21 9 3 1 0 0 0 0 0 0 0 0 0 0 0 0 0 0 0 0 0 0 0 0 0 0 0 0 0 0 0 0 0 0 0 0 0 0 0 0 0 0 0 0 0 0 0 0 0 0 0 0 0 0 0 0 0 0 0 0 0 0 0 0 0 2 5 12 29 62 132 255 249 11 0 0 0 0 0 0 0 0 0 0 0 0 0 0 0 0 0 0 0 0 0 0 0 0 0 0 0 0 0 0 0 0 0 0 0 0 0 0 0 0 0 0 0 0 0 0 0 0 0 0 0 0 0 0 0 0 0 0 0 0 0 0 0 0 0 0 0 4 76 255 167 77 36 16 6 4 30 255 213 104 49 22 9 3 2 12 239 255 131 62 28 11 6 40 255 211 102 47 21 9 4 9 153 255 120 68 28 11 31 255 199 106 58 47 60 78 255 255 142 72 46 34 30 33 44 69 115 170 188 203 123 59 82 159 255 168 34 42 83 168 255 87 26 40 81 165 255 65 14 24 52 113 237 255 21 4 61 255 178 84 37 16 6 4 39 255 196 95 44 19 7 2 1 0 0 0 0 0 0 0 0 0 0 0 0 0 0 0 3 67 255 171 81 36 15 6 2 1 0 1 16 255 249 119 54 24 12 7 6 7 10 16 30 59 121 249 255 34 22 41 84 174 255 76 22 36 76 161 255 83 15 22 48 105 213 255 34 8 16 36 77 164 255 69 3 0 0 0 0
0 0 0 0 0 0 0 0 0 0 0 0 0 0 0 0 0 0 0 0 0 0 0 0 0 0 0 0 0 0 0 2 46 255 193 95 42 17 6 2 1 1 10 211 255 130 60 27 11 4 1 0 0 0 0 0 0 0 0 0 0 0 0 0 0 0 0 0 2 38 255 195 95 44 19 8 29 255 220 107 50 23 13 69 255 166 80 38 17 15 140 255 143 67 30 13 5 2 0 0 0 0 0 0 0 0 0 0 0 0 0 0 0 0 0 0 0 0 0 0 1 4 10 25 52 109 226 255 27 16 35 76 161 255 81 10 14 33 72 155 255 98 5 0 0 0 0 0 0 0 0 0 0 0 0 0 0 0 0 0 0 0 0 0 0 0 0 0 0 0 0 0 0 0 0 0 0 0 0 0 0 0 0 0 0 0 0 0 0 0 0 0 0 0 0 0 0 0 0 0 0 5 113 255 155 71 31 13 5 8 120 255 153 71 33 14 8 47 255 190 92 43 19 8 22 255 237 112 51 22 9 7 80 255 169 82 38 17 6 2 1 0 0 0 0 1 28 255 209 97 47 24 14 9 8 9 13 23 48 82 71 51 74 142 255 214 39 40 75 150 255 95 22 34 70 144 255 98 14 22 48 105 214 255 25 8 19 44 95 197 255 36 2 0 0 0 0 0 0 0 0 0 0 0 0 0 0 0 0 0 0 11 236 255 133 61 26 10 4 1 0 0 0 0 0 0 0 0 0 0 0 0 0 0 0 0 0 0 0 0 0 0 0 0 0 0 0 0 0 0 0 0 0 0 0 0 0 0 0 0 0 0 0 0 0 0 0 0 0 0 0 0 0 0 0 0 0 0 0 0 0 0 1 2 6 15 34 75 162 255 101 5 0 0 0 0 0 0 0 0 0 0 0 0 0 0 0 0 0 0 0 0 0 0 0 0 0 0 0 0 0 0 0 0 0 0 0 0 0 0 0 0 0 0 0 0 0 0 0 0 0 0 0 0 0 0 0 0 0 0 0 0 0 0 0 0 0 2 36 255 202 98 44 19 7 3 12 221 255 127 59 27 11 4 2 5 101 255 162 75 34 14 6 19 255 255 125 59 27 11 4 5 66 255 160 84 50 18 12 105 245 121 63 40 45 115 255 255 178 85 44 28 19 17 18 25 39 57 82 117 160 195 65 53 93 180 255 87 31 50 101 197 255 48 25 48 100 208 255 32 14 29 65 143 255 193 44 255 219 106 48 20 8 3 16 255 245 118 55 24 9 3 1 0 0 0 0 0 0 0 0 0 0 0 0 0 0 0 1 31 255 208 100 46 20 7 3 1 0 0 7 140 255 148 69 30 13 5 3 2 3 4 8 17 35 71 150 255 200 22 25 51 106 208 255 40 22 45 97 194 255 39 13 27 60 127 255 231 15 8 19 44 97 206 255 35 2 0 0 0
0 0 0 0 0 0 0 0 0 0 0 0 0 0 0 0 0 0 0 0 0 0 0 0 0 0 0 0 0 0 1 22 255 236 114 54 24 9 3 1 0 4 85 255 161 75 34 14 5 2 1 0 0 0 0 0 0 0 0 0 0 0 0 0 0 0 0 1 16 255 246 118 54 24 10 14 211 255 134 63 29 14 34 255 205 101 47 21 12 66 255 178 87 40 17 6 2 1 0 0 0 0 0 0 0 0 0 0 0 0 0 0 0 0 0 0 0 0 0 0 0 1 5 13 30 65 140 255 148 16 20 45 97 197 255 38 8 18 41 91 188 255 44 2 0 0 0 0 0 0 0 0 0 0 0 0 0 0 0 0 0 0 0 0 0 0 0 0 0 0 0 0 0 0 0 0 0 0 0 0 0 0 0 0 0 0 0 0 0 0 0 0 0 0 0 0 0 0 0 0 3 57 255 192 92 41 17 6 5 58 255 186 90 41 17 7 22 255 236 116 54 24 10 12 159 255 145 67 29 12 6 41 255 205 100 47 21 8 3 1 0 0 0 0 1 11 238 255 131 59 27 12 6 4 3 3 5 13 33 68 76 40 45 82 157 255 110 31 45 92 186 255 50 21 41 88 184 255 48 14 28 61 131 255 151 12 10 24 55 119 249 255 15 1 0 0 0 0 0 0 0 0 0 0 0 0 0 0 0 0 5 98 255 165 78 35 14 5 1 0 0 0 0 0 0 0 0 0 0 0 0 0 0 0 0 0 0 0 0 0 0 0 0 0 0 0 0 0 0 0 0 0 0 0 0 0 0 0 0 0 0 0 0 0 0 0 0 0 0 0 0 0 0 0 0 0 0 0 0 0 0 0 0 1 2 7 18 43 95 192 255 46 2 0 0 0 0 0 0 0 0 0 0 0 0 0 0 0 0 0 0 0 0 0 0 0 0 0 0 0 0 0 0 0 0 0 0 0 0 0 0 0 0 0 0 0 0 0 0 0 0 0 0 0 0 0 0 0 0 0 0 0 0 0 0 0 1 16 255 254 121 56 25 9 3 6 89 255 156 73 33 14 5 2 3 48 255 195 95 43 18 7 9 138 255 151 72 34 14 5 3 33 255 210 104 59 36 13 42 255 145 73 39 32 91 255 255 194 102 51 26 15 10 8 8 13 20 26 39 70 119 190 110 41 56 107 200 255 49 32 60 122 247 226 28 29 61 130 255 171 16 16 38 84 175 255 255 255 133 61 27 10 4 7 123 255 147 68 31 13 4 1 0 0 0 0 0 0 0 0 0 0 0 0 0 0 0 1 12 252 255 125 58 26 10 3 1 0 0 3 64 255 181 87 40 16 6 2 1 1 1 1 3 8 20 42 88 176 255 93 19 31 63 127 255 186 24 27 57 119 247 231 19 15 34 73 155 255 90 8 10 24 57 126 255 255 15 1 0 0
0 0 0 0 0 0 0 0 0 0 0 0 0 0 0 0 0 0 0 0 0 0 0 0 0 0 0 0 0 0 9 193 255 143 66 31 12 4 1 0 2 39 255 197 96 44 18 7 2 1 0 0 0 0 0 0 0 0 0 0 0 0 0 0 0 0 0 7 138 255 149 69 31 13 9 86 255 164 79 37 17 18 210 255 127 60 27 12 34 255 216 109 53 24 9 3 1 0 0 0 0 0 0 0 0 0 0 0 0 0 0 0 0 0 0 0 0 0 0 0 0 1 2 6 17 40 85 173 255 68 14 27 58 121 250 255 17 9 23 53 114 233 255 18 1 0 0 0 0 0 0 0 0 0 0 0 0 0 0 0 0 0 0 0 0 0 0 0 0 0 0 0 0 0 0 0 0 0 0 0 0 0 0 0 0 0 0 0 0 0 0 0 0 0 0 0 0 0 0 1 29 255 232 115 54 23 8 4 29 255 227 112 53 23 9 11 152 255 143 68 31 13 8 72 255 178 87 40 16 6 20 255 253 125 58 26 11 4 1 0 0 0 0 0 5 101 255 161 79 36 15 6 2 1 1 1 2 7 24 63 96 37 28 48 95 183 255 57 30 57 119 239 255 28 25 54 116 236 255 24 16 36 79 164 255 65 8 13 32 70 149 255 115 6 0 0 0 0 0 0 0 0 0 0 0 0 0 0 0 2 47 255 196 97 46 19 7 2 1 0 0 0 0 0 0 0 0 0 0 0 0 0 0 0 0 0 0 0 0 0 0 0 0 0 0 0 0 0 0 0 0 0 0 0 0 0 0 0 0 0 0 0 0 0 0 0 0 0 0 0 0 0 0 0 0 0 0 0 0 0 0 0 0 0 1 3 9 24 54 114 233 255 20 1 0 0 0 0 0 0 0 0 0 0 0 0 0 0 0 0 0 0 0 0 0 0 0 0 0 0 0 0 0 0 0 0 0 0 0 0 0 0 0 0 0 0 0 0 0 0 0 0 0 0 0 0 0 0 0 0 0 0 0 0 0 0 7 151 255 154 71 32 13 4 3 42 255 193 93 43 18 6 2 2 21 255 234 116 55 24 9 6 62 255 179 88 42 18 7 3 15 255 255 131 67 43 25 23 252 225 102 46 26 55 255 246 165 100 56 29 14 7 4 3 3 5 8 11 19 43 88 141 218 53 36 63 124 248 196 31 37 74 152 255 98 23 37 79 158 255 69 12 21 49 108 234 255 174 80 36 14 5 4 56 255 182 87 40 17 6 2 1 0 0 0 0 0 0 0 0 0 0 0 0 0 0 0 5 102 255 155 73 34 13 4 1 0 0 1 31 255 217 108 51 22 8 3 1 0 0 0 1 1 4 10 24 51 103 197 255 50 20 38 77 154 255 83 20 34 72 150 255 97 13 19 43 92 187 255 40 6 13 33 74 155 255 150 7 0 0
0 0 0 0 0 0 0 0 0 0 0 0 0 0 0 0 0 0 0 0 0 0 0 0 0 0 0 0 0 4 83 255 173 84 39 17 6 2 1 1 17 255 246 120 57 25 9 3 1 0 0 0 0 0 0 0 0 0 0 0 0 0 0 0 0 0 3 63 255 181 88 41 17 8 41 255 196 98 48 22 13 89 255 159 77 36 16 18 232 255 132 65 32 13 4 1 0 0 0 0 0 0 0 0 0 0 0 0 0 0 0 0 0 0 0 0 0 0 0 0 0 0 1 3 8 24 52 106 211 255 36 16 35 73 151 255 105 10 12 31 67 142 255 140 7 0 0 0 0 0 0 0 0 0 0 0 0 0 0 0 0 0 0 0 0 0 0 0 0 0 0 0 0 0 0 0 0 0 0 0 0 0 0 0 0 0 0 0 0 0 0 0 0 0 0 0 0 0 1 12 251 255 139 67 31 12 4 14 255 255 138 66 31 12 8 68 255 175 85 41 18 8 36 255 211 107 52 23 9 11 162 255 152 74 34 14 5 1 0 0 0 0 0 2 49 255 196 96 47 22 8 2 1 0 0 0 1 4 20 80 147 48 20 28 58 116 226 222 34 37 74 148 255 117 21 34 71 144 255 126 15 21 48 102 210 255 32 8 18 42 89 182 255 51 2 0 0 0 0 0 0 0 0 0 0 0 0 0 1 23 255 239 117 56 26 10 3 1 0 0 0 0 0 0 0 0 0 0 0 0 0 0 0 0 0 0 0 0 0 0 0 0 0 0 0 0 0 0 0 0 0 0 0 0 0 0 0 0 0 0 0 0 0 0 0 0 0 0 0 0 0 0 0 0 0 0 0 0 0 0 0 0 0 0 0 1 4 13 31 66 141 255 162 8 0 0 0 0 0 0 0 0 0 0 0 0 0 0 0 0 0 0 0 0 0 0 0 0 0 0 0 0 0 0 0 0 0 0 0 0 0 0 0 0 0 0 0 0 0 0 0 0 0 0 0 0 0 0 0 0 0 0 0 0 0 3 68 255 184 91 42 18 6 3 19 255 243 119 55 25 9 3 1 8 167 255 140 67 32 13 6 31 255 217 107 51 24 9 3 7 129 255 161 79 45 30 23 129 255 145 71 31 31 254 255 155 89 50 29 15 7 3 1 1 1 2 3 4 9 28 69 115 211 134 31 39 77 154 255 90 27 47 95 183 255 51 25 48 98 197 255 32 13 29 63 114 142 93 48 20 7 3 26 255 223 111 52 23 8 3 1 0 0 0 0 0 0 0 0 0 0 0 0 0 0 0 2 48 255 191 93 43 19 6 2 1 0 1 13 255 255 131 63 29 11 4 1 0 0 0 0 0 0 1 5 13 29 60 120 243 255 30 23 47 97 194 255 45 22 45 93 189 255 48 12 25 55 116 241 255 18 7 19 44 91 188 255 71 3 0
0 0 0 0 0 0 0 0 0 0 0 0 0 0 0 0 0 0 0 0 0 0 0 0 0 0 0 0 2 41 255 206 103 50 23 8 3 1 1 7 130 255 149 71 34 14 4 1 0 0 0 0 0 0 0 0 0 0 0 0 0 0 0 0 0 1 32 255 221 109 53 24 10 19 255 246 121 59 28 14 45 255 195 98 48 22 14 107 255 162 80 40 18 6 2 0 0 0 0 0 0 0 0 0 0 0 0 0 0 0 0 0 0 0 0 0 0 0 0 0 0 0 0 1 4 13 32 65 131 255 225 21 21 45 92 186 255 50 9 17 40 85 176 255 61 3 0 0 0 0 0 0 0 0 0 0 0 0 0 0 0 0 0 0 0 0 0 0 0 0 0 0 0 0 0 0 0 0 0 0 0 0 0 0 0 0 0 0 0 0 0 0 0 0 0 0 0 0 5 107 255 162 81 40 17 6 7 114 255 166 81 39 17 7 33 255 213 107 52 24 10 17 255 255 129 64 31 13 8 77 255 181 90 44 20 7 2 1 0 0 0 0 1 22 255 237 119 58 28 12 4 1 0 0 0 0 1 3 25 165 201 120 19 17 36 73 142 255 115 31 48 93 180 255 62 24 45 88 175 255 59 15 29 63 132 255 220 15 10 24 53 112 227 255 23 1 0 0 0 0 0 0 0 0 0 0 0 0 10 230 255 146 69 33 14 5 1 0 0 0 0 0 0 0 0 0 0 0 0 0 0 0 0 0 0 0 0 0 0 0 0 0 0 0 0 0 0 0 0 0 0 0 0 0 0 0 0 0 0 0 0 0 0 0 0 0 0 0 0 0 0 0 0 0 0 0 0 0 0 0 0 0 0 0 0 1 2 6 17 40 84 173 255 70 3 0 0 0 0 0 0 0 0 0 0 0 0 0 0 0 0 0 0 0 0 0 0 0 0 0 0 0 0 0 0 0 0 0 0 0 0 0 0 0 0 0 0 0 0 0 0 0 0 0 0 0 0 0 0 0 0 0 0 0 1 33 255 217 109 54 25 9 3 8 158 255 148 71 33 13 4 1 4 70 255 172 83 40 17 7 14 251 255 134 64 30 13 4 4 59 255 188 95 50 30 23 84 255 191 97 52 29 121 255 163 92 48 25 14 7 3 1 0 0 0 1 1 2 5 19 59 101 156 255 63 27 50 99 189 255 49 32 60 117 239 255 33 31 61 125 255 194 17 16 34 51 58 45 27 11 4 11 222 255 136 66 31 12 4 1 0 0 0 0 0 0 0 0 0 0 0 0 0 0 0 1 22 255 236 117 56 25 9 3 1 0 0 6 125 255 163 78 37 16 5 2 0 0 0 0 0 0 0 1 2 6 16 35 73 151 255 145 22 30 61 124 253 245 27 29 59 119 240 255 26 15 33 71 148 255 126 10 10 25 54 112 220 255 35 2
0 0 0 0 0 0 0 0 0 0 0 0 0 0 0 0 0 0 0 0 0 0 0 0 0 0 0 1 20 255 252 125 61 29 12 4 1 0 3 56 255 180 90 43 19 7 2 1 0 0 0 0 0 0 0 0 0 0 0 0 0 0 0 0 1 14 255 255 135 65 31 13 11 128 255 151 73 36 17 24 255 245 121 61 30 15 59 255 197 99 50 24 9 3 1 0 0 0 0 0 0 0 0 0 0 0 0 0 0 0 0 0 0 0 0 0 0 0 0 0 0 0 0 0 2 6 18 41 81 162 255 101 17 28 57 116 233 255 25 10 24 52 108 217 255 29 1 0 0 0 0 0 0 0 0 0 0 0 0 0 0 0 0 0 0 0 0 0 0 0 0 0 0 0 0 0 0 0 0 0 0 0 0 0 0 0 0 0 0 0 0 0 0 0 0 0 0 2 52 255 195 96 47 23 9 5 56 255 196 98 49 23 9 17 255 255 131 65 32 13 11 121 255 157 77 38 17 8 42 255 216 108 54 26 10 3 1 0 0 0 0 0 9 196 255 143 71 35 15 6 2 0 0 0 0 0 0 5 70 255 217 255 52 12 22 48 94 185 255 70 35 60 114 228 255 41 29 55 109 220 255 32 19 40 80 160 255 88 9 13 32 67 139 255 219 10 0 0 0 0 0 0 0 0 0 0 0 5 100 255 175 87 42 19 7 2 1 0 0 0 0 0 0 0 0 0 0 0 0 0 0 0 0 0 0 0 0 0 0 0 0 0 0 0 0 0 0 0 0 0 0 0 0 0 0 0 0 0 0 0 0 0 0 0 0 0 0 0 0 0 0 0 0 0 0 0 0 0 0 0 0 0 0 0 0 0 1 3 8 23 51 105 212 255 35 2 0 0 0 0 0 0 0 0 0 0 0 0 0 0 0 0 0 0 0 0 0 0 0 0 0 0 0 0 0 0 0 0 0 0 0 0 0 0 0 0 0 0 0 0 0 0 0 0 0 0 0 0 0 0 0 0 0 1 14 255 255 131 64 31 13 4 5 72 255 181 89 44 19 7 2 2 33 255 209 104 50 23 9 8 103 255 164 80 39 17 6 3 28 255 222 112 57 31 20 56 255 230 118 66 43 76 255 183 102 55 26 12 6 3 1 0 0 0 0 0 0 1 3 14 60 97 126 211 255 36 34 64 122 246 211 34 39 75 151 255 147 27 40 79 162 255 88 12 16 21 22 20 13 5 6 99 255 170 82 40 18 6 2 0 0 0 0 0 0 0 0 0 0 0 0 0 0 0 0 9 178 255 143 70 34 14 4 1 0 0 3 58 255 192 97 47 21 8 2 1 0 0 0 0 0 0 0 0 1 3 8 20 46 92 177 255 73 22 40 79 155 255 115 24 38 74 148 255 161 16 20 44 92 187 255 64 8 14 32 65 131 255 255 16
0 0 0 0 0 0 0 0 0 0 0 0 0 0 0 0 0 0 0 0 0 0 0 0 0 0 0 8 173 255 151 74 36 16 6 2 1 1 25 255 218 109 54 26 10 3 1 0 0 0 0 0 0 0 0 0 0 0 0 0 0 0 0 0 6 140 255 161 80 39 18 10 61 255 181 91 45 22 17 144 255 149 74 38 19 35 255 236 120 61 31 13 4 1 0 0 0 0 0 0 0 0 0 0 0 0 0 0 0 0 0 0 0 0 0 0 0 0 0 0 0 0 0 0 1 3 10 25 51 99 192 255 54 19 36 71 142 255 183 14 13 32 65 133 255 228 11 1 0 0 0 0 0 0 0 0 0 0 0 0 0 0 0 0 0 0 0 0 0 0 0 0 0 0 0 0 0 0 0 0 0 0 0 0 0 0 0 0 0 0 0 0 0 0 0 0 1 25 255 234 118 57 27 12 5 27 255 229 117 58 29 12 10 123 255 161 79 40 18 10 62 255 190 94 47 23 10 22 255 255 130 64 32 14 5 1 0 0 0 0 0 4 90 255 173 84 42 20 8 2 1 0 0 0 0 0 1 28 255 205 194 232 255 24 14 31 63 120 229 255 49 41 72 142 255 217 31 36 68 137 255 188 21 25 49 96 192 255 43 9 18 41 84 172 255 97 5 0 0 0 0 0 0 0 0 0 2 49 255 201 102 51 25 9 3 1 0 0 0 0 0 0 0 0 0 0 0 0 0 0 0 0 0 0 0 0 0 0 0 0 0 0 0 0 0 0 0 0 0 0 0 0 0 0 0 0 0 0 0 0 0 0 0 0 0 0 0 0 0 0 0 0 0 0 0 0 0 0 0 0 0 0 0 0 0 0 0 1 4 12 30 63 129 255 255 17 1 0 0 0 0 0 0 0 0 0 0 0 0 0 0 0 0 0 0 0 0 0 0 0 0 0 0 0 0 0 0 0 0 0 0 0 0 0 0 0 0 0 0 0 0 0 0 0 0 0 0 0 0 0 0 0 0 6 129 255 157 77 38 17 6 4 36 255 214 109 54 26 10 3 1 15 255 255 127 62 30 12 7 49 255 191 97 49 23 9 3 12 241 255 135 66 34 19 34 255 255 136 73 49 71 255 227 116 63 33 13 5 2 1 0 0 0 0 0 0 0 0 2 13 80 109 103 144 255 149 32 43 79 152 255 113 33 50 95 181 255 81 30 51 101 200 255 44 8 8 8 7 5 4 49 255 202 102 50 24 9 3 1 0 0 0 0 0 0 0 0 0 0 0 0 0 0 0 4 76 255 171 85 42 19 7 2 1 0 1 28 255 224 113 57 28 11 4 1 0 0 0 0 0 0 0 0 0 0 1 3 11 28 56 108 212 255 45 28 51 96 185 255 67 27 47 89 175 255 80 15 28 57 114 227 255 35 8 18 38 76 157 255 181
0 0 0 0 0 0 0 0 0 0 0 0 0 0 0 0 0 0 0 0 0 0 0 0 0 0 4 77 255 174 87 43 21 8 2 1 1 10 208 255 132 64 32 14 5 1 0 0 0 0 0 0 0 0 0 0 0 0 0 0 0 0 0 3 68 255 189 93 47 23 10 32 255 220 109 54 28 16 73 255 181 90 45 23 23 227 255 141 71 37 18 6 2 1 0 0 0 0 0 0 0 0 0 0 0 0 0 0 0 0 0 0 0 0 0 0 0 0 0 0 0 0 0 0 0 1 4 14 31 59 116 234 255 33 23 43 85 172 255 83 11 18 39 78 158 255 93 5 0 0 0 0 0 0 0 0 0 0 0 0 0 0 0 0 0 0 0 0 0 0 0 0 0 0 0 0 0 0 0 0 0 0 0 0 0 0 0 0 0 0 0 0 0 0 0 0 10 209 255 138 68 33 15 6 12 207 255 136 67 34 16 9 61 255 190 95 48 23 11 33 255 226 114 56 28 12 12 147 255 150 75 38 18 7 2 1 0 0 0 0 2 47 255 207 102 50 24 10 3 1 0 0 0 0 0 0 10 204 255 162 142 161 255 150 15 20 42 75 140 255 190 40 47 86 166 255 109 29 43 82 165 255 91 19 30 58 117 242 255 21 10 24 50 101 202 255 48 2 0 0 0 0 0 0 0 1 23 255 236 118 58 30 13 4 1 0 0 0 0 0 0 0 0 0 0 0 0 0 0 0 0 0 0 0 0 0 0 0 0 0 0 0 0 0 0 0 0 0 0 0 0 0 0 0 0 0 0 0 0 0 0 0 0 0 0 0 0 0 0 0 0 0 0 0 0 0 0 0 0 0 0 0 0 0 0 0 0 0 2 6 17 38 76 156 255 171 8 0 0 0 0 0 0 0 0 0 0 0 0 0 0 0 0 0 0 0 0 0 0 0 0 0 0 0 0 0 0 0 0 0 0 0 0 0 0 0 0 0 0 0 0 0 0 0 0 0 0 0 0 0 0 0 3 64 255 188 92 45 22 8 4 17 255 255 127 63 32 14 5 2 7 138 255 156 75 37 17 7 25 255 233 114 57 29 12 4 6 101 255 163 79 39 20 21 186 255 150 78 46 57 255 255 138 72 39 18 6 2 1 0 0 0 0 0 0 0 0 0 2 19 160 143 95 102 177 255 95 34 52 96 187 255 69 37 59 110 211 255 54 35 62 122 242 255 18 3 3 2 2 22 255 234 119 60 30 13 4 1 0 0 0 0 0 0 0 0 0 0 0 0 0 0 0 2 38 255 205 101 50 24 10 3 1 0 1 12 255 255 134 65 33 15 5 2 0 0 0 0 0 0 0 0 0 0 0 0 2 5 16 34 65 130 255 255 34 33 59 113 227 255 44 31 54 105 210 255 46 18 35 68 135 255 255 17 10 21 45 92 193 255
0 0 0 0 0 0 0 0 0 0 0 0 0 0 0 0 0 0 0 0 0 0 0 0 0 2 40 255 207 101 49 24 10 3 1 0 4 89 255 162 77 37 17 7 2 1 0 0 0 0 0 0 0 0 0 0 0 0 0 0 0 0 2 35 255 219 109 53 26 12 16 224 255 132 63 32 17 42 255 214 107 53 27 19 109 255 161 81 41 21 9 3 1 0 0 0 0 0 0 0 0 0 0 0 0 0 0 0 0 0 0 0 0 0 0 0 0 0 0 0 0 0 0 0 0 1 2 7 17 35 68 140 255 183 23 26 50 101 202 255 43 11 22 45 92 192 255 44 2 0 0 0 0 0 0 0 0 0 0 0 0 0 0 0 0 0 0 0 0 0 0 0 0 0 0 0 0 0 0 0 0 0 0 0 0 0 0 0 0 0 0 0 0 0 0 4 87 255 164 79 39 18 7 7 84 255 162 78 38 19 9 31 255 222 111 55 28 13 18 247 255 134 65 33 15 9 66 255 174 85 43 21 9 3 1 0 0 0 0 1 23 255 243 121 59 28 13 5 1 0 0 0 0 0 0 4 83 255 165 113 98 106 177 255 76 15 27 47 84 161 255 108 36 52 97 187 255 63 29 49 98 197 255 50 19 34 69 146 255 143 12 13 29 58 117 236 255 22 1 0 0 0 0 0 0 9 190 255 140 67 33 16 6 2 1 0 0 0 0 0 0 0 0 0 0 0 0 0 0 0 0 0 0 0 0 0 0 0 0 0 0 0 0 0 0 0 0 0 0 0 0 0 0 0 0 0 0 0 0 0 0 0 0 0 0 0 0 0 0 0 0 0 0 0 0 0 0 0 0 0 0 0 0 0 0 0 0 0 1 3 8 21 44 89 183 255 77 4 0 0 0 0 0 0 0 0 0 0 0 0 0 0 0 0 0 0 0 0 0 0 0 0 0 0 0 0 0 0 0 0 0 0 0 0 0 0 0 0 0 0 0 0 0 0 0 0 0 0 0 0 0 1 34 255 224 110 53 25 11 4 8 135 255 153 73 36 17 7 2 4 67 255 186 91 44 21 9 13 188 255 141 66 33 15 6 4 49 255 192 94 46 22 15 88 255 168 85 45 39 164 255 156 82 44 23 9 3 1 0 0 0 0 0 0 0 0 0 0 4 51 243 194 108 76 113 214 255 65 37 60 115 225 255 49 38 65 127 255 254 39 39 71 142 255 105 6 1 1 8 161 255 137 67 34 16 6 2 0 0 0 0 0 0 0 0 0 0 0 0 0 0 0 1 16 255 251 123 58 28 13 4 1 0 0 5 111 255 162 77 37 18 7 2 1 0 0 0 0 0 0 0 0 0 0 0 0 1 2 8 19 39 77 158 255 149 29 36 68 137 255 206 31 33 61 126 252 255 28 21 40 77 154 255 104 10 11 25 53 114 226
0 0 0 0 0 0 0 0 0 0 0 0 0 0 0 0 0 0 0 0 0 0 0 0 1 19 255 253 123 57 27 12 5 1 1 2 43 255 198 95 44 20 8 3 1 0 0 0 0 0 0 0 0 0 0 0 0 0 0 0 0 1 16 255 255 128 61 29 14 11 93 255 158 76 37 18 25 255 255 127 62 31 18 58 255 188 92 45 23 10 4 1 0 0 0 0 0 0 0 0 0 0 0 0 0 0 0 0 0 0 0 0 0 0 0 0 0 0 0 0 0 0 0 0 0 0 1 3 8 19 40 82 169 255 90 19 29 58 119 245 255 21 12 25 53 115 236 255 19 1 0 0 0 0 0 0 0 0 0 0 0 0 0 0 0 0 0 0 0 0 0 0 0 0 0 0 0 0 0 0 0 0 0 0 0 0 0 0 0 0 0 0 0 0 2 42 255 196 95 44 21 9 5 39 255 193 94 44 21 10 16 232 255 131 63 31 15 12 112 255 157 76 37 18 9 33 255 208 101 48 23 11 4 1 0 0 0 0 0 9 204 255 141 68 33 15 6 2 1 0 0 0 0 0 2 40 255 197 103 76 66 70 108 213 255 46 18 28 50 97 189 255 62 33 56 112 226 255 39 30 57 118 239 255 27 20 40 85 173 255 64 9 15 32 66 139 255 204 9 0 0 0 0 0 4 76 255 164 79 37 17 7 2 1 0 0 0 0 0 0 0 0 0 0 0 0 0 0 0 0 0 0 0 0 0 0 0 0 0 0 0 0 0 0 0 0 0 0 0 0 0 0 0 0 0 0 0 0 0 0 0 0 0 0 0 0 0 0 0 0 0 0 0 0 0 0 0 0 0 0 0 0 0 0 0 0 0 0 0 1 4 10 24 50 104 208 255 37 2 0 0 0 0 0 0 0 0 0 0 0 0 0 0 0 0 0 0 0 0 0 0 0 0 0 0 0 0 0 0 0 0 0 0 0 0 0 0 0 0 0 0 0 0 0 0 0 0 0 0 0 1 15 255 255 131 62 30 13 5 5 60 255 177 87 41 19 8 3 2 35 255 219 107 51 25 11 8 83 255 165 81 38 18 7 4 25 255 234 113 54 26 14 46 255 197 99 48 29 74 255 163 88 47 26 12 4 1 0 0 0 0 0 0 0 0 0 0 1 16 255 189 190 148 69 72 128 243 255 45 39 69 136 255 178 34 39 75 152 255 127 30 42 83 174 255 44 3 4 67 255 166 78 37 18 8 3 1 0 0 0 0 0 0 0 0 0 0 0 0 0 0 0 6 131 255 147 70 33 15 6 2 1 0 3 53 255 192 93 44 20 8 3 1 0 0 0 0 0 0 0 0 0 0 0 0 0 0 1 3 9 22 45 92 182 255 80 25 40 80 157 255 101 24 36 72 147 255 146 19 22 43 88 181 255 48 7 13 30 61 98
0 0 0 0 0 0 0 0 0 0 0 0 0 0 0 0 0 0 0 0 0 0 0 0 8 179 255 149 70 32 14 5 2 1 1 19 255 241 118 55 25 10 4 1 0 0 0 0 0 0 0 0 0 0 0 0 0 0 0 0 0 7 141 255 154 72 34 15 8 44 255 188 92 44 21 16 136 255 154 73 35 18 31 255 228 113 53 25 11 5 2 0 0 0 0 0 0 0 0 0 0 0 0 0 0 0 0 0 0 0 0 0 0 0 0 0 0 0 0 0 0 0 0 0 0 0 0 1 4 9 22 48 100 199 255 47 18 33 68 145 255 122 12 13 30 66 140 255 143 7 0 0 0 0 0 0 0 0 0 0 0 0 0 0 0 0 0 0 0 0 0 0 0 0 0 0 0 0 0 0 0 0 0 0 0 0 0 0 0 0 0 0 0 1 19 255 243 117 54 24 10 5 18 255 244 116 54 24 11 9 101 255 159 75 35 16 10 56 255 189 91 43 20 9 16 249 255 126 58 27 12 5 2 0 0 0 0 0 4 89 255 168 80 38 17 7 2 1 0 0 0 0 0 1 18 255 246 120 64 50 45 46 66 128 255 255 28 16 29 57 117 228 233 35 33 66 139 255 147 26 33 68 142 255 121 18 23 49 103 210 255 31 8 17 37 79 169 255 87 4 0 0 0 2 36 255 198 95 44 20 8 3 1 0 0 0 0 0 0 0 0 0 0 0 0 0 0 0 0 0 0 0 0 0 0 0 0 0 0 0 0 0 0 0 0 0 0 0 0 0 0 0 0 0 0 0 0 0 0 0 0 0 0 0 0 0 0 0 0 0 0 0 0 0 0 0 0 0 0 0 0 0 0 0 0 0 0 0 0 0 1 5 12 27 58 122 251 255 15 1 0 0 0 0 0 0 0 0 0 0 0 0 0 0 0 0 0 0 0 0 0 0 0 0 0 0 0 0 0 0 0 0 0 0 0 0 0 0 0 0 0 0 0 0 0 0 0 0 0 0 6 132 255 155 74 35 15 6 3 29 255 215 104 49 23 9 4 2 16 255 255 130 61 28 13 7 43 255 201 97 46 21 9 4 12 236 255 141 65 30 14 24 255 244 120 57 28 34 234 186 98 49 26 13 5 2 0 0 0 0 0 0 0 0 0 0 0 5 103 255 160 150 177 87 50 76 145 255 156 33 42 82 164 255 82 27 44 90 174 255 61 27 49 108 226 255 19 33 255 206 99 45 20 8 3 1 0 0 0 0 0 0 0 0 0 0 0 0 0 0 0 3 60 255 178 84 39 18 7 2 1 0 1 24 255 228 112 53 24 10 4 1 0 0 0 0 0 0 0 0 0 0 0 0 0 0 0 0 1 4 11 26 53 107 208 255 43 25 46 93 187 255 51 22 41 85 175 255 68 15 24 50 109 229 255 23 7 15 29 39
0 0 0 0 0 0 0 0 0 0 0 0 0 0 0 0 0 0 0 0 0 0 0 4 82 255 176 85 40 17 6 2 1 1 7 142 255 143 68 31 13 5 1 0 0 0 0 0 0 0 0 0 0 0 0 0 0 0 0 0 3 62 255 182 88 41 18 8 20 255 238 115 54 25 14 64 255 183 90 43 20 18 163 255 138 66 30 13 5 2 1 0 0 0 0 0 0 0 0 0 0 0 0 0 0 0 0 0 0 0 0 0 0 0 0 0 0 0 0 0 0 0 0 0 0 0 0 0 1 4 11 27 58 121 243 255 24 19 40 86 176 255 54 9 16 38 82 171 255 62 3 0 0 0 0 0 0 0 0 0 0 0 0 0 0 0 0 0 0 0 0 0 0 0 0 0 0 0 0 0 0 0 0 0 0 0 0 0 0 0 0 0 0 8 168 255 146 68 30 13 5 9 139 255 147 68 30 13 7 50 255 193 94 43 19 9 28 255 229 113 53 24 10 10 113 255 160 74 33 14 5 2 1 0 0 0 0 2 45 255 202 98 45 20 8 3 1 0 0 0 0 0 0 7 162 255 148 71 41 33 29 30 40 75 152 255 165 17 17 34 71 141 255 99 25 40 84 166 255 66 22 40 85 173 255 57 15 28 60 128 255 201 14 8 20 46 99 202 255 43 2 0 1 16 255 254 120 55 24 10 4 1 0 0 0 0 0 0 0 0 0 0 0 0 0 0 0 0 0 0 0 0 0 0 0 0 0 0 0 0 0 0 0 0 0 0 0 0 0 0 0 0 0 0 0 0 0 0 0 0 0 0 0 0 0 0 0 0 0 0 0 0 0 0 0 0 0 0 0 0 0 0 0 0 0 0 0 0 0 0 1 2 5 14 32 69 149 255 136 6 0 0 0 0 0 0 0 0 0 0 0 0 0 0 0 0 0 0 0 0 0 0 0 0 0 0 0 0 0 0 0 0 0 0 0 0 0 0 0 0 0 0 0 0 0 0 0 0 0 3 62 255 184 89 42 18 7 3 12 222 255 131 60 27 11 4 2 7 129 255 155 74 34 15 7 20 255 249 122 56 25 10 4 6 107 255 170 82 37 16 14 138 255 148 71 33 21 87 255 121 59 27 13 6 2 1 0 0 0 0 0 0 0 0 0 0 2 45 255 181 127 119 158 155 47 47 86 169 255 76 29 50 101 190 255 41 27 53 107 210 227 31 30 65 138 255 192 255 255 126 58 25 10 4 1 0 0 0 0 0 0 0 0 0 0 0 0 0 0 0 1 30 255 220 106 49 21 8 3 1 0 1 9 196 255 136 64 29 12 4 1 0 0 0 0 0 0 0 0 0 0 0 0 0 0 0 0 0 1 2 5 13 30 62 127 254 187 25 27 55 116 232 241 27 24 49 105 208 255 33 14 29 64 141 255 169 11 7 12 14
0 0 0 0 0 0 0 0 0 0 0 0 0 0 0 0 0 0 0 0 0 0 2 43 255 211 103 49 22 8 3 1 0 3 64 255 173 83 39 17 6 2 1 0 0 0 0 0 0 0 0 0 0 0 0 0 0 0 0 1 29 255 216 107 51 22 9 10 126 255 146 68 31 14 32 255 215 110 53 25 14 71 255 168 83 39 16 6 2 1 0 0 0 0 0 0 0 0 0 0 0 0 0 0 0 0 0 0 0 0 0 0 0 0 0 0 0 0 0 0 0 0 0 0 0 0 0 0 1 2 5 14 34 72 147 255 110 16 23 51 107 218 255 24 9 21 48 103 215 255 30 1 0 0 0 0 0 0 0 0 0 0 0 0 0 0 0 0 0 0 0 0 0 0 0 0 0 0 0 0 0 0 0 0 0 0 0 0 0 0 0 0 4 75 255 177 86 40 16 6 5 67 255 183 88 40 17 7 25 255 236 117 55 25 10 14 200 255 138 66 30 12 7 56 255 194 96 44 18 7 2 1 0 0 0 0 1 21 255 245 121 57 25 10 3 1 0 0 0 0 0 0 4 76 255 181 87 43 25 20 17 18 24 44 89 178 255 76 12 20 44 89 171 255 48 26 51 104 203 255 33 24 51 108 220 255 29 16 35 76 159 255 80 8 10 26 57 121 246 255 20 1 7 148 255 154 71 32 13 4 1 0 0 0 0 0 0 0 0 0 0 0 0 0 0 0 0 0 0 0 0 0 0 0 0 0 0 0 0 0 0 0 0 0 0 0 0 0 0 0 0 0 0 0 0 0 0 0 0 0 0 0 0 0 0 0 0 0 0 0 0 0 0 0 0 0 0 0 0 0 0 0 0 0 0 0 0 0 0 0 0 1 2 6 17 40 88 184 255 63 3 0 0 0 0 0 0 0 0 0 0 0 0 0 0 0 0 0 0 0 0 0 0 0 0 0 0 0 0 0 0 0 0 0 0 0 0 0 0 0 0 0 0 0 0 0 0 0 1 32 255 224 109 51 23 9 3 6 96 255 159 77 35 14 5 2 3 57 255 183 90 42 19 7 10 137 255 148 71 33 13 5 4 53 255 200 99 47 21 11 64 255 181 89 43 20 37 255 158 82 36 14 6 2 1 0 0 0 0 0 0 0 0 0 0 1 18 255 231 121 99 101 136 222 75 33 53 105 200 255 41 32 61 121 252 154 25 32 65 131 255 97 24 40 86 191 255 255 163 75 34 13 5 1 0 0 0 0 0 0 0 0 0 0 0 0 0 0 0 1 12 249 255 134 62 28 11 4 1 0 0 4 81 255 165 79 37 15 6 2 1 0 0 0 0 0 0 0 0 0 0 0 0 0 0 0 0 0 0 1 2 6 16 36 76 154 255 83 19 33 71 144 255 106 19 29 62 128 255 173 16 16 38 84 173 255 77 6 4 5
0 0 0 0 0 0 0 0 0 0 0 0 0 0 0 0 0 0 0 0 0 1 19 255 250 126 60 28 11 4 1 0 2 33 255 218 105 49 22 8 3 1 0 0 0 0 0 0 0 0 0 0 0 0 0 0 0 0 1 12 255 255 130 62 29 12 7 57 255 177 88 41 18 17 183 255 131 65 31 15 35 255 203 103 50 22 8 3 1 0 0 0 0 0 0 0 0 0 0 0 0 0 0 0 0 0 0 0 0 0 0 0 0 0 0 0 0 0 0 0 0 0 0 0 0 0 0 0 0 1 2 7 19 43 90 179 255 52 15 30 64 134 255 145 12 11 28 62 132 255 255 13 1 0 0 0 0 0 0 0 0 0 0 0 0 0 0 0 0 0 0 0 0 0 0 0 0 0 0 0 0 0 0 0 0 0 0 0 0 0 0 2 38 255 212 104 50 22 8 4 34 255 221 110 53 23 9 13 197 255 143 69 32 13 9 84 255 167 82 39 17 7 27 255 229 116 57 26 9 3 1 0 0 0 0 0 8 170 255 146 70 33 13 5 1 0 0 0 0 0 0 2 39 255 215 108 52 26 14 10 8 9 13 26 52 106 207 255 39 12 27 57 113 233 213 29 32 64 128 255 127 21 31 66 138 255 150 17 21 46 97 194 255 37 6 14 33 70 148 255 192 12 70 255 185 91 43 18 6 2 1 0 0 0 0 0 0 0 0 0 0 0 0 0 0 0 0 0 0 0 0 0 0 0 0 0 0 0 0 0 0 0 0 0 0 0 0 0 0 0 0 0 0 0 0 0 0 0 0 0 0 0 0 0 0 0 0 0 0 0 0 0 0 0 0 0 0 0 0 0 0 0 0 0 0 0 0 0 0 0 0 0 1 3 8 23 52 110 220 255 30 1 0 0 0 0 0 0 0 0 0 0 0 0 0 0 0 0 0 0 0 0 0 0 0 0 0 0 0 0 0 0 0 0 0 0 0 0 0 0 0 0 0 0 0 0 0 1 14 255 255 135 64 29 12 4 4 49 255 198 95 45 20 7 2 2 26 255 219 109 52 24 9 6 60 255 176 87 42 18 6 3 26 255 234 118 57 27 12 31 255 216 110 54 26 20 139 242 110 56 22 7 2 1 0 0 0 0 0 0 0 0 0 0 0 7 140 255 142 81 81 95 124 179 205 38 34 65 127 255 144 29 39 78 158 255 72 22 41 86 172 255 50 27 55 117 219 197 100 46 19 7 2 1 0 0 0 0 0 0 0 0 0 0 0 0 0 0 0 5 99 255 159 78 37 15 5 2 0 0 2 40 255 201 98 46 20 7 2 1 0 0 0 0 0 0 0 0 0 0 0 0 0 0 0 0 0 0 0 0 1 3 8 21 47 97 192 255 41 22 44 91 180 255 51 19 37 77 159 255 75 13 23 51 104 210 255 38 3 1
0 0 0 0 0 0 0 0 0 0 0 0 0 0 0 0 0 0 0 0 0 7 153 255 147 73 35 15 5 2 0 1 14 255 255 134 63 29 11 4 1 0 0 0 0 0 0 0 0 0 0 0 0 0 0 0 0 0 6 117 255 163 77 36 15 7 28 255 221 109 53 25 14 79 255 163 79 39 18 18 198 255 127 63 30 12 4 1 0 0 0 0 0 0 0 0 0 0 0 0 0 0 0 0 0 0 0 0 0 0 0 0 0 0 0 0 0 0 0 0 0 0 0 0 0 0 0 0 0 0 1 3 10 26 55 112 227 255 27 18 39 82 168 255 63 9 16 37 78 161 255 109 5 0 0 0 0 0 0 0 0 0 0 0 0 0 0 0 0 0 0 0 0 0 0 0 0 0 0 0 0 0 0 0 0 0 0 0 0 0 1 16 255 255 128 61 29 12 4 15 255 255 134 65 31 13 9 89 255 172 85 41 18 9 42 255 199 100 49 22 9 13 195 255 138 68 34 14 4 1 0 0 0 0 0 4 75 255 172 85 41 18 6 2 1 0 0 0 0 0 1 17 255 255 129 63 31 14 7 4 3 4 6 14 30 62 127 255 255 21 16 38 75 149 255 103 25 41 82 165 255 60 22 42 84 166 255 66 15 27 58 121 250 253 16 7 18 41 87 179 255 207 255 220 109 54 25 9 3 1 0 0 0 0 0 0 0 0 0 0 0 0 0 0 0 0 0 0 0 0 0 0 0 0 0 0 0 0 0 0 0 0 0 0 0 0 0 0 0 0 0 0 0 0 0 0 0 0 0 0 0 0 0 0 0 0 0 0 0 0 0 0 0 0 0 0 0 0 0 0 0 0 0 0 0 0 0 0 0 0 0 0 0 1 4 12 30 64 132 255 246 12 1 0 0 0 0 0 0 0 0 0 0 0 0 0 0 0 0 0 0 0 0 0 0 0 0 0 0 0 0 0 0 0 0 0 0 0 0 0 0 0 0 0 0 0 0 6 117 255 159 78 37 16 6 3 23 255 241 121 57 26 10 3 1 10 212 255 133 64 30 12 6 28 255 215 106 52 24 9 3 11 220 255 140 68 33 15 16 188 255 132 66 33 18 61 255 151 79 40 13 3 1 0 0 0 0 0 0 0 0 0 0 0 3 62 255 176 88 59 75 106 117 144 255 103 28 42 82 159 255 72 28 53 105 205 255 40 28 57 115 238 246 33 36 66 96 89 57 28 10 3 1 0 0 0 0 0 0 0 0 0 0 0 0 0 0 0 2 46 255 191 94 46 21 7 2 1 0 1 17 255 250 123 58 27 10 3 1 0 0 0 0 0 0 0 0 0 0 0 0 0 0 0 0 0 0 0 0 0 0 1 3 11 28 61 123 251 202 25 28 58 116 231 255 28 22 48 100 203 255 40 14 30 62 128 255 255 15 1
0 0 0 0 0 0 0 0 0 0 0 0 0 0 0 0 0 0 0 0 3 67 255 175 86 42 19 7 2 1 0 6 118 255 158 79 38 16 5 2 0 0 0 0 0 0 0 0 0 0 0 0 0 0 0 0 0 3 56 255 194 97 46 21 8 13 214 255 137 66 32 16 41 255 200 101 49 23 14 90 255 158 78 38 17 6 2 0 0 0 0 0 0 0 0 0 0 0 0 0 0 0 0 0 0 0 0 0 0 0 0 0 0 0 0 0 0 0 0 0 0 0 0 0 0 0 0 0 0 0 0 1 5 14 34 70 141 255 153 18 24 51 105 212 255 30 9 22 47 95 190 255 50 2 0 0 0 0 0 0 0 0 0 0 0 0 0 0 0 0 0 0 0 0 0 0 0 0 0 0 0 0 0 0 0 0 0 0 0 0 7 143 255 152 75 36 16 6 7 113 255 156 78 39 18 8 46 255 205 103 51 24 10 21 255 249 122 60 29 12 9 87 255 167 82 41 19 7 2 1 0 0 0 0 2 40 255 211 103 50 23 9 3 1 0 0 0 0 0 0 7 149 255 153 75 37 17 7 3 1 1 1 3 7 17 37 77 158 255 132 16 25 52 99 190 255 58 29 54 108 217 255 34 27 53 104 207 255 33 17 36 73 151 255 111 9 9 24 52 108 231 255 255 136 64 31 13 4 1 0 0 0 0 0 0 0 0 0 0 0 0 0 0 0 0 0 0 0 0 0 0 0 0 0 0 0 0 0 0 0 0 0 0 0 0 0 0 0 0 0 0 0 0 0 0 0 0 0 0 0 0 0 0 0 0 0 0 0 0 0 0 0 0 0 0 0 0 0 0 0 0 0 0 0 0 0 0 0 0 0 0 0 0 0 2 6 17 38 77 160 255 103 5 0 0 0 0 0 0 0 0 0 0 0 0 0 0 0 0 0 0 0 0 0 0 0 0 0 0 0 0 0 0 0 0 0 0 0 0 0 0 0 0 0 0 0 3 55 255 189 93 46 21 8 3 10 187 255 144 71 34 14 5 2 5 89 255 165 79 38 16 6 12 195 255 133 64 30 13 5 6 96 255 168 82 40 19 12 83 255 161 79 40 21 31 255 208 106 60 29 8 2 0 0 0 0 0 0 0 0 0 0 0 1 30 255 217 108 57 49 92 141 123 123 182 255 58 30 54 105 208 255 45 39 70 132 255 189 30 40 77 150 255 124 30 34 39 38 29 15 5 1 0 0 0 0 0 0 0 0 0 0 0 0 0 0 0 1 21 255 237 117 56 26 11 3 1 0 0 7 140 255 150 73 35 15 5 1 0 0 0 0 0 0 0 0 0 0 0 0 0 0 0 0 0 0 0 0 0 0 0 0 1 5 16 39 78 152 255 101 23 38 73 143 255 137 20 30 63 128 255 255 23 18 38 75 151 255 114 6
0 0 0 0 0 0 0 0 0 0 0 0 0 0 0 0 0 0 0 1 32 255 213 106 51 24 10 3 1 0 3 57 255 190 93 47 22 8 2 1 0 0 0 0 0 0 0 0 0 0 0 0 0 0 0 0 1 27 255 229 115 57 27 11 9 97 255 167 83 41 19 23 255 255 124 62 31 15 48 255 199 99 49 23 9 3 1 0 0 0 0 0 0 0 0 0 0 0 0 0 0 0 0 0 0 0 0 0 0 0 0 0 0 0 0 0 0 0 0 0 0 0 0 0 0 0 0 0 0 0 0 1 2 7 20 44 88 176 255 75 17 32 65 132 255 201 15 12 27 56 114 230 255 22 1 0 0 0 0 0 0 0 0 0 0 0 0 0 0 0 0 0 0 0 0 0 0 0 0 0 0 0 0 0 0 0 0 0 0 3 70 255 185 90 44 20 8 5 55 255 189 92 46 22 10 23 255 245 124 61 30 13 13 157 255 152 74 36 16 8 45 255 203 101 49 23 9 3 1 0 0 0 0 1 19 255 255 129 61 29 12 4 1 0 0 0 0 0 0 3 66 255 180 89 44 21 8 3 1 0 0 0 1 3 8 21 47 96 187 255 71 20 38 66 121 235 255 40 38 71 137 255 162 26 33 64 130 255 205 20 21 45 93 191 255 56 7 13 31 65 129 212 160 82 39 17 6 2 1 0 0 0 0 0 0 0 0 0 0 0 0 0 0 0 0 0 0 0 0 0 0 0 0 0 0 0 0 0 0 0 0 0 0 0 0 0 0 0 0 0 0 0 0 0 0 0 0 0 0 0 0 0 0 0 0 0 0 0 0 0 0 0 0 0 0 0 0 0 0 0 0 0 0 0 0 0 0 0 0 0 0 0 0 0 1 3 8 21 46 95 195 255 50 2 0 0 0 0 0 0 0 0 0 0 0 0 0 0 0 0 0 0 0 0 0 0 0 0 0 0 0 0 0 0 0 0 0 0 0 0 0 0 0 0 0 1 26 255 228 114 55 26 11 4 5 80 255 171 84 42 20 7 2 3 44 255 200 100 48 22 8 7 85 255 163 80 39 17 6 4 48 255 201 100 49 23 11 43 255 201 100 49 25 20 158 255 134 74 48 20 4 1 0 0 0 0 0 0 0 0 0 0 1 12 255 255 133 66 40 57 162 189 147 113 133 239 255 40 38 70 134 255 198 42 49 84 161 255 113 34 53 96 183 255 69 18 15 14 12 6 2 1 0 0 0 0 0 0 0 0 0 0 0 0 0 0 0 8 176 255 144 69 33 14 5 1 0 0 3 61 255 179 89 44 20 7 2 1 0 0 0 0 0 0 0 0 0 0 0 0 0 0 0 0 0 0 0 0 0 0 0 0 1 2 9 25 50 97 195 255 60 28 48 90 180 255 71 22 40 79 158 255 133 16 22 45 90 183 255 57
0 0 0 0 0 0 0 0 0 0 0 0 0 0 0 0 0 0 1 13 255 255 130 63 30 12 4 1 0 1 28 255 229 115 55 27 11 4 1 0 0 0 0 0 0 0 0 0 0 0 0 0 0 0 0 0 10 217 255 138 67 34 15 8 51 255 202 100 50 25 17 128 255 155 76 39 19 28 255 246 124 62 31 13 4 1 0 0 0 0 0 0 0 0 0 0 0 0 0 0 0 0 0 0 0 0 0 0 0 0 0 0 0 0 0 0 0 0 0 0 0 0 0 0 0 0 0 0 0 0 0 0 1 3 11 28 55 108 212 255 42 20 40 80 160 255 88 10 15 33 67 140 255 186 9 0 0 0 0 0 0 0 0 0 0 0 0 0 0 0 0 0 0 0 0 0 0 0 0 0 0 0 0 0 0 0 0 0 2 38 255 223 111 53 25 11 5 27 255 229 115 55 27 12 12 155 255 147 73 37 17 10 75 255 182 91 45 21 9 23 255 248 124 61 29 13 4 1 0 0 0 0 0 9 198 255 154 76 37 16 6 2 0 0 0 0 0 0 1 33 255 215 107 52 25 11 4 1 0 0 0 0 0 1 4 11 29 58 113 223 255 49 29 45 76 144 255 180 38 48 87 170 255 83 25 41 81 164 255 95 17 28 58 117 232 255 28 7 17 38 65 90 75 47 23 9 3 1 0 0 0 0 0 0 0 0 0 0 0 0 0 0 0 0 0 0 0 0 0 0 0 0 0 0 0 0 0 0 0 0 0 0 0 0 0 0 0 0 0 0 0 0 0 0 0 0 0 0 0 0 0 0 0 0 0 0 0 0 0 0 0 0 0 0 0 0 0 0 0 0 0 0 0 0 0 0 0 0 0 0 0 0 0 0 0 1 4 11 27 57 118 234 255 22 1 0 0 0 0 0 0 0 0 0 0 0 0 0 0 0 0 0 0 0 0 0 0 0 0 0 0 0 0 0 0 0 0 0 0 0 0 0 0 0 0 11 226 255 139 67 32 14 5 3 39 255 205 102 50 24 10 3 2 21 255 246 121 60 28 12 6 44 255 202 99 49 23 9 4 22 255 239 121 59 29 13 22 255 250 125 61 31 18 79 255 169 87 54 39 13 3 1 0 0 0 0 0 0 0 0 0 0 5 113 255 161 79 42 35 126 235 199 173 121 101 154 255 172 38 48 86 165 255 142 42 56 102 203 255 83 41 62 114 222 255 29 7 5 4 2 1 0 0 0 0 0 0 0 0 0 0 0 0 0 0 0 4 78 255 173 85 42 19 7 2 1 0 1 28 255 216 108 53 25 10 3 1 0 0 0 0 0 0 0 0 0 0 0 0 0 0 0 0 0 0 0 0 0 0 0 0 0 0 1 4 14 33 63 123 240 255 42 33 58 112 218 255 44 27 50 94 183 255 64 15 27 54 113 234 255
0 0 0 0 0 0 0 0 0 0 0 0 0 0 0 0 0 0 5 111 255 157 77 37 17 6 2 1 1 12 244 255 137 67 33 14 5 2 0 0 0 0 0 0 0 0 0 0 0 0 0 0 0 0 0 5 93 255 163 80 40 19 8 27 255 241 122 60 31 17 65 255 185 94 47 24 20 177 255 148 75 39 18 6 2 0 0 0 0 0 0 0 0 0 0 0 0 0 0 0 0 0 0 0 0 0 0 0 0 0 0 0 0 0 0 0 0 0 0 0 0 0 0 0 0 0 0 0 0 0 0 0 0 1 5 16 35 66 129 255 255 27 25 49 98 198 255 45 9 19 40 83 169 255 83 4 0 0 0 0 0 0 0 0 0 0 0 0 0 0 0 0 0 0 0 0 0 0 0 0 0 0 0 0 0 0 0 1 19 255 255 133 65 32 14 5 12 209 255 138 68 33 15 9 70 255 176 86 43 21 10 39 255 213 108 55 27 12 13 173 255 149 74 37 17 6 2 1 0 0 0 0 4 89 255 181 89 45 21 8 2 1 0 0 0 0 0 1 15 255 255 131 63 30 13 5 2 0 0 0 0 0 0 0 2 5 16 34 67 135 255 255 44 32 49 90 179 255 118 39 56 105 205 255 49 28 51 101 197 255 51 19 36 70 140 255 220 14 9 19 30 35 32 24 12 4 1 0 0 0 0 0 0 0 0 0 0 0 0 0 0 0 0 0 0 0 0 0 0 0 0 0 0 0 0 0 0 0 0 0 0 0 0 0 0 0 0 0 0 0 0 0 0 0 0 0 0 0 0 0 0 0 0 0 0 0 0 0 0 0 0 0 0 0 0 0 0 0 0 0 0 0 0 0 0 0 0 0 0 0 0 0 0 0 0 0 2 5 15 34 69 140 255 181 9 0 0 0 0 0 0 0 0 0 0 0 0 0 0 0 0 0 0 0 0 0 0 0 0 0 0 0 0 0 0 0 0 0 0 0 0 0 0 0 5 92 255 165 81 40 18 7 3 19 255 253 124 60 29 13 5 2 9 182 255 148 72 35 16 6 22 255 250 124 60 29 12 4 10 187 255 142 70 35 16 14 139 255 150 75 38 20 45 255 209 106 58 41 31 8 2 0 0 0 0 0 0 0 0 0 0 3 57 255 195 96 48 29 67 255 204 172 170 143 87 101 178 255 117 40 57 103 201 255 95 43 65 125 237 255 64 44 71 138 255 115 9 2 1 1 0 0 0 0 0 0 0 0 0 0 0 0 0 0 0 2 41 255 210 103 51 24 10 3 1 0 1 11 237 255 132 64 31 13 5 1 0 0 0 0 0 0 0 0 0 0 0 0 0 0 0 0 0 0 0 0 0 0 0 0 0 0 0 0 2 7 20 41 75 144 255 214 35 39 69 133 255 241 31 31 57 110 217 255 34 16 33 69 148 255
0 0 0 0 0 0 0 0 0 0 0 0 0 0 0 0 0 2 50 255 187 93 45 21 8 3 1 0 5 107 255 163 80 39 18 7 2 1 0 0 0 0 0 0 0 0 0 0 0 0 0 0 0 0 2 47 255 200 97 47 22 10 14 215 255 144 71 36 19 36 255 220 112 56 29 18 94 255 178 88 45 23 9 3 1 0 0 0 0 0 0 0 0 0 0 0 0 0 0 0 0 0 0 0 0 0 0 0 0 0 0 0 0 0 0 0 0 0 0 0 0 0 0 0 0 0 0 0 0 0 0 0 0 1 2 8 20 40 77 155 255 121 21 30 59 122 244 255 22 10 23 49 101 208 255 43 2 0 0 0 0 0 0 0 0 0 0 0 0 0 0 0 0 0 0 0 0 0 0 0 0 0 0 0 0 0 0 8 170 255 156 77 38 18 7 7 88 255 165 81 40 19 9 34 255 210 105 51 25 12 21 255 255 128 63 32 15 10 81 255 175 87 44 21 8 3 1 0 0 0 0 2 45 255 208 105 52 25 11 4 1 0 0 0 0 0 0 6 130 255 159 77 37 17 6 2 1 0 0 0 0 0 0 0 1 2 8 19 40 80 161 255 255 38 33 57 109 206 255 77 40 65 127 252 244 33 33 61 120 239 255 29 22 42 82 166 255 99 9 8 12 13 12 10 5 2 0 0 0 0 0 0 0 0 0 0 0 0 0 0 0 0 0 0 0 0 0 0 0 0 0 0 0 0 0 0 0 0 0 0 0 0 0 0 0 0 0 0 0 0 0 0 0 0 0 0 0 0 0 0 0 0 0 0 0 0 0 0 0 0 0 0 0 0 0 0 0 0 0 0 0 0 0 0 0 0 0 0 0 0 0 0 0 0 0 0 1 2 7 19 40 82 168 255 78 4 0 0 0 0 0 0 0 0 0 0 0 0 0 0 0 0 0 0 0 0 0 0 0 0 0 0 0 0 0 0 0 0 0 0 0 0 0 2 44 255 196 97 48 23 9 3 9 174 255 152 73 36 16 6 2 5 82 255 174 86 43 20 8 12 190 255 149 74 36 16 6 6 83 255 174 83 41 20 12 71 255 183 90 46 24 29 255 255 129 67 40 31 21 5 1 0 0 0 0 0 0 0 0 0 1 29 255 232 117 57 30 37 255 222 156 134 144 159 92 70 110 209 255 82 41 65 121 217 255 65 45 75 140 255 240 48 46 83 155 255 39 3 0 0 0 0 0 0 0 0 0 0 0 0 0 0 0 0 1 20 255 255 127 61 30 13 4 1 0 0 5 97 255 161 78 38 17 6 2 1 0 0 0 0 0 0 0 0 0 0 0 0 0 0 0 0 0 0 0 0 0 0 0 0 0 0 0 0 1 3 11 25 46 87 171 255 128 32 43 80 159 255 123 26 34 65 132 255 207 20 20 43 87 152
0 0 0 0 0 0 0 0 0 0 0 0 0 0 0 0 1 22 255 228 112 54 26 11 4 1 0 3 53 255 197 96 47 22 9 3 1 0 0 0 0 0 0 0 0 0 0 0 0 0 0 0 0 1 22 255 243 121 57 27 12 9 95 255 171 84 42 21 22 213 255 133 66 34 19 55 255 210 106 53 27 12 4 1 0 0 0 0 0 0 0 0 0 0 0 0 0 0 0 0 0 0 0 0 0 0 0 0 0 0 0 0 0 0 0 0 0 0 0 0 0 0 0 0 0 0 0 0 0 0 0 0 0 0 1 4 10 24 47 93 184 255 63 20 36 72 146 255 131 12 13 29 60 126 250 255 20 1 0 0 0 0 0 0 0 0 0 0 0 0 0 0 0 0 0 0 0 0 0 0 0 0 0 0 0 0 4 73 255 178 89 44 21 9 5 44 255 199 98 48 23 10 17 249 255 128 62 30 14 13 139 255 155 75 37 18 9 43 255 209 104 51 25 11 4 1 0 0 0 0 1 23 255 246 122 60 30 13 5 2 0 0 0 0 0 0 3 60 255 185 93 45 21 8 3 1 0 0 0 0 0 0 0 0 0 1 3 10 23 47 93 181 255 173 32 37 66 124 228 255 51 43 77 153 255 134 28 38 72 145 255 150 20 25 48 98 199 255 49 5 4 4 4 3 2 1 0 0 0 0 0 0 0 0 0 0 0 0 0 0 0 0 0 0 0 0 0 0 0 0 0 0 0 0 0 0 0 0 0 0 0 0 0 0 0 0 0 0 0 0 0 0 0 0 0 0 0 0 0 0 0 0 0 0 0 0 0 0 0 0 0 0 0 0 0 0 0 0 0 0 0 0 0 0 0 0 0 0 0 0 0 0 0 0 0 0 0 1 3 9 23 48 101 207 255 39 2 0 0 0 0 0 0 0 0 0 0 0 0 0 0 0 0 0 0 0 0 0 0 0 0 0 0 0 0 0 0 0 0 0 0 0 1 21 255 242 118 57 27 12 4 5 81 255 182 89 43 20 8 3 3 42 255 209 103 50 24 10 8 87 255 177 87 44 21 8 5 41 255 206 104 50 23 12 39 255 221 111 54 28 22 164 255 156 78 42 27 20 12 3 1 0 0 0 0 0 0 0 0 1 12 247 255 139 68 34 25 127 255 151 111 104 119 149 122 58 69 126 231 255 56 43 71 131 244 227 46 46 81 154 255 134 38 52 102 215 222 12 1 0 0 0 0 0 0 0 0 0 0 0 0 0 0 0 8 176 255 153 74 36 16 6 2 1 0 2 46 255 194 96 46 21 8 3 1 0 0 0 0 0 0 0 0 0 0 0 0 0 0 0 0 0 0 0 0 0 0 0 0 0 0 0 0 0 0 1 5 14 28 52 102 197 255 79 31 49 96 186 255 66 23 39 79 164 255 99 16 26 47 65
0 0 0 0 0 0 0 0 0 0 0 0 0 0 0 0 9 206 255 139 66 32 14 5 2 0 1 25 255 234 118 57 27 11 4 1 0 0 0 0 0 0 0 0 0 0 0 0 0 0 0 0 0 9 192 255 145 71 34 15 8 46 255 200 101 50 24 17 99 255 164 80 40 21 32 255 244 126 63 32 15 6 2 1 0 0 0 0 0 0 0 0 0 0 0 0 0 0 0 0 0 0 0 0 0 0 0 0 0 0 0 0 0 0 0 0 0 0 0 0 0 0 0 0 0 0 0 0 0 0 0 0 0 0 0 1 5 12 28 56 113 222 255 35 23 43 87 176 255 61 9 16 36 73 149 255 159 8 0 0 0 0 0 0 0 0 0 0 0 0 0 0 0 0 0 0 0 0 0 0 0 0 0 0 0 2 36 255 209 104 51 25 11 5 21 255 246 121 58 28 12 11 114 255 159 76 37 17 10 69 255 185 92 45 21 10 23 255 254 127 61 30 13 5 2 0 0 0 0 0 10 236 255 149 71 34 16 6 2 1 0 0 0 0 0 1 31 255 224 110 54 26 11 4 1 0 0 0 0 0 0 0 0 0 0 0 1 4 12 27 54 103 190 255 103 28 40 73 138 255 161 38 49 94 186 255 74 26 44 87 176 255 73 17 29 58 120 238 255 22 2 1 1 1 1 0 0 0 0 0 0 0 0 0 0 0 0 0 0 0 0 0 0 0 0 0 0 0 0 0 0 0 0 0 0 0 0 0 0 0 0 0 0 0 0 0 0 0 0 0 0 0 0 0 0 0 0 0 0 0 0 0 0 0 0 0 0 0 0 0 0 0 0 0 0 0 0 0 0 0 0 0 0 0 0 0 0 0 0 0 0 0 0 0 0 0 0 0 1 4 12 28 60 126 255 255 18 1 0 0 0 0 0 0 0 0 0 0 0 0 0 0 0 0 0 0 0 0 0 0 0 0 0 0 0 0 0 0 0 0 0 0 8 177 255 148 70 33 15 5 4 41 255 213 108 53 25 10 4 2 19 255 251 127 60 29 13 7 45 255 208 105 52 25 11 4 20 255 251 124 61 29 13 21 255 255 134 66 33 20 85 255 185 94 48 26 16 10 5 1 0 0 0 0 0 0 0 0 0 5 102 255 163 80 40 23 61 255 172 103 82 86 102 133 173 69 48 75 140 255 182 39 43 79 153 255 120 35 49 93 176 255 73 37 67 138 255 83 4 0 0 0 0 0 0 0 0 0 0 0 0 0 0 4 77 255 176 88 44 20 8 3 1 0 1 20 255 237 118 57 27 11 4 1 0 0 0 0 0 0 0 0 0 0 0 0 0 0 0 0 0 0 0 0 0 0 0 0 0 0 0 0 0 0 0 1 2 6 15 32 61 119 225 255 49 32 58 114 222 255 37 25 49 101 200 255 56 16 22 26
0 0 0 0 0 0 0 0 0 0 0 0 0 0 0 4 94 255 174 84 40 18 7 2 1 1 11 233 255 141 69 34 15 5 2 1 0 0 0 0 0 0 0 0 0 0 0 0 0 0 0 0 4 81 255 173 85 42 19 8 22 255 240 121 60 29 16 52 255 196 101 50 24 21 179 255 147 74 38 18 7 2 1 0 0 0 0 0 0 0 0 0 0 0 0 0 0 0 0 0 0 0 0 0 0 0 0 0 0 0 0 0 0 0 0 0 0 0 0 0 0 0 0 0 0 0 0 0 0 0 0 0 0 0 0 1 2 6 15 34 68 138 255 174 23 26 53 109 220 255 31 9 20 43 87 175 255 68 3 0 0 0 0 0 0 0 0 0 0 0 0 0 0 0 0 0 0 0 0 0 0 0 0 0 1 16 255 255 128 61 29 13 5 10 169 255 150 73 35 16 9 59 255 195 97 47 21 10 38 255 223 112 55 26 12 13 165 255 153 75 37 17 6 2 1 0 0 0 0 5 107 255 177 87 42 19 8 3 1 0 0 0 0 0 1 13 255 255 138 65 31 14 5 2 0 0 0 0 0 0 0 0 0 0 0 0 1 2 6 14 30 58 112 211 255 63 26 44 85 164 255 84 35 59 116 219 255 42 28 54 108 212 255 38 18 35 71 144 255 165 8 1 0 0 0 0 0 0 0 0 0 0 0 0 0 0 0 0 0 0 0 0 0 0 0 0 0 0 0 0 0 0 0 0 0 0 0 0 0 0 0 0 0 0 0 0 0 0 0 0 0 0 0 0 0 0 0 0 0 0 0 0 0 0 0 0 0 0 0 0 0 0 0 0 0 0 0 0 0 0 0 0 0 0 0 0 0 0 0 0 0 0 0 0 0 0 0 0 1 2 5 16 36 75 153 255 153 7 0 0 0 0 0 0 0 0 0 0 0 0 0 0 0 0 0 0 0 0 0 0 0 0 0 0 0 0 0 0 0 0 0 4 76 255 175 88 42 19 7 3 19 255 253 128 63 31 13 5 2 8 154 255 149 74 36 16 7 21 255 247 125 62 30 13 5 10 167 255 152 73 36 17 14 134 255 159 80 40 22 47 255 212 112 57 30 15 8 4 2 1 0 0 0 0 0 0 0 0 2 49 255 195 96 47 24 33 255 217 115 73 66 82 99 129 183 135 42 47 85 160 255 91 31 50 97 179 255 60 32 57 113 214 255 47 49 94 190 255 38 2 0 0 0 0 0 0 0 0 0 0 0 0 2 38 255 210 104 51 25 10 3 1 0 0 8 173 255 144 70 34 15 5 2 0 0 0 0 0 0 0 0 0 0 0 0 0 0 0 0 0 0 0 0 0 0 0 0 0 0 0 0 0 0 0 0 0 1 3 7 18 37 71 139 255 209 33 36 69 139 255 186 25 31 62 123 243 255 31 10 10
0 0 0 0 0 0 0 0 0 0 0 0 0 0 2 49 255 209 105 51 24 9 3 1 0 5 107 255 172 84 41 19 7 2 1 0 0 0 0 0 0 0 0 0 0 0 0 0 0 0 0 2 38 255 206 104 51 24 10 12 161 255 146 72 36 18 29 255 240 122 62 31 18 86 255 175 88 45 22 9 3 1 0 0 0 0 0 0 0 0 0 0 0 0 0 0 0 0 0 0 0 0 0 0 0 0 0 0 0 0 0 0 0 0 0 0 0 0 0 0 0 0 0 0 0 0 0 0 0 0 0 0 0 0 0 0 1 2 8 20 43 85 168 255 84 19 33 67 138 255 236 16 11 25 52 106 213 255 33 1 0 0 0 0 0 0 0 0 0 0 0 0 0 0 0 0 0 0 0 0 0 0 0 0 7 150 255 158 77 37 16 6 6 77 255 179 90 44 20 9 32 255 235 119 59 28 12 21 255 255 136 68 33 15 9 77 255 182 91 46 21 8 3 1 0 0 0 0 3 55 255 205 104 52 24 10 3 1 0 0 0 0 0 0 6 122 255 163 82 40 17 6 2 1 0 0 0 0 0 0 0 0 0 0 0 0 0 1 2 7 16 33 66 130 241 255 37 28 54 106 200 255 50 40 71 136 255 179 29 34 67 132 255 212 22 21 43 86 174 255 71 4 0 0 0 0 0 0 0 0 0 0 0 0 0 0 0 0 0 0 0 0 0 0 0 0 0 0 0 0 0 0 0 0 0 0 0 0 0 0 0 0 0 0 0 0 0 0 0 0 0 0 0 0 0 0 0 0 0 0 0 0 0 0 0 0 0 0 0 0 0 0 0 0 0 0 0 0 0 0 0 0 0 0 0 0 0 0 0 0 0 0 0 0 0 0 0 0 0 1 2 8 21 45 91 181 255 69 3 0 0 0 0 0 0 0 0 0 0 0 0 0 0 0 0 0 0 0 0 0 0 0 0 0 0 0 0 0 0 0 2 37 255 209 105 52 25 10 3 9 169 255 152 75 37 17 6 2 4 68 255 180 88 44 21 8 10 146 255 149 74 37 17 6 6 74 255 181 91 45 21 12 66 255 186 95 48 25 29 255 252 129 67 35 17 7 3 1 1 0 0 0 0 0 0 0 0 1 23 255 238 119 58 28 22 142 255 141 78 57 65 99 118 138 166 255 73 33 53 102 191 255 48 34 62 117 220 211 35 37 72 139 255 152 47 66 124 251 255 17 1 0 0 0 0 0 0 0 0 0 0 1 16 255 255 129 62 30 13 5 1 0 0 4 76 255 177 87 42 19 7 2 1 0 0 0 0 0 0 0 0 0 0 0 0 0 0 0 0 0 0 0 0 0 0 0 0 0 0 0 0 0 0 0 0 0 0 1 3 9 21 44 85 160 255 109 28 44 87 170 255 98 24 38 75 149 255 187 13 4
0 0 0 0 0 0 0 0 0 0 0 0 0 1 26 255 247 125 63 31 13 4 1 0 3 55 255 204 103 51 24 10 3 1 0 0 0 0 0 0 0 0 0 0 0 0 0 0 0 0 1 16 255 251 126 62 31 13 9 77 255 181 88 44 21 19 171 255 149 75 38 20 48 255 205 107 54 27 11 4 1 0 0 0 0 0 0 0 0 0 0 0 0 0 0 0 0 0 0 0 0 0 0 0 0 0 0 0 0 0 0 0 0 0 0 0 0 0 0 0 0 0 0 0 0 0 0 0 0 0 0 0 0 0 0 0 0 1 3 10 26 54 105 204 255 46 22 42 84 166 255 100 10 14 31 64 131 255 255 15 1 0 0 0 0 0 0 0 0 0 0 0 0 0 0 0 0 0 0 0 0 0 0 3 66 255 185 94 47 21 8 4 39 255 213 108 54 27 11 16 233 255 143 72 37 17 14 150 255 161 81 41 19 9 40 255 213 110 55 27 11 4 1 0 0 0 0 1 29 255 239 122 61 31 13 4 1 0 0 0 0 0 0 3 58 255 193 96 49 24 9 3 1 0 0 0 0 0 0 0 0 0 0 0 0 0 0 0 1 3 7 18 40 78 148 255 152 27 36 69 130 255 177 38 46 84 161 255 93 26 42 81 160 255 103 17 26 53 106 212 255 34 2 0 0 0 0 0 0 0 0 0 0 0 0 0 0 0 0 0 0 0 0 0 0 0 0 0 0 0 0 0 0 0 0 0 0 0 0 0 0 0 0 0 0 0 0 0 0 0 0 0 0 0 0 0 0 0 0 0 0 0 0 0 0 0 0 0 0 0 0 0 0 0 0 0 0 0 0 0 0 0 0 0 0 0 0 0 0 0 0 0 0 0 0 0 0 0 0 0 1 3 11 27 54 109 218 255 35 2 0 0 0 0 0 0 0 0 0 0 0 0 0 0 0 0 0 0 0 0 0 0 0 0 0 0 0 0 0 1 17 255 255 128 63 31 13 5 5 77 255 183 90 45 22 8 3 2 33 255 215 109 53 26 11 7 66 255 176 89 45 21 9 4 36 255 212 108 55 27 12 36 255 222 113 57 30 22 136 255 153 78 41 21 8 3 1 0 0 0 0 0 0 0 0 0 0 10 211 255 145 71 35 20 68 255 173 92 56 53 92 168 170 155 154 213 252 42 36 66 126 246 178 35 42 77 141 255 107 30 49 91 170 255 116 55 80 153 255 142 7 0 0 0 0 0 0 0 0 0 0 7 133 255 153 76 38 17 6 2 1 0 2 37 255 211 107 53 25 10 3 1 0 0 0 0 0 0 0 0 0 0 0 0 0 0 0 0 0 0 0 0 0 0 0 0 0 0 0 0 0 0 0 0 0 0 0 0 1 4 11 26 53 101 193 255 62 31 55 107 206 255 58 26 47 89 169 255 70 5
0 0 0 0 0 0 0 0 0 0 0 0 0 11 226 255 148 74 38 18 6 2 1 1 27 255 237 121 61 31 13 4 1 0 0 0 0 0 0 0 0 0 0 0 0 0 0 0 0 0 6 129 255 150 74 37 17 8 40 255 214 110 54 27 16 86 255 176 90 47 24 30 255 250 126 65 33 15 5 2 1 0 0 0 0 0 0 0 0 0 0 0 0 0 0 0 0 0 0 0 0 0 0 0 0 0 0 0 0 0 0 0 0 0 0 0 0 0 0 0 0 0 0 0 0 0 0 0 0 0 0 0 0 0 0 0 0 0 1 5 15 34 65 127 251 250 28 27 52 100 194 255 48 9 18 39 79 160 255 143 7 0 0 0 0 0 0 0 0 0 0 0 0 0 0 0 0 0 0 0 0 0 1 32 255 216 110 56 28 11 4 17 255 255 129 64 33 15 11 105 255 163 84 44 22 12 74 255 187 95 49 25 11 22 255 255 129 65 33 15 5 2 0 0 0 0 1 13 255 255 143 71 36 17 6 2 1 0 0 0 0 0 1 27 255 226 116 57 29 13 4 1 0 0 0 0 0 0 0 0 0 0 0 0 0 0 0 0 0 1 3 9 23 47 89 168 255 81 28 46 85 160 255 94 35 53 102 200 255 55 29 51 99 197 255 57 17 32 65 130 255 255 14 1 0 0 0 0 0 0 0 0 0 0 0 0 0 0 0 0 0 0 0 0 0 0 0 0 0 0 0 0 0 0 0 0 0 0 0 0 0 0 0 0 0 0 0 0 0 0 0 0 0 0 0 0 0 0 0 0 0 0 0 0 0 0 0 0 0 0 0 0 0 0 0 0 0 0 0 0 0 0 0 0 0 0 0 0 0 0 0 0 0 0 0 0 0 0 0 0 0 1 5 15 33 65 132 255 255 15 1 0 0 0 0 0 0 0 0 0 0 0 0 0 0 0 0 0 0 0 0 0 0 0 0 0 0 0 0 7 159 255 156 76 38 17 7 4 38 255 213 109 54 27 11 4 2 15 255 255 130 65 32 14 7 33 255 215 107 53 26 11 5 16 255 255 128 64 33 16 20 255 255 136 68 35 21 72 255 184 94 48 24 11 4 1 0 0 0 0 0 0 0 0 0 0 4 93 255 172 85 43 22 38 255 213 111 62 46 78 221 241 214 172 141 159 255 138 33 45 82 154 255 104 34 53 96 183 255 63 36 62 111 214 255 91 57 93 183 255 62 3 0 0 0 0 0 0 0 0 3 59 255 181 90 46 22 8 3 1 0 1 16 255 255 128 64 32 14 5 1 0 0 0 0 0 0 0 0 0 0 0 0 0 0 0 0 0 0 0 0 0 0 0 0 0 0 0 0 0 0 0 0 0 0 0 0 0 0 2 5 15 33 64 122 233 255 42 37 67 127 242 255 37 30 53 102 196 255 31
0 0 0 0 0 0 0 0 0 0 0 0 5 95 255 167 84 43 22 9 3 1 1 12 255 255 140 70 36 17 6 2 1 0 0 0 0 0 0 0 0 0 0 0 0 0 0 0 0 3 61 255 181 89 44 21 10 20 255 255 128 65 33 18 49 255 209 106 55 29 22 153 255 152 76 39 19 7 2 1 0 0 0 0 0 0 0 0 0 0 0 0 0 0 0 0 0 0 0 0 0 0 0 0 0 0 0 0 0 0 0 0 0 0 0 0 0 0 0 0 0 0 0 0 0 0 0 0 0 0 0 0 0 0 0 0 0 0 1 2 7 20 41 77 151 255 128 23 32 59 117 234 255 24 10 23 47 94 189 255 67 3 0 0 0 0 0 0 0 0 0 0 0 0 0 0 0 0 0 0 0 1 13 255 255 130 64 33 15 6 9 139 255 151 75 38 19 10 54 255 194 96 49 26 13 40 255 215 110 56 29 14 13 162 255 155 76 39 19 7 2 1 0 0 0 0 5 109 255 164 82 41 20 8 3 1 0 0 0 0 0 0 11 245 255 135 67 34 16 6 2 0 0 0 0 0 0 0 0 0 0 0 0 0 0 0 0 0 0 0 1 4 12 28 54 105 209 255 54 33 57 103 194 255 56 37 64 126 244 255 36 33 62 122 237 255 33 20 39 77 154 255 114 6 0 0 0 0 0 0 0 0 0 0 0 0 0 0 0 0 0 0 0 0 0 0 0 0 0 0 0 0 0 0 0 0 0 0 0 0 0 0 0 0 0 0 0 0 0 0 0 0 0 0 0 0 0 0 0 0 0 0 0 0 0 0 0 0 0 0 0 0 0 0 0 0 0 0 0 0 0 0 0 0 0 0 0 0 0 0 0 0 0 0 0 0 0 0 0 0 0 1 2 7 18 39 77 154 255 127 6 0 0 0 0 0 0 0 0 0 0 0 0 0 0 0 0 0 0 0 0 0 0 0 0 0 0 0 3 71 255 181 91 46 22 9 4 17 255 254 126 64 32 15 5 2 7 135 255 160 77 39 18 7 16 255 255 132 64 32 14 5 8 115 255 153 75 38 19 14 116 255 161 80 41 23 42 255 218 113 57 29 13 5 2 0 0 0 0 0 0 0 0 0 0 2 47 255 204 101 51 26 25 214 255 133 70 45 59 240 255 213 189 166 130 119 176 255 82 35 56 102 200 255 70 41 66 121 234 255 48 44 73 132 232 254 63 59 109 215 255 29 1 0 0 0 0 0 0 1 27 255 218 109 53 27 12 4 1 0 0 7 138 255 152 75 38 18 7 2 1 0 0 0 0 0 0 0 0 0 0 0 0 0 0 0 0 0 0 0 0 0 0 0 0 0 0 0 0 0 0 0 0 0 0 0 0 0 0 1 2 7 20 41 75 143 255 165 34 43 76 145 255 154 27 33 61 124 255 255
0 0 0 0 0 0 0 0 0 0 0 2 46 255 197 96 48 24 11 4 1 1 6 112 255 166 80 40 20 8 3 1 0 0 0 0 0 0 0 0 0 0 0 0 0 0 0 0 1 32 255 223 109 53 26 11 11 129 255 151 74 38 20 29 255 249 127 63 33 21 78 255 178 90 46 23 10 3 1 0 0 0 0 0 0 0 0 0 0 0 0 0 0 0 0 0 0 0 0 0 0 0 0 0 0 0 0 0 0 0 0 0 0 0 0 0 0 0 0 0 0 0 0 0 0 0 0 0 0 0 0 0 0 0 0 0 0 0 0 1 3 10 24 47 92 184 255 69 21 35 69 142 255 158 13 12 27 55 110 218 255 32 1 0 0 0 0 0 0 0 0 0 0 0 0 0 0 0 0 0 0 6 120 255 157 75 37 18 7 6 68 255 182 88 44 22 11 28 255 233 117 57 28 15 21 255 255 128 64 33 16 11 78 255 182 91 45 22 9 3 1 0 0 0 0 2 50 255 189 94 47 23 10 4 1 0 0 0 0 0 0 5 111 255 163 78 39 19 7 3 1 0 0 0 0 0 0 0 0 0 0 0 0 0 0 0 0 0 0 0 1 2 6 15 33 65 131 255 255 42 40 66 123 240 206 39 42 77 147 255 137 29 39 72 142 255 194 22 24 45 90 186 255 54 3 0 0 0 0 0 0 0 0 0 0 0 0 0 0 0 0 0 0 0 0 0 0 0 0 0 0 0 0 0 0 0 0 0 0 0 0 0 0 0 0 0 0 0 0 0 0 0 0 0 0 0 0 0 0 0 0 0 0 0 0 0 0 0 0 0 0 0 0 0 0 0 0 0 0 0 0 0 0 0 0 0 0 0 0 0 0 0 0 0 0 0 0 0 0 0 0 0 1 3 9 22 45 89 184 255 60 3 0 0 0 0 0 0 0 0 0 0 0 0 0 0 0 0 0 0 0 0 0 0 0 0 0 2 35 255 212 106 53 26 12 4 8 136 255 150 73 37 18 7 2 4 62 255 187 93 46 22 10 9 115 255 158 77 38 18 7 5 54 255 183 90 44 22 12 59 255 186 95 48 25 27 245 255 132 67 35 17 6 2 1 0 0 0 0 0 0 0 0 0 1 21 255 240 121 59 30 20 106 255 163 82 46 44 184 255 193 152 138 137 119 93 118 216 255 58 41 68 126 238 255 59 49 79 144 255 181 43 49 79 139 245 136 46 64 129 255 248 12 1 0 0 0 0 0 10 211 255 132 63 31 14 5 2 0 0 3 63 255 184 89 44 21 9 3 1 0 0 0 0 0 0 0 0 0 0 0 0 0 0 0 0 0 0 0 0 0 0 0 0 0 0 0 0 0 0 0 0 0 0 0 0 0 0 0 0 1 3 10 25 47 87 170 255 90 32 46 86 168 255 80 23 37 76 165 255
0 0 0 0 0 0 0 0 0 0 1 21 255 237 118 55 27 12 5 2 1 3 51 255 191 96 46 22 10 4 1 0 0 0 0 0 0 0 0 0 0 0 0 0 0 0 0 1 14 255 255 134 64 31 14 8 61 255 178 88 43 22 20 172 255 148 74 38 21 43 255 208 106 53 27 12 4 1 0 0 0 0 0 0 0 0 0 0 0 0 0 0 0 0 0 0 0 0 0 0 0 0 0 0 0 0 0 0 0 0 0 0 0 0 0 0 0 0 0 0 0 0 0 0 0 0 0 0 0 0 0 0 0 0 0 0 0 0 0 0 1 5 13 28 55 112 219 255 38 22 41 84 171 255 75 10 15 31 63 129 255 255 14 1 0 0 0 0 0 0 0 0 0 0 0 0 0 0 0 0 3 59 255 190 92 44 21 9 5 37 255 221 109 52 25 12 15 195 255 139 68 33 16 13 120 255 153 74 37 18 10 41 255 211 106 53 26 11 4 1 0 0 0 0 1 22 255 227 112 53 26 12 4 1 0 0 0 0 0 0 3 56 255 198 96 46 21 9 3 1 0 0 0 0 0 0 0 0 0 0 0 0 0 0 0 0 0 0 0 0 0 1 2 7 19 40 79 155 255 168 37 43 77 148 255 112 33 47 89 173 255 72 27 43 83 167 255 96 18 27 53 112 228 255 26 1 0 0 0 0 0 0 0 0 0 0 0 0 0 0 0 0 0 0 0 0 0 0 0 0 0 0 0 0 0 0 0 0 0 0 0 0 0 0 0 0 0 0 0 0 0 0 0 0 0 0 0 0 0 0 0 0 0 0 0 0 0 0 0 0 0 0 0 0 0 0 0 0 0 0 0 0 0 0 0 0 0 0 0 0 0 0 0 0 0 0 0 0 0 0 0 0 0 1 4 11 25 52 110 223 255 29 1 0 0 0 0 0 0 0 0 0 0 0 0 0 0 0 0 0 0 0 0 0 0 0 1 16 255 255 127 60 30 14 5 5 63 255 181 88 42 20 9 3 2 30 255 219 109 54 26 11 7 57 255 191 93 45 22 9 4 28 255 227 110 53 25 13 32 255 226 111 55 28 21 123 255 159 78 40 20 8 3 1 0 0 0 0 0 0 0 0 0 0 8 170 255 142 69 34 19 55 255 194 99 51 36 106 255 183 124 100 96 106 108 80 81 137 255 247 47 46 78 144 255 231 53 53 89 171 255 116 38 48 83 151 255 65 41 76 160 255 111 5 0 0 0 0 4 83 255 159 77 37 17 7 2 1 0 1 29 255 217 109 52 25 11 4 1 0 0 0 0 0 0 0 0 0 0 0 0 0 0 0 0 0 0 0 0 0 0 0 0 0 0 0 0 0 0 0 0 0 0 0 0 0 0 0 0 0 0 1 5 14 28 54 104 201 255 52 30 51 102 205 255 44 24 48 103 198
0 0 0 0 0 0 0 0 0 0 8 175 255 141 68 32 14 6 2 1 1 23 255 227 112 54 26 11 4 1 0 0 0 0 0 0 0 0 0 0 0 0 0 0 0 0 0 7 146 255 161 78 37 17 8 32 255 221 107 51 25 16 83 255 176 87 43 22 25 237 255 126 62 31 14 5 2 1 0 0 0 0 0 0 0 0 0 0 0 0 0 0 0 0 0 0 0 0 0 0 0 0 0 0 0 0 0 0 0 0 0 0 0 0 0 0 0 0 0 0 0 0 0 0 0 0 0 0 0 0 0 0 0 0 0 0 0 0 0 0 1 2 6 15 33 66 133 255 174 22 24 49 103 212 255 40 9 17 36 74 156 255 123 6 0 0 0 0 0 0 0 0 0 0 0 0 0 0 0 1 31 255 229 113 54 25 10 5 19 255 255 132 64 30 13 10 86 255 166 81 39 19 11 57 255 182 90 43 20 10 21 255 255 126 61 30 14 5 2 1 0 0 0 0 9 199 255 137 64 30 13 5 2 1 0 0 0 0 0 1 28 255 233 117 56 26 11 4 1 0 0 0 0 0 0 0 0 0 0 0 0 0 0 0 0 0 0 0 0 0 0 0 1 3 10 24 48 92 176 255 100 34 49 94 185 255 63 31 54 107 212 255 40 27 49 100 200 255 51 17 31 66 138 255 255 12 0 0 0 0 0 0 0 0 0 0 0 0 0 0 0 0 0 0 0 0 0 0 0 0 0 0 0 0 0 0 0 0 0 0 0 0 0 0 0 0 0 0 0 0 0 0 0 0 0 0 0 0 0 0 0 0 0 0 0 0 0 0 0 0 0 0 0 0 0 0 0 0 0 0 0 0 0 0 0 0 0 0 0 0 0 0 0 0 0 0 0 0 0 0 0 0 0 0 2 5 13 30 64 134 255 255 12 1 0 0 0 0 0 0 0 0 0 0 0 0 0 0 0 0 0 0 0 0 0 0 7 148 255 156 73 35 16 6 4 30 255 218 108 51 24 10 4 2 13 253 255 131 62 30 14 6 29 255 229 114 55 26 11 4 13 249 255 138 65 30 14 17 206 255 139 65 32 19 65 255 189 96 47 23 10 4 1 0 0 0 0 0 0 0 0 0 0 4 73 255 169 82 39 20 29 255 231 118 60 35 60 255 194 116 78 66 68 85 101 79 60 85 157 255 152 41 49 87 170 255 152 45 56 104 198 255 69 31 51 99 195 160 37 46 95 197 255 55 3 0 0 2 38 255 195 94 45 21 8 3 1 0 1 12 239 255 130 63 30 13 5 2 0 0 0 0 0 0 0 0 0 0 0 0 0 0 0 0 0 0 0 0 0 0 0 0 0 0 0 0 0 0 0 0 0 0 0 0 0 0 0 0 0 0 0 1 2 6 16 33 63 124 245 206 31 32 62 128 255 221 28 31 59 88
0 0 0 0 0 0 0 0 0 4 80 255 174 83 39 17 7 2 1 1 9 190 255 138 65 31 13 5 2 1 0 0 0 0 0 0 0 0 0 0 0 0 0 0 0 0 3 72 255 191 94 45 21 9 16 246 255 136 64 30 15 42 255 206 105 52 25 18 107 255 157 76 37 17 7 2 1 0 0 0 0 0 0 0 0 0 0 0 0 0 0 0 0 0 0 0 0 0 0 0 0 0 0 0 0 0 0 0 0 0 0 0 0 0 0 0 0 0 0 0 0 0 0 0 0 0 0 0 0 0 0 0 0 0 0 0 0 0 0 0 0 1 2 7 19 40 80 159 255 79 18 29 62 130 255 255 20 9 20 43 93 191 255 60 3 0 0 0 0 0 0 0 0 0 0 0 0 0 1 14 255 255 138 66 31 13 5 9 154 255 158 77 37 17 8 43 255 201 100 48 22 11 28 255 224 111 53 25 11 11 140 255 153 74 35 16 6 2 1 0 0 0 0 4 92 255 173 82 38 16 6 2 1 0 0 0 0 0 1 12 255 255 139 68 32 14 5 2 1 0 0 0 0 0 0 0 0 0 0 0 0 0 0 0 0 0 0 0 0 0 0 0 0 1 5 13 28 55 106 205 255 61 35 61 119 227 248 37 34 66 133 255 163 25 30 60 122 241 255 28 19 39 81 168 255 107 5 0 0 0 0 0 0 0 0 0 0 0 0 0 0 0 0 0 0 0 0 0 0 0 0 0 0 0 0 0 0 0 0 0 0 0 0 0 0 0 0 0 0 0 0 0 0 0 0 0 0 0 0 0 0 0 0 0 0 0 0 0 0 0 0 0 0 0 0 0 0 0 0 0 0 0 0 0 0 0 0 0 0 0 0 0 0 0 0 0 0 0 0 0 0 0 0 0 1 2 6 16 37 78 162 255 114 5 0 0 0 0 0 0 0 0 0 0 0 0 0 0 0 0 0 0 0 0 0 3 69 255 184 91 43 19 7 3 13 237 255 132 63 30 12 4 2 6 111 255 160 77 36 16 7 14 240 255 138 67 32 14 5 7 113 255 168 82 39 17 12 92 255 164 82 39 19 35 255 225 115 58 28 12 4 1 0 0 0 0 0 0 0 0 0 0 2 37 255 209 101 48 22 18 134 255 141 71 38 37 218 231 125 73 50 45 52 76 103 97 53 56 96 181 255 90 35 54 102 187 255 86 40 64 123 228 255 38 33 67 130 255 70 32 57 118 233 255 26 1 1 16 255 247 120 56 26 10 4 1 0 0 5 98 255 159 76 36 16 6 2 1 0 0 0 0 0 0 0 0 0 0 0 0 0 0 0 0 0 0 0 0 0 0 0 0 0 0 0 0 0 0 0 0 0 0 0 0 0 0 0 0 0 0 0 0 1 3 8 19 39 76 151 255 99 25 39 79 156 255 116 24 30 36
0 0 0 0 0 0 0 0 2 42 255 213 105 50 22 9 3 1 0 4 81 255 170 82 38 17 6 2 1 0 0 0 0 0 0 0 0 0 0 0 0 0 0 0 0 2 39 255 224 113 55 26 11 9 105 255 164 82 39 18 21 236 252 127 63 31 17 54 255 188 97 47 21 8 3 1 0 0 0 0 0 0 0 0 0 0 0 0 0 0 0 0 0 0 0 0 0 0 0 0 0 0 0 0 0 0 0 0 0 0 0 0 0 0 0 0 0 0 0 0 0 0 0 0 0 0 0 0 0 0 0 0 0 0 0 0 0 0 0 0 0 0 1 3 9 23 49 100 200 255 42 18 38 77 155 255 125 10 10 25 55 115 230 255 31 1 0 0 0 0 0 0 0 0 0 0 0 0 6 138 255 165 81 39 17 6 6 68 255 182 92 45 21 9 21 255 249 124 60 28 12 15 201 255 139 67 31 13 8 68 255 184 92 44 20 8 3 1 0 0 0 0 2 48 255 210 104 49 22 8 3 1 0 0 0 0 0 0 5 112 255 165 81 39 18 7 2 1 0 0 0 0 0 0 0 0 0 0 0 0 0 0 0 0 0 0 0 0 0 0 0 0 0 1 2 6 15 33 65 128 241 255 42 42 76 143 255 117 29 42 83 162 255 74 21 36 74 146 255 146 18 23 48 99 196 255 49 2 0 0 0 0 0 0 0 0 0 0 0 0 0 0 0 0 0 0 0 0 0 0 0 0 0 0 0 0 0 0 0 0 0 0 0 0 0 0 0 0 0 0 0 0 0 0 0 0 0 0 0 0 0 0 0 0 0 0 0 0 0 0 0 0 0 0 0 0 0 0 0 0 0 0 0 0 0 0 0 0 0 0 0 0 0 0 0 0 0 0 0 0 0 0 0 0 0 1 3 8 21 46 96 195 255 56 3 0 0 0 0 0 0 0 0 0 0 0 0 0 0 0 0 0 0 0 2 37 255 221 110 54 25 10 4 6 102 255 161 78 38 16 6 2 3 57 255 197 96 46 20 8 8 100 255 169 82 40 18 7 5 57 255 199 99 49 22 11 47 255 199 99 49 24 21 190 255 139 70 35 15 6 2 1 0 0 0 0 0 0 0 0 0 1 17 255 255 129 61 28 15 63 255 173 86 44 30 109 255 149 81 47 33 33 45 87 130 159 65 40 60 112 209 255 52 36 62 115 205 255 52 42 76 144 255 119 30 48 97 186 237 38 36 69 139 255 231 11 7 136 255 150 72 34 14 5 1 0 0 2 47 255 195 96 45 20 8 3 1 0 0 0 0 0 0 0 0 0 0 0 0 0 0 0 0 0 0 0 0 0 0 0 0 0 0 0 0 0 0 0 0 0 0 0 0 0 0 0 0 0 0 0 0 0 0 1 3 10 23 49 97 189 255 55 26 50 98 194 255 64 17 14
0 0 0 0 0 0 0 1 21 255 255 129 63 30 12 4 1 0 2 39 255 206 103 50 22 8 3 1 0 0 0 0 0 0 0 0 0 0 0 0 0 0 0 0 1 19 255 255 134 66 32 14 8 50 255 194 98 49 23 15 108 255 152 76 38 19 29 255 233 118 60 29 11 4 1 0 0 0 0 0 0 0 0 0 0 0 0 0 0 0 0 0 0 0 0 0 0 0 0 0 0 0 0 0 0 0 0 0 0 0 0 0 0 0 0 0 0 0 0 0 0 0 0 0 0 0 0 0 0 0 0 0 0 0 0 0 0 0 0 0 0 0 0 1 4 12 30 63 128 255 246 24 23 47 92 181 255 56 8 14 33 68 139 255 255 14 1 0 0 0 0 0 0 0 0 0 0 3 63 255 191 96 48 22 9 4 33 255 214 108 54 26 11 12 146 255 152 75 36 16 11 94 255 171 85 41 18 8 36 255 222 112 55 26 10 3 1 0 0 0 0 1 23 255 246 126 63 30 11 4 1 0 0 0 0 0 0 3 55 255 197 98 48 22 9 3 1 0 0 0 0 0 0 0 0 0 0 0 0 0 0 0 0 0 0 0 0 0 0 0 0 0 0 0 1 3 7 19 40 79 150 255 147 38 51 92 173 255 63 30 53 104 201 255 40 23 45 89 178 255 73 16 29 58 117 232 255 22 1 0 0 0 0 0 0 0 0 0 0 0 0 0 0 0 0 0 0 0 0 0 0 0 0 0 0 0 0 0 0 0 0 0 0 0 0 0 0 0 0 0 0 0 0 0 0 0 0 0 0 0 0 0 0 0 0 0 0 0 0 0 0 0 0 0 0 0 0 0 0 0 0 0 0 0 0 0 0 0 0 0 0 0 0 0 0 0 0 0 0 0 0 0 0 0 0 0 1 4 11 27 58 118 232 255 27 1 0 0 0 0 0 0 0 0 0 0 0 0 0 0 0 0 0 1 18 255 255 134 65 31 13 5 4 50 255 198 97 47 22 8 3 2 30 255 236 119 58 27 11 6 48 255 196 101 50 23 9 4 29 255 233 119 59 29 13 24 255 244 124 61 30 18 88 255 165 85 43 20 8 2 1 0 0 0 0 0 0 0 0 0 0 7 151 255 157 77 37 17 32 255 216 110 55 30 59 255 183 98 54 31 21 25 54 150 194 224 155 40 40 70 132 249 182 35 39 70 131 253 162 38 49 91 169 255 70 42 75 132 255 114 28 42 82 168 255 107 74 255 185 91 44 19 7 2 1 0 1 21 255 239 120 58 27 10 3 1 0 0 0 0 0 0 0 0 0 0 0 0 0 0 0 0 0 0 0 0 0 0 0 0 0 0 0 0 0 0 0 0 0 0 0 0 0 0 0 0 0 0 0 0 0 0 0 0 1 4 13 31 63 124 241 255 35 33 63 121 230 255 28 6
0 0 0 0 0 0 0 9 202 255 153 76 38 17 6 2 1 1 16 255 250 125 62 30 12 4 1 0 0 0 0 0 0 0 0 0 0 0 0 0 0 0 0 0 8 175 255 156 78 39 18 8 24 255 233 118 59 30 16 57 255 190 94 47 23 20 168 255 145 73 37 17 6 2 0 0 0 0 0 0 0 0 0 0 0 0 0 0 0 0 0 0 0 0 0 0 0 0 0 0 0 0 0 0 0 0 0 0 0 0 0 0 0 0 0 0 0 0 0 0 0 0 0 0 0 0 0 0 0 0 0 0 0 0 0 0 0 0 0 0 0 0 0 1 2 6 18 41 80 157 255 110 19 28 55 110 221 255 27 8 19 41 81 163 255 124 6 0 0 0 0 0 0 0 0 0 1 30 255 220 112 56 28 12 5 16 255 255 131 64 32 14 9 69 255 181 91 46 21 11 49 255 205 104 53 25 10 19 255 255 135 67 33 14 5 1 0 0 0 0 0 9 202 255 147 73 37 17 6 2 0 0 0 0 0 0 1 27 255 233 118 58 28 12 4 1 0 0 0 0 0 0 0 0 0 0 0 0 0 0 0 0 0 0 0 0 0 0 0 0 0 0 0 0 0 1 3 10 24 49 94 178 255 90 39 61 114 225 255 42 36 67 129 255 216 26 28 56 110 216 255 41 18 35 69 141 255 184 9 0 0 0 0 0 0 0 0 0 0 0 0 0 0 0 0 0 0 0 0 0 0 0 0 0 0 0 0 0 0 0 0 0 0 0 0 0 0 0 0 0 0 0 0 0 0 0 0 0 0 0 0 0 0 0 0 0 0 0 0 0 0 0 0 0 0 0 0 0 0 0 0 0 0 0 0 0 0 0 0 0 0 0 0 0 0 0 0 0 0 0 0 0 0 0 0 0 0 2 5 15 34 69 139 255 225 11 0 0 0 0 0 0 0 0 0 0 0 0 0 0 0 0 0 8 181 255 159 79 39 17 6 3 23 255 236 120 59 28 11 4 2 13 255 255 142 71 35 15 6 23 255 236 118 60 30 12 5 13 230 255 140 70 35 16 14 150 255 148 75 38 19 49 255 200 102 52 26 11 3 1 0 0 0 0 0 0 0 0 0 0 3 65 255 182 92 47 22 19 184 255 136 69 37 38 255 230 120 66 37 20 13 25 130 245 222 215 255 90 32 45 83 155 255 96 29 45 85 162 255 85 36 60 113 227 255 72 67 98 172 255 58 28 49 100 204 255 255 231 112 55 26 10 3 1 0 0 9 196 255 144 71 35 15 5 1 0 0 0 0 0 0 0 0 0 0 0 0 0 0 0 0 0 0 0 0 0 0 0 0 0 0 0 0 0 0 0 0 0 0 0 0 0 0 0 0 0 0 0 0 0 0 0 0 0 1 2 6 19 42 80 151 255 153 30 41 74 140 255 123 9
0 0 0 0 0 0 4 89 255 177 88 45 22 8 2 1 1 6 130 255 149 73 37 17 6 2 0 0 0 0 0 0 0 0 0 0 0 0 0 0 0 0 0 4 75 255 180 90 45 22 10 12 160 255 141 70 35 18 32 255 232 118 58 29 18 85 255 173 88 46 22 8 2 1 0 0 0 0 0 0 0 0 0 0 0 0 0 0 0 0 0 0 0 0 0 0 0 0 0 0 0 0 0 0 0 0 0 0 0 0 0 0 0 0 0 0 0 0 0 0 0 0 0 0 0 0 0 0 0 0 0 0 0 0 0 0 0 0 0 0 0 0 0 0 1 3 9 25 51 96 185 255 57 19 33 66 136 255 208 14 10 23 48 94 186 255 56 3 0 0 0 0 0 0 0 1 13 255 255 132 65 33 15 6 8 126 255 159 77 38 18 9 36 255 216 108 55 27 12 25 255 240 123 62 32 14 12 140 255 159 80 41 19 7 2 1 0 0 0 0 4 89 255 171 84 43 21 8 2 1 0 0 0 0 0 0 11 221 255 139 69 34 15 5 2 0 0 0 0 0 0 0 0 0 0 0 0 0 0 0 0 0 0 0 0 0 0 0 0 0 0 0 0 0 0 0 1 4 13 30 59 111 211 255 62 44 74 143 255 171 35 44 82 162 255 108 23 35 67 133 255 248 24 20 41 83 172 255 80 4 0 0 0 0 0 0 0 0 0 0 0 0 0 0 0 0 0 0 0 0 0 0 0 0 0 0 0 0 0 0 0 0 0 0 0 0 0 0 0 0 0 0 0 0 0 0 0 0 0 0 0 0 0 0 0 0 0 0 0 0 0 0 0 0 0 0 0 0 0 0 0 0 0 0 0 0 0 0 0 0 0 0 0 0 0 0 0 0 0 0 0 0 0 0 0 0 0 1 2 7 19 41 81 163 255 92 5 0 0 0 0 0 0 0 0 0 0 0 0 0 0 0 4 80 255 184 91 46 22 9 3 10 183 255 141 70 35 16 5 2 6 116 255 164 82 42 20 8 11 162 255 144 70 35 17 6 7 92 255 163 81 41 20 12 69 255 174 88 45 24 29 255 247 124 63 32 15 5 1 0 0 0 0 0 0 0 0 0 0 1 29 255 212 107 54 28 17 89 255 165 83 45 33 147 255 144 78 45 24 11 10 66 255 221 184 172 214 255 54 31 53 100 193 255 54 32 57 107 198 255 52 42 75 146 255 255 97 78 117 222 238 33 31 60 126 255 255 142 68 33 14 5 1 0 0 4 91 255 174 85 43 20 7 2 1 0 0 0 0 0 0 0 0 0 0 0 0 0 0 0 0 0 0 0 0 0 0 0 0 0 0 0 0 0 0 0 0 0 0 0 0 0 0 0 0 0 0 0 0 0 0 0 0 0 0 1 3 10 27 52 93 175 255 83 31 46 84 160 255 49
0 0 0 0 0 2 44 255 205 102 51 25 11 4 1 0 3 60 255 178 87 43 21 8 3 1 0 0 0 0 0 0 0 0 0 0 0 0 0 0 0 0 2 35 255 206 104 51 25 11 8 70 255 168 83 41 21 20 193 255 140 71 36 19 50 255 208 105 54 28 12 4 1 0 0 0 0 0 0 0 0 0 0 0 0 0 0 0 0 0 0 0 0 0 0 0 0 0 0 0 0 0 0 0 0 0 0 0 0 0 0 0 0 0 0 0 0 0 0 0 0 0 0 0 0 0 0 0 0 0 0 0 0 0 0 0 0 0 0 0 0 0 0 0 0 1 4 14 31 58 113 227 255 31 20 40 81 167 255 96 9 12 27 54 110 222 255 27 1 0 0 0 0 0 0 6 131 255 161 77 37 18 7 5 58 255 186 93 46 22 10 17 255 255 130 64 32 16 15 169 255 142 71 37 18 11 68 255 186 93 47 23 10 3 1 0 0 0 0 2 46 255 204 100 49 24 11 4 1 0 0 0 0 0 0 5 95 255 162 80 40 19 7 2 1 0 0 0 0 0 0 0 0 0 0 0 0 0 0 0 0 0 0 0 0 0 0 0 0 0 0 0 0 0 0 0 1 2 6 17 37 68 130 248 225 48 51 89 169 255 96 35 53 100 193 255 61 24 41 78 154 255 114 17 24 49 102 206 255 40 2 0 0 0 0 0 0 0 0 0 0 0 0 0 0 0 0 0 0 0 0 0 0 0 0 0 0 0 0 0 0 0 0 0 0 0 0 0 0 0 0 0 0 0 0 0 0 0 0 0 0 0 0 0 0 0 0 0 0 0 0 0 0 0 0 0 0 0 0 0 0 0 0 0 0 0 0 0 0 0 0 0 0 0 0 0 0 0 0 0 0 0 0 0 0 0 0 0 1 3 10 23 47 95 195 255 45 2 0 0 0 0 0 0 0 0 0 0 0 0 0 2 38 255 208 106 53 26 12 4 5 82 255 168 82 41 20 8 2 3 56 255 190 94 47 24 10 7 74 255 170 84 41 20 8 5 43 255 192 95 47 23 12 35 255 209 104 52 27 22 143 255 149 75 39 19 7 2 1 0 0 0 0 0 0 0 0 0 1 11 230 255 128 61 31 17 49 255 202 101 52 33 87 255 177 91 51 30 14 7 31 255 228 162 131 123 147 251 243 36 35 65 124 240 226 37 40 69 127 251 179 42 52 91 168 255 255 88 81 139 255 113 25 36 72 124 131 80 41 19 7 2 1 0 2 47 255 208 103 50 24 10 3 1 0 0 0 0 0 0 0 0 0 0 0 0 0 0 0 0 0 0 0 0 0 0 0 0 0 0 0 0 0 0 0 0 0 0 0 0 0 0 0 0 0 0 0 0 0 0 0 0 0 0 0 0 1 5 16 33 57 106 207 255 53 30 51 103 217 255
0 0 0 0 1 21 255 244 121 59 29 13 5 2 1 1 31 255 222 107 51 24 10 4 1 0 0 0 0 0 0 0 0 0 0 0 0 0 0 0 0 1 14 255 255 123 59 29 13 7 35 255 207 101 49 24 16 87 255 167 83 43 23 31 255 251 127 63 32 16 6 2 0 0 0 0 0 0 0 0 0 0 0 0 0 0 0 0 0 0 0 0 0 0 0 0 0 0 0 0 0 0 0 0 0 0 0 0 0 0 0 0 0 0 0 0 0 0 0 0 0 0 0 0 0 0 0 0 0 0 0 0 0 0 0 0 0 0 0 0 0 0 0 0 0 1 2 7 17 35 68 139 255 158 20 24 49 100 202 255 50 8 14 31 63 135 255 253 11 0 0 0 0 0 3 62 255 192 94 45 21 9 4 27 255 221 110 54 26 12 10 113 255 155 76 38 18 12 80 255 174 83 42 21 11 36 255 218 110 54 27 12 4 1 0 0 0 0 1 22 255 246 122 58 28 12 5 1 0 0 0 0 0 0 2 49 255 199 95 46 22 9 3 1 0 0 0 0 0 0 0 0 0 0 0 0 0 0 0 0 0 0 0 0 0 0 0 0 0 0 0 0 0 0 0 0 0 1 3 9 22 42 79 152 255 140 43 57 104 201 255 61 37 61 118 232 255 37 26 47 92 185 255 58 16 29 60 123 252 255 19 1 0 0 0 0 0 0 0 0 0 0 0 0 0 0 0 0 0 0 0 0 0 0 0 0 0 0 0 0 0 0 0 0 0 0 0 0 0 0 0 0 0 0 0 0 0 0 0 0 0 0 0 0 0 0 0 0 0 0 0 0 0 0 0 0 0 0 0 0 0 0 0 0 0 0 0 0 0 0 0 0 0 0 0 0 0 0 0 0 0 0 0 0 0 0 0 0 0 1 4 12 27 56 118 242 255 21 1 0 0 0 0 0 0 0 0 0 0 0 1 17 255 251 123 60 30 14 5 4 42 255 207 100 48 23 10 3 2 29 255 230 113 54 26 12 6 39 255 211 102 49 24 10 4 20 255 239 116 55 27 13 18 227 255 128 62 31 19 74 255 175 89 45 23 10 3 1 0 0 0 0 0 0 0 0 0 0 5 96 255 157 74 36 18 27 255 246 124 61 34 54 255 213 111 58 33 18 7 14 225 255 157 109 90 87 100 161 255 130 31 43 78 147 255 137 36 47 82 156 255 111 43 57 96 168 251 168 69 91 176 255 60 24 38 52 54 40 23 9 3 1 0 1 21 255 243 123 60 29 13 5 1 0 0 0 0 0 0 0 0 0 0 0 0 0 0 0 0 0 0 0 0 0 0 0 0 0 0 0 0 0 0 0 0 0 0 0 0 0 0 0 0 0 0 0 0 0 0 0 0 0 0 0 0 0 1 2 8 19 35 64 127 254 241 34 33 66 145 255
0 0 0 0 9 202 255 147 70 34 15 6 2 1 1 14 255 255 136 64 30 13 5 1 0 0 0 0 0 0 0 0 0 0 0 0 0 0 0 0 0 6 118 255 153 72 34 15 7 17 255 255 128 61 29 15 45 255 198 101 50 25 22 176 255 151 76 38 18 7 2 1 0 0 0 0 0 0 0 0 0 0 0 0 0 0 0 0 0 0 0 0 0 0 0 0 0 0 0 0 0 0 0 0 0 0 0 0 0 0 0 0 0 0 0 0 0 0 0 0 0 0 0 0 0 0 0 0 0 0 0 0 0 0 0 0 0 0 0 0 0 0 0 0 0 0 1 3 8 20 42 85 170 255 79 17 29 60 122 240 255 25 8 17 37 80 167 255 105 5 0 0 0 1 29 255 223 113 55 26 11 4 12 218 255 134 64 31 14 8 58 255 190 92 45 21 11 42 255 209 106 50 24 11 18 255 255 132 64 31 14 5 2 1 0 0 0 0 9 199 255 147 71 34 15 6 2 1 0 0 0 0 0 1 25 255 244 121 56 26 11 4 1 0 0 0 0 0 0 0 0 0 0 0 0 0 0 0 0 0 0 0 0 0 0 0 0 0 0 0 0 0 0 0 0 0 0 0 1 4 11 25 49 95 183 255 84 40 65 125 243 248 42 39 72 142 255 187 25 28 55 115 228 255 31 17 35 73 152 255 182 8 0 0 0 0 0 0 0 0 0 0 0 0 0 0 0 0 0 0 0 0 0 0 0 0 0 0 0 0 0 0 0 0 0 0 0 0 0 0 0 0 0 0 0 0 0 0 0 0 0 0 0 0 0 0 0 0 0 0 0 0 0 0 0 0 0 0 0 0 0 0 0 0 0 0 0 0 0 0 0 0 0 0 0 0 0 0 0 0 0 0 0 0 0 0 0 0 0 1 2 5 14 33 70 147 255 197 9 0 0 0 0 0 0 0 0 0 0 0 7 159 255 152 71 34 16 6 3 20 255 252 126 60 28 12 4 2 12 249 255 139 66 31 14 6 19 255 255 130 61 29 13 5 9 155 255 146 69 32 15 11 102 255 157 77 37 19 42 255 216 107 53 27 12 4 1 0 0 0 0 0 0 0 0 0 0 2 48 255 196 94 44 20 16 131 255 148 74 39 37 221 252 132 69 38 20 9 8 100 255 169 101 74 64 63 69 103 185 255 75 32 51 94 188 255 93 36 55 102 197 255 76 38 55 94 158 234 95 66 116 228 255 33 18 21 21 18 11 4 1 0 0 9 185 255 144 71 35 16 6 2 1 0 0 0 0 0 0 0 0 0 0 0 0 0 0 0 0 0 0 0 0 0 0 0 0 0 0 0 0 0 0 0 0 0 0 0 0 0 0 0 0 0 0 0 0 0 0 0 0 0 0 0 0 0 0 1 3 10 21 40 78 157 255 122 28 45 94 172
0 0 0 4 88 255 179 87 41 18 7 2 1 1 6 140 255 165 81 39 17 6 2 1 0 0 0 0 0 0 0 0 0 0 0 0 0 0 0 0 3 53 255 186 92 43 19 8 9 132 255 161 78 37 17 25 255 249 123 61 30 19 89 255 180 91 46 22 9 3 1 0 0 0 0 0 0 0 0 0 0 0 0 0 0 0 0 0 0 0 0 0 0 0 0 0 0 0 0 0 0 0 0 0 0 0 0 0 0 0 0 0 0 0 0 0 0 0 0 0 0 0 0 0 0 0 0 0 0 0 0 0 0 0 0 0 0 0 0 0 0 0 0 0 0 0 0 1 4 11 25 53 106 212 255 44 18 36 72 144 255 175 12 9 21 48 99 196 255 50 2 0 1 12 255 255 134 66 32 14 5 6 96 255 166 80 38 17 8 32 255 234 117 56 26 12 21 255 255 128 63 30 13 11 109 255 160 78 38 17 7 2 1 0 0 0 0 4 87 255 174 86 42 19 7 2 1 0 0 0 0 0 0 12 255 255 147 72 34 14 5 2 1 0 0 0 0 0 0 0 0 0 0 0 0 0 0 0 0 0 0 0 0 0 0 0 0 0 0 0 0 0 0 0 0 0 0 0 0 2 5 14 30 61 116 213 255 52 43 78 151 255 132 33 45 87 172 255 91 21 34 70 141 255 193 19 20 43 90 183 255 82 4 0 0 0 0 0 0 0 0 0 0 0 0 0 0 0 0 0 0 0 0 0 0 0 0 0 0 0 0 0 0 0 0 0 0 0 0 0 0 0 0 0 0 0 0 0 0 0 0 0 0 0 0 0 0 0 0 0 0 0 0 0 0 0 0 0 0 0 0 0 0 0 0 0 0 0 0 0 0 0 0 0 0 0 0 0 0 0 0 0 0 0 0 0 0 0 0 0 1 2 7 18 42 87 177 255 88 4 0 0 0 0 0 0 0 0 0 3 71 255 183 91 43 19 7 3 9 162 255 150 75 36 15 5 2 6 103 255 165 82 39 17 7 10 142 255 155 78 37 16 6 6 72 255 179 88 42 18 10 53 255 196 96 47 23 24 236 255 135 66 32 15 6 2 1 0 0 0 0 0 0 0 0 0 1 24 255 243 121 57 26 14 61 255 176 89 46 31 113 255 154 81 44 24 11 6 50 255 200 106 67 53 48 49 51 68 117 222 255 51 35 62 120 225 255 65 41 68 127 236 255 45 32 53 99 174 181 65 78 145 255 137 15 8 7 7 4 2 1 0 4 80 255 175 84 41 19 8 2 1 0 0 0 0 0 0 0 0 0 0 0 0 0 0 0 0 0 0 0 0 0 0 0 0 0 0 0 0 0 0 0 0 0 0 0 0 0 0 0 0 0 0 0 0 0 0 0 0 0 0 0 0 0 0 0 0 1 4 11 24 49 97 185 255 73 35 57 77
0 0 2 41 255 207 107 52 24 9 3 1 0 3 67 255 196 98 49 23 8 3 1 0 0 0 0 0 0 0 0 0 0 0 0 0 0 0 0 1 24 255 228 114 56 26 10 7 66 255 193 98 49 23 17 142 255 154 76 38 20 48 255 209 109 56 28 12 4 1 0 0 0 0 0 0 0 0 0 0 0 0 0 0 0 0 0 0 0 0 0 0 0 0 0 0 0 0 0 0 0 0 0 0 0 0 0 0 0 0 0 0 0 0 0 0 0 0 0 0 0 0 0 0 0 0 0 0 0 0 0 0 0 0 0 0 0 0 0 0 0 0 0 0 0 0 0 0 2 5 14 33 67 133 255 255 26 22 44 86 174 255 80 8 12 28 59 118 238 255 25 1 6 117 255 164 80 39 18 7 4 49 255 203 101 49 23 9 17 255 255 143 71 35 15 13 131 255 155 77 38 18 9 52 255 190 96 47 22 9 3 1 0 0 0 0 2 44 255 208 104 51 24 10 3 1 0 0 0 0 0 0 5 115 255 174 87 43 19 7 2 1 0 0 0 0 0 0 0 0 0 0 0 0 0 0 0 0 0 0 0 0 0 0 0 0 0 0 0 0 0 0 0 0 0 0 0 0 0 1 2 7 18 39 74 136 255 154 39 51 95 178 255 71 33 55 106 202 255 50 23 44 87 173 255 89 16 26 54 109 212 255 40 2 0 0 0 0 0 0 0 0 0 0 0 0 0 0 0 0 0 0 0 0 0 0 0 0 0 0 0 0 0 0 0 0 0 0 0 0 0 0 0 0 0 0 0 0 0 0 0 0 0 0 0 0 0 0 0 0 0 0 0 0 0 0 0 0 0 0 0 0 0 0 0 0 0 0 0 0 0 0 0 0 0 0 0 0 0 0 0 0 0 0 0 0 0 0 0 0 0 1 3 9 25 53 106 210 255 45 2 0 0 0 0 0 0 0 2 35 255 215 110 54 25 10 3 5 75 255 180 89 45 21 8 2 3 50 255 196 98 49 23 9 6 65 255 183 92 47 22 8 4 38 255 218 109 54 25 11 28 255 240 122 60 29 19 113 255 159 82 42 19 7 2 1 0 0 0 0 0 0 0 0 0 0 10 202 255 148 73 35 16 33 255 219 110 55 32 63 255 186 97 52 28 13 6 24 255 240 123 67 45 40 39 41 41 47 75 140 255 231 40 44 76 138 253 255 54 49 82 148 255 132 26 32 64 123 225 110 61 93 170 255 51 5 2 2 1 1 0 2 38 255 209 106 51 24 10 3 1 0 0 0 0 0 0 0 0 0 0 0 0 0 0 0 0 0 0 0 0 0 0 0 0 0 0 0 0 0 0 0 0 0 0 0 0 0 0 0 0 0 0 0 0 0 0 0 0 0 0 0 0 0 0 0 0 0 1 2 5 14 31 61 118 230 255 56 34 33
0 1 17 255 246 125 63 31 13 4 1 0 2 32 255 224 116 59 29 12 4 1 0 0 0 0 0 0 0 0 0 0 0 0 0 0 0 0 0 9 193 255 141 69 34 14 6 36 255 228 117 60 30 17 71 255 184 95 48 24 29 255 249 129 66 34 16 6 2 1 0 0 0 0 0 0 0 0 0 0 0 0 0 0 0 0 0 0 0 0 0 0 0 0 0 0 0 0 0 0 0 0 0 0 0 0 0 0 0 0 0 0 0 0 0 0 0 0 0 0 0 0 0 0 0 0 0 0 0 0 0 0 0 0 0 0 0 0 0 0 0 0 0 0 0 0 0 0 1 2 7 20 43 82 157 255 126 19 27 53 107 211 255 42 8 16 36 71 146 255 232 14 58 255 198 99 49 23 9 4 26 255 245 124 62 30 13 11 122 255 169 86 44 21 11 64 255 185 94 48 23 10 27 255 233 117 59 29 12 4 1 0 0 0 0 1 21 255 250 127 63 31 13 4 1 0 0 0 0 0 0 3 57 255 200 103 52 25 10 3 1 0 0 0 0 0 0 0 0 0 0 0 0 0 0 0 0 0 0 0 0 0 0 0 0 0 0 0 0 0 0 0 0 0 0 0 0 0 0 0 1 3 9 25 49 88 162 255 89 39 62 115 217 255 46 37 66 127 248 255 33 29 55 107 203 255 46 17 33 65 128 254 255 19 1 0 0 0 0 0 0 0 0 0 0 0 0 0 0 0 0 0 0 0 0 0 0 0 0 0 0 0 0 0 0 0 0 0 0 0 0 0 0 0 0 0 0 0 0 0 0 0 0 0 0 0 0 0 0 0 0 0 0 0 0 0 0 0 0 0 0 0 0 0 0 0 0 0 0 0 0 0 0 0 0 0 0 0 0 0 0 0 0 0 0 0 0 0 0 0 0 0 1 4 13 32 63 127 249 255 21 1 0 0 0 0 0 1 16 255 255 131 65 33 14 5 3 39 255 217 109 54 27 11 4 2 24 255 238 120 59 29 12 6 32 255 219 112 56 28 12 4 18 255 255 134 67 33 15 16 216 255 147 75 38 20 62 255 192 98 51 26 10 3 1 0 0 0 0 0 0 0 0 0 0 4 82 255 171 87 45 22 20 217 255 139 69 37 41 255 231 120 63 33 16 7 11 176 255 146 75 44 32 31 33 37 34 34 51 89 166 255 139 40 50 85 156 255 208 49 55 93 165 255 59 22 45 94 169 232 73 64 109 209 255 17 2 1 0 0 1 16 255 253 127 64 31 13 4 1 0 0 0 0 0 0 0 0 0 0 0 0 0 0 0 0 0 0 0 0 0 0 0 0 0 0 0 0 0 0 0 0 0 0 0 0 0 0 0 0 0 0 0 0 0 0 0 0 0 0 0 0 0 0 0 0 0 0 0 1 2 7 18 40 76 145 255 250 33 15
0 7 140 255 149 74 38 18 6 2 1 1 14 255 255 134 69 36 16 6 2 0 0 0 0 0 0 0 0 0 0 0 0 0 0 0 0 0 4 78 255 168 85 43 20 8 19 255 255 139 70 37 20 41 255 219 113 60 32 23 150 255 152 78 41 21 8 2 1 0 0 0 0 0 0 0 0 0 0 0 0 0 0 0 0 0 0 0 0 0 0 0 0 0 0 0 0 0 0 0 0 0 0 0 0 0 0 0 0 0 0 0 0 0 0 0 0 0 0 0 0 0 0 0 0 0 0 0 0 0 0 0 0 0 0 0 0 0 0 0 0 0 0 0 0 0 0 0 0 1 3 11 27 52 96 184 255 65 19 33 66 130 255 255 22 9 21 44 87 172 255 207 255 233 119 60 30 12 5 13 242 255 149 75 39 18 9 59 255 193 101 53 27 13 35 255 225 114 58 30 13 15 207 255 145 72 36 17 6 2 0 0 0 0 0 9 198 255 151 76 38 17 6 2 1 0 0 0 0 0 1 30 255 235 119 61 31 14 5 1 0 0 0 0 0 0 0 0 0 0 0 0 0 0 0 0 0 0 0 0 0 0 0 0 0 0 0 0 0 0 0 0 0 0 0 0 0 0 0 0 0 1 4 14 32 59 109 206 255 60 44 75 140 255 191 37 44 79 154 255 167 27 36 66 126 247 255 26 20 39 76 154 255 173 8 0 0 0 0 0 0 0 0 0 0 0 0 0 0 0 0 0 0 0 0 0 0 0 0 0 0 0 0 0 0 0 0 0 0 0 0 0 0 0 0 0 0 0 0 0 0 0 0 0 0 0 0 0 0 0 0 0 0 0 0 0 0 0 0 0 0 0 0 0 0 0 0 0 0 0 0 0 0 0 0 0 0 0 0 0 0 0 0 0 0 0 0 0 0 0 0 0 1 2 6 18 39 75 150 255 199 9 0 0 0 0 0 7 160 255 161 79 40 19 7 3 18 255 255 133 66 33 15 5 2 10 200 255 146 72 36 16 6 16 255 255 135 68 34 16 6 9 150 255 158 80 41 20 13 102 255 175 89 47 25 38 255 234 121 62 32 15 5 1 0 0 0 0 0 0 0 0 0 0 2 39 255 203 102 53 27 18 103 255 171 87 46 34 158 255 147 78 42 21 8 7 77 255 173 88 47 30 22 23 27 35 29 25 35 58 104 192 255 99 38 54 97 181 255 136 46 61 110 212 255 33 36 77 128 224 156 57 72 136 255 92 5 0 0 0 6 129 255 153 76 39 18 6 2 1 0 0 0 0 0 0 0 0 0 0 0 0 0 0 0 0 0 0 0 0 0 0 0 0 0 0 0 0 0 0 0 0 0 0 0 0 0 0 0 0 0 0 0 0 0 0 0 0 0 0 0 0 0 0 0 0 0 0 0 0 1 3 10 25 50 90 165 255 102 11
3 64 255 181 90 45 22 9 3 1 0 6 121 255 161 79 41 21 8 3 1 0 0 0 0 0 0 0 0 0 0 0 0 0 0 0 0 2 36 255 202 102 52 26 11 11 155 255 163 83 43 23 26 255 255 135 70 38 24 85 255 187 94 49 25 11 4 1 0 0 0 0 0 0 0 0 0 0 0 0 0 0 0 0 0 0 0 0 0 0 0 0 0 0 0 0 0 0 0 0 0 0 0 0 0 0 0 0 0 0 0 0 0 0 0 0 0 0 0 0 0 0 0 0 0 0 0 0 0 0 0 0 0 0 0 0 0 0 0 0 0 0 0 0 0 0 0 0 0 0 1 5 16 33 60 114 223 255 38 22 41 79 156 255 175 12 11 27 53 104 221 255 255 144 71 37 17 6 7 108 255 175 88 46 23 11 31 255 226 116 60 32 16 21 255 255 139 70 36 17 12 103 255 175 89 45 22 8 3 1 0 0 0 0 4 87 255 178 89 46 23 9 3 1 0 0 0 0 0 1 14 255 255 143 71 36 18 7 2 1 0 0 0 0 0 0 0 0 0 0 0 0 0 0 0 0 0 0 0 0 0 0 0 0 0 0 0 0 0 0 0 0 0 0 0 0 0 0 0 0 0 1 2 7 20 42 74 136 255 221 47 52 91 173 255 113 35 52 96 186 255 95 28 42 77 151 255 137 18 23 46 92 182 255 76 4 0 0 0 0 0 0 0 0 0 0 0 0 0 0 0 0 0 0 0 0 0 0 0 0 0 0 0 0 0 0 0 0 0 0 0 0 0 0 0 0 0 0 0 0 0 0 0 0 0 0 0 0 0 0 0 0 0 0 0 0 0 0 0 0 0 0 0 0 0 0 0 0 0 0 0 0 0 0 0 0 0 0 0 0 0 0 0 0 0 0 0 0 0 0 0 0 0 1 3 9 23 46 89 177 255 88 4 0 0 0 4 76 255 191 96 48 24 9 3 9 165 255 155 79 41 20 7 2 5 83 255 172 87 44 22 8 9 132 255 165 82 42 20 8 6 71 255 188 94 49 25 13 55 255 204 105 55 30 28 215 255 144 75 40 19 7 2 1 0 0 0 0 0 0 0 0 0 1 16 255 250 125 62 32 18 56 255 200 105 56 36 95 255 176 94 52 28 12 6 38 255 208 105 54 30 19 13 15 21 32 24 18 24 38 65 120 224 255 66 38 61 111 197 255 86 47 75 142 255 153 42 72 101 156 255 94 55 90 172 255 37 2 0 3 58 255 184 92 47 23 9 3 1 0 0 0 0 0 0 0 0 0 0 0 0 0 0 0 0 0 0 0 0 0 0 0 0 0 0 0 0 0 0 0 0 0 0 0 0 0 0 0 0 0 0 0 0 0 0 0 0 0 0 0 0 0 0 0 0 0 0 0 0 0 0 1 5 14 33 57 99 177 255 38
34 255 221 111 55 27 12 4 1 0 3 56 255 189 96 48 24 11 4 1 0 0 0 0 0 0 0 0 0 0 0 0 0 0 0 0 1 16 255 255 125 62 32 15 9 77 255 189 96 50 27 20 127 255 160 82 44 26 55 255 219 115 59 31 14 5 2 0 0 0 0 0 0 0 0 0 0 0 0 0 0 0 0 0 0 0 0 0 0 0 0 0 0 0 0 0 0 0 0 0 0 0 0 0 0 0 0 0 0 0 0 0 0 0 0 0 0 0 0 0 0 0 0 0 0 0 0 0 0 0 0 0 0 0 0 0 0 0 0 0 0 0 0 0 0 0 0 0 0 0 1 2 8 19 38 70 139 255 237 26 26 48 93 183 255 81 10 15 32 64 127 215 171 89 44 21 9 5 53 255 201 103 53 28 13 18 253 255 139 69 36 19 15 131 255 164 83 44 22 12 56 255 208 106 55 28 12 4 1 0 0 0 0 2 43 255 207 106 54 27 12 4 1 0 0 0 0 0 0 7 145 255 168 84 43 21 9 3 1 0 0 0 0 0 0 0 0 0 0 0 0 0 0 0 0 0 0 0 0 0 0 0 0 0 0 0 0 0 0 0 0 0 0 0 0 0 0 0 0 0 0 0 1 3 11 30 53 89 159 255 134 45 62 110 202 255 72 38 61 113 212 255 61 29 49 93 185 255 71 17 28 55 108 212 255 37 2 0 0 0 0 0 0 0 0 0 0 0 0 0 0 0 0 0 0 0 0 0 0 0 0 0 0 0 0 0 0 0 0 0 0 0 0 0 0 0 0 0 0 0 0 0 0 0 0 0 0 0 0 0 0 0 0 0 0 0 0 0 0 0 0 0 0 0 0 0 0 0 0 0 0 0 0 0 0 0 0 0 0 0 0 0 0 0 0 0 0 0 0 0 0 0 0 0 1 4 12 27 53 105 208 255 44 2 0 2 38 255 219 113 58 30 13 4 5 80 255 185 92 48 24 10 3 3 41 255 203 103 53 27 12 7 67 255 195 99 51 25 11 5 35 255 218 113 57 30 15 30 255 239 123 63 35 24 114 255 167 87 47 25 10 3 1 0 0 0 0 0 0 0 0 0 0 6 126 255 150 75 38 20 32 255 237 122 65 39 65 255 212 112 61 36 18 7 18 255 255 128 64 33 18 10 6 8 14 25 17 11 15 25 42 74 138 245 252 46 41 68 121 216 255 62 56 97 182 255 174 91 87 114 193 238 67 64 115 238 255 13 2 26 255 221 112 56 28 12 4 1 0 0 0 0 0 0 0 0 0 0 0 0 0 0 0 0 0 0 0 0 0 0 0 0 0 0 0 0 0 0 0 0 0 0 0 0 0 0 0 0 0 0 0 0 0 0 0 0 0 0 0 0 0 0 0 0 0 0 0 0 0 0 0 1 2 7 20 36 60 115 231 224
255 255 136 67 34 15 5 2 1 1 27 255 228 114 57 29 13 5 1 0 0 0 0 0 0 0 0 0 0 0 0 0 0 0 0 0 7 140 255 155 76 38 18 9 41 255 220 113 57 30 19 68 255 189 97 51 29 37 255 255 134 70 38 18 7 2 1 0 0 0 0 0 0 0 0 0 0 0 0 0 0 0 0 0 0 0 0 0 0 0 0 0 0 0 0 0 0 0 0 0 0 0 0 0 0 0 0 0 0 0 0 0 0 0 0 0 0 0 0 0 0 0 0 0 0 0 0 0 0 0 0 0 0 0 0 0 0 0 0 0 0 0 0 0 0 0 0 0 0 0 0 1 3 10 23 45 86 169 255 131 22 30 56 109 211 255 42 10 18 39 67 92 80 52 27 11 5 26 255 235 120 61 32 16 12 119 255 170 84 42 21 13 68 255 194 98 51 27 13 31 255 240 125 64 34 16 6 2 0 0 0 0 1 21 255 250 125 63 32 15 6 2 0 0 0 0 0 0 3 71 255 193 98 50 25 11 4 1 0 0 0 0 0 0 0 0 0 0 0 0 0 0 0 0 0 0 0 0 0 0 0 0 0 0 0 0 0 0 0 0 0 0 0 0 0 0 0 0 0 0 0 0 0 2 6 19 38 60 102 187 255 90 47 70 126 235 255 52 41 69 129 248 255 42 33 59 115 222 255 40 18 33 64 128 255 255 15 1 0 0 0 0 0 0 0 0 0 0 0 0 0 0 0 0 0 0 0 0 0 0 0 0 0 0 0 0 0 0 0 0 0 0 0 0 0 0 0 0 0 0 0 0 0 0 0 0 0 0 0 0 0 0 0 0 0 0 0 0 0 0 0 0 0 0 0 0 0 0 0 0 0 0 0 0 0 0 0 0 0 0 0 0 0 0 0 0 0 0 0 0 0 0 0 0 0 2 6 15 32 63 126 247 255 19 2 16 255 255 131 66 35 17 6 4 43 255 219 111 55 28 13 5 2 19 255 252 125 62 32 15 7 36 255 228 117 60 31 14 6 16 255 255 131 67 35 17 18 195 255 145 73 39 24 66 255 198 102 54 29 14 5 1 0 0 0 0 0 0 0 0 0 0 3 58 255 183 91 46 23 20 170 255 145 74 42 47 255 250 133 71 41 23 10 10 144 255 156 77 40 20 9 4 3 3 7 15 9 5 7 14 27 47 83 151 255 157 36 43 74 137 255 194 60 69 118 232 255 242 102 90 137 246 172 59 77 148 255 105 16 205 255 136 67 34 16 6 2 1 0 0 0 0 0 0 0 0 0 0 0 0 0 0 0 0 0 0 0 0 0 0 0 0 0 0 0 0 0 0 0 0 0 0 0 0 0 0 0 0 0 0 0 0 0 0 0 0 0 0 0 0 0 0 0 0 0 0 0 0 0 0 0 0 1 3 11 22 38 75 155 255
255 173 83 42 20 8 2 1 1 12 255 255 141 69 35 16 6 2 1 0 0 0 0 0 0 0 0 0 0 0 0 0 0 0 0 3 64 255 189 95 47 23 10 21 255 255 133 67 35 19 40 255 226 116 60 33 28 174 255 156 81 44 23 10 3 1 0 0 0 0 0 0 0 0 0 0 0 0 0 0 0 0 0 0 0 0 0 0 0 0 0 0 0 0 0 0 0 0 0 0 0 0 0 0 0 0 0 0 0 0 0 0 0 0 0 0 0 0 0 0 0 0 0 0 0 0 0 0 0 0 0 0 0 0 0 0 0 0 0 0 0 0 0 0 0 0 0 0 0 0 0 0 1 4 13 28 54 104 200 255 74 21 35 65 129 255 255 22 10 21 32 38 35 27 14 6 13 230 255 143 71 37 18 11 61 255 199 103 52 26 13 37 255 226 118 60 32 16 18 233 255 144 74 40 20 8 2 1 0 0 0 0 9 208 255 153 75 38 18 7 2 1 0 0 0 0 0 2 38 255 226 115 58 30 14 5 2 0 0 0 0 0 0 0 0 0 0 0 0 0 0 0 0 0 0 0 0 0 0 0 0 0 0 0 0 0 0 0 0 0 0 0 0 0 0 0 0 0 0 0 0 0 0 1 3 11 26 42 67 120 221 255 66 49 79 147 255 204 40 44 79 153 255 196 33 38 71 137 255 255 25 20 39 76 154 255 126 6 0 0 0 0 0 0 0 0 0 0 0 0 0 0 0 0 0 0 0 0 0 0 0 0 0 0 0 0 0 0 0 0 0 0 0 0 0 0 0 0 0 0 0 0 0 0 0 0 0 0 0 0 0 0 0 0 0 0 0 0 0 0 0 0 0 0 0 0 0 0 0 0 0 0 0 0 0 0 0 0 0 0 0 0 0 0 0 0 0 0 0 0 0 0 0 0 0 1 2 7 18 38 75 149 255 176 15 144 255 155 77 40 20 8 4 23 255 255 133 67 34 16 6 2 8 163 255 155 76 38 18 8 18 255 255 138 70 37 18 7 9 124 255 161 79 40 21 14 94 255 171 87 45 25 41 255 233 122 63 34 17 7 2 1 0 0 0 0 0 0 0 0 0 1 29 255 227 114 56 28 18 86 255 174 89 47 37 153 255 154 84 47 27 13 8 73 255 187 94 48 24 10 4 2 1 1 3 6 4 2 3 7 15 29 52 95 181 255 92 32 48 89 168 255 150 61 79 136 226 255 199 92 102 170 255 111 61 97 193 255 255 255 167 82 42 20 8 2 1 0 0 0 0 0 0 0 0 0 0 0 0 0 0 0 0 0 0 0 0 0 0 0 0 0 0 0 0 0 0 0 0 0 0 0 0 0 0 0 0 0 0 0 0 0 0 0 0 0 0 0 0 0 0 0 0 0 0 0 0 0 0 0 0 0 0 1 5 12 25 53 110 209
187 105 53 26 10 3 1 1 6 122 255 172 86 43 20 8 3 1 0 0 0 0 0 0 0 0 0 0 0 0 0 0 0 0 1 30 255 223 116 59 30 13 12 144 255 156 80 41 22 25 255 255 142 72 38 26 100 255 179 95 51 27 13 4 1 0 0 0 0 0 0 0 0 0 0 0 0 0 0 0 0 0 0 0 0 0 0 0 0 0 0 0 0 0 0 0 0 0 0 0 0 0 0 0 0 0 0 0 0 0 0 0 0 0 0 0 0 0 0 0 0 0 0 0 0 0 0 0 0 0 0 0 0 0 0 0 0 0 0 0 0 0 0 0 0 0 0 0 0 0 0 0 1 2 6 17 35 65 123 228 255 45 23 41 78 157 255 166 13 10 14 14 14 12 7 8 109 255 176 87 44 22 11 32 255 232 121 63 33 16 22 255 255 139 72 38 19 14 113 255 175 87 46 24 10 3 1 0 0 0 0 4 92 255 181 92 47 23 9 3 1 0 0 0 0 0 1 18 255 255 138 69 35 17 7 2 1 0 0 0 0 0 0 0 0 0 0 0 0 0 0 0 0 0 0 0 0 0 0 0 0 0 0 0 0 0 0 0 0 0 0 0 0 0 0 0 0 0 0 0 0 0 0 0 1 5 16 29 47 79 143 255 210 50 54 94 174 255 116 35 51 94 178 255 119 32 46 85 166 255 147 18 24 47 95 190 255 61 3 0 0 0 0 0 0 0 0 0 0 0 0 0 0 0 0 0 0 0 0 0 0 0 0 0 0 0 0 0 0 0 0 0 0 0 0 0 0 0 0 0 0 0 0 0 0 0 0 0 0 0 0 0 0 0 0 0 0 0 0 0 0 0 0 0 0 0 0 0 0 0 0 0 0 0 0 0 0 0 0 0 0 0 0 0 0 0 0 0 0 0 0 0 0 0 0 0 1 3 9 22 46 90 184 255 255 255 190 94 47 23 10 4 10 190 255 157 79 41 20 8 3 4 72 255 182 94 48 23 10 10 146 255 163 82 43 22 9 6 61 255 190 98 49 24 14 51 255 207 106 54 29 28 225 255 145 76 40 20 8 3 1 0 0 0 0 0 0 0 0 0 1 13 255 255 141 70 36 19 51 255 213 109 56 35 87 255 177 96 54 32 17 8 43 255 227 115 59 30 13 5 2 1 0 0 1 2 1 1 1 3 7 17 33 63 118 214 255 57 35 61 112 201 255 108 59 79 124 185 245 149 90 120 200 255 80 68 127 255 255 231 107 52 25 10 3 1 0 0 0 0 0 0 0 0 0 0 0 0 0 0 0 0 0 0 0 0 0 0 0 0 0 0 0 0 0 0 0 0 0 0 0 0 0 0 0 0 0 0 0 0 0 0 0 0 0 0 0 0 0 0 0 0 0 0 0 0 0 0 0 0 0 0 0 1 2 5 16 40 74 100
85 61 34 15 5 1 1 3 62 255 204 105 54 27 11 4 1 0 0 0 0 0 0 0 0 0 0 0 0 0 0 0 0 1 12 246 255 138 71 38 18 10 70 255 188 96 50 26 20 143 255 172 89 47 28 64 255 214 112 60 33 15 6 2 1 0 0 0 0 0 0 0 0 0 0 0 0 0 0 0 0 0 0 0 0 0 0 0 0 0 0 0 0 0 0 0 0 0 0 0 0 0 0 0 0 0 0 0 0 0 0 0 0 0 0 0 0 0 0 0 0 0 0 0 0 0 0 0 0 0 0 0 0 0 0 0 0 0 0 0 0 0 0 0 0 0 0 0 0 0 0 0 0 1 3 8 21 42 76 142 255 255 29 26 50 97 191 255 79 8 5 5 5 4 5 56 255 209 108 55 28 12 17 242 255 144 74 40 20 16 151 255 169 86 45 23 13 61 255 205 108 55 28 13 5 1 0 0 0 0 2 46 255 211 110 57 29 12 4 1 0 0 0 0 0 0 7 151 255 161 83 43 21 8 3 1 0 0 0 0 0 0 0 0 0 0 0 0 0 0 0 0 0 0 0 0 0 0 0 0 0 0 0 0 0 0 0 0 0 0 0 0 0 0 0 0 0 0 0 0 0 0 0 0 1 2 8 18 34 55 93 165 255 129 47 63 111 200 255 72 37 61 112 210 255 77 34 56 103 197 255 78 18 30 60 119 233 255 31 1 0 0 0 0 0 0 0 0 0 0 0 0 0 0 0 0 0 0 0 0 0 0 0 0 0 0 0 0 0 0 0 0 0 0 0 0 0 0 0 0 0 0 0 0 0 0 0 0 0 0 0 0 0 0 0 0 0 0 0 0 0 0 0 0 0 0 0 0 0 0 0 0 0 0 0 0 0 0 0 0 0 0 0 0 0 0 0 0 0 0 0 0 0 0 0 0 0 1 4 12 28 58 117 246 255 255 122 59 29 13 5 6 86 255 180 94 50 25 11 4 3 36 255 217 112 59 30 13 8 73 255 196 100 52 27 12 6 33 255 233 118 61 31 15 29 255 250 130 67 35 25 125 255 176 92 49 26 11 4 1 0 0 0 0 0 0 0 0 0 0 6 132 255 172 87 46 23 32 255 255 135 70 40 58 255 213 115 63 37 20 10 24 255 255 140 72 38 17 6 2 1 0 0 0 0 0 0 0 0 1 3 8 20 44 78 139 255 254 44 46 76 130 217 255 73 48 69 114 181 230 115 93 136 235 202 68 85 150 202 132 70 34 14 5 1 0 0 0 0 0 0 0 0 0 0 0 0 0 0 0 0 0 0 0 0 0 0 0 0 0 0 0 0 0 0 0 0 0 0 0 0 0 0 0 0 0 0 0 0 0 0 0 0 0 0 0 0 0 0 0 0 0 0 0 0 0 0 0 0 0 0 0 0 0 1 3 9 30 48 47
37 33 20 7 2 1 2 33 255 240 126 67 36 16 5 2 0 0 0 0 0 0 0 0 0 0 0 0 0 0 0 0 0 5 109 255 167 86 47 24 11 37 255 226 119 62 33 20 84 255 202 109 60 34 45 255 253 138 74 40 20 8 3 1 0 0 0 0 0 0 0 0 0 0 0 0 0 0 0 0 0 0 0 0 0 0 0 0 0 0 0 0 0 0 0 0 0 0 0 0 0 0 0 0 0 0 0 0 0 0 0 0 0 0 0 0 0 0 0 0 0 0 0 0 0 0 0 0 0 0 0 0 0 0 0 0 0 0 0 0 0 0 0 0 0 0 0 0 0 0 0 0 0 0 1 4 12 28 50 90 170 255 154 25 34 64 119 222 255 39 3 2 2 3 27 255 243 130 69 37 17 12 119 255 175 91 49 25 15 88 255 202 107 57 30 15 35 255 242 128 69 37 17 6 2 1 0 0 0 1 22 255 253 132 69 37 17 6 2 1 0 0 0 0 0 3 66 255 189 98 53 27 11 4 1 0 0 0 0 0 0 0 0 0 0 0 0 0 0 0 0 0 0 0 0 0 0 0 0 0 0 0 0 0 0 0 0 0 0 0 0 0 0 0 0 0 0 0 0 0 0 0 0 0 0 1 3 10 24 41 66 111 195 255 94 51 75 132 240 255 54 44 74 134 241 255 55 41 68 124 228 255 47 21 40 76 147 255 255 13 1 0 0 0 0 0 0 0 0 0 0 0 0 0 0 0 0 0 0 0 0 0 0 0 0 0 0 0 0 0 0 0 0 0 0 0 0 0 0 0 0 0 0 0 0 0 0 0 0 0 0 0 0 0 0 0 0 0 0 0 0 0 0 0 0 0 0 0 0 0 0 0 0 0 0 0 0 0 0 0 0 0 0 0 0 0 0 0 0 0 0 0 0 0 0 0 0 1 2 6 17 39 76 137 198 142 79 40 18 6 4 46 255 216 111 59 32 14 5 2 18 255 255 138 71 38 18 8 39 255 229 122 64 34 15 6 17 255 255 149 76 40 20 19 214 255 157 83 45 27 79 255 208 113 62 33 15 5 2 0 0 0 0 0 0 0 0 0 0 3 66 255 206 107 57 31 25 195 255 163 88 50 47 255 255 143 78 45 25 12 14 200 255 166 87 47 24 9 3 1 0 0 0 0 0 0 0 0 0 0 1 4 12 32 56 93 165 255 196 49 57 87 143 241 187 43 42 74 128 202 194 96 101 162 255 134 65 77 90 71 46 22 7 2 1 0 0 0 0 0 0 0 0 0 0 0 0 0 0 0 0 0 0 0 0 0 0 0 0 0 0 0 0 0 0 0 0 0 0 0 0 0 0 0 0 0 0 0 0 0 0 0 0 0 0 0 0 0 0 0 0 0 0 0 0 0 0 0 0 0 0 0 0 0 0 1 5 19 29 22
16 16 10 3 1 1 15 255 255 151 81 46 23 9 2 1 0 0 0 0 0 0 0 0 0 0 0 0 0 0 0 0 3 56 255 210 109 59 32 15 21 255 255 146 79 44 24 58 255 238 130 74 44 41 255 255 162 92 53 28 12 4 1 0 0 0 0 0 0 0 0 0 0 0 0 0 0 0 0 0 0 0 0 0 0 0 0 0 0 0 0 0 0 0 0 0 0 0 0 0 0 0 0 0 0 0 0 0 0 0 0 0 0 0 0 0 0 0 0 0 0 0 0 0 0 0 0 0 0 0 0 0 0 0 0 0 0 0 0 0 0 0 0 0 0 0 0 0 0 0 0 0 0 0 0 2 6 17 35 62 111 203 255 99 29 45 78 141 255 255 17 1 1 12 238 255 153 83 47 25 13 68 255 211 113 62 34 18 57 255 237 129 72 41 20 22 255 255 155 84 47 25 9 3 1 0 0 0 0 10 219 255 160 85 47 24 9 3 1 0 0 0 0 0 1 32 255 226 120 65 35 16 6 2 0 0 0 0 0 0 0 0 0 0 0 0 0 0 0 0 0 0 0 0 0 0 0 0 0 0 0 0 0 0 0 0 0 0 0 0 0 0 0 0 0 0 0 0 0 0 0 0 0 0 0 0 1 5 15 33 52 81 136 240 255 83 60 92 160 255 251 51 55 89 155 255 255 50 50 82 146 255 255 34 29 53 94 173 255 114 6 0 0 0 0 0 0 0 0 0 0 0 0 0 0 0 0 0 0 0 0 0 0 0 0 0 0 0 0 0 0 0 0 0 0 0 0 0 0 0 0 0 0 0 0 0 0 0 0 0 0 0 0 0 0 0 0 0 0 0 0 0 0 0 0 0 0 0 0 0 0 0 0 0 0 0 0 0 0 0 0 0 0 0 0 0 0 0 0 0 0 0 0 0 0 0 0 0 1 3 9 27 51 74 90 75 53 28 10 4 23 255 255 139 73 40 20 7 3 8 164 255 171 90 50 25 11 21 255 255 145 79 45 22 8 9 138 255 176 96 53 28 18 113 255 190 102 58 35 60 255 244 135 77 45 22 8 2 1 0 0 0 0 0 0 0 0 0 1 33 255 238 130 71 41 27 113 255 189 105 62 50 180 255 176 101 60 35 16 11 100 255 191 104 59 33 14 4 1 0 0 0 0 0 0 0 0 0 0 0 0 2 6 22 44 69 113 204 255 174 59 66 100 168 255 90 32 54 98 153 225 157 95 120 194 255 85 42 40 37 29 13 4 1 0 0 0 0 0 0 0 0 0 0 0 0 0 0 0 0 0 0 0 0 0 0 0 0 0 0 0 0 0 0 0 0 0 0 0 0 0 0 0 0 0 0 0 0 0 0 0 0 0 0 0 0 0 0 0 0 0 0 0 0 0 0 0 0 0 0 0 0 0 0 0 1 3 9 14 10
6 6 4 1 1 7 143 255 176 97 58 34 14 4 1 0 0 0 0 0 0 0 0 0 0 0 0 0 0 0 0 1 27 255 247 136 76 45 22 16 146 255 175 97 58 35 48 255 255 152 88 57 48 194 255 187 107 67 42 19 6 2 0 0 0 0 0 0 0 0 0 0 0 0 0 0 0 0 0 0 0 0 0 0 0 0 0 0 0 0 0 0 0 0 0 0 0 0 0 0 0 0 0 0 0 0 0 0 0 0 0 0 0 0 0 0 0 0 0 0 0 0 0 0 0 0 0 0 0 0 0 0 0 0 0 0 0 0 0 0 0 0 0 0 0 0 0 0 0 0 0 0 0 0 0 1 3 9 26 49 78 133 236 255 83 38 57 93 171 255 145 7 6 105 255 183 99 59 35 18 45 255 248 136 78 47 26 39 255 255 150 86 53 31 20 154 255 182 101 60 35 16 5 1 0 0 0 0 5 103 255 190 104 60 35 14 4 1 0 0 0 0 0 1 15 255 255 147 81 47 24 9 3 1 0 0 0 0 0 0 0 0 0 0 0 0 0 0 0 0 0 0 0 0 0 0 0 0 0 0 0 0 0 0 0 0 0 0 0 0 0 0 0 0 0 0 0 0 0 0 0 0 0 0 0 0 1 2 9 25 48 69 101 164 255 255 86 76 112 190 255 195 60 67 104 179 255 216 55 61 97 174 255 237 34 41 66 111 205 255 55 3 0 0 0 0 0 0 0 0 0 0 0 0 0 0 0 0 0 0 0 0 0 0 0 0 0 0 0 0 0 0 0 0 0 0 0 0 0 0 0 0 0 0 0 0 0 0 0 0 0 0 0 0 0 0 0 0 0 0 0 0 0 0 0 0 0 0 0 0 0 0 0 0 0 0 0 0 0 0 0 0 0 0 0 0 0 0 0 0 0 0 0 0 0 0 0 0 0 1 5 17 34 39 40 39 35 18 6 11 201 255 165 92 54 29 11 4 5 77 255 199 110 65 38 16 14 167 255 172 95 57 33 14 8 69 255 203 112 67 41 22 75 255 219 123 73 47 56 255 255 157 92 59 35 13 4 1 0 0 0 0 0 0 0 0 0 1 14 255 255 150 85 52 35 81 255 221 122 74 58 144 255 202 120 79 54 29 12 58 255 222 121 70 43 22 7 2 1 0 0 0 0 0 0 0 0 0 0 0 0 1 3 15 37 61 85 135 226 255 170 69 81 124 201 255 56 50 87 124 184 242 142 104 141 225 197 36 18 18 16 6 2 0 0 0 0 0 0 0 0 0 0 0 0 0 0 0 0 0 0 0 0 0 0 0 0 0 0 0 0 0 0 0 0 0 0 0 0 0 0 0 0 0 0 0 0 0 0 0 0 0 0 0 0 0 0 0 0 0 0 0 0 0 0 0 0 0 0 0 0 0 0 0 0 0 1 3 5 4
2 2 1 1 3 71 255 202 111 68 46 24 8 2 0 0 0 0 0 0 0 0 0 0 0 0 0 0 0 0 1 12 255 255 154 90 59 37 19 80 255 201 113 70 49 55 255 255 170 99 67 60 175 255 209 121 77 55 36 12 3 1 0 0 0 0 0 0 0 0 0 0 0 0 0 0 0 0 0 0 0 0 0 0 0 0 0 0 0 0 0 0 0 0 0 0 0 0 0 0 0 0 0 0 0 0 0 0 0 0 0 0 0 0 0 0 0 0 0 0 0 0 0 0 0 0 0 0 0 0 0 0 0 0 0 0 0 0 0 0 0 0 0 0 0 0 0 0 0 0 0 0 0 0 0 0 1 5 18 43 62 90 150 255 255 82 50 68 110 195 255 71 59 255 213 117 70 47 27 36 255 255 156 91 60 41 38 255 255 164 96 64 44 29 104 255 210 117 72 49 25 9 2 1 0 0 0 2 55 255 219 120 72 48 26 8 2 1 0 0 0 0 0 7 156 255 176 97 60 38 16 4 1 0 0 0 0 0 0 0 0 0 0 0 0 0 0 0 0 0 0 0 0 0 0 0 0 0 0 0 0 0 0 0 0 0 0 0 0 0 0 0 0 0 0 0 0 0 0 0 0 0 0 0 0 0 0 1 5 19 53 74 85 113 177 255 255 99 87 125 207 255 186 70 77 118 204 255 191 65 72 112 198 255 181 44 52 77 132 243 255 28 1 0 0 0 0 0 0 0 0 0 0 0 0 0 0 0 0 0 0 0 0 0 0 0 0 0 0 0 0 0 0 0 0 0 0 0 0 0 0 0 0 0 0 0 0 0 0 0 0 0 0 0 0 0 0 0 0 0 0 0 0 0 0 0 0 0 0 0 0 0 0 0 0 0 0 0 0 0 0 0 0 0 0 0 0 0 0 0 0 0 0 0 0 0 0 0 0 1 2 9 19 20 18 20 20 10 7 96 255 188 105 66 44 20 6 3 40 255 227 125 76 51 30 14 89 255 200 111 68 45 24 9 39 255 235 129 77 52 37 61 255 253 139 84 60 66 255 255 174 103 70 51 28 8 2 0 0 0 0 0 0 0 0 0 0 6 135 255 173 96 61 46 76 255 251 141 84 66 129 255 223 132 89 73 60 26 39 255 255 140 81 53 33 13 4 1 0 0 0 0 0 0 0 0 0 0 0 0 0 0 2 9 35 69 75 93 141 230 255 179 90 100 149 255 255 86 99 113 146 212 238 127 111 156 255 69 12 8 6 3 1 0 0 0 0 0 0 0 0 0 0 0 0 0 0 0 0 0 0 0 0 0 0 0 0 0 0 0 0 0 0 0 0 0 0 0 0 0 0 0 0 0 0 0 0 0 0 0 0 0 0 0 0 0 0 0 0 0 0 0 0 0 0 0 0 0 0 0 0 0 0 0 0 0 0 1 2 1
1 1 0 2 38 255 233 125 74 52 39 16 4 1 0 0 0 0 0 0 0 0 0 0 0 0 0 0 0 0 5 113 255 178 97 64 51 35 60 255 229 125 76 58 71 255 255 184 105 70 68 177 255 222 129 81 62 52 31 7 2 0 0 0 0 0 0 0 0 0 0 0 0 0 0 0 0 0 0 0 0 0 0 0 0 0 0 0 0 0 0 0 0 0 0 0 0 0 0 0 0 0 0 0 0 0 0 0 0 0 0 0 0 0 0 0 0 0 0 0 0 0 0 0 0 0 0 0 0 0 0 0 0 0 0 0 0 0 0 0 0 0 0 0 0 0 0 0 0 0 0 0 0 0 0 0 1 3 12 43 56 67 95 161 255 255 93 60 75 123 231 255 255 251 133 78 55 42 37 255 255 173 98 65 53 56 255 255 182 102 66 53 45 102 255 235 130 78 56 44 17 5 1 0 0 0 1 30 255 249 136 79 55 41 18 4 1 0 0 0 0 0 4 75 255 201 110 68 50 31 9 2 1 0 0 0 0 0 0 0 0 0 0 0 0 0 0 0 0 0 0 0 0 0 0 0 0 0 0 0 0 0 0 0 0 0 0 0 0 0 0 0 0 0 0 0 0 0 0 0 0 0 0 0 0 0 0 1 3 16 85 114 88 84 114 182 255 237 94 87 130 219 255 173 74 82 127 214 255 179 71 77 122 215 255 171 56 59 86 152 255 244 11 1 0 0 0 0 0 0 0 0 0 0 0 0 0 0 0 0 0 0 0 0 0 0 0 0 0 0 0 0 0 0 0 0 0 0 0 0 0 0 0 0 0 0 0 0 0 0 0 0 0 0 0 0 0 0 0 0 0 0 0 0 0 0 0 0 0 0 0 0 0 0 0 0 0 0 0 0 0 0 0 0 0 0 0 0 0 0 0 0 0 0 0 0 0 0 0 0 1 4 8 8 7 8 9 7 55 255 217 117 71 52 39 13 4 21 255 255 142 81 57 45 27 58 255 225 124 75 54 38 17 25 255 255 147 84 58 47 73 255 255 155 89 63 78 255 255 186 108 72 60 50 21 5 1 0 0 0 0 0 0 0 0 0 3 65 255 199 108 66 53 88 255 255 155 91 69 117 255 233 140 89 75 88 95 54 255 255 157 89 59 44 24 7 2 0 0 0 0 0 0 0 0 0 0 0 0 0 0 0 1 6 39 118 86 71 89 140 228 255 193 102 115 181 255 255 185 125 121 157 217 192 110 116 174 229 20 4 2 1 0 0 0 0 0 0 0 0 0 0 0 0 0 0 0 0 0 0 0 0 0 0 0 0 0 0 0 0 0 0 0 0 0 0 0 0 0 0 0 0 0 0 0 0 0 0 0 0 0 0 0 0 0 0 0 0 0 0 0 0 0 0 0 0 0 0 0 0 0 0 0 0 0 0 0 0 0 0
0 0 1 17 255 255 142 78 52 44 34 10 2 0 0 0 0 0 0 0 0 0 0 0 0 0 0 0 0 3 55 255 202 109 64 49 52 80 255 255 140 79 56 77 255 255 192 109 68 62 159 255 222 131 80 58 58 57 26 5 1 0 0 0 0 0 0 0 0 0 0 0 0 0 0 0 0 0 0 0 0 0 0 0 0 0 0 0 0 0 0 0 0 0 0 0 0 0 0 0 0 0 0 0 0 0 0 0 0 0 0 0 0 0 0 0 0 0 0 0 0 0 0 0 0 0 0 0 0 0 0 0 0 0 0 0 0 0 0 0 0 0 0 0 0 0 0 0 0 0 0 0 0 0 0 0 0 2 9 48 61 55 63 95 163 255 255 98 58 79 148 255 255 157 84 56 50 58 243 255 186 103 64 52 74 255 255 203 110 65 50 56 132 255 255 140 80 55 49 41 11 2 1 0 0 1 14 255 255 150 83 55 46 36 12 2 1 0 0 0 0 2 38 255 224 121 71 52 45 25 6 1 0 0 0 0 0 0 0 0 0 0 0 0 0 0 0 0 0 0 0 0 0 0 0 0 0 0 0 0 0 0 0 0 0 0 0 0 0 0 0 0 0 0 0 0 0 0 0 0 0 0 0 0 0 0 0 0 3 28 243 235 134 74 76 112 178 255 167 75 83 131 214 255 141 67 80 128 214 255 146 63 76 126 224 255 178 60 60 93 171 255 98 5 0 0 0 0 0 0 0 0 0 0 0 0 0 0 0 0 0 0 0 0 0 0 0 0 0 0 0 0 0 0 0 0 0 0 0 0 0 0 0 0 0 0 0 0 0 0 0 0 0 0 0 0 0 0 0 0 0 0 0 0 0 0 0 0 0 0 0 0 0 0 0 0 0 0 0 0 0 0 0 0 0 0 0 0 0 0 0 0 0 0 0 0 0 0 0 0 0 1 3 3 3 3 4 32 255 251 133 74 51 44 35 9 11 196 255 162 87 56 47 44 61 255 255 136 77 54 48 33 23 240 255 167 90 57 51 88 255 255 164 93 62 71 244 255 189 110 69 56 63 56 16 3 1 0 0 0 0 0 0 0 0 1 32 255 228 122 70 52 90 255 255 165 94 64 93 255 234 143 87 67 85 170 255 255 255 176 95 59 46 38 16 4 1 0 0 0 0 0 0 0 0 0 0 0 0 0 0 0 1 8 84 249 162 69 61 85 138 216 255 160 102 123 202 255 255 181 114 115 153 202 141 96 132 255 74 5 1 0 0 0 0 0 0 0 0 0 0 0 0 0 0 0 0 0 0 0 0 0 0 0 0 0 0 0 0 0 0 0 0 0 0 0 0 0 0 0 0 0 0 0 0 0 0 0 0 0 0 0 0 0 0 0 0 0 0 0 0 0 0 0 0 0 0 0 0 0 0 0 0 0 0 0 0 0 0 0
0 0 7 135 255 156 83 50 39 39 27 6 1 0 0 0 0 0 0 0 0 0 0 0 0 0 0 0 1 27 255 233 121 66 45 46 117 255 255 160 84 52 61 238 255 186 108 64 50 107 255 212 129 76 50 46 70 79 23 4 1 0 0 0 0 0 0 0 0 0 0 0 0 0 0 0 0 0 0 0 0 0 0 0 0 0 0 0 0 0 0 0 0 0 0 0 0 0 0 0 0 0 0 0 0 0 0 0 0 0 0 0 0 0 0 0 0 0 0 0 0 0 0 0 0 0 0 0 0 0 0 0 0 0 0 0 0 0 0 0 0 0 0 0 0 0 0 0 0 0 0 0 0 0 0 0 0 1 9 75 91 55 44 57 93 163 255 255 74 56 90 146 151 93 55 44 74 255 255 199 107 61 45 67 255 255 206 116 66 44 48 158 255 255 149 82 51 42 47 42 8 1 0 0 0 6 124 255 169 88 52 40 40 31 7 1 0 0 0 0 1 17 255 255 133 72 47 42 42 18 4 1 0 0 0 0 0 0 0 0 0 0 0 0 0 0 0 0 0 0 0 0 0 0 0 0 0 0 0 0 0 0 0 0 0 0 0 0 0 0 0 0 0 0 0 0 0 0 0 0 0 0 0 0 0 0 0 1 7 120 255 255 237 99 57 69 107 167 227 98 58 78 127 206 255 91 55 76 126 207 255 91 52 74 128 223 255 152 51 59 102 196 255 46 2 0 0 0 0 0 0 0 0 0 0 0 0 0 0 0 0 0 0 0 0 0 0 0 0 0 0 0 0 0 0 0 0 0 0 0 0 0 0 0 0 0 0 0 0 0 0 0 0 0 0 0 0 0 0 0 0 0 0 0 0 0 0 0 0 0 0 0 0 0 0 0 0 0 0 0 0 0 0 0 0 0 0 0 0 0 0 0 0 0 0 0 0 0 0 0 0 0 1 1 1 1 15 255 255 150 79 49 40 40 31 11 97 255 182 95 55 41 45 93 255 255 153 81 50 41 47 38 173 255 189 99 57 45 89 255 255 174 95 57 55 169 255 185 108 65 46 51 93 88 14 2 0 0 0 0 0 0 0 0 1 15 255 255 137 73 48 74 255 255 167 95 59 63 210 232 144 85 57 64 168 255 255 255 198 104 59 41 39 33 10 2 0 0 0 0 0 0 0 0 0 0 0 0 0 0 0 0 2 31 255 250 255 121 49 52 81 128 190 219 118 86 113 164 205 209 131 92 107 153 176 103 108 170 255 27 2 0 0 0 0 0 0 0 0 0 0 0 0 0 0 0 0 0 0 0 0 0 0 0 0 0 0 0 0 0 0 0 0 0 0 0 0 0 0 0 0 0 0 0 0 0 0 0 0 0 0 0 0 0 0 0 0 0 0 0 0 0 0 0 0 0 0 0 0 0 0 0 0 0 0 0 0 0 0 0
0 3 59 255 181 91 50 33 30 35 20 4 1 0 0 0 0 0 0 0 0 0 0 0 0 0 0 1 12 255 255 141 72 42 37 98 255 255 172 93 52 44 148 255 178 104 60 40 62 255 207 127 74 45 33 48 139 173 30 3 0 0 0 0 0 0 0 0 0 0 0 0 0 0 0 0 0 0 0 0 0 0 0 0 0 0 0 0 0 0 0 0 0 0 0 0 0 0 0 0 0 0 0 0 0 0 0 0 0 0 0 0 0 0 0 0 0 0 0 0 0 0 0 0 0 0 0 0 0 0 0 0 0 0 0 0 0 0 0 0 0 0 0 0 0 0 0 0 0 0 0 0 0 0 0 0 0 2 21 236 219 89 36 35 53 93 160 252 191 54 52 65 66 51 38 59 255 255 211 114 61 38 46 215 255 192 113 65 40 37 125 255 244 147 83 48 33 34 52 46 7 1 0 0 3 57 255 192 98 53 33 30 36 24 5 1 0 0 0 0 7 161 255 155 78 44 32 35 39 12 2 0 0 0 0 0 0 0 0 0 0 0 0 0 0 0 0 0 0 0 0 0 0 0 0 0 0 0 0 0 0 0 0 0 0 0 0 0 0 0 0 0 0 0 0 0 0 0 0 0 0 0 0 0 0 0 0 3 51 255 197 189 220 197 62 45 64 106 175 177 57 48 75 128 207 189 53 47 74 126 206 204 52 45 72 128 214 255 93 42 62 119 241 255 23 1 0 0 0 0 0 0 0 0 0 0 0 0 0 0 0 0 0 0 0 0 0 0 0 0 0 0 0 0 0 0 0 0 0 0 0 0 0 0 0 0 0 0 0 0 0 0 0 0 0 0 0 0 0 0 0 0 0 0 0 0 0 0 0 0 0 0 0 0 0 0 0 0 0 0 0 0 0 0 0 0 0 0 0 0 0 0 0 0 0 0 0 0 0 0 0 0 0 0 1 6 117 255 167 86 48 33 32 36 29 68 255 213 107 57 36 36 99 255 255 174 90 49 33 35 66 205 255 212 110 59 39 64 255 255 167 96 55 40 98 255 179 107 62 39 35 75 221 226 26 2 0 0 0 0 0 0 0 0 7 154 255 164 81 46 51 236 255 162 94 55 44 112 243 150 87 52 44 115 255 223 197 166 106 60 37 28 32 26 6 1 0 0 0 0 0 0 0 0 0 0 0 0 0 0 0 1 11 229 255 199 213 253 70 35 47 75 119 179 162 71 63 87 125 165 158 90 80 112 168 141 98 127 255 170 9 0 0 0 0 0 0 0 0 0 0 0 0 0 0 0 0 0 0 0 0 0 0 0 0 0 0 0 0 0 0 0 0 0 0 0 0 0 0 0 0 0 0 0 0 0 0 0 0 0 0 0 0 0 0 0 0 0 0 0 0 0 0 0 0 0 0 0 0 0 0 0 0 0 0 0 0 0 0 0
1 28 255 223 112 55 30 21 23 30 12 2 0 0 0 0 0 0 0 0 0 0 0 0 0 0 0 5 109 255 172 85 44 29 68 255 250 162 95 54 37 81 255 180 106 59 35 35 165 236 136 77 43 26 27 110 255 255 94 6 1 0 0 0 0 0 0 0 0 0 0 0 0 0 0 0 0 0 0 0 0 0 0 0 0 0 0 0 0 0 0 0 0 0 0 0 0 0 0 0 0 0 0 0 0 0 0 0 0 0 0 0 0 0 0 0 0 0 0 0 0 0 0 0 0 0 0 0 0 0 0 0 0 0 0 0 0 0 0 0 0 0 0 0 0 0 0 0 0 0 0 0 0 0 0 0 0 6 104 255 255 255 55 23 31 53 95 161 255 112 34 28 27 27 40 224 255 195 118 65 37 31 128 255 184 109 62 37 28 79 255 229 142 82 46 28 22 32 76 67 8 1 0 1 27 255 229 117 59 32 21 22 30 16 3 1 0 0 0 4 76 255 188 93 48 27 22 29 36 8 1 0 0 0 0 0 0 0 0 0 0 0 0 0 0 0 0 0 0 0 0 0 0 0 0 0 0 0 0 0 0 0 0 0 0 0 0 0 0 0 0 0 0 0 0 0 0 0 0 0 0 0 0 0 0 0 1 23 255 233 146 128 162 237 133 38 41 71 127 221 99 36 46 81 140 238 94 35 45 78 137 242 106 33 42 74 130 214 255 54 41 74 151 255 205 9 0 0 0 0 0 0 0 0 0 0 0 0 0 0 0 0 0 0 0 0 0 0 0 0 0 0 0 0 0 0 0 0 0 0 0 0 0 0 0 0 0 0 0 0 0 0 0 0 0 0 0 0 0 0 0 0 0 0 0 0 0 0 0 0 0 0 0 0 0 0 0 0 0 0 0 0 0 0 0 0 0 0 0 0 0 0 0 0 0 0 0 0 0 0 0 0 0 0 3 53 255 192 99 52 30 22 26 34 86 255 255 130 65 35 26 76 255 255 174 98 54 30 23 51 255 255 234 124 65 37 42 234 255 167 95 54 34 51 255 197 113 63 35 24 44 255 255 255 104 6 0 0 0 0 0 0 0 4 76 255 195 99 51 38 132 255 168 96 54 34 55 240 168 98 55 36 63 255 206 148 110 81 55 35 22 19 24 17 4 1 0 0 0 0 0 0 0 0 0 0 0 0 0 0 0 5 96 255 180 141 155 227 211 38 29 45 76 127 182 83 40 47 76 119 164 121 76 91 142 190 119 101 164 255 68 3 0 0 0 0 0 0 0 0 0 0 0 0 0 0 0 0 0 0 0 0 0 0 0 0 0 0 0 0 0 0 0 0 0 0 0 0 0 0 0 0 0 0 0 0 0 0 0 0 0 0 0 0 0 0 0 0 0 0 0 0 0 0 0 0 0 0 0 0 0 0 0 0 0 0 0 0 0 0
12 255 255 142 70 35 18 12 15 20 7 1 0 0 0 0 0 0 0 0 0 0 0 0 0 0 2 53 255 203 106 54 30 42 255 255 156 91 53 34 46 255 210 120 65 35 24 78 255 163 92 49 25 17 58 255 250 234 255 40 2 0 0 0 0 0 0 0 0 0 0 0 0 0 0 0 0 0 0 0 0 0 0 0 0 0 0 0 0 0 0 0 0 0 0 0 0 0 0 0 0 0 0 0 0 0 0 0 0 0 0 0 0 0 0 0 0 0 0 0 0 0 0 0 0 0 0 0 0 0 0 0 0 0 0 0 0 0 0 0 0 0 0 0 0 0 0 0 0 0 0 0 0 0 0 0 2 49 255 216 222 255 250 29 18 31 58 108 191 255 48 13 11 19 126 255 184 112 66 38 25 67 255 196 115 64 35 22 44 255 239 144 83 46 26 16 14 45 210 205 17 1 1 11 226 255 144 72 37 19 12 14 20 8 2 0 0 0 2 40 255 224 116 59 30 16 13 22 29 6 1 0 0 0 0 0 0 0 0 0 0 0 0 0 0 0 0 0 0 0 0 0 0 0 0 0 0 0 0 0 0 0 0 0 0 0 0 0 0 0 0 0 0 0 0 0 0 0 0 0 0 0 0 0 0 0 9 195 255 155 106 93 120 184 255 72 32 54 102 176 255 49 32 55 101 174 248 48 30 52 97 172 255 51 26 44 80 141 252 163 38 49 93 180 255 86 4 0 0 0 0 0 0 0 0 0 0 0 0 0 0 0 0 0 0 0 0 0 0 0 0 0 0 0 0 0 0 0 0 0 0 0 0 0 0 0 0 0 0 0 0 0 0 0 0 0 0 0 0 0 0 0 0 0 0 0 0 0 0 0 0 0 0 0 0 0 0 0 0 0 0 0 0 0 0 0 0 0 0 0 0 0 0 0 0 0 0 0 0 0 0 0 0 1 26 255 235 120 61 32 18 14 22 97 255 255 155 80 41 23 47 255 255 166 97 56 32 19 30 255 255 230 134 73 40 31 129 255 172 101 56 31 30 148 246 137 75 38 21 24 177 255 218 210 255 44 2 0 0 0 0 0 2 40 255 228 119 62 37 71 255 184 107 59 32 30 143 223 122 69 38 37 192 234 148 96 62 39 27 19 12 10 14 8 2 0 0 0 0 0 0 0 0 0 0 0 0 0 0 0 2 46 255 207 124 103 114 167 255 104 22 28 53 97 155 139 34 28 49 92 151 194 113 93 129 188 178 101 116 211 255 31 1 0 0 0 0 0 0 0 0 0 0 0 0 0 0 0 0 0 0 0 0 0 0 0 0 0 0 0 0 0 0 0 0 0 0 0 0 0 0 0 0 0 0 0 0 0 0 0 0 0 0 0 0 0 0 0 0 0 0 0 0 0 0 0 0 0 0 0 0 0 0 0 0 0 0 0 0 0
139 255 172 89 47 22 10 6 7 9 3 1 0 0 0 0 0 0 0 0 0 0 0 0 0 1 28 255 240 125 67 37 31 186 255 168 96 53 31 29 145 255 145 82 42 22 39 255 203 119 68 33 15 28 255 248 178 180 254 255 17 1 0 0 0 0 0 0 0 0 0 0 0 0 0 0 0 0 0 0 0 0 0 0 0 0 0 0 0 0 0 0 0 0 0 0 0 0 0 0 0 0 0 0 0 0 0 0 0 0 0 0 0 0 0 0 0 0 0 0 0 0 0 0 0 0 0 0 0 0 0 0 0 0 0 0 0 0 0 0 0 0 0 0 0 0 0 0 0 0 0 0 0 0 0 1 23 255 246 159 147 192 255 129 16 18 38 75 134 229 144 14 7 51 255 196 115 66 37 23 38 255 228 131 73 39 20 23 197 255 155 90 50 26 13 8 18 197 255 255 75 5 5 95 255 170 89 47 23 10 6 7 9 4 1 0 0 1 18 255 255 138 73 39 18 9 7 13 17 4 1 0 0 0 0 0 0 0 0 0 0 0 0 0 0 0 0 0 0 0 0 0 0 0 0 0 0 0 0 0 0 0 0 0 0 0 0 0 0 0 0 0 0 0 0 0 0 0 0 0 0 0 0 0 0 4 80 255 178 103 81 74 95 141 223 255 48 50 92 144 245 160 33 42 79 133 245 160 30 39 75 131 236 185 27 27 52 95 168 255 94 39 60 110 208 255 41 2 0 0 0 0 0 0 0 0 0 0 0 0 0 0 0 0 0 0 0 0 0 0 0 0 0 0 0 0 0 0 0 0 0 0 0 0 0 0 0 0 0 0 0 0 0 0 0 0 0 0 0 0 0 0 0 0 0 0 0 0 0 0 0 0 0 0 0 0 0 0 0 0 0 0 0 0 0 0 0 0 0 0 0 0 0 0 0 0 0 0 0 0 0 0 0 10 218 255 148 76 39 19 9 10 66 255 255 167 92 51 28 30 255 255 166 97 56 32 19 18 149 255 198 126 76 44 28 70 255 190 110 62 34 21 71 255 165 98 54 24 16 85 255 200 150 161 243 255 18 1 0 0 0 1 19 255 255 139 74 42 48 255 221 124 71 38 23 64 255 159 96 55 33 102 255 164 105 65 35 19 12 8 5 4 5 3 1 0 0 0 0 0 0 0 0 0 0 0 0 0 0 1 21 255 246 132 88 81 90 124 191 255 50 20 42 82 132 221 54 19 36 83 144 220 244 147 133 159 205 139 91 138 255 254 12 1 0 0 0 0 0 0 0 0 0 0 0 0 0 0 0 0 0 0 0 0 0 0 0 0 0 0 0 0 0 0 0 0 0 0 0 0 0 0 0 0 0 0 0 0 0 0 0 0 0 0 0 0 0 0 0 0 0 0 0 0 0 0 0 0 0 0 0 0 0 0 0 0 0 0 0 0
255 210 105 57 31 13 5 2 3 3 1 0 0 0 0 0 0 0 0 0 0 0 0 0 1 13 255 255 148 76 43 30 109 255 176 103 59 32 21 67 255 170 100 59 29 23 174 255 141 88 55 23 16 143 255 164 119 124 165 255 154 7 0 0 0 0 0 0 0 0 0 0 0 0 0 0 0 0 0 0 0 0 0 0 0 0 0 0 0 0 0 0 0 0 0 0 0 0 0 0 0 0 0 0 0 0 0 0 0 0 0 0 0 0 0 0 0 0 0 0 0 0 0 0 0 0 0 0 0 0 0 0 0 0 0 0 0 0 0 0 0 0 0 0 0 0 0 0 0 0 0 0 0 0 0 9 187 255 155 109 97 124 196 255 64 13 26 56 92 148 255 46 21 255 220 126 72 39 21 22 181 255 149 86 48 23 15 84 255 166 97 57 30 14 6 8 89 255 228 215 255 37 51 255 202 104 56 31 13 5 2 2 3 1 0 0 0 8 170 255 157 83 47 25 10 4 3 5 7 2 0 0 0 0 0 0 0 0 0 0 0 0 0 0 0 0 0 0 0 0 0 0 0 0 0 0 0 0 0 0 0 0 0 0 0 0 0 0 0 0 0 0 0 0 0 0 0 0 0 0 0 0 0 0 2 38 255 205 109 71 67 69 82 106 157 255 227 77 98 119 170 255 98 42 71 106 170 255 91 37 66 101 161 255 84 21 36 67 115 207 255 65 43 68 128 251 255 20 1 0 0 0 0 0 0 0 0 0 0 0 0 0 0 0 0 0 0 0 0 0 0 0 0 0 0 0 0 0 0 0 0 0 0 0 0 0 0 0 0 0 0 0 0 0 0 0 0 0 0 0 0 0 0 0 0 0 0 0 0 0 0 0 0 0 0 0 0 0 0 0 0 0 0 0 0 0 0 0 0 0 0 0 0 0 0 0 0 0 0 0 0 0 5 94 255 170 90 49 25 10 6 35 255 255 157 92 55 33 26 142 255 170 99 57 32 17 13 75 255 196 116 69 42 28 43 255 223 124 72 40 21 35 255 209 118 74 41 17 44 255 210 131 102 113 156 255 152 7 0 0 0 8 175 255 158 83 48 40 173 255 146 85 50 26 33 255 206 121 82 53 72 255 195 117 77 45 20 9 5 3 2 2 2 1 0 0 0 0 0 0 0 0 0 0 0 0 0 0 0 8 178 255 151 84 66 72 79 93 133 237 250 30 38 81 127 190 171 24 32 93 138 184 252 248 161 135 169 193 93 91 164 255 102 5 0 0 0 0 0 0 0 0 0 0 0 0 0 0 0 0 0 0 0 0 0 0 0 0 0 0 0 0 0 0 0 0 0 0 0 0 0 0 0 0 0 0 0 0 0 0 0 0 0 0 0 0 0 0 0 0 0 0 0 0 0 0 0 0 0 0 0 0 0 0 0 0 0 0 0 0
247 128 65 37 19 7 2 1 1 1 0 0 0 0 0 0 0 0 0 0 0 0 0 0 6 124 255 169 87 48 31 72 255 204 109 63 36 19 31 255 204 113 69 44 24 87 255 166 97 69 48 20 69 255 177 104 80 83 105 188 255 71 3 0 0 0 0 0 0 0 0 0 0 0 0 0 0 0 0 0 0 0 0 0 0 0 0 0 0 0 0 0 0 0 0 0 0 0 0 0 0 0 0 0 0 0 0 0 0 0 0 0 0 0 0 0 0 0 0 0 0 0 0 0 0 0 0 0 0 0 0 0 0 0 0 0 0 0 0 0 0 0 0 0 0 0 0 0 0 0 0 0 0 0 4 77 255 171 95 73 65 79 123 224 255 35 18 44 65 105 196 237 140 255 141 78 45 23 15 83 255 172 95 58 32 15 41 255 192 104 61 36 17 7 5 42 255 209 148 153 255 255 255 246 123 63 36 18 7 2 1 1 1 0 0 0 4 77 255 181 92 50 29 14 5 2 1 2 2 1 0 0 0 0 0 0 0 0 0 0 0 0 0 0 0 0 0 0 0 0 0 0 0 0 0 0 0 0 0 0 0 0 0 0 0 0 0 0 0 0 0 0 0 0 0 0 0 0 0 0 0 0 0 1 17 255 251 125 68 52 64 78 82 84 108 181 255 255 146 106 123 211 255 107 80 88 121 210 255 91 72 82 112 194 255 45 26 49 79 134 248 251 48 44 76 152 255 181 8 0 0 0 0 0 0 0 0 0 0 0 0 0 0 0 0 0 0 0 0 0 0 0 0 0 0 0 0 0 0 0 0 0 0 0 0 0 0 0 0 0 0 0 0 0 0 0 0 0 0 0 0 0 0 0 0 0 0 0 0 0 0 0 0 0 0 0 0 0 0 0 0 0 0 0 0 0 0 0 0 0 0 0 0 0 0 0 0 0 0 0 0 2 47 255 201 101 55 32 15 6 17 255 255 155 85 50 32 24 86 255 188 102 59 33 17 10 39 255 217 118 66 37 23 27 192 255 141 79 47 25 21 156 255 140 84 58 33 27 255 250 134 84 71 78 99 180 255 69 3 0 4 80 255 180 92 50 36 102 255 174 97 60 36 25 133 255 140 93 83 103 255 243 130 83 59 32 11 4 2 1 1 0 0 0 0 0 0 0 0 0 0 0 0 0 0 0 0 0 4 75 255 174 90 56 55 77 81 75 92 151 255 157 54 103 127 154 255 85 44 128 130 136 171 212 184 124 130 177 122 69 100 191 255 47 2 0 0 0 0 0 0 0 0 0 0 0 0 0 0 0 0 0 0 0 0 0 0 0 0 0 0 0 0 0 0 0 0 0 0 0 0 0 0 0 0 0 0 0 0 0 0 0 0 0 0 0 0 0 0 0 0 0 0 0 0 0 0 0 0 0 0 0 0 0 0 0 0 0 0 0
110 70 39 22 10 3 1 0 0 0 0 0 0 0 0 0 0 0 0 0 0 0 0 3 60 255 191 96 50 31 47 255 234 124 66 37 21 18 127 255 130 73 49 35 57 255 201 107 68 58 47 50 255 211 110 66 54 55 66 111 213 255 33 1 0 0 0 0 0 0 0 0 0 0 0 0 0 0 0 0 0 0 0 0 0 0 0 0 0 0 0 0 0 0 0 0 0 0 0 0 0 0 0 0 0 0 0 0 0 0 0 0 0 0 0 0 0 0 0 0 0 0 0 0 0 0 0 0 0 0 0 0 0 0 0 0 0 0 0 0 0 0 0 0 0 0 0 0 0 0 0 0 0 2 37 255 201 101 58 49 43 50 75 137 255 224 25 34 48 74 135 255 255 185 90 48 27 14 39 255 197 106 60 38 20 23 255 247 121 64 38 21 8 4 19 255 243 131 92 102 171 255 255 151 72 38 21 9 3 1 0 0 0 0 0 2 39 255 210 105 53 29 16 7 2 1 0 0 1 0 0 0 0 0 0 0 0 0 0 0 0 0 0 0 0 0 0 0 0 0 0 0 0 0 0 0 0 0 0 0 0 0 0 0 0 0 0 0 0 0 0 0 0 0 0 0 0 0 0 0 0 0 0 7 142 255 150 74 43 42 76 119 100 73 75 113 203 255 244 119 91 136 255 255 175 87 85 134 255 255 154 77 79 126 249 232 33 38 54 84 150 255 134 36 46 88 176 255 83 4 0 0 0 0 0 0 0 0 0 0 0 0 0 0 0 0 0 0 0 0 0 0 0 0 0 0 0 0 0 0 0 0 0 0 0 0 0 0 0 0 0 0 0 0 0 0 0 0 0 0 0 0 0 0 0 0 0 0 0 0 0 0 0 0 0 0 0 0 0 0 0 0 0 0 0 0 0 0 0 0 0 0 0 0 0 0 0 0 0 0 1 21 255 237 120 59 33 18 8 9 123 255 161 86 46 26 19 52 255 219 113 60 33 18 9 18 254 255 131 69 37 19 16 91 255 165 87 51 31 19 74 255 160 90 62 49 36 149 255 151 81 55 50 54 63 108 214 255 35 3 40 255 209 104 53 32 61 255 198 109 64 43 30 80 255 172 96 79 138 255 255 151 85 61 47 21 6 2 1 0 0 0 0 0 0 0 0 0 0 0 0 0 0 0 0 0 0 2 36 255 203 102 54 39 54 107 104 70 66 98 188 255 255 172 134 131 201 255 186 181 126 98 105 135 156 120 103 131 163 66 62 114 230 255 20 1 0 0 0 0 0 0 0 0 0 0 0 0 0 0 0 0 0 0 0 0 0 0 0 0 0 0 0 0 0 0 0 0 0 0 0 0 0 0 0 0 0 0 0 0 0 0 0 0 0 0 0 0 0 0 0 0 0 0 0 0 0 0 0 0 0 0 0 0 0 0 0 0 0 0
44 34 21 11 4 1 0 0 0 0 0 0 0 0 0 0 0 0 0 0 0 0 1 31 255 224 110 54 29 30 196 255 138 72 39 21 14 58 255 161 82 48 35 51 255 248 124 67 50 56 87 255 255 128 66 42 36 35 40 63 124 255 255 14 1 0 0 0 0 0 0 0 0 0 0 0 0 0 0 0 0 0 0 0 0 0 0 0 0 0 0 0 0 0 0 0 0 0 0 0 0 0 0 0 0 0 0 0 0 0 0 0 0 0 0 0 0 0 0 0 0 0 0 0 0 0 0 0 0 0 0 0 0 0 0 0 0 0 0 0 0 0 0 0 0 0 0 0 0 0 0 0 1 17 255 251 120 58 35 31 28 31 45 80 157 255 135 34 37 55 99 200 229 117 58 29 16 20 213 245 120 63 38 23 18 122 255 150 74 39 22 11 4 9 145 255 146 78 57 67 101 169 158 86 42 21 10 4 1 0 0 0 0 0 1 18 255 251 123 59 30 16 7 3 1 0 0 0 0 0 0 0 0 0 0 0 0 0 0 0 0 0 0 0 0 0 0 0 0 0 0 0 0 0 0 0 0 0 0 0 0 0 0 0 0 0 0 0 0 0 0 0 0 0 0 0 0 0 0 0 0 0 3 61 255 176 86 43 28 43 142 208 162 81 56 68 109 164 202 156 79 86 149 252 255 136 67 84 153 255 255 125 62 80 150 255 150 36 37 52 90 166 255 67 30 50 100 207 255 43 2 0 0 0 0 0 0 0 0 0 0 0 0 0 0 0 0 0 0 0 0 0 0 0 0 0 0 0 0 0 0 0 0 0 0 0 0 0 0 0 0 0 0 0 0 0 0 0 0 0 0 0 0 0 0 0 0 0 0 0 0 0 0 0 0 0 0 0 0 0 0 0 0 0 0 0 0 0 0 0 0 0 0 0 0 0 0 0 0 0 8 175 255 138 67 34 18 9 6 59 255 182 91 46 23 13 26 255 247 129 65 34 18 8 9 100 255 150 75 39 20 11 40 255 191 100 53 32 20 41 255 201 100 59 48 51 138 255 182 90 49 35 35 36 39 63 127 255 255 37 255 247 122 59 31 34 226 231 120 66 42 33 63 255 218 110 70 99 255 254 165 91 56 45 36 13 3 1 0 0 0 0 0 0 0 0 0 0 0 0 0 0 0 0 0 0 1 16 255 252 121 58 32 31 80 191 171 86 52 63 115 230 255 255 158 113 139 255 255 224 130 74 64 80 110 114 87 99 158 84 43 66 137 255 170 8 0 0 0 0 0 0 0 0 0 0 0 0 0 0 0 0 0 0 0 0 0 0 0 0 0 0 0 0 0 0 0 0 0 0 0 0 0 0 0 0 0 0 0 0 0 0 0 0 0 0 0 0 0 0 0 0 0 0 0 0 0 0 0 0 0 0 0 0 0 0 0 0 0 0
16 14 10 5 2 1 0 0 0 0 0 0 0 0 0 0 0 0 0 0 0 1 13 255 255 133 61 30 20 90 255 156 79 41 22 12 28 255 214 104 52 32 39 241 255 147 74 44 42 105 255 255 161 77 40 25 22 21 24 36 70 150 255 118 6 0 0 0 0 0 0 0 0 0 0 0 0 0 0 0 0 0 0 0 0 0 0 0 0 0 0 0 0 0 0 0 0 0 0 0 0 0 0 0 0 0 0 0 0 0 0 0 0 0 0 0 0 0 0 0 0 0 0 0 0 0 0 0 0 0 0 0 0 0 0 0 0 0 0 0 0 0 0 0 0 0 0 0 0 0 0 0 7 153 255 150 69 33 20 18 16 18 26 46 93 196 255 121 33 44 67 95 101 67 36 17 13 96 255 146 71 37 22 16 65 255 184 91 45 23 11 5 5 65 255 175 86 47 35 42 54 71 67 44 23 11 4 2 0 0 0 0 0 0 7 155 255 148 69 32 15 7 3 1 0 0 0 0 0 0 0 0 0 0 0 0 0 0 0 0 0 0 0 0 0 0 0 0 0 0 0 0 0 0 0 0 0 0 0 0 0 0 0 0 0 0 0 0 0 0 0 0 0 0 0 0 0 0 0 0 0 1 28 255 211 103 49 25 22 86 255 232 225 138 51 41 55 84 127 166 87 57 82 136 197 215 76 55 85 145 211 231 75 54 93 190 255 116 30 32 53 102 203 240 34 29 57 122 247 255 19 1 0 0 0 0 0 0 0 0 0 0 0 0 0 0 0 0 0 0 0 0 0 0 0 0 0 0 0 0 0 0 0 0 0 0 0 0 0 0 0 0 0 0 0 0 0 0 0 0 0 0 0 0 0 0 0 0 0 0 0 0 0 0 0 0 0 0 0 0 0 0 0 0 0 0 0 0 0 0 0 0 0 0 0 0 0 0 0 4 77 255 169 78 37 18 8 5 31 255 223 107 51 24 11 12 115 255 145 73 37 18 8 6 45 255 180 88 42 21 10 16 205 239 118 59 32 19 25 230 255 126 62 39 45 147 255 223 108 53 30 22 22 22 24 36 72 151 255 255 255 145 68 33 23 99 255 142 72 40 28 51 255 255 133 71 64 169 206 144 89 53 36 33 25 7 2 0 0 0 0 0 0 0 0 0 0 0 0 0 0 0 0 0 0 0 7 137 255 150 69 33 20 39 212 232 228 168 56 43 68 122 186 203 173 109 96 153 212 189 139 67 41 48 75 104 83 84 124 135 38 40 79 170 255 73 4 0 0 0 0 0 0 0 0 0 0 0 0 0 0 0 0 0 0 0 0 0 0 0 0 0 0 0 0 0 0 0 0 0 0 0 0 0 0 0 0 0 0 0 0 0 0 0 0 0 0 0 0 0 0 0 0 0 0 0 0 0 0 0 0 0 0 0 0 0 0 0 0 0
6 5 3 2 1 0 0 0 0 0 0 0 0 0 0 0 0 0 0 0 0 5 106 255 158 76 35 18 42 255 190 96 46 22 11 14 156 255 137 67 35 29 143 255 175 88 46 32 76 255 255 181 94 46 23 14 11 10 12 20 41 89 189 255 58 3 0 0 0 0 0 0 0 0 0 0 0 0 0 0 0 0 0 0 0 0 0 0 0 0 0 0 0 0 0 0 0 0 0 0 0 0 0 0 0 0 0 0 0 0 0 0 0 0 0 0 0 0 0 0 0 0 0 0 0 0 0 0 0 0 0 0 0 0 0 0 0 0 0 0 0 0 0 0 0 0 0 0 0 0 0 3 68 255 181 88 40 19 10 8 7 9 14 27 56 118 235 255 98 41 43 42 42 34 21 11 50 255 193 92 43 22 13 35 255 226 113 55 27 12 5 3 33 255 217 106 51 28 21 24 26 28 26 20 11 5 2 1 0 0 0 0 0 3 71 255 179 86 39 17 7 3 1 0 0 0 0 0 0 0 0 0 0 0 0 0 0 0 0 0 0 0 0 0 0 0 0 0 0 0 0 0 0 0 0 0 0 0 0 0 0 0 0 0 0 0 0 0 0 0 0 0 0 0 0 0 0 0 0 0 0 11 219 255 129 59 27 15 38 255 219 188 200 237 82 27 28 44 80 137 124 46 46 72 120 188 129 44 47 77 128 206 152 48 59 116 223 255 69 22 32 64 133 255 101 22 32 70 147 255 159 8 0 0 0 0 0 0 0 0 0 0 0 0 0 0 0 0 0 0 0 0 0 0 0 0 0 0 0 0 0 0 0 0 0 0 0 0 0 0 0 0 0 0 0 0 0 0 0 0 0 0 0 0 0 0 0 0 0 0 0 0 0 0 0 0 0 0 0 0 0 0 0 0 0 0 0 0 0 0 0 0 0 0 0 0 0 0 2 39 255 210 101 45 20 9 4 15 255 255 137 63 28 12 7 49 255 174 86 42 20 9 4 20 255 235 112 52 24 10 9 77 255 146 72 35 18 16 122 255 157 78 41 32 114 255 234 129 64 32 17 12 12 11 13 20 42 93 209 255 202 89 39 20 45 255 176 90 44 24 33 255 255 158 81 51 92 208 133 79 47 29 22 22 14 4 1 0 0 0 0 0 0 0 0 0 0 0 0 0 0 0 0 0 0 3 64 255 184 89 40 18 18 127 255 202 203 251 122 35 39 61 92 126 152 118 71 79 104 127 137 77 30 30 56 99 98 85 108 202 55 26 47 102 208 255 35 2 0 0 0 0 0 0 0 0 0 0 0 0 0 0 0 0 0 0 0 0 0 0 0 0 0 0 0 0 0 0 0 0 0 0 0 0 0 0 0 0 0 0 0 0 0 0 0 0 0 0 0 0 0 0 0 0 0 0 0 0 0 0 0 0 0 0 0 0 0 0 0 0
2 2 1 1 0 0 0 0 0 0 0 0 0 0 0 0 0 0 0 0 2 50 255 194 95 45 20 21 196 249 126 61 28 12 9 66 255 172 89 46 27 80 255 195 106 55 30 47 255 255 167 100 55 28 13 7 5 4 5 10 24 55 118 235 255 30 1 0 0 0 0 0 0 0 0 0 0 0 0 0 0 0 0 0 0 0 0 0 0 0 0 0 0 0 0 0 0 0 0 0 0 0 0 0 0 0 0 0 0 0 0 0 0 0 0 0 0 0 0 0 0 0 0 0 0 0 0 0 0 0 0 0 0 0 0 0 0 0 0 0 0 0 0 0 0 0 0 0 0 0 1 33 255 219 110 53 23 9 4 3 3 4 7 15 34 71 139 246 255 98 30 19 17 16 11 27 255 248 126 60 27 12 18 234 255 141 70 34 15 6 3 14 255 255 136 65 31 16 11 12 11 10 10 8 4 2 1 0 0 0 0 0 2 38 255 222 110 52 22 8 3 1 0 0 0 0 0 0 0 0 0 0 0 0 0 0 0 0 0 0 0 0 0 0 0 0 0 0 0 0 0 0 0 0 0 0 0 0 0 0 0 0 0 0 0 0 0 0 0 0 0 0 0 0 0 0 0 0 0 0 4 90 255 165 79 36 16 18 188 255 169 140 158 214 250 35 15 24 55 116 190 55 28 40 76 137 224 60 29 42 81 148 255 83 44 72 136 239 255 37 21 43 92 174 255 45 21 42 88 180 255 70 3 0 0 0 0 0 0 0 0 0 0 0 0 0 0 0 0 0 0 0 0 0 0 0 0 0 0 0 0 0 0 0 0 0 0 0 0 0 0 0 0 0 0 0 0 0 0 0 0 0 0 0 0 0 0 0 0 0 0 0 0 0 0 0 0 0 0 0 0 0 0 0 0 0 0 0 0 0 0 0 0 0 0 0 0 1 18 255 255 131 62 27 10 4 8 129 255 170 84 38 15 6 21 255 229 115 54 24 10 4 9 145 255 150 71 32 13 6 35 255 194 97 47 21 12 64 255 200 100 51 30 68 255 231 137 75 39 18 8 5 5 5 6 10 25 58 110 149 107 55 24 23 213 241 121 60 29 22 141 255 179 96 53 55 193 166 92 46 24 15 12 11 6 2 0 0 0 0 0 0 0 0 0 0 0 0 0 0 0 0 0 0 1 34 255 228 113 54 24 13 57 255 200 157 160 208 255 64 24 30 46 77 122 139 64 42 52 85 129 130 31 21 50 113 154 127 127 185 144 26 29 62 130 255 255 16 1 0 0 0 0 0 0 0 0 0 0 0 0 0 0 0 0 0 0 0 0 0 0 0 0 0 0 0 0 0 0 0 0 0 0 0 0 0 0 0 0 0 0 0 0 0 0 0 0 0 0 0 0 0 0 0 0 0 0 0 0 0 0 0 0 0 0 0 0 0 0 0
0 0 0 0 0 0 0 0 0 0 0 0 0 0 0 0 0 0 0 1 23 255 242 124 61 28 16 87 255 159 86 42 16 7 31 255 216 114 62 35 53 255 227 125 67 36 33 221 255 170 100 57 32 16 6 3 2 1 2 5 14 36 75 148 255 255 14 1 0 0 0 0 0 0 0 0 0 0 0 0 0 0 0 0 0 0 0 0 0 0 0 0 0 0 0 0 0 0 0 0 0 0 0 0 0 0 0 0 0 0 0 0 0 0 0 0 0 0 0 0 0 0 0 0 0 0 0 0 0 0 0 0 0 0 0 0 0 0 0 0 0 0 0 0 0 0 0 0 0 1 13 255 255 139 70 33 13 4 2 1 1 1 3 8 21 45 83 151 255 255 58 10 6 6 14 191 255 158 84 43 17 12 113 255 175 91 47 21 8 3 7 119 255 168 86 43 19 8 5 5 4 3 3 2 1 1 0 0 0 0 0 1 18 255 255 141 70 33 12 4 1 0 0 0 0 0 0 0 0 0 0 0 0 0 0 0 0 0 0 0 0 0 0 0 0 0 0 0 0 0 0 0 0 0 0 0 0 0 0 0 0 0 0 0 0 0 0 0 0 0 0 0 0 0 0 0 0 0 0 2 43 255 207 106 52 22 13 82 255 182 127 109 125 172 255 116 14 14 46 120 197 123 24 24 54 113 204 163 27 26 56 116 204 255 56 50 84 152 255 191 24 32 69 125 241 209 25 26 56 114 222 255 34 2 0 0 0 0 0 0 0 0 0 0 0 0 0 0 0 0 0 0 0 0 0 0 0 0 0 0 0 0 0 0 0 0 0 0 0 0 0 0 0 0 0 0 0 0 0 0 0 0 0 0 0 0 0 0 0 0 0 0 0 0 0 0 0 0 0 0 0 0 0 0 0 0 0 0 0 0 0 0 0 0 0 0 0 8 170 255 162 82 40 16 5 5 61 255 201 106 54 24 8 10 152 255 151 78 36 14 5 5 64 255 186 98 49 20 7 16 255 255 132 69 33 14 35 255 238 130 68 37 48 255 246 147 82 45 23 9 4 2 2 2 2 5 14 35 54 64 54 34 19 95 255 160 87 44 23 73 255 196 111 62 44 117 244 135 71 29 12 7 5 4 2 1 0 0 0 0 0 0 0 0 0 0 0 0 0 0 0 0 0 1 16 255 255 145 72 34 15 28 255 233 150 123 126 161 237 255 30 16 24 53 108 159 82 27 29 66 139 237 62 20 70 177 240 249 188 168 255 65 22 41 83 167 255 163 7 0 0 0 0 0 0 0 0 0 0 0 0 0 0 0 0 0 0 0 0 0 0 0 0 0 0 0 0 0 0 0 0 0 0 0 0 0 0 0 0 0 0 0 0 0 0 0 0 0 0 0 0 0 0 0 0 0 0 0 0 0 0 0 0 0 0 0 0 0 0 0
0 0 0 0 0 0 0 0 0 0 0 0 0 0 0 0 0 0 0 10 208 255 153 80 42 19 49 255 205 111 64 31 10 16 255 255 142 79 50 49 255 255 149 83 46 32 134 255 185 110 63 33 18 8 3 1 1 0 1 2 7 23 51 93 176 255 141 6 0 0 0 0 0 0 0 0 0 0 0 0 0 0 0 0 0 0 0 0 0 0 0 0 0 0 0 0 0 0 0 0 0 0 0 0 0 0 0 0 0 0 0 0 0 0 0 0 0 0 0 0 0 0 0 0 0 0 0 0 0 0 0 0 0 0 0 0 0 0 0 0 0 0 0 0 0 0 0 0 0 6 116 255 167 89 47 21 7 2 1 0 0 0 1 4 12 28 53 94 163 255 255 21 3 6 86 255 183 101 60 32 14 63 255 207 112 62 33 12 4 4 61 255 203 106 58 29 10 4 2 1 1 1 1 1 0 0 0 0 0 0 0 8 172 255 167 89 48 20 6 2 0 0 0 0 0 0 0 0 0 0 0 0 0 0 0 0 0 0 0 0 0 0 0 0 0 0 0 0 0 0 0 0 0 0 0 0 0 0 0 0 0 0 0 0 0 0 0 0 0 0 0 0 0 0 0 0 0 0 1 20 255 252 132 71 36 15 42 255 211 130 101 96 107 134 185 255 48 13 53 144 173 255 51 18 46 104 162 255 69 20 47 99 155 255 179 48 57 99 178 255 108 31 58 94 158 255 104 22 39 74 141 255 255 15 1 0 0 0 0 0 0 0 0 0 0 0 0 0 0 0 0 0 0 0 0 0 0 0 0 0 0 0 0 0 0 0 0 0 0 0 0 0 0 0 0 0 0 0 0 0 0 0 0 0 0 0 0 0 0 0 0 0 0 0 0 0 0 0 0 0 0 0 0 0 0 0 0 0 0 0 0 0 0 0 0 0 4 79 255 192 102 55 26 9 4 29 255 231 125 68 36 14 8 70 255 189 103 58 25 7 3 32 255 224 119 67 35 12 9 121 255 169 93 55 24 21 252 255 151 85 52 44 255 255 161 94 52 27 12 4 1 1 1 1 1 2 7 19 25 27 25 22 54 255 201 113 70 38 50 255 227 126 72 46 75 255 185 121 66 20 6 3 2 1 1 0 0 0 0 0 0 0 0 0 0 0 0 0 0 0 0 0 0 7 161 255 172 92 49 22 17 172 255 157 112 104 107 122 166 255 110 13 14 43 114 164 171 29 20 70 170 222 255 56 212 236 233 254 233 177 220 255 38 29 57 106 198 255 77 4 0 0 0 0 0 0 0 0 0 0 0 0 0 0 0 0 0 0 0 0 0 0 0 0 0 0 0 0 0 0 0 0 0 0 0 0 0 0 0 0 0 0 0 0 0 0 0 0 0 0 0 0 0 0 0 0 0 0 0 0 0 0 0 0 0 0 0 0 0 0
0 0 0 0 0 0 0 0 0 0 0 0 0 0 0 0 0 0 4 87 255 177 94 54 30 34 255 255 135 80 52 22 12 113 255 172 93 60 60 235 255 167 96 58 37 92 255 205 118 73 41 19 9 3 1 0 0 0 0 1 4 14 35 61 106 198 255 69 3 0 0 0 0 0 0 0 0 0 0 0 0 0 0 0 0 0 0 0 0 0 0 0 0 0 0 0 0 0 0 0 0 0 0 0 0 0 0 0 0 0 0 0 0 0 0 0 0 0 0 0 0 0 0 0 0 0 0 0 0 0 0 0 0 0 0 0 0 0 0 0 0 0 0 0 0 0 0 0 3 56 255 196 103 58 33 12 3 1 0 0 0 0 0 2 6 16 34 59 95 158 255 100 8 42 255 210 113 67 45 25 43 255 241 129 73 45 23 7 3 34 255 238 126 69 41 19 5 2 1 0 0 0 0 0 0 0 0 0 0 0 4 78 255 187 100 58 33 12 3 1 0 0 0 0 0 0 0 0 0 0 0 0 0 0 0 0 0 0 0 0 0 0 0 0 0 0 0 0 0 0 0 0 0 0 0 0 0 0 0 0 0 0 0 0 0 0 0 0 0 0 0 0 0 0 0 0 0 0 8 161 255 155 83 49 25 25 255 255 137 94 89 98 101 105 135 229 255 34 104 167 161 223 244 29 51 107 134 202 255 40 48 92 119 180 255 114 47 67 115 211 255 98 62 78 110 200 255 66 31 51 87 164 255 127 6 0 0 0 0 0 0 0 0 0 0 0 0 0 0 0 0 0 0 0 0 0 0 0 0 0 0 0 0 0 0 0 0 0 0 0 0 0 0 0 0 0 0 0 0 0 0 0 0 0 0 0 0 0 0 0 0 0 0 0 0 0 0 0 0 0 0 0 0 0 0 0 0 0 0 0 0 0 0 0 0 2 41 255 220 117 66 38 16 5 13 255 255 142 77 46 24 9 35 255 219 120 72 46 17 5 15 255 255 140 77 48 24 10 59 255 195 108 69 48 26 134 255 171 94 60 53 183 255 182 104 62 34 15 6 2 1 0 0 0 0 1 3 8 10 11 12 33 255 249 132 84 67 62 255 255 144 82 52 58 255 232 142 114 80 17 3 1 1 0 0 0 0 0 0 0 0 0 0 0 0 0 0 0 0 0 0 0 4 77 255 192 103 60 35 18 86 255 179 107 89 99 100 97 116 180 255 45 12 47 141 170 253 65 24 114 174 189 255 255 255 215 175 176 187 167 163 255 203 32 42 68 119 221 255 38 2 0 0 0 0 0 0 0 0 0 0 0 0 0 0 0 0 0 0 0 0 0 0 0 0 0 0 0 0 0 0 0 0 0 0 0 0 0 0 0 0 0 0 0 0 0 0 0 0 0 0 0 0 0 0 0 0 0 0 0 0 0 0 0 0 0 0 0 0 0
0 0 0 0 0 0 0 0 0 0 0 0 0 0 0 0 0 2 41 255 201 105 58 37 34 217 255 155 86 60 43 19 62 255 194 104 63 61 206 255 184 101 61 44 70 255 226 124 74 48 26 10 4 1 0 0 0 0 0 0 2 7 22 40 63 116 223 255 36 2 0 0 0 0 0 0 0 0 0 0 0 0 0 0 0 0 0 0 0 0 0 0 0 0 0 0 0 0 0 0 0 0 0 0 0 0 0 0 0 0 0 0 0 0 0 0 0 0 0 0 0 0 0 0 0 0 0 0 0 0 0 0 0 0 0 0 0 0 0 0 0 0 0 0 0 0 0 1 28 255 230 118 63 38 21 6 2 0 0 0 0 0 0 1 3 8 20 36 55 94 168 255 70 255 247 127 69 46 34 41 255 255 144 78 48 32 14 4 17 255 255 141 75 46 28 11 3 1 0 0 0 0 0 0 0 0 0 0 0 2 40 255 212 110 60 38 21 6 2 0 0 0 0 0 0 0 0 0 0 0 0 0 0 0 0 0 0 0 0 0 0 0 0 0 0 0 0 0 0 0 0 0 0 0 0 0 0 0 0 0 0 0 0 0 0 0 0 0 0 0 0 0 0 0 0 0 0 3 69 255 175 91 53 34 25 158 255 154 87 72 90 117 108 89 96 148 255 255 255 175 141 159 255 168 98 121 110 141 255 250 87 96 92 118 199 255 80 51 73 129 247 255 148 78 79 127 240 255 55 36 55 96 185 255 56 3 0 0 0 0 0 0 0 0 0 0 0 0 0 0 0 0 0 0 0 0 0 0 0 0 0 0 0 0 0 0 0 0 0 0 0 0 0 0 0 0 0 0 0 0 0 0 0 0 0 0 0 0 0 0 0 0 0 0 0 0 0 0 0 0 0 0 0 0 0 0 0 0 0 0 0 0 0 0 1 20 255 254 130 70 42 25 9 8 108 255 165 84 49 30 14 20 255 255 132 74 53 36 11 9 128 255 164 85 51 34 17 34 255 226 117 69 55 53 114 255 196 102 60 50 150 255 192 109 66 41 20 8 2 1 0 0 0 0 0 0 1 3 3 4 13 175 255 151 85 69 103 255 255 166 89 55 50 181 255 154 108 115 133 20 3 0 0 0 0 0 0 0 0 0 0 0 0 0 0 0 0 0 0 0 0 2 40 255 218 112 62 39 26 54 255 209 111 74 79 106 105 83 82 119 223 255 28 80 166 164 186 255 74 221 155 146 202 255 226 159 119 111 124 133 118 175 255 130 37 44 70 130 254 255 17 1 0 0 0 0 0 0 0 0 0 0 0 0 0 0 0 0 0 0 0 0 0 0 0 0 0 0 0 0 0 0 0 0 0 0 0 0 0 0 0 0 0 0 0 0 0 0 0 0 0 0 0 0 0 0 0 0 0 0 0 0 0 0 0 0 0 0 0 0
0 0 0 0 0 0 0 0 0 0 0 0 0 0 0 0 1 17 255 240 118 60 36 32 153 255 174 90 55 46 39 50 255 229 113 61 50 142 255 191 104 59 40 55 255 246 132 72 46 30 15 5 1 0 0 0 0 0 0 0 1 3 12 24 37 65 130 255 255 15 1 0 0 0 0 0 0 0 0 0 0 0 0 0 0 0 0 0 0 0 0 0 0 0 0 0 0 0 0 0 0 0 0 0 0 0 0 0 0 0 0 0 0 0 0 0 0 0 0 0 0 0 0 0 0 0 0 0 0 0 0 0 0 0 0 0 0 0 0 0 0 0 0 0 0 0 0 11 226 255 135 68 38 23 11 3 1 0 0 0 0 0 0 0 1 4 10 20 31 55 109 252 255 255 148 73 42 31 41 255 255 161 82 46 31 19 8 9 151 255 159 79 44 29 16 5 1 0 0 0 0 0 0 0 0 0 0 0 1 18 255 251 124 62 35 22 11 3 1 0 0 0 0 0 0 0 0 0 0 0 0 0 0 0 0 0 0 0 0 0 0 0 0 0 0 0 0 0 0 0 0 0 0 0 0 0 0 0 0 0 0 0 0 0 0 0 0 0 0 0 0 0 0 0 0 0 1 34 255 206 101 53 33 26 101 255 184 92 57 62 111 152 130 86 71 96 193 255 255 176 122 114 194 255 255 164 98 99 172 255 255 142 79 77 122 224 247 59 48 76 141 255 255 141 64 78 142 255 255 45 34 56 108 216 255 25 1 0 0 0 0 0 0 0 0 0 0 0 0 0 0 0 0 0 0 0 0 0 0 0 0 0 0 0 0 0 0 0 0 0 0 0 0 0 0 0 0 0 0 0 0 0 0 0 0 0 0 0 0 0 0 0 0 0 0 0 0 0 0 0 0 0 0 0 0 0 0 0 0 0 0 0 0 0 8 177 255 148 73 41 26 14 7 53 255 188 95 50 29 18 15 148 255 156 77 46 38 26 10 64 255 186 94 51 33 22 25 255 255 134 68 45 53 170 255 231 114 60 42 91 255 202 110 63 41 25 11 3 1 0 0 0 0 0 0 0 0 1 1 5 62 255 168 89 58 86 255 255 179 95 54 43 113 255 169 100 87 134 209 41 3 0 0 0 0 0 0 0 0 0 0 0 0 0 0 0 0 0 0 0 1 18 255 251 127 63 36 25 41 255 247 124 68 56 82 129 124 82 62 76 140 255 239 242 164 140 148 255 255 233 138 105 112 145 126 102 77 67 77 93 83 107 198 255 95 32 41 73 148 255 139 7 0 0 0 0 0 0 0 0 0 0 0 0 0 0 0 0 0 0 0 0 0 0 0 0 0 0 0 0 0 0 0 0 0 0 0 0 0 0 0 0 0 0 0 0 0 0 0 0 0 0 0 0 0 0 0 0 0 0 0 0 0 0 0 0 0 0 0 0
0 0 0 0 0 0 0 0 0 0 0 0 0 0 0 0 7 148 255 140 66 34 24 88 255 197 98 51 34 37 64 255 255 134 64 38 72 255 184 105 56 34 35 174 255 142 74 41 26 17 7 2 1 0 0 0 0 0 0 0 0 2 5 12 20 35 71 148 255 130 6 0 0 0 0 0 0 0 0 0 0 0 0 0 0 0 0 0 0 0 0 0 0 0 0 0 0 0 0 0 0 0 0 0 0 0 0 0 0 0 0 0 0 0 0 0 0 0 0 0 0 0 0 0 0 0 0 0 0 0 0 0 0 0 0 0 0 0 0 0 0 0 0 0 0 0 4 87 255 155 75 38 21 12 5 1 0 0 0 0 0 0 0 0 0 1 4 9 16 32 69 151 255 188 88 42 25 30 185 255 176 88 45 26 17 10 7 69 255 177 87 44 24 15 7 2 1 0 0 0 0 0 0 0 0 0 0 0 8 173 255 145 69 34 19 11 5 1 0 0 0 0 0 0 0 0 0 0 0 0 0 0 0 0 0 0 0 0 0 0 0 0 0 0 0 0 0 0 0 0 0 0 0 0 0 0 0 0 0 0 0 0 0 0 0 0 0 0 0 0 0 0 0 0 0 1 15 255 255 122 57 30 21 63 255 211 106 54 39 69 157 174 159 101 58 62 107 175 166 143 106 83 119 223 255 211 106 72 105 197 255 235 94 54 73 136 255 147 39 43 75 136 213 250 80 50 81 159 255 166 30 31 60 127 255 189 9 0 0 0 0 0 0 0 0 0 0 0 0 0 0 0 0 0 0 0 0 0 0 0 0 0 0 0 0 0 0 0 0 0 0 0 0 0 0 0 0 0 0 0 0 0 0 0 0 0 0 0 0 0 0 0 0 0 0 0 0 0 0 0 0 0 0 0 0 0 0 0 0 0 0 0 0 4 74 255 170 82 40 22 13 8 29 255 227 108 53 28 16 13 77 255 182 89 44 28 25 18 39 255 218 106 52 29 19 20 154 255 159 76 40 35 129 255 245 129 64 36 48 237 199 114 60 35 23 13 5 1 0 0 0 0 0 0 0 0 0 0 1 22 255 187 97 52 51 182 241 167 95 52 34 65 255 187 103 66 82 156 182 161 10 1 0 0 0 0 0 0 0 0 0 0 0 0 0 0 0 0 0 0 7 160 255 143 69 35 20 27 236 255 143 70 42 48 108 158 153 101 53 50 88 192 255 255 166 116 117 188 255 184 118 75 58 62 62 58 47 40 46 59 57 65 115 220 255 53 25 40 83 173 255 60 3 0 0 0 0 0 0 0 0 0 0 0 0 0 0 0 0 0 0 0 0 0 0 0 0 0 0 0 0 0 0 0 0 0 0 0 0 0 0 0 0 0 0 0 0 0 0 0 0 0 0 0 0 0 0 0 0 0 0 0 0 0 0 0 0 0 0 0
0 0 0 0 0 0 0 0 0 0 0 0 0 0 0 3 70 255 177 80 36 20 43 255 209 111 54 29 22 54 255 255 159 76 37 35 169 194 107 56 30 22 76 255 160 81 40 22 13 7 3 1 0 0 0 0 0 0 0 0 0 1 2 5 9 18 38 83 179 255 59 3 0 0 0 0 0 0 0 0 0 0 0 0 0 0 0 0 0 0 0 0 0 0 0 0 0 0 0 0 0 0 0 0 0 0 0 0 0 0 0 0 0 0 0 0 0 0 0 0 0 0 0 0 0 0 0 0 0 0 0 0 0 0 0 0 0 0 0 0 0 0 0 0 0 2 40 255 188 88 41 20 10 5 2 1 0 0 0 0 0 0 0 0 0 1 1 4 7 18 42 80 117 90 49 24 19 99 255 185 95 47 24 13 8 5 36 255 211 101 47 23 12 7 3 1 0 0 0 0 0 0 0 0 0 0 0 4 81 255 176 82 37 18 9 4 2 1 0 0 0 0 0 0 0 0 0 0 0 0 0 0 0 0 0 0 0 0 0 0 0 0 0 0 0 0 0 0 0 0 0 0 0 0 0 0 0 0 0 0 0 0 0 0 0 0 0 0 0 0 0 0 0 0 0 6 126 255 152 69 32 17 33 255 235 121 59 32 34 115 186 169 168 147 62 41 54 76 86 100 92 63 70 109 146 171 135 62 63 100 149 196 157 49 45 83 159 255 65 26 39 69 122 194 152 41 46 88 169 255 73 21 33 72 158 255 75 4 0 0 0 0 0 0 0 0 0 0 0 0 0 0 0 0 0 0 0 0 0 0 0 0 0 0 0 0 0 0 0 0 0 0 0 0 0 0 0 0 0 0 0 0 0 0 0 0 0 0 0 0 0 0 0 0 0 0 0 0 0 0 0 0 0 0 0 0 0 0 0 0 0 0 2 35 255 202 97 45 21 11 6 14 222 255 136 61 28 14 9 41 255 213 105 49 25 15 14 29 255 255 129 59 28 15 14 83 255 187 90 42 25 61 255 211 129 69 35 27 114 234 119 61 32 18 11 5 2 1 0 0 0 0 0 0 0 0 0 0 7 129 255 116 55 34 80 235 146 86 48 28 33 198 220 116 62 48 93 151 161 255 59 3 0 0 0 0 0 0 0 0 0 0 0 0 0 0 0 0 0 4 74 255 176 80 37 18 16 110 255 168 81 40 28 59 172 174 173 158 62 36 56 111 197 191 150 103 90 102 130 117 97 56 30 25 28 30 27 22 26 36 37 39 65 128 238 197 26 22 46 101 211 255 27 1 0 0 0 0 0 0 0 0 0 0 0 0 0 0 0 0 0 0 0 0 0 0 0 0 0 0 0 0 0 0 0 0 0 0 0 0 0 0 0 0 0 0 0 0 0 0 0 0 0 0 0 0 0 0 0 0 0 0 0 0 0 0 0 0 0 0
0 0 0 0 0 0 0 0 0 0 0 0 0 0 2 37 255 223 109 48 21 21 177 251 128 63 30 16 28 255 255 179 92 44 25 64 255 127 64 30 16 32 255 191 100 47 22 11 6 3 1 0 0 0 0 0 0 0 0 0 0 0 1 2 4 9 21 48 110 224 255 27 1 0 0 0 0 0 0 0 0 0 0 0 0 0 0 0 0 0 0 0 0 0 0 0 0 0 0 0 0 0 0 0 0 0 0 0 0 0 0 0 0 0 0 0 0 0 0 0 0 0 0 0 0 0 0 0 0 0 0 0 0 0 0 0 0 0 0 0 0 0 0 0 1 18 255 248 118 52 22 9 4 2 1 0 0 0 0 0 0 0 0 0 0 0 1 1 3 9 24 39 47 40 25 14 49 255 207 108 52 25 12 6 4 18 255 255 130 58 26 11 5 2 1 0 0 0 0 0 0 0 0 0 0 0 2 43 255 218 106 48 20 8 4 2 1 0 0 0 0 0 0 0 0 0 0 0 0 0 0 0 0 0 0 0 0 0 0 0 0 0 0 0 0 0 0 0 0 0 0 0 0 0 0 0 0 0 0 0 0 0 0 0 0 0 0 0 0 0 0 0 0 0 3 57 255 187 91 41 18 16 146 255 144 70 34 21 53 239 179 155 166 203 114 33 26 32 44 70 87 54 42 53 77 120 164 75 40 51 81 136 214 75 33 52 106 198 199 28 20 35 70 130 234 61 30 50 103 199 255 33 20 43 97 203 255 34 2 0 0 0 0 0 0 0 0 0 0 0 0 0 0 0 0 0 0 0 0 0 0 0 0 0 0 0 0 0 0 0 0 0 0 0 0 0 0 0 0 0 0 0 0 0 0 0 0 0 0 0 0 0 0 0 0 0 0 0 0 0 0 0 0 0 0 0 0 0 0 0 0 1 14 255 255 125 56 24 10 5 7 98 255 168 81 35 15 7 21 255 255 130 61 28 13 8 17 218 255 166 77 34 15 9 43 255 219 111 52 25 29 221 218 126 68 36 21 49 255 155 76 34 16 8 4 2 1 0 0 0 0 0 0 0 0 0 0 3 56 255 166 74 34 36 199 168 92 46 24 19 80 255 146 74 41 46 136 140 152 210 255 25 1 0 0 0 0 0 0 0 0 0 0 0 0 0 0 0 2 37 255 219 107 47 20 11 51 255 193 100 47 23 26 142 214 180 182 216 138 34 36 61 91 105 122 103 74 55 60 71 79 45 16 10 11 14 13 11 13 19 22 23 37 75 147 255 80 16 26 59 132 255 243 11 0 0 0 0 0 0 0 0 0 0 0 0 0 0 0 0 0 0 0 0 0 0 0 0 0 0 0 0 0 0 0 0 0 0 0 0 0 0 0 0 0 0 0 0 0 0 0 0 0 0 0 0 0 0 0 0 0 0 0 0 0 0 0 0 0 0
0 0 0 0 0 0 0 0 0 0 0 0 0 1 19 255 255 143 70 30 16 75 255 162 83 38 17 15 129 255 190 106 55 27 31 219 187 98 42 17 15 118 255 136 68 30 11 5 2 1 0 0 0 0 0 0 0 0 0 0 0 0 0 1 1 4 11 30 70 144 255 230 11 0 0 0 0 0 0 0 0 0 0 0 0 0 0 0 0 0 0 0 0 0 0 0 0 0 0 0 0 0 0 0 0 0 0 0 0 0 0 0 0 0 0 0 0 0 0 0 0 0 0 0 0 0 0 0 0 0 0 0 0 0 0 0 0 0 0 0 0 0 0 0 7 149 255 160 77 33 12 4 2 1 0 0 0 0 0 0 0 0 0 0 0 0 0 0 1 4 11 17 18 16 12 25 255 253 137 67 30 13 5 2 8 153 255 171 84 37 14 5 2 1 0 0 0 0 0 0 0 0 0 0 0 1 21 255 255 138 67 29 11 4 1 1 0 0 0 0 0 0 0 0 0 0 0 0 0 0 0 0 0 0 0 0 0 0 0 0 0 0 0 0 0 0 0 0 0 0 0 0 0 0 0 0 0 0 0 0 0 0 0 0 0 0 0 0 0 0 0 0 0 1 29 255 235 120 58 25 13 64 255 178 92 44 20 24 204 236 175 152 167 212 255 55 15 14 24 57 100 58 27 27 45 95 170 149 36 28 48 104 186 219 40 38 77 142 255 77 14 19 45 102 190 167 30 32 67 137 255 136 19 27 63 134 255 255 14 1 0 0 0 0 0 0 0 0 0 0 0 0 0 0 0 0 0 0 0 0 0 0 0 0 0 0 0 0 0 0 0 0 0 0 0 0 0 0 0 0 0 0 0 0 0 0 0 0 0 0 0 0 0 0 0 0 0 0 0 0 0 0 0 0 0 0 0 0 0 0 0 6 134 255 166 80 35 13 5 4 50 255 210 107 51 21 8 11 161 255 168 83 38 15 6 9 112 255 196 103 49 20 8 21 255 255 140 70 32 20 101 255 151 79 38 20 23 196 233 121 54 20 8 3 2 1 0 0 0 0 0 0 0 0 0 0 1 26 255 231 118 54 28 89 255 132 64 26 13 33 255 191 108 55 33 76 208 151 144 155 255 191 9 0 0 0 0 0 0 0 0 0 0 0 0 0 0 1 17 255 255 139 68 29 12 25 255 241 127 63 29 16 63 255 208 180 183 218 255 78 27 33 43 61 104 127 79 34 30 46 70 41 10 4 4 5 5 5 6 9 11 12 22 48 102 197 255 39 16 38 86 176 255 104 5 0 0 0 0 0 0 0 0 0 0 0 0 0 0 0 0 0 0 0 0 0 0 0 0 0 0 0 0 0 0 0 0 0 0 0 0 0 0 0 0 0 0 0 0 0 0 0 0 0 0 0 0 0 0 0 0 0 0 0 0 0 0 0 0 0
0 0 0 0 0 0 0 0 0 0 0 0 0 8 174 255 174 94 50 21 40 255 211 117 60 25 13 63 255 201 120 67 36 23 114 255 147 86 33 12 51 255 180 105 52 19 6 2 1 0 0 0 0 0 0 0 0 0 0 0 0 0 0 0 1 2 5 19 49 96 179 255 101 5 0 0 0 0 0 0 0 0 0 0 0 0 0 0 0 0 0 0 0 0 0 0 0 0 0 0 0 0 0 0 0 0 0 0 0 0 0 0 0 0 0 0 0 0 0 0 0 0 0 0 0 0 0 0 0 0 0 0 0 0 0 0 0 0 0 0 0 0 0 3 66 255 194 106 55 22 6 2 1 0 0 0 0 0 0 0 0 0 0 0 0 0 0 0 1 2 4 6 6 6 12 140 255 167 94 46 18 6 2 4 70 255 201 111 59 24 7 2 1 0 0 0 0 0 0 0 0 0 0 0 0 9 196 255 167 91 47 18 5 2 1 0 0 0 0 0 0 0 0 0 0 0 0 0 0 0 0 0 0 0 0 0 0 0 0 0 0 0 0 0 0 0 0 0 0 0 0 0 0 0 0 0 0 0 0 0 0 0 0 0 0 0 0 0 0 0 0 0 1 13 255 255 153 81 40 16 33 255 224 124 65 30 17 93 255 194 165 161 170 194 250 239 20 7 16 67 156 101 23 15 31 94 171 255 69 20 35 94 164 255 136 40 67 116 193 255 33 12 33 93 153 255 82 26 51 101 180 255 67 21 46 91 169 255 115 6 0 0 0 0 0 0 0 0 0 0 0 0 0 0 0 0 0 0 0 0 0 0 0 0 0 0 0 0 0 0 0 0 0 0 0 0 0 0 0 0 0 0 0 0 0 0 0 0 0 0 0 0 0 0 0 0 0 0 0 0 0 0 0 0 0 0 0 0 0 0 3 66 255 204 109 57 23 7 3 25 255 254 137 73 35 12 7 77 255 201 110 58 25 8 6 59 255 220 122 69 33 12 11 145 255 171 93 48 23 54 255 199 114 57 23 15 84 255 165 103 47 12 4 1 1 0 0 0 0 0 0 0 0 0 0 0 11 240 255 153 88 48 55 255 191 120 55 17 15 148 255 144 89 50 49 248 215 183 150 124 183 255 79 4 0 0 0 0 0 0 0 0 0 0 0 0 0 7 147 255 170 91 48 19 15 169 255 162 88 44 19 32 255 232 185 173 174 191 242 255 46 18 22 42 113 180 133 29 16 33 73 45 8 2 1 2 2 2 2 3 4 6 13 34 78 144 255 250 23 26 61 116 212 255 51 2 0 0 0 0 0 0 0 0 0 0 0 0 0 0 0 0 0 0 0 0 0 0 0 0 0 0 0 0 0 0 0 0 0 0 0 0 0 0 0 0 0 0 0 0 0 0 0 0 0 0 0 0 0 0 0 0 0 0 0 0 0 0 0 0
0 0 0 0 0 0 0 0 0 0 0 0 4 78 255 191 107 66 38 30 255 255 143 87 50 18 36 255 232 131 78 45 27 66 255 197 124 92 31 27 255 229 130 87 46 13 3 1 0 0 0 0 0 0 0 0 0 0 0 0 0 0 0 0 0 1 3 12 36 67 114 209 255 50 2 0 0 0 0 0 0 0 0 0 0 0 0 0 0 0 0 0 0 0 0 0 0 0 0 0 0 0 0 0 0 0 0 0 0 0 0 0 0 0 0 0 0 0 0 0 0 0 0 0 0 0 0 0 0 0 0 0 0 0 0 0 0 0 0 0 0 0 1 32 255 224 122 73 42 14 3 1 0 0 0 0 0 0 0 0 0 0 0 0 0 0 0 0 0 1 1 2 2 5 60 255 188 110 69 34 11 3 2 34 255 224 124 74 44 16 4 1 0 0 0 0 0 0 0 0 0 0 0 0 4 85 255 186 104 63 34 11 3 1 0 0 0 0 0 0 0 0 0 0 0 0 0 0 0 0 0 0 0 0 0 0 0 0 0 0 0 0 0 0 0 0 0 0 0 0 0 0 0 0 0 0 0 0 0 0 0 0 0 0 0 0 0 0 0 0 0 0 6 134 255 179 99 59 30 22 224 255 147 87 51 23 50 255 208 153 151 163 160 156 182 255 88 8 18 151 232 255 41 11 29 120 167 212 255 32 32 102 144 199 255 122 81 103 143 255 182 17 31 103 136 208 255 55 47 81 126 226 255 45 37 66 109 197 255 53 3 0 0 0 0 0 0 0 0 0 0 0 0 0 0 0 0 0 0 0 0 0 0 0 0 0 0 0 0 0 0 0 0 0 0 0 0 0 0 0 0 0 0 0 0 0 0 0 0 0 0 0 0 0 0 0 0 0 0 0 0 0 0 0 0 0 0 0 0 1 34 255 233 128 75 43 15 4 11 218 255 158 90 54 24 9 40 255 225 126 75 44 16 6 32 255 245 137 79 48 23 10 68 255 191 109 65 37 37 255 247 140 90 47 17 41 255 202 125 96 48 9 2 1 0 0 0 0 0 0 0 0 0 0 0 5 105 255 180 102 74 78 255 255 149 117 62 16 65 255 172 111 88 75 221 255 194 187 159 112 123 212 255 38 2 0 0 0 0 0 0 0 0 0 0 0 3 64 255 192 107 64 35 16 85 255 189 108 66 33 22 182 255 169 148 153 152 149 172 255 235 22 13 40 159 212 251 50 12 29 97 66 8 1 0 0 0 0 1 1 1 2 7 26 68 105 172 255 126 26 48 78 132 243 255 24 1 0 0 0 0 0 0 0 0 0 0 0 0 0 0 0 0 0 0 0 0 0 0 0 0 0 0 0 0 0 0 0 0 0 0 0 0 0 0 0 0 0 0 0 0 0 0 0 0 0 0 0 0 0 0 0 0 0 0 0 0 0 0 0
0 0 0 0 0 0 0 0 0 0 0 2 39 255 212 112 66 47 39 159 255 163 93 67 46 30 255 255 144 82 51 32 46 255 233 134 108 117 50 163 255 145 92 77 44 9 2 0 0 0 0 0 0 0 0 0 0 0 0 0 0 0 0 0 0 0 1 7 26 49 72 126 237 255 23 1 0 0 0 0 0 0 0 0 0 0 0 0 0 0 0 0 0 0 0 0 0 0 0 0 0 0 0 0 0 0 0 0 0 0 0 0 0 0 0 0 0 0 0 0 0 0 0 0 0 0 0 0 0 0 0 0 0 0 0 0 0 0 0 0 0 1 13 255 255 136 76 51 31 8 2 0 0 0 0 0 0 0 0 0 0 0 0 0 0 0 0 0 0 0 0 1 2 26 255 214 116 72 51 24 6 2 15 255 255 135 75 50 32 10 2 0 0 0 0 0 0 0 0 0 0 0 0 2 41 255 206 109 64 44 24 6 1 0 0 0 0 0 0 0 0 0 0 0 0 0 0 0 0 0 0 0 0 0 0 0 0 0 0 0 0 0 0 0 0 0 0 0 0 0 0 0 0 0 0 0 0 0 0 0 0 0 0 0 0 0 0 0 0 0 0 3 65 255 195 105 64 45 29 118 255 168 94 63 42 38 255 244 137 114 129 145 135 118 126 185 255 42 54 255 229 248 189 18 42 163 145 158 255 152 51 125 121 138 233 255 204 109 104 164 255 91 43 131 121 147 255 255 79 71 87 142 255 255 50 50 70 119 227 255 24 1 0 0 0 0 0 0 0 0 0 0 0 0 0 0 0 0 0 0 0 0 0 0 0 0 0 0 0 0 0 0 0 0 0 0 0 0 0 0 0 0 0 0 0 0 0 0 0 0 0 0 0 0 0 0 0 0 0 0 0 0 0 0 0 0 0 0 1 15 255 255 139 78 52 33 9 7 97 255 174 94 59 41 16 22 255 255 134 77 52 33 11 17 255 255 146 81 51 33 16 38 255 217 116 69 48 41 206 255 152 94 75 43 27 251 250 133 95 98 65 9 1 0 0 0 0 0 0 0 0 0 0 0 2 51 255 201 109 72 93 255 255 169 115 121 105 51 255 211 117 93 126 255 255 196 153 154 150 111 86 131 253 255 18 1 0 0 0 0 0 0 0 0 0 1 29 255 215 114 67 46 27 57 255 214 116 72 53 31 102 255 177 117 112 124 121 110 115 169 255 96 15 62 190 188 211 182 20 39 170 189 16 1 0 0 0 0 0 0 0 1 4 20 65 78 109 195 255 92 43 54 80 146 255 218 10 0 0 0 0 0 0 0 0 0 0 0 0 0 0 0 0 0 0 0 0 0 0 0 0 0 0 0 0 0 0 0 0 0 0 0 0 0 0 0 0 0 0 0 0 0 0 0 0 0 0 0 0 0 0 0 0 0 0 0 0 0 0 0
0 0 0 0 0 0 0 0 0 0 1 17 255 247 123 63 40 40 126 255 186 96 60 53 59 201 255 161 84 51 33 36 242 255 138 88 101 167 255 255 173 90 66 72 45 7 1 0 0 0 0 0 0 0 0 0 0 0 0 0 0 0 0 0 0 0 1 4 16 33 44 71 137 255 203 9 0 0 0 0 0 0 0 0 0 0 0 0 0 0 0 0 0 0 0 0 0 0 0 0 0 0 0 0 0 0 0 0 0 0 0 0 0 0 0 0 0 0 0 0 0 0 0 0 0 0 0 0 0 0 0 0 0 0 0 0 0 0 0 0 0 5 104 255 152 77 46 34 20 5 1 0 0 0 0 0 0 0 0 0 0 0 0 0 0 0 0 0 0 0 0 1 9 177 255 129 68 47 36 15 4 7 125 255 152 76 45 32 20 5 1 0 0 0 0 0 0 0 0 0 0 0 1 17 255 240 120 62 39 29 14 3 1 0 0 0 0 0 0 0 0 0 0 0 0 0 0 0 0 0 0 0 0 0 0 0 0 0 0 0 0 0 0 0 0 0 0 0 0 0 0 0 0 0 0 0 0 0 0 0 0 0 0 0 0 0 0 0 0 0 1 34 255 219 110 60 40 38 90 255 192 98 58 46 50 234 255 146 86 83 102 112 104 86 83 119 242 255 255 202 168 175 255 108 113 163 121 113 174 255 255 159 104 92 138 238 255 161 83 104 199 255 189 160 111 99 159 255 255 94 62 85 159 255 221 51 45 68 133 255 218 10 0 0 0 0 0 0 0 0 0 0 0 0 0 0 0 0 0 0 0 0 0 0 0 0 0 0 0 0 0 0 0 0 0 0 0 0 0 0 0 0 0 0 0 0 0 0 0 0 0 0 0 0 0 0 0 0 0 0 0 0 0 0 0 0 0 0 6 134 255 154 78 46 35 22 8 50 255 196 99 55 38 29 18 162 255 147 75 46 34 22 13 135 255 160 81 47 32 21 27 255 255 128 67 43 43 157 255 171 91 63 64 56 163 255 149 84 77 111 133 13 1 0 0 0 0 0 0 0 0 0 0 1 22 255 227 115 64 65 203 255 179 104 91 139 255 255 255 131 79 99 238 255 203 124 107 111 122 113 64 77 149 255 164 8 0 0 0 0 0 0 0 0 1 11 234 255 126 65 41 33 50 255 250 124 68 48 46 86 255 202 108 78 81 93 90 78 74 101 179 255 67 160 156 138 156 255 95 116 236 255 68 4 0 0 0 0 0 0 0 1 3 16 66 59 67 114 226 255 90 40 48 82 164 255 89 4 0 0 0 0 0 0 0 0 0 0 0 0 0 0 0 0 0 0 0 0 0 0 0 0 0 0 0 0 0 0 0 0 0 0 0 0 0 0 0 0 0 0 0 0 0 0 0 0 0 0 0 0 0 0 0 0 0 0 0 0 0 0
0 0 0 0 0 0 0 0 0 0 7 135 255 139 66 34 26 81 255 206 103 54 38 56 241 255 183 89 46 29 27 131 255 156 79 60 111 225 255 221 102 54 48 70 49 7 1 0 0 0 0 0 0 0 0 0 0 0 0 0 0 0 0 0 0 0 0 2 8 19 25 38 74 158 255 83 4 0 0 0 0 0 0 0 0 0 0 0 0 0 0 0 0 0 0 0 0 0 0 0 0 0 0 0 0 0 0 0 0 0 0 0 0 0 0 0 0 0 0 0 0 0 0 0 0 0 0 0 0 0 0 0 0 0 0 0 0 0 0 0 2 45 255 175 84 42 26 19 10 3 1 0 0 0 0 0 0 0 0 0 0 0 0 0 0 0 0 0 0 0 0 4 67 255 151 72 39 28 22 8 5 61 255 177 84 41 25 17 10 3 1 0 0 0 0 0 0 0 0 0 0 0 7 134 255 136 64 33 21 16 7 2 0 0 0 0 0 0 0 0 0 0 0 0 0 0 0 0 0 0 0 0 0 0 0 0 0 0 0 0 0 0 0 0 0 0 0 0 0 0 0 0 0 0 0 0 0 0 0 0 0 0 0 0 0 0 0 0 0 1 16 255 255 124 59 32 26 74 255 224 108 54 35 42 189 255 172 84 53 58 75 79 73 60 54 73 149 255 255 148 107 117 201 255 255 150 96 78 111 225 255 206 100 62 75 123 176 188 81 65 119 255 255 197 108 68 91 169 255 208 58 50 88 175 255 133 34 38 73 159 255 91 4 0 0 0 0 0 0 0 0 0 0 0 0 0 0 0 0 0 0 0 0 0 0 0 0 0 0 0 0 0 0 0 0 0 0 0 0 0 0 0 0 0 0 0 0 0 0 0 0 0 0 0 0 0 0 0 0 0 0 0 0 0 0 0 0 3 60 255 175 83 42 26 20 13 29 255 230 111 53 30 22 22 93 255 173 81 41 25 20 16 73 255 176 86 43 25 18 21 178 255 150 70 37 30 96 255 192 96 52 43 68 227 255 183 87 54 72 149 249 37 3 0 0 0 0 0 0 0 0 0 0 8 174 255 129 62 41 90 220 149 92 62 81 173 255 255 161 79 60 135 205 161 106 72 69 75 91 105 53 46 82 170 255 70 3 0 0 0 0 0 0 0 5 93 255 147 68 35 24 40 255 255 141 68 38 33 82 255 235 116 62 50 56 65 63 53 46 57 108 242 255 255 128 94 112 195 255 255 204 194 255 30 1 0 0 0 0 0 0 0 2 15 72 47 41 63 126 243 255 55 29 45 91 188 255 41 2 0 0 0 0 0 0 0 0 0 0 0 0 0 0 0 0 0 0 0 0 0 0 0 0 0 0 0 0 0 0 0 0 0 0 0 0 0 0 0 0 0 0 0 0 0 0 0 0 0 0 0 0 0 0 0 0 0 0 0 0 0
0 0 0 0 0 0 0 0 0 3 62 255 166 74 34 19 36 255 210 111 54 29 30 142 255 200 98 46 24 18 62 255 172 85 45 47 129 175 168 110 56 32 36 71 62 8 1 0 0 0 0 0 0 0 0 0 0 0 0 0 0 0 0 0 0 0 0 1 3 8 12 19 39 87 187 255 39 2 0 0 0 0 0 0 0 0 0 0 0 0 0 0 0 0 0 0 0 0 0 0 0 0 0 0 0 0 0 0 0 0 0 0 0 0 0 0 0 0 0 0 0 0 0 0 0 0 0 0 0 0 0 0 0 0 0 0 0 0 0 1 18 255 216 99 44 21 12 8 4 1 0 0 0 0 0 0 0 0 0 0 0 0 0 0 0 0 0 0 0 0 1 28 255 186 86 39 20 14 10 5 32 255 214 99 44 21 12 8 4 1 0 0 0 0 0 0 0 0 0 0 0 3 61 255 165 73 33 16 10 7 3 1 0 0 0 0 0 0 0 0 0 0 0 0 0 0 0 0 0 0 0 0 0 0 0 0 0 0 0 0 0 0 0 0 0 0 0 0 0 0 0 0 0 0 0 0 0 0 0 0 0 0 0 0 0 0 0 0 0 7 138 255 145 65 30 17 36 255 240 124 57 29 24 96 255 185 93 46 32 39 51 52 48 40 34 44 85 163 164 97 66 72 122 247 251 145 80 55 66 114 168 167 106 44 39 58 92 136 88 44 67 132 195 172 111 50 50 85 144 218 87 33 46 92 173 255 54 22 39 87 187 255 42 2 0 0 0 0 0 0 0 0 0 0 0 0 0 0 0 0 0 0 0 0 0 0 0 0 0 0 0 0 0 0 0 0 0 0 0 0 0 0 0 0 0 0 0 0 0 0 0 0 0 0 0 0 0 0 0 0 0 0 0 0 0 0 1 27 255 206 97 43 21 12 9 18 243 255 130 58 27 15 13 58 255 202 96 42 20 12 11 46 255 211 96 44 21 12 13 88 255 171 80 37 21 42 255 194 103 51 29 36 163 255 214 103 49 37 86 176 187 147 9 1 0 0 0 0 0 0 0 0 4 70 255 154 69 33 35 146 134 76 45 38 83 156 160 147 84 47 57 155 122 79 51 38 41 48 66 87 45 27 43 93 197 255 32 1 0 0 0 0 0 2 43 255 179 81 36 18 21 157 255 152 74 35 21 42 255 246 129 62 34 30 37 43 41 33 27 32 63 142 255 219 114 67 75 126 255 252 155 140 255 219 11 1 0 0 0 0 0 0 2 15 82 39 24 33 65 130 234 160 26 23 47 105 229 255 17 1 0 0 0 0 0 0 0 0 0 0 0 0 0 0 0 0 0 0 0 0 0 0 0 0 0 0 0 0 0 0 0 0 0 0 0 0 0 0 0 0 0 0 0 0 0 0 0 0 0 0 0 0 0 0 0 0 0 0 0 0
0 0 0 0 0 0 0 0 1 31 255 214 96 40 17 16 111 247 122 57 27 17 54 255 176 102 50 23 12 26 255 204 99 46 26 46 131 108 77 50 28 19 31 89 106 12 1 0 0 0 0 0 0 0 0 0 0 0 0 0 0 0 0 0 0 0 0 0 1 3 5 9 19 46 109 242 255 17 1 0 0 0 0 0 0 0 0 0 0 0 0 0 0 0 0 0 0 0 0 0 0 0 0 0 0 0 0 0 0 0 0 0 0 0 0 0 0 0 0 0 0 0 0 0 0 0 0 0 0 0 0 0 0 0 0 0 0 0 0 7 133 255 128 54 22 10 5 3 1 0 0 0 0 0 0 0 0 0 0 0 0 0 0 0 0 0 0 0 0 0 10 214 255 112 47 20 10 6 4 16 255 255 125 53 22 10 5 3 1 0 0 0 0 0 0 0 0 0 0 0 1 30 255 213 96 39 16 7 4 2 1 0 0 0 0 0 0 0 0 0 0 0 0 0 0 0 0 0 0 0 0 0 0 0 0 0 0 0 0 0 0 0 0 0 0 0 0 0 0 0 0 0 0 0 0 0 0 0 0 0 0 0 0 0 0 0 0 0 3 61 255 175 79 34 15 15 120 255 137 65 30 16 38 255 183 99 48 24 18 24 32 32 29 24 20 25 43 68 71 56 40 43 68 113 125 116 72 40 37 53 78 106 111 38 20 26 46 82 98 35 36 61 90 116 112 42 27 41 75 136 160 31 24 46 97 192 144 21 20 46 108 234 255 17 1 0 0 0 0 0 0 0 0 0 0 0 0 0 0 0 0 0 0 0 0 0 0 0 0 0 0 0 0 0 0 0 0 0 0 0 0 0 0 0 0 0 0 0 0 0 0 0 0 0 0 0 0 0 0 0 0 0 0 0 0 0 11 230 255 120 51 22 10 5 9 114 255 162 71 30 13 8 28 255 240 115 51 21 10 6 22 255 255 123 52 22 10 7 41 255 198 94 42 19 18 118 226 112 53 26 19 66 255 185 110 55 28 33 136 152 146 255 56 3 0 0 0 0 0 0 0 1 32 255 196 88 37 19 44 182 81 38 22 28 95 111 83 63 40 29 65 130 71 38 23 19 22 30 48 69 40 17 22 49 115 254 252 12 1 0 0 0 1 19 255 233 106 44 18 12 62 255 169 81 37 18 18 126 251 139 68 32 18 17 21 26 24 18 14 17 35 75 126 120 94 52 51 74 118 124 102 95 152 255 88 4 0 0 0 0 0 0 2 17 104 39 15 17 32 67 134 255 55 14 24 57 135 255 135 7 0 0 0 0 0 0 0 0 0 0 0 0 0 0 0 0 0 0 0 0 0 0 0 0 0 0 0 0 0 0 0 0 0 0 0 0 0 0 0 0 0 0 0 0 0 0 0 0 0 0 0 0 0 0 0 0 0 0 0 0
0 0 0 0 0 0 0 1 14 255 255 135 57 22 10 43 255 155 74 31 14 20 184 202 108 53 25 11 11 107 255 133 60 26 18 56 121 69 36 22 13 11 38 182 250 29 2 0 0 0 0 0 0 0 0 0 0 0 0 0 0 0 0 0 0 0 0 0 0 1 2 4 9 25 65 152 255 165 7 0 0 0 0 0 0 0 0 0 0 0 0 0 0 0 0 0 0 0 0 0 0 0 0 0 0 0 0 0 0 0 0 0 0 0 0 0 0 0 0 0 0 0 0 0 0 0 0 0 0 0 0 0 0 0 0 0 0 0 3 59 255 177 79 31 11 4 2 1 0 0 0 0 0 0 0 0 0 0 0 0 0 0 0 0 0 0 0 0 0 4 88 255 161 69 27 10 4 2 8 143 255 166 74 30 11 4 2 1 0 0 0 0 0 0 0 0 0 0 0 1 14 255 255 135 57 21 8 3 1 1 0 0 0 0 0 0 0 0 0 0 0 0 0 0 0 0 0 0 0 0 0 0 0 0 0 0 0 0 0 0 0 0 0 0 0 0 0 0 0 0 0 0 0 0 0 0 0 0 0 0 0 0 0 0 0 0 0 1 30 255 223 107 45 18 9 44 255 157 79 35 15 15 125 239 117 54 25 12 9 12 17 17 16 12 10 13 20 27 29 30 24 25 36 50 62 88 77 33 21 24 37 69 120 40 11 12 24 56 119 35 20 27 43 78 115 44 16 20 41 95 222 53 15 24 57 125 255 49 13 25 63 146 255 152 7 0 0 0 0 0 0 0 0 0 0 0 0 0 0 0 0 0 0 0 0 0 0 0 0 0 0 0 0 0 0 0 0 0 0 0 0 0 0 0 0 0 0 0 0 0 0 0 0 0 0 0 0 0 0 0 0 0 0 0 0 5 98 255 167 72 28 10 4 5 53 255 201 97 41 15 6 11 155 255 149 67 28 10 4 9 139 255 157 72 29 11 5 17 255 252 123 54 22 11 44 255 142 67 28 14 24 222 192 109 57 29 18 52 215 137 134 216 255 26 1 0 0 0 0 0 1 14 255 255 125 52 20 16 79 152 60 21 12 27 128 81 44 27 19 23 99 101 45 18 10 8 11 18 38 59 37 11 12 27 68 157 255 109 5 0 0 0 8 172 255 146 63 24 10 25 255 205 105 45 19 11 47 255 158 80 37 16 8 8 10 13 12 9 6 8 18 37 55 63 79 47 36 42 52 59 65 67 99 201 255 43 2 0 0 0 0 0 3 27 156 55 11 8 16 36 88 187 221 20 13 32 82 182 255 61 3 0 0 0 0 0 0 0 0 0 0 0 0 0 0 0 0 0 0 0 0 0 0 0 0 0 0 0 0 0 0 0 0 0 0 0 0 0 0 0 0 0 0 0 0 0 0 0 0 0 0 0 0 0 0 0 0 0 0 0
0 0 0 0 0 0 0 7 147 255 179 90 38 13 18 254 240 122 52 18 11 69 255 149 73 30 13 7 48 255 189 98 41 16 18 107 118 54 19 9 6 12 117 255 255 142 8 0 0 0 0 0 0 0 0 0 0 0 0 0 0 0 0 0 0 0 0 0 0 0 1 1 4 14 44 102 201 255 80 4 0 0 0 0 0 0 0 0 0 0 0 0 0 0 0 0 0 0 0 0 0 0 0 0 0 0 0 0 0 0 0 0 0 0 0 0 0 0 0 0 0 0 0 0 0 0 0 0 0 0 0 0 0 0 0 0 0 1 29 255 236 122 54 18 5 2 1 0 0 0 0 0 0 0 0 0 0 0 0 0 0 0 0 0 0 0 0 0 2 45 255 215 111 49 16 5 2 4 68 255 207 108 49 17 5 2 1 0 0 0 0 0 0 0 0 0 0 0 0 6 131 255 181 90 38 12 3 1 0 0 0 0 0 0 0 0 0 0 0 0 0 0 0 0 0 0 0 0 0 0 0 0 0 0 0 0 0 0 0 0 0 0 0 0 0 0 0 0 0 0 0 0 0 0 0 0 0 0 0 0 0 0 0 0 0 0 1 14 255 255 148 71 28 10 18 243 231 117 52 20 10 50 255 164 83 34 13 5 4 5 7 8 7 5 4 5 8 10 12 14 13 14 18 22 34 78 113 35 12 11 20 58 141 64 9 6 14 54 159 51 13 12 23 65 131 64 12 11 27 88 180 170 18 14 39 105 209 213 19 15 42 98 197 255 74 3 0 0 0 0 0 0 0 0 0 0 0 0 0 0 0 0 0 0 0 0 0 0 0 0 0 0 0 0 0 0 0 0 0 0 0 0 0 0 0 0 0 0 0 0 0 0 0 0 0 0 0 0 0 0 0 0 0 0 2 49 255 215 112 49 16 5 3 24 255 245 131 64 25 8 6 65 255 183 97 43 15 5 5 63 255 193 102 47 17 5 8 118 255 168 83 34 13 18 230 232 115 47 16 12 91 255 148 71 33 16 20 175 211 157 141 163 255 239 11 0 0 0 0 0 7 144 255 176 85 34 13 27 246 128 55 14 8 43 190 85 27 12 10 33 218 103 34 10 4 3 5 10 33 62 37 8 6 16 46 106 211 255 56 3 0 4 83 255 197 99 42 14 12 131 255 146 70 28 11 19 255 229 120 52 21 8 4 3 4 5 5 3 3 4 9 17 24 37 78 53 29 23 24 29 43 55 74 138 255 255 20 1 0 0 0 0 5 64 211 173 16 4 8 22 65 144 255 83 11 20 56 123 236 255 29 1 0 0 0 0 0 0 0 0 0 0 0 0 0 0 0 0 0 0 0 0 0 0 0 0 0 0 0 0 0 0 0 0 0 0 0 0 0 0 0 0 0 0 0 0 0 0 0 0 0 0 0 0 0 0 0 0 0 0
0 0 0 0 0 0 3 72 255 212 119 68 27 13 106 255 171 106 44 13 31 255 208 126 61 19 7 21 255 247 142 84 33 12 41 255 156 59 12 4 5 49 255 236 219 255 64 3 0 0 0 0 0 0 0 0 0 0 0 0 0 0 0 0 0 0 0 0 0 0 0 1 2 8 33 76 133 235 255 43 2 0 0 0 0 0 0 0 0 0 0 0 0 0 0 0 0 0 0 0 0 0 0 0 0 0 0 0 0 0 0 0 0 0 0 0 0 0 0 0 0 0 0 0 0 0 0 0 0 0 0 0 0 0 0 0 1 13 255 255 157 89 43 12 3 1 0 0 0 0 0 0 0 0 0 0 0 0 0 0 0 0 0 0 0 0 0 1 23 255 255 145 84 40 10 2 2 34 255 237 135 77 36 10 3 1 0 0 0 0 0 0 0 0 0 0 0 0 3 62 255 209 120 68 27 7 2 0 0 0 0 0 0 0 0 0 0 0 0 0 0 0 0 0 0 0 0 0 0 0 0 0 0 0 0 0 0 0 0 0 0 0 0 0 0 0 0 0 0 0 0 0 0 0 0 0 0 0 0 0 0 0 0 0 0 0 6 139 255 186 103 54 19 11 108 255 165 97 40 13 22 255 233 134 71 24 7 2 1 2 2 3 2 2 2 2 3 3 4 5 5 6 8 10 25 107 214 65 9 5 14 74 176 222 18 4 13 93 187 153 15 6 16 82 169 185 19 7 24 106 161 255 67 12 33 101 159 255 87 14 31 74 133 238 255 40 2 0 0 0 0 0 0 0 0 0 0 0 0 0 0 0 0 0 0 0 0 0 0 0 0 0 0 0 0 0 0 0 0 0 0 0 0 0 0 0 0 0 0 0 0 0 0 0 0 0 0 0 0 0 0 0 0 1 24 255 255 142 82 37 10 3 10 193 255 161 91 47 16 6 32 255 227 128 71 31 9 4 33 255 237 132 74 33 10 5 56 255 205 119 64 24 12 95 255 169 105 40 12 44 255 202 126 58 21 12 76 255 197 190 170 134 191 255 109 5 0 0 0 3 73 255 212 120 67 25 14 116 255 160 72 12 12 137 202 151 26 7 10 105 247 177 40 6 2 1 2 7 35 97 45 7 3 9 34 80 141 253 255 29 3 44 255 234 132 75 32 12 60 255 190 112 56 19 12 116 255 167 101 41 12 4 1 1 1 2 1 1 1 1 3 7 11 28 106 95 27 13 10 14 31 54 68 100 170 255 172 8 0 0 0 1 22 255 233 255 71 5 4 15 61 126 202 255 40 15 43 89 156 255 255 12 1 0 0 0 0 0 0 0 0 0 0 0 0 0 0 0 0 0 0 0 0 0 0 0 0 0 0 0 0 0 0 0 0 0 0 0 0 0 0 0 0 0 0 0 0 0 0 0 0 0 0 0 0 0 0 0 0 0
0 0 0 0 0 2 37 255 230 130 82 56 23 58 255 197 124 102 46 21 203 255 148 108 63 14 11 152 255 158 105 82 32 21 247 243 215 120 13 3 21 255 239 173 170 234 255 33 1 0 0 0 0 0 0 0 0 0 0 0 0 0 0 0 0 0 0 0 0 0 0 0 1 5 25 61 88 144 255 255 22 1 0 0 0 0 0 0 0 0 0 0 0 0 0 0 0 0 0 0 0 0 0 0 0 0 0 0 0 0 0 0 0 0 0 0 0 0 0 0 0 0 0 0 0 0 0 0 0 0 0 0 0 0 0 0 6 128 255 177 103 70 35 8 1 0 0 0 0 0 0 0 0 0 0 0 0 0 0 0 0 0 0 0 0 0 0 10 210 255 164 97 69 35 7 2 16 255 255 147 88 60 28 6 1 0 0 0 0 0 0 0 0 0 0 0 0 1 32 255 233 129 81 56 19 4 1 0 0 0 0 0 0 0 0 0 0 0 0 0 0 0 0 0 0 0 0 0 0 0 0 0 0 0 0 0 0 0 0 0 0 0 0 0 0 0 0 0 0 0 0 0 0 0 0 0 0 0 0 0 0 0 0 0 0 3 65 255 201 116 75 46 16 58 255 201 120 89 37 16 135 255 157 109 72 18 4 1 1 1 1 1 1 1 0 1 1 1 1 2 2 2 3 6 34 216 234 255 23 4 19 168 214 255 82 7 28 255 204 255 58 7 21 178 215 255 73 9 32 159 156 208 255 36 36 111 128 198 255 47 27 61 90 147 255 255 19 1 0 0 0 0 0 0 0 0 0 0 0 0 0 0 0 0 0 0 0 0 0 0 0 0 0 0 0 0 0 0 0 0 0 0 0 0 0 0 0 0 0 0 0 0 0 0 0 0 0 0 0 0 0 0 0 11 233 255 159 94 64 30 7 6 85 255 181 104 68 37 11 16 255 255 148 91 57 23 6 16 255 255 151 91 58 24 7 30 255 237 132 86 55 20 50 255 200 127 106 44 26 255 251 146 110 58 16 38 255 215 175 187 182 122 125 211 255 55 3 0 2 39 255 233 131 84 57 22 61 255 194 190 168 22 57 255 198 242 53 8 42 255 195 231 101 9 1 0 1 7 66 225 99 9 2 6 27 64 94 155 255 255 37 255 255 144 89 62 26 34 255 227 130 90 51 17 60 255 198 123 94 37 8 2 1 0 0 0 0 0 0 0 1 3 6 36 213 255 50 8 5 7 23 71 82 80 109 187 255 76 4 0 0 8 153 255 223 225 255 35 4 13 72 112 142 255 255 26 37 69 101 174 255 107 5 0 0 0 0 0 0 0 0 0 0 0 0 0 0 0 0 0 0 0 0 0 0 0 0 0 0 0 0 0 0 0 0 0 0 0 0 0 0 0 0 0 0 0 0 0 0 0 0 0 0 0 0 0 0 0 0 0
0 0 0 0 1 17 255 254 132 75 55 48 49 255 230 120 87 99 70 121 255 161 99 91 79 18 75 255 176 97 78 87 43 131 255 178 192 255 36 10 138 255 149 111 113 143 255 255 15 1 0 0 0 0 0 0 0 0 0 0 0 0 0 0 0 0 0 0 0 0 0 0 1 3 18 48 58 82 150 255 195 9 0 0 0 0 0 0 0 0 0 0 0 0 0 0 0 0 0 0 0 0 0 0 0 0 0 0 0 0 0 0 0 0 0 0 0 0 0 0 0 0 0 0 0 0 0 0 0 0 0 0 0 0 0 3 60 255 189 102 65 54 28 5 1 0 0 0 0 0 0 0 0 0 0 0 0 0 0 0 0 0 0 0 0 0 4 90 255 169 93 64 58 31 6 8 149 255 158 85 57 46 20 4 1 0 0 0 0 0 0 0 0 0 0 0 1 14 255 255 136 75 55 46 13 2 0 0 0 0 0 0 0 0 0 0 0 0 0 0 0 0 0 0 0 0 0 0 0 0 0 0 0 0 0 0 0 0 0 0 0 0 0 0 0 0 0 0 0 0 0 0 0 0 0 0 0 0 0 0 0 0 0 0 1 32 255 216 114 69 54 41 42 255 230 123 85 85 43 75 255 175 101 87 82 17 3 1 0 0 0 0 0 0 0 0 0 0 0 0 1 1 1 8 89 217 197 255 131 12 53 255 191 190 255 46 121 241 194 208 255 29 56 249 198 200 255 42 72 180 138 141 255 247 73 122 100 127 242 255 48 53 59 84 153 255 175 8 0 0 0 0 0 0 0 0 0 0 0 0 0 0 0 0 0 0 0 0 0 0 0 0 0 0 0 0 0 0 0 0 0 0 0 0 0 0 0 0 0 0 0 0 0 0 0 0 0 0 0 0 0 0 5 96 255 169 91 60 49 23 6 43 255 201 106 65 50 29 13 120 255 159 89 63 45 16 10 135 255 161 89 61 47 17 17 255 255 140 80 61 51 41 255 235 123 92 108 80 185 255 150 97 93 71 30 248 254 142 130 142 146 110 82 123 229 255 27 2 18 255 254 133 76 58 52 51 255 227 142 178 255 129 255 216 174 188 219 34 255 227 155 184 255 34 2 0 1 22 255 253 255 35 3 4 21 51 61 89 164 255 255 255 148 82 59 52 35 228 255 136 83 74 53 46 255 225 121 87 89 37 6 1 0 0 0 0 0 0 0 0 0 1 8 91 238 255 255 18 3 4 24 143 140 73 69 108 206 255 37 2 3 64 255 179 153 153 255 255 17 16 109 99 95 153 255 167 42 53 64 100 189 255 50 2 0 0 0 0 0 0 0 0 0 0 0 0 0 0 0 0 0 0 0 0 0 0 0 0 0 0 0 0 0 0 0 0 0 0 0 0 0 0 0 0 0 0 0 0 0 0 0 0 0 0 0 0 0 0 0 0
0 0 0 0 7 153 255 140 68 41 36 62 255 255 130 68 61 104 251 255 190 92 63 77 122 72 255 202 98 57 59 103 207 255 183 117 138 197 160 78 255 156 84 64 65 79 147 255 147 7 0 0 0 0 0 0 0 0 0 0 0 0 0 0 0 0 0 0 0 0 0 0 0 2 12 33 35 44 78 160 255 78 4 0 0 0 0 0 0 0 0 0 0 0 0 0 0 0 0 0 0 0 0 0 0 0 0 0 0 0 0 0 0 0 0 0 0 0 0 0 0 0 0 0 0 0 0 0 0 0 0 0 0 0 1 28 255 208 102 54 39 37 19 4 1 0 0 0 0 0 0 0 0 0 0 0 0 0 0 0 0 0 0 0 0 2 44 255 187 90 50 39 44 25 8 68 255 172 84 46 34 31 12 2 0 0 0 0 0 0 0 0 0 0 0 0 6 111 255 144 71 41 34 33 9 2 0 0 0 0 0 0 0 0 0 0 0 0 0 0 0 0 0 0 0 0 0 0 0 0 0 0 0 0 0 0 0 0 0 0 0 0 0 0 0 0 0 0 0 0 0 0 0 0 0 0 0 0 0 0 0 0 0 1 13 255 252 120 59 38 38 60 255 255 128 69 58 83 118 255 206 100 61 68 97 18 2 0 0 0 0 0 0 0 0 0 0 0 0 0 0 0 2 28 255 146 130 166 255 100 255 169 133 127 246 255 255 158 133 136 255 248 255 164 137 136 255 255 255 146 107 89 152 255 255 138 78 75 138 255 255 62 38 45 80 163 255 71 4 0 0 0 0 0 0 0 0 0 0 0 0 0 0 0 0 0 0 0 0 0 0 0 0 0 0 0 0 0 0 0 0 0 0 0 0 0 0 0 0 0 0 0 0 0 0 0 0 0 0 0 0 2 44 255 183 90 49 36 33 16 23 255 232 112 57 38 34 23 69 255 176 86 50 40 32 14 65 255 172 85 48 38 34 18 137 255 152 75 46 43 66 255 255 133 71 66 122 255 255 172 85 62 78 124 209 255 144 84 84 90 94 87 54 66 126 255 227 19 148 255 139 69 42 39 72 255 255 132 95 133 205 255 255 139 120 140 255 255 255 139 105 133 217 202 11 1 7 122 255 199 229 198 11 3 14 36 36 48 91 199 255 177 81 44 37 51 180 255 150 75 51 60 89 255 255 126 68 59 78 40 6 1 0 0 0 0 0 0 0 0 0 2 28 255 162 172 255 107 7 5 51 243 220 89 44 58 114 239 255 17 29 255 196 106 89 91 148 255 142 38 168 92 63 87 176 255 155 46 38 54 104 216 255 22 1 0 0 0 0 0 0 0 0 0 0 0 0 0 0 0 0 0 0 0 0 0 0 0 0 0 0 0 0 0 0 0 0 0 0 0 0 0 0 0 0 0 0 0 0 0 0 0 0 0 0 0 0 0 0 0
0 0 0 3 66 255 161 71 33 21 33 203 255 145 67 37 48 149 255 223 103 49 39 75 211 255 254 110 50 32 52 181 255 221 102 69 83 129 255 255 204 86 43 33 33 40 75 166 255 68 3 0 0 0 0 0 0 0 0 0 0 0 0 0 0 0 0 0 0 0 0 0 0 1 6 17 18 21 38 82 179 255 35 2 0 0 0 0 0 0 0 0 0 0 0 0 0 0 0 0 0 0 0 0 0 0 0 0 0 0 0 0 0 0 0 0 0 0 0 0 0 0 0 0 0 0 0 0 0 0 0 0 0 0 11 226 254 113 50 26 20 20 10 2 0 0 0 0 0 0 0 0 0 0 0 0 0 0 0 0 0 0 0 0 1 19 255 222 101 44 24 22 28 18 37 255 194 89 41 22 17 16 6 1 0 0 0 0 0 0 0 0 0 0 0 2 49 255 164 73 34 20 18 18 5 1 0 0 0 0 0 0 0 0 0 0 0 0 0 0 0 0 0 0 0 0 0 0 0 0 0 0 0 0 0 0 0 0 0 0 0 0 0 0 0 0 0 0 0 0 0 0 0 0 0 0 0 0 0 0 0 0 0 5 104 255 135 59 29 20 39 255 255 147 66 36 41 122 255 255 113 52 36 54 102 23 3 0 0 0 0 0 0 0 0 0 0 0 0 0 0 0 8 132 216 103 76 99 219 255 255 120 79 77 144 255 238 108 78 81 156 255 255 119 80 82 148 255 255 131 75 54 84 180 255 166 66 43 73 162 255 180 32 23 39 84 183 255 31 1 0 0 0 0 0 0 0 0 0 0 0 0 0 0 0 0 0 0 0 0 0 0 0 0 0 0 0 0 0 0 0 0 0 0 0 0 0 0 0 0 0 0 0 0 0 0 0 0 0 0 1 18 255 214 97 44 24 19 18 18 179 255 126 56 28 20 20 52 255 209 94 43 25 22 20 40 255 197 90 42 24 20 24 83 255 174 78 37 24 40 218 255 158 70 39 54 162 255 198 92 45 38 83 255 255 178 79 46 46 49 53 57 33 33 63 142 255 255 255 156 70 33 21 38 224 255 144 71 58 85 132 214 154 82 73 98 194 255 182 83 64 80 131 255 74 7 48 255 155 119 141 255 72 6 8 19 19 24 45 88 124 81 40 22 26 126 255 178 79 38 31 69 255 255 147 65 36 38 61 42 6 1 0 0 0 0 0 0 0 0 0 7 121 213 111 100 162 255 46 16 191 180 179 127 34 30 57 129 255 163 238 248 110 56 45 48 77 165 255 255 164 91 42 46 93 196 255 91 24 27 52 118 255 164 8 0 0 0 0 0 0 0 0 0 0 0 0 0 0 0 0 0 0 0 0 0 0 0 0 0 0 0 0 0 0 0 0 0 0 0 0 0 0 0 0 0 0 0 0 0 0 0 0 0 0 0 0 0 0 0
0 0 1 29 255 190 84 34 15 13 69 255 149 71 32 21 48 157 149 102 50 25 27 97 217 255 134 56 24 20 66 195 177 107 52 37 46 89 210 255 115 44 21 15 14 18 36 86 196 255 34 1 0 0 0 0 0 0 0 0 0 0 0 0 0 0 0 0 0 0 0 0 0 1 3 7 7 9 17 39 97 229 255 14 1 0 0 0 0 0 0 0 0 0 0 0 0 0 0 0 0 0 0 0 0 0 0 0 0 0 0 0 0 0 0 0 0 0 0 0 0 0 0 0 0 0 0 0 0 0 0 0 0 4 88 255 136 56 23 11 9 8 4 1 0 0 0 0 0 0 0 0 0 0 0 0 0 0 0 0 0 0 0 0 7 141 255 120 49 20 11 10 14 27 255 245 104 43 18 10 7 6 3 1 0 0 0 0 0 0 0 0 0 0 1 21 255 204 88 35 15 9 8 7 2 0 0 0 0 0 0 0 0 0 0 0 0 0 0 0 0 0 0 0 0 0 0 0 0 0 0 0 0 0 0 0 0 0 0 0 0 0 0 0 0 0 0 0 0 0 0 0 0 0 0 0 0 0 0 0 0 0 2 48 255 165 69 28 13 15 98 255 157 73 32 19 42 192 211 129 57 26 20 44 87 27 3 0 0 0 0 0 0 0 0 0 0 0 0 0 0 3 50 255 125 63 42 55 119 231 173 80 44 42 73 129 108 63 42 44 84 173 164 80 45 44 76 144 144 96 50 30 42 81 123 129 60 26 36 79 153 253 56 13 18 40 99 236 238 12 1 0 0 0 0 0 0 0 0 0 0 0 0 0 0 0 0 0 0 0 0 0 0 0 0 0 0 0 0 0 0 0 0 0 0 0 0 0 0 0 0 0 0 0 0 0 0 0 0 0 6 130 255 117 47 20 10 8 12 94 255 153 64 26 13 9 28 255 248 112 46 20 11 11 25 255 251 107 43 19 11 11 50 255 201 90 37 17 16 79 255 159 78 35 22 52 141 128 88 44 23 29 118 209 183 92 40 23 22 23 25 30 18 16 30 76 196 255 223 85 33 15 14 73 243 145 71 36 32 47 67 84 65 42 40 59 96 137 87 44 35 44 76 168 255 62 255 195 91 65 82 169 255 32 5 8 8 10 19 33 42 31 17 12 43 255 179 89 38 19 25 138 231 150 72 32 18 22 42 41 6 1 0 0 0 0 0 0 0 0 2 45 255 123 66 55 92 206 255 114 255 126 111 145 35 16 27 66 167 255 255 138 56 27 20 22 38 89 220 255 162 90 30 23 44 96 180 228 31 13 24 59 142 255 64 3 0 0 0 0 0 0 0 0 0 0 0 0 0 0 0 0 0 0 0 0 0 0 0 0 0 0 0 0 0 0 0 0 0 0 0 0 0 0 0 0 0 0 0 0 0 0 0 0 0 0 0 0 0 0
0 0 10 205 252 107 42 16 7 19 200 148 74 33 15 13 54 112 70 42 22 12 26 135 138 116 63 27 12 17 103 126 81 47 24 18 25 53 95 107 57 22 9 6 5 8 17 43 110 253 255 15 1 0 0 0 0 0 0 0 0 0 0 0 0 0 0 0 0 0 0 0 0 0 1 2 3 4 7 18 50 131 255 109 5 0 0 0 0 0 0 0 0 0 0 0 0 0 0 0 0 0 0 0 0 0 0 0 0 0 0 0 0 0 0 0 0 0 0 0 0 0 0 0 0 0 0 0 0 0 0 0 2 41 255 177 73 27 10 5 3 3 1 0 0 0 0 0 0 0 0 0 0 0 0 0 0 0 0 0 0 0 0 3 59 255 153 62 23 9 4 4 14 180 255 140 54 20 8 4 3 2 1 0 0 0 0 0 0 0 0 0 0 0 8 167 255 117 44 16 6 3 3 2 1 0 0 0 0 0 0 0 0 0 0 0 0 0 0 0 0 0 0 0 0 0 0 0 0 0 0 0 0 0 0 0 0 0 0 0 0 0 0 0 0 0 0 0 0 0 0 0 0 0 0 0 0 0 0 0 0 1 21 255 218 93 34 13 7 29 255 146 76 34 15 13 58 165 104 58 27 12 12 34 64 31 4 0 0 0 0 0 0 0 0 0 0 0 0 0 1 20 255 195 81 37 22 28 56 92 78 47 24 21 32 47 43 31 21 22 40 69 69 46 24 22 35 56 61 57 32 16 19 33 52 77 53 16 17 36 76 149 126 14 8 19 51 135 255 90 5 0 0 0 0 0 0 0 0 0 0 0 0 0 0 0 0 0 0 0 0 0 0 0 0 0 0 0 0 0 0 0 0 0 0 0 0 0 0 0 0 0 0 0 0 0 0 0 0 3 57 255 158 62 23 9 4 5 45 255 193 83 31 12 5 10 124 255 136 57 22 9 5 10 120 255 142 56 20 8 5 19 255 237 109 44 17 8 22 204 145 77 36 16 14 51 88 57 35 19 12 31 149 114 80 42 19 10 9 9 11 12 8 7 14 39 98 163 108 44 16 7 19 180 134 70 33 17 16 22 28 30 24 19 20 31 41 50 36 21 17 23 42 102 255 255 255 118 50 34 46 102 246 255 14 3 3 4 7 11 13 11 7 12 107 185 93 42 18 11 38 218 126 69 33 14 8 12 26 36 6 1 0 0 0 0 0 0 0 1 17 255 199 82 38 29 50 124 255 255 191 89 71 116 40 10 13 34 95 211 191 80 29 12 8 10 18 45 106 159 129 92 24 12 20 44 97 212 64 10 11 29 78 188 255 29 1 0 0 0 0 0 0 0 0 0 0 0 0 0 0 0 0 0 0 0 0 0 0 0 0 0 0 0 0 0 0 0 0 0 0 0 0 0 0 0 0 0 0 0 0 0 0 0 0 0 0 0 0 0
0 4 83 255 153 61 21 7 7 59 255 101 38 15 7 12 75 73 34 17 9 8 36 168 88 52 28 12 7 26 194 84 39 20 11 8 13 28 40 41 25 10 4 2 2 3 8 22 63 156 255 138 6 0 0 0 0 0 0 0 0 0 0 0 0 0 0 0 0 0 0 0 0 0 0 1 1 1 3 9 27 79 186 255 51 2 0 0 0 0 0 0 0 0 0 0 0 0 0 0 0 0 0 0 0 0 0 0 0 0 0 0 0 0 0 0 0 0 0 0 0 0 0 0 0 0 0 0 0 0 0 1 19 255 249 112 41 13 4 2 1 1 0 0 0 0 0 0 0 0 0 0 0 0 0 0 0 0 0 0 0 0 1 29 255 217 94 34 11 4 2 5 77 255 189 83 29 9 3 1 1 1 0 0 0 0 0 0 0 0 0 0 0 4 74 255 171 70 24 8 3 1 1 1 0 0 0 0 0 0 0 0 0 0 0 0 0 0 0 0 0 0 0 0 0 0 0 0 0 0 0 0 0 0 0 0 0 0 0 0 0 0 0 0 0 0 0 0 0 0 0 0 0 0 0 0 0 0 0 0 0 8 183 255 137 53 18 6 8 88 230 94 38 16 7 13 108 110 54 26 12 5 7 25 47 32 4 0 0 0 0 0 0 0 0 0 0 0 0 0 8 154 255 131 54 22 11 13 24 35 32 24 12 10 12 16 16 13 9 10 17 26 27 23 12 10 14 21 25 30 18 8 8 13 22 42 46 11 8 16 39 95 255 35 6 9 28 82 190 255 42 2 0 0 0 0 0 0 0 0 0 0 0 0 0 0 0 0 0 0 0 0 0 0 0 0 0 0 0 0 0 0 0 0 0 0 0 0 0 0 0 0 0 0 0 0 0 0 1 26 255 222 99 35 11 4 2 17 255 243 118 46 16 5 5 47 255 169 77 30 10 4 4 48 255 179 83 30 10 4 7 92 255 145 61 22 8 7 61 252 96 39 16 8 11 51 51 25 14 8 8 43 151 68 35 18 8 4 3 3 4 4 3 3 7 19 44 65 48 22 7 6 51 255 90 35 15 7 7 9 11 10 9 8 9 14 16 17 13 9 8 11 24 66 167 255 193 79 30 18 26 63 156 255 118 6 1 1 2 3 4 3 4 32 255 116 50 20 8 10 83 177 78 33 14 6 4 6 15 26 5 1 0 0 0 0 0 0 0 6 127 255 134 55 23 16 29 81 188 247 136 70 52 84 52 8 6 18 50 92 86 43 15 5 3 4 8 22 48 71 95 108 24 7 9 21 56 130 204 17 6 15 44 121 255 244 11 1 0 0 0 0 0 0 0 0 0 0 0 0 0 0 0 0 0 0 0 0 0 0 0 0 0 0 0 0 0 0 0 0 0 0 0 0 0 0 0 0 0 0 0 0 0 0 0 0 0 0 0 0
2 42 255 223 111 42 12 4 21 255 192 93 25 7 4 19 187 66 19 7 4 8 80 178 78 27 13 6 7 74 238 92 23 9 4 3 6 13 16 16 10 4 2 1 1 1 3 12 43 108 212 255 66 3 0 0 0 0 0 0 0 0 0 0 0 0 0 0 0 0 0 0 0 0 0 0 0 0 1 4 16 56 133 255 255 25 1 0 0 0 0 0 0 0 0 0 0 0 0 0 0 0 0 0 0 0 0 0 0 0 0 0 0 0 0 0 0 0 0 0 0 0 0 0 0 0 0 0 0 0 0 8 180 255 172 80 26 7 2 1 0 0 0 0 0 0 0 0 0 0 0 0 0 0 0 0 0 0 0 0 0 1 13 255 255 156 68 21 6 2 2 35 255 232 128 57 18 5 1 0 0 0 0 0 0 0 0 0 0 0 0 0 2 39 255 237 123 49 14 4 1 0 0 0 0 0 0 0 0 0 0 0 0 0 0 0 0 0 0 0 0 0 0 0 0 0 0 0 0 0 0 0 0 0 0 0 0 0 0 0 0 0 0 0 0 0 0 0 0 0 0 0 0 0 0 0 0 0 0 0 4 86 255 199 97 36 10 4 33 255 162 75 23 7 5 32 255 103 33 12 5 2 4 17 37 31 4 0 0 0 0 0 0 0 0 0 0 0 0 3 73 255 197 102 44 14 5 6 10 13 13 11 5 4 4 5 5 5 4 4 6 9 10 10 5 4 5 7 10 14 9 4 3 5 10 24 41 8 4 8 25 95 224 152 10 5 17 59 137 255 255 20 1 0 0 0 0 0 0 0 0 0 0 0 0 0 0 0 0 0 0 0 0 0 0 0 0 0 0 0 0 0 0 0 0 0 0 0 0 0 0 0 0 0 0 0 0 0 11 229 255 156 71 22 6 2 6 117 255 166 80 29 8 3 19 255 243 126 52 17 5 2 21 255 247 128 56 18 5 3 41 255 203 104 40 12 5 22 255 183 85 24 8 4 10 60 33 12 5 3 10 98 145 54 18 8 3 2 1 1 1 1 1 1 3 9 19 25 21 10 4 17 255 190 86 22 7 3 2 3 4 3 3 3 3 5 6 6 5 3 3 5 15 49 104 145 114 59 20 10 16 46 114 220 255 59 3 1 1 1 1 1 10 159 247 111 33 10 5 28 255 143 59 18 6 2 1 2 7 13 3 0 0 0 0 0 0 0 3 58 255 202 106 45 15 9 19 58 105 125 101 72 53 79 106 11 4 9 26 40 39 23 7 2 1 2 4 10 22 37 91 166 35 5 4 11 39 121 255 68 6 8 30 88 185 255 115 5 0 0 0 0 0 0 0 0 0 0 0 0 0 0 0 0 0 0 0 0 0 0 0 0 0 0 0 0 0 0 0 0 0 0 0 0 0 0 0 0 0 0 0 0 0 0 0 0 0 0 0 0
22 255 255 170 103 38 8 9 154 255 183 128 24 5 6 75 255 164 19 4 3 29 255 196 121 22 6 4 31 255 214 182 26 5 2 1 2 5 6 5 4 2 1 0 0 0 2 8 37 97 158 255 255 33 1 0 0 0 0 0 0 0 0 0 0 0 0 0 0 0 0 0 0 0 0 0 0 0 1 2 11 53 116 187 255 241 11 0 0 0 0 0 0 0 0 0 0 0 0 0 0 0 0 0 0 0 0 0 0 0 0 0 0 0 0 0 0 0 0 0 0 0 0 0 0 0 0 0 0 0 4 84 255 223 138 78 20 4 1 0 0 0 0 0 0 0 0 0 0 0 0 0 0 0 0 0 0 0 0 0 0 7 148 255 210 130 67 16 3 1 15 255 255 173 106 51 12 2 1 0 0 0 0 0 0 0 0 0 0 0 0 1 20 255 255 175 109 46 9 2 0 0 0 0 0 0 0 0 0 0 0 0 0 0 0 0 0 0 0 0 0 0 0 0 0 0 0 0 0 0 0 0 0 0 0 0 0 0 0 0 0 0 0 0 0 0 0 0 0 0 0 0 0 0 0 0 0 0 0 2 46 255 250 153 92 30 7 14 255 255 168 90 18 4 10 163 255 190 35 7 2 1 2 10 30 27 4 0 0 0 0 0 0 0 0 0 0 0 2 41 255 255 157 109 49 10 3 2 3 4 5 4 2 1 1 2 2 2 1 1 2 3 3 3 2 1 2 2 4 5 3 1 1 2 5 14 35 7 2 5 25 144 194 255 67 6 12 56 120 196 255 227 10 0 0 0 0 0 0 0 0 0 0 0 0 0 0 0 0 0 0 0 0 0 0 0 0 0 0 0 0 0 0 0 0 0 0 0 0 0 0 0 0 0 0 0 0 5 108 255 209 129 70 16 3 4 58 255 226 137 74 22 5 8 139 255 187 117 47 11 3 9 169 255 189 114 50 12 3 18 255 255 167 97 34 8 9 145 255 184 114 21 4 2 13 113 29 7 2 3 37 255 189 72 12 3 1 1 0 0 0 0 0 0 1 3 7 9 8 4 7 115 255 187 125 21 4 1 1 1 1 1 1 1 1 2 2 2 1 1 1 3 10 45 75 81 76 54 15 6 11 45 106 165 255 255 29 1 0 0 0 4 69 255 200 149 33 6 10 162 255 186 70 13 3 1 1 1 3 4 1 0 0 0 0 0 0 1 29 255 255 160 113 51 11 5 13 50 67 75 100 136 110 171 255 37 3 4 12 18 17 11 3 1 0 1 1 4 10 31 161 242 115 8 2 7 42 167 220 255 29 6 24 86 147 241 255 62 3 0 0 0 0 0 0 0 0 0 0 0 0 0 0 0 0 0 0 0 0 0 0 0 0 0 0 0 0 0 0 0 0 0 0 0 0 0 0 0 0 0 0 0 0 0 0 0 0 0 0 0
255 255 192 139 127 48 11 76 255 216 187 224 41 6 37 255 245 255 61 5 11 202 255 236 255 39 5 13 242 255 222 255 66 6 1 0 1 2 2 2 1 1 0 0 0 0 1 6 44 119 130 176 255 255 15 1 0 0 0 0 0 0 0 0 0 0 0 0 0 0 0 0 0 0 0 0 0 0 0 2 11 75 127 142 206 255 114 5 0 0 0 0 0 0 0 0 0 0 0 0 0 0 0 0 0 0 0 0 0 0 0 0 0 0 0 0 0 0 0 0 0 0 0 0 0 0 0 0 0 2 43 255 241 157 129 115 21 3 1 0 0 0 0 0 0 0 0 0 0 0 0 0 0 0 0 0 0 0 0 0 3 75 255 228 151 129 105 16 2 7 141 255 196 137 115 62 10 2 0 0 0 0 0 0 0 0 0 0 0 0 0 9 190 255 195 138 126 62 8 1 0 0 0 0 0 0 0 0 0 0 0 0 0 0 0 0 0 0 0 0 0 0 0 0 0 0 0 0 0 0 0 0 0 0 0 0 0 0 0 0 0 0 0 0 0 0 0 0 0 0 0 0 0 0 0 0 0 0 1 22 255 255 171 132 123 33 11 119 255 203 183 191 26 7 75 255 217 255 84 8 1 0 1 6 21 19 3 0 0 0 0 0 0 0 0 0 0 1 21 255 255 178 142 166 103 11 2 1 1 1 1 1 1 0 0 0 0 0 0 0 1 1 1 1 1 0 1 1 1 1 1 1 0 1 2 8 24 5 1 5 52 238 194 245 255 36 13 81 131 147 216 255 108 5 0 0 0 0 0 0 0 0 0 0 0 0 0 0 0 0 0 0 0 0 0 0 0 0 0 0 0 0 0 0 0 0 0 0 0 0 0 0 0 0 0 0 3 57 255 234 152 129 103 16 4 30 255 255 165 133 104 21 7 65 255 213 153 140 64 9 5 77 255 211 150 131 65 10 9 158 255 190 146 126 40 10 71 255 215 191 220 36 4 3 36 255 56 6 2 15 255 255 249 223 20 2 1 0 0 0 0 0 0 0 0 1 2 3 3 4 59 255 226 196 237 38 4 1 0 0 0 0 0 0 0 0 1 1 0 0 0 1 8 50 65 54 62 62 12 4 9 63 131 135 180 255 255 12 1 0 2 34 255 243 184 212 60 10 72 255 212 216 172 18 2 0 0 0 1 1 0 0 0 0 0 0 1 14 255 255 180 143 168 100 12 3 11 52 53 64 171 255 255 255 255 254 14 2 5 7 6 4 1 0 0 0 1 2 7 59 255 251 255 51 4 9 89 212 189 255 226 16 27 123 133 167 255 255 32 1 0 0 0 0 0 0 0 0 0 0 0 0 0 0 0 0 0 0 0 0 0 0 0 0 0 0 0 0 0 0 0 0 0 0 0 0 0 0 0 0 0 0 0 0 0 0 0 0 0 0
255 200 123 118 164 122 59 255 226 147 169 208 147 28 255 255 191 215 255 28 87 255 191 200 229 154 16 108 255 185 178 198 255 23 1 0 0 0 1 0 0 0 0 0 0 0 1 8 89 162 116 114 173 255 132 6 0 0 0 0 0 0 0 0 0 0 0 0 0 0 0 0 0 0 0 0 0 0 0 2 18 177 152 112 128 212 255 60 3 0 0 0 0 0 0 0 0 0 0 0 0 0 0 0 0 0 0 0 0 0 0 0 0 0 0 0 0 0 0 0 0 0 0 0 0 0 0 0 1 21 255 254 147 110 135 200 37 3 0 0 0 0 0 0 0 0 0 0 0 0 0 0 0 0 0 0 0 0 0 2 39 255 230 138 110 143 216 31 6 68 255 198 125 113 142 123 13 1 0 0 0 0 0 0 0 0 0 0 0 0 4 85 255 191 122 114 155 149 14 1 0 0 0 0 0 0 0 0 0 0 0 0 0 0 0 0 0 0 0 0 0 0 0 0 0 0 0 0 0 0 0 0 0 0 0 0 0 0 0 0 0 0 0 0 0 0 0 0 0 0 0 0 0 0 0 0 0 0 9 182 255 164 113 123 178 66 75 255 206 143 179 247 85 50 255 226 170 195 255 29 2 0 1 3 10 9 2 0 0 0 0 0 0 0 0 0 0 9 200 255 171 118 141 227 255 35 2 0 0 0 0 0 0 0 0 0 0 0 0 0 0 0 0 0 0 0 0 0 0 0 0 0 0 0 1 4 11 3 1 16 249 203 167 163 255 255 45 189 153 113 132 215 255 55 3 0 0 0 0 0 0 0 0 0 0 0 0 0 0 0 0 0 0 0 0 0 0 0 0 0 0 0 0 0 0 0 0 0 0 0 0 0 0 0 0 1 28 255 242 143 112 143 200 29 16 255 255 157 117 139 189 35 38 255 227 137 126 167 167 18 42 255 220 133 119 158 143 20 83 255 197 127 131 173 84 53 255 229 148 173 221 133 9 12 214 222 255 19 7 122 255 191 213 255 85 5 0 0 0 0 0 0 0 0 0 0 1 1 2 30 255 240 153 174 213 137 9 1 0 0 0 0 0 0 0 0 0 0 0 0 0 1 9 73 68 42 61 94 14 3 15 160 169 118 116 177 255 116 6 1 14 255 255 159 153 190 236 63 255 221 155 191 255 60 4 0 0 0 0 0 0 0 0 0 0 0 6 133 255 181 120 138 217 255 34 4 10 65 55 97 250 255 255 247 203 255 102 6 2 2 2 1 1 0 0 0 0 1 17 231 207 202 243 255 25 30 255 188 149 181 255 120 59 189 131 112 156 255 255 14 1 0 0 0 0 0 0 0 0 0 0 0 0 0 0 0 0 0 0 0 0 0 0 0 0 0 0 0 0 0 0 0 0 0 0 0 0 0 0 0 0 0 0 0 0 0 0 0 0 0
195 110 76 101 178 255 255 255 130 93 121 154 255 255 255 155 119 139 255 255 255 195 119 127 155 255 219 255 189 111 114 141 255 128 7 0 0 0 0 0 0 0 0 0 0 0 2 28 255 177 106 72 95 177 255 59 3 0 0 0 0 0 0 0 0 0 0 0 0 0 0 0 0 0 0 0 0 0 0 4 56 243 165 90 75 117 224 255 31 1 0 0 0 0 0 0 0 0 0 0 0 0 0 0 0 0 0 0 0 0 0 0 0 0 0 0 0 0 0 0 0 0 0 0 0 0 0 0 9 180 255 143 82 77 135 184 115 8 1 0 0 0 0 0 0 0 0 0 0 0 0 0 0 0 0 0 0 0 1 16 255 244 127 77 81 149 203 115 47 255 211 110 76 94 164 244 36 3 0 0 0 0 0 0 0 0 0 0 0 2 44 255 198 104 73 95 170 255 45 3 0 0 0 0 0 0 0 0 0 0 0 0 0 0 0 0 0 0 0 0 0 0 0 0 0 0 0 0 0 0 0 0 0 0 0 0 0 0 0 0 0 0 0 0 0 0 0 0 0 0 0 0 0 0 0 0 0 4 77 255 163 90 73 114 178 255 255 226 118 95 135 177 255 255 255 135 111 138 236 148 8 1 0 1 3 3 1 0 0 0 0 0 0 0 0 0 4 85 255 167 93 78 129 190 228 199 11 1 0 0 0 0 0 0 0 0 0 0 0 0 0 0 0 0 0 0 0 0 0 0 0 0 0 0 0 1 3 1 5 89 255 154 116 99 156 255 255 255 163 87 76 118 223 255 26 1 0 0 0 0 0 0 0 0 0 0 0 0 0 0 0 0 0 0 0 0 0 0 0 0 0 0 0 0 0 0 0 0 0 0 0 0 0 0 0 11 225 255 135 81 83 149 200 105 152 255 156 88 81 138 197 163 255 255 130 83 101 169 255 104 255 245 125 79 94 164 255 156 255 210 111 81 112 177 255 255 255 132 95 123 161 255 60 92 255 183 255 116 67 255 181 120 137 178 255 35 2 0 0 0 0 0 0 0 0 0 0 1 12 251 255 137 96 120 151 255 48 3 0 0 0 0 0 0 0 0 0 0 0 0 0 1 16 159 91 43 82 168 24 6 51 255 177 104 73 98 185 255 56 8 107 255 150 94 109 153 255 255 255 130 102 134 181 255 22 1 0 0 0 0 0 0 0 0 0 3 60 255 181 100 79 124 183 229 203 13 14 111 98 194 177 149 142 130 127 185 255 46 3 1 1 0 0 0 0 0 0 5 76 255 143 125 147 255 236 206 233 145 105 107 194 255 255 187 124 75 85 153 255 129 6 0 0 0 0 0 0 0 0 0 0 0 0 0 0 0 0 0 0 0 0 0 0 0 0 0 0 0 0 0 0 0 0 0 0 0 0 0 0 0 0 0 0 0 0 0 0 0 0 0
76 52 45 82 153 244 255 141 68 53 73 110 224 255 182 85 65 81 163 255 255 111 66 69 101 217 255 244 105 60 63 84 142 255 51 3 0 0 0 0 0 0 0 0 0 0 8 145 224 151 90 45 48 93 198 255 27 1 0 0 0 0 0 0 0 0 0 0 0 0 0 0 0 0 0 0 0 0 1 18 255 154 130 70 42 59 119 254 255 14 1 0 0 0 0 0 0 0 0 0 0 0 0 0 0 0 0 0 0 0 0 0 0 0 0 0 0 0 0 0 0 0 0 0 0 0 0 4 76 255 152 72 43 53 106 133 255 39 2 0 0 0 0 0 0 0 0 0 0 0 0 0 0 0 0 0 0 0 7 134 255 130 63 41 59 115 144 255 255 255 114 56 44 77 144 180 156 9 1 0 0 0 0 0 0 0 0 0 1 21 255 227 106 52 42 77 137 171 225 13 1 0 0 0 0 0 0 0 0 0 0 0 0 0 0 0 0 0 0 0 0 0 0 0 0 0 0 0 0 0 0 0 0 0 0 0 0 0 0 0 0 0 0 0 0 0 0 0 0 0 0 0 0 0 0 0 2 38 255 184 85 46 46 95 159 255 255 123 62 56 83 127 255 255 141 72 63 81 133 255 54 3 0 0 1 1 0 0 0 0 0 0 0 0 0 2 41 255 182 85 47 49 94 112 140 255 70 4 0 0 0 0 0 0 0 0 0 0 0 0 0 0 0 0 0 0 0 0 0 0 0 0 0 0 0 0 1 2 36 255 159 97 69 55 83 176 255 198 133 66 41 58 119 255 213 10 0 0 0 0 0 0 0 0 0 0 0 0 0 0 0 0 0 0 0 0 0 0 0 0 0 0 0 0 0 0 0 0 0 0 0 0 0 0 5 92 255 140 67 43 59 116 149 255 255 178 81 47 55 110 162 255 255 144 67 48 75 130 196 255 255 135 64 45 71 134 215 255 255 113 57 49 88 156 255 255 143 70 55 74 108 201 255 255 183 126 165 255 255 212 98 66 74 110 223 243 13 1 0 0 0 0 0 0 0 0 0 5 92 255 141 70 54 70 100 183 255 18 1 0 0 0 0 0 0 0 0 0 0 0 0 3 47 225 173 74 159 179 60 23 255 168 134 85 44 50 97 207 255 104 255 163 78 52 68 106 187 255 145 71 59 78 119 255 147 8 0 0 0 0 0 0 0 0 1 28 255 198 94 51 49 90 111 146 255 91 38 215 255 206 105 72 61 59 67 102 211 255 19 1 0 0 0 0 0 0 1 29 255 150 86 67 79 157 255 255 149 91 64 59 106 233 255 161 101 49 44 78 167 255 59 3 0 0 0 0 0 0 0 0 0 0 0 0 0 0 0 0 0 0 0 0 0 0 0 0 0 0 0 0 0 0 0 0 0 0 0 0 0 0 0 0 0 0 0 0 0 0 0 0
26 21 25 60 95 115 116 65 33 27 39 65 108 143 86 42 32 43 83 153 118 56 33 34 57 112 178 115 53 30 30 43 80 188 255 22 1 0 0 0 0 0 0 0 0 3 58 255 136 97 67 27 23 44 106 252 223 11 0 0 0 0 0 0 0 0 0 0 0 0 0 0 0 0 0 0 0 0 6 107 255 108 78 48 23 27 57 134 255 117 6 0 0 0 0 0 0 0 0 0 0 0 0 0 0 0 0 0 0 0 0 0 0 0 0 0 0 0 0 0 0 0 0 0 0 0 2 36 255 180 77 34 21 34 68 97 189 240 13 1 0 0 0 0 0 0 0 0 0 0 0 0 0 0 0 0 0 3 60 255 154 64 29 21 38 71 107 238 255 138 56 27 25 57 93 123 255 58 3 0 0 0 0 0 0 0 0 0 9 190 255 121 51 25 24 54 83 113 255 81 4 0 0 0 0 0 0 0 0 0 0 0 0 0 0 0 0 0 0 0 0 0 0 0 0 0 0 0 0 0 0 0 0 0 0 0 0 0 0 0 0 0 0 0 0 0 0 0 0 0 0 0 0 0 0 1 15 255 227 99 41 22 28 69 105 139 116 59 30 29 45 73 119 126 67 35 32 42 76 176 255 21 1 0 0 0 0 0 0 0 0 0 0 0 1 17 255 220 96 40 23 28 53 57 80 164 255 28 1 0 0 0 0 0 0 0 0 0 0 0 0 0 0 0 0 0 0 0 0 0 0 0 0 0 0 0 1 13 238 212 91 52 35 27 39 78 124 106 83 45 22 27 57 137 255 81 4 0 0 0 0 0 0 0 0 0 0 0 0 0 0 0 0 0 0 0 0 0 0 0 0 0 0 0 0 0 0 0 0 0 0 0 0 2 45 255 169 71 31 22 38 74 113 234 211 94 39 23 35 74 116 195 157 72 33 26 49 81 125 224 159 69 31 25 48 88 132 195 123 55 28 29 62 101 132 125 67 34 28 39 62 121 255 253 107 74 101 234 255 118 49 32 36 58 123 255 89 5 0 0 0 0 0 0 0 0 2 38 255 160 70 33 26 36 56 109 255 123 6 0 0 0 0 0 0 0 0 0 0 0 1 14 231 160 212 244 213 140 255 207 255 111 79 59 26 24 47 113 255 255 232 88 38 26 37 60 86 105 65 35 30 40 67 139 255 61 3 0 0 0 0 0 0 1 12 246 250 106 44 24 28 52 58 85 175 255 255 213 232 141 60 32 24 23 30 50 115 255 134 7 0 0 0 0 0 0 10 196 226 91 46 33 40 83 181 186 89 50 34 30 51 101 131 102 70 30 21 37 86 195 255 26 1 0 0 0 0 0 0 0 0 0 0 0 0 0 0 0 0 0 0 0 0 0 0 0 0 0 0 0 0 0 0 0 0 0 0 0 0 0 0 0 0 0 0 0 0 0 0 0
8 8 14 37 48 47 42 26 14 12 19 32 44 51 34 19 14 20 36 55 45 25 15 16 28 48 65 46 23 13 13 21 42 111 255 160 8 0 0 0 0 0 0 0 1 26 255 191 87 56 44 16 11 20 53 140 255 87 4 0 0 0 0 0 0 0 0 0 0 0 0 0 0 0 0 0 0 2 47 255 149 69 43 28 12 12 26 68 167 255 55 3 0 0 0 0 0 0 0 0 0 0 0 0 0 0 0 0 0 0 0 0 0 0 0 0 0 0 0 0 0 0 0 0 0 1 16 255 238 100 37 15 10 19 39 62 118 255 93 5 0 0 0 0 0 0 0 0 0 0 0 0 0 0 0 0 1 29 255 200 83 31 13 10 22 41 67 110 126 66 27 12 14 37 54 86 183 255 26 1 0 0 0 0 0 0 0 4 79 255 153 61 24 11 13 33 46 73 161 255 36 2 0 0 0 0 0 0 0 0 0 0 0 0 0 0 0 0 0 0 0 0 0 0 0 0 0 0 0 0 0 0 0 0 0 0 0 0 0 0 0 0 0 0 0 0 0 0 0 0 0 0 0 0 0 6 117 255 126 49 19 10 17 43 56 55 44 24 13 14 21 35 46 45 28 16 14 20 40 104 255 144 7 0 0 0 0 0 0 0 0 0 0 0 7 134 255 122 47 18 10 14 25 27 42 96 242 206 10 0 0 0 0 0 0 0 0 0 0 0 0 0 0 0 0 0 0 0 0 0 0 0 0 0 0 0 5 85 255 121 48 25 16 12 17 30 45 47 43 27 11 12 27 71 173 255 35 2 0 0 0 0 0 0 0 0 0 0 0 0 0 0 0 0 0 0 0 0 0 0 0 0 0 0 0 0 0 0 0 0 0 0 1 21 255 224 94 34 14 11 22 43 70 100 86 43 18 11 20 44 66 79 62 32 15 13 28 45 64 88 66 31 14 13 29 49 65 75 50 24 13 16 38 53 54 46 27 15 13 18 32 64 121 110 56 41 54 101 111 57 24 14 16 29 67 163 255 39 2 0 0 0 0 0 0 1 13 254 216 88 33 15 12 16 29 61 152 255 53 3 0 0 0 0 0 0 0 0 0 0 5 90 255 136 174 255 182 146 255 255 174 71 43 35 14 11 22 59 151 229 124 46 18 12 18 28 34 36 25 15 13 19 35 79 191 255 29 1 0 0 0 0 0 5 96 255 139 53 20 11 14 25 28 46 103 255 255 180 130 80 32 14 9 9 13 24 59 147 255 54 3 0 0 0 0 4 81 255 131 50 23 15 18 38 70 73 44 25 16 13 21 38 50 52 41 17 10 17 42 108 255 202 10 0 0 0 0 0 0 0 0 0 0 0 0 0 0 0 0 0 0 0 0 0 0 0 0 0 0 0 0 0 0 0 0 0 0 0 0 0 0 0 0 0 0 0 0 0 0 0
3 3 7 19 21 18 14 9 6 5 8 13 16 17 12 7 6 8 14 18 16 10 6 7 12 18 22 17 9 5 5 9 23 65 158 255 65 3 0 0 0 0 0 0 10 225 255 122 54 33 25 9 5 9 28 81 189 255 40 2 0 0 0 0 0 0 0 0 0 0 0 0 0 0 0 0 1 21 255 227 99 45 23 14 6 5 12 35 98 226 255 28 1 0 0 0 0 0 0 0 0 0 0 0 0 0 0 0 0 0 0 0 0 0 0 0 0 0 0 0 0 0 0 0 0 6 131 255 143 55 18 7 5 9 21 40 78 181 255 45 2 0 0 0 0 0 0 0 0 0 0 0 0 0 0 1 12 248 255 121 45 15 6 5 11 22 37 46 48 28 12 6 7 21 32 59 122 255 206 10 0 0 0 0 0 0 2 37 255 199 88 31 11 5 6 17 25 47 107 247 255 14 1 0 0 0 0 0 0 0 0 0 0 0 0 0 0 0 0 0 0 0 0 0 0 0 0 0 0 0 0 0 0 0 0 0 0 0 0 0 0 0 0 0 0 0 0 0 0 0 0 0 0 0 3 53 255 174 71 25 9 5 9 23 26 21 15 9 5 6 9 14 16 15 10 6 6 9 22 62 158 255 61 3 0 0 0 0 0 0 0 0 0 3 63 255 171 69 24 8 4 6 10 12 22 56 147 255 84 4 0 0 0 0 0 0 0 0 0 0 0 0 0 0 0 0 0 0 0 0 0 0 0 0 0 2 38 255 177 73 26 12 6 5 6 11 15 19 19 13 5 5 13 38 105 246 255 14 1 0 0 0 0 0 0 0 0 0 0 0 0 0 0 0 0 0 0 0 0 0 0 0 0 0 0 0 0 0 0 0 0 0 9 192 255 136 52 17 6 5 11 23 37 39 33 18 8 5 10 24 32 30 23 13 6 6 14 22 29 32 25 13 6 6 15 25 28 27 19 10 6 8 20 24 20 16 10 6 5 8 15 30 46 43 27 21 26 39 41 25 11 6 7 14 37 102 239 255 16 1 0 0 0 0 0 5 99 255 131 49 16 6 5 7 14 35 94 217 255 24 1 0 0 0 0 0 0 0 0 2 44 255 186 120 128 161 138 146 186 205 108 46 24 18 7 5 10 30 68 93 59 23 8 5 7 11 12 12 9 6 5 8 18 45 120 255 255 12 1 0 0 0 2 45 255 186 80 28 9 5 6 10 13 24 59 132 175 128 72 43 17 6 3 3 5 11 31 89 209 255 22 1 0 0 2 41 255 196 82 29 11 6 8 15 25 26 19 11 7 5 8 13 18 23 21 9 5 7 21 59 154 255 85 4 0 0 0 0 0 0 0 0 0 0 0 0 0 0 0 0 0 0 0 0 0 0 0 0 0 0 0 0 0 0 0 0 0 0 0 0 0 0 0 0 0 0 0 0 0 0
1 1 3 7 8 6 5 3 2 2 3 5 5 5 4 3 2 3 5 6 5 3 2 3 4 6 7 6 3 2 2 4 13 42 108 224 255 31 1 0 0 0 0 5 94 255 180 86 39 20 13 4 2 5 16 52 128 255 255 18 1 0 0 0 0 0 0 0 0 0 0 0 0 0 0 0 9 207 255 155 73 32 13 6 3 2 6 20 64 151 255 255 13 1 0 0 0 0 0 0 0 0 0 0 0 0 0 0 0 0 0 0 0 0 0 0 0 0 0 0 0 0 0 0 3 62 255 197 94 34 10 3 2 4 11 27 59 130 255 255 20 1 0 0 0 0 0 0 0 0 0 0 0 0 0 5 102 255 176 80 27 8 3 2 5 10 18 19 17 11 5 2 4 11 20 46 89 179 255 89 4 0 0 0 0 1 16 255 255 133 55 17 5 2 3 8 14 33 78 163 255 122 6 0 0 0 0 0 0 0 0 0 0 0 0 0 0 0 0 0 0 0 0 0 0 0 0 0 0 0 0 0 0 0 0 0 0 0 0 0 0 0 0 0 0 0 0 0 0 0 0 0 0 1 26 255 244 119 45 13 4 2 4 10 11 7 5 3 2 2 3 5 5 5 3 2 2 4 12 42 111 230 255 29 1 0 0 0 0 0 0 0 1 34 255 240 116 44 13 4 2 2 3 5 12 38 104 216 255 43 2 0 0 0 0 0 0 0 0 0 0 0 0 0 0 0 0 0 0 0 0 0 0 0 1 15 255 255 126 49 15 5 2 2 2 4 5 7 7 5 2 2 6 22 70 163 255 110 5 0 0 0 0 0 0 0 0 0 0 0 0 0 0 0 0 0 0 0 0 0 0 0 0 0 0 0 0 0 0 0 0 4 85 255 190 89 32 9 3 2 5 11 17 15 12 7 3 2 5 11 14 11 8 5 3 3 6 10 12 11 9 5 2 3 6 11 11 9 7 4 2 4 8 9 7 5 3 2 2 3 7 12 17 16 12 10 11 15 15 10 4 2 3 7 22 69 161 255 158 7 0 0 0 0 2 48 255 201 92 30 8 3 2 3 7 22 64 147 255 232 10 0 0 0 0 0 0 0 1 20 255 255 144 121 103 98 113 144 108 100 67 32 13 8 3 2 5 14 29 37 27 11 4 2 3 4 4 4 3 2 2 3 9 29 81 178 255 120 6 0 0 1 22 255 255 125 51 15 4 2 2 4 6 13 34 65 84 86 45 23 8 3 1 1 2 5 18 58 144 255 174 8 0 1 18 255 255 135 57 18 5 3 3 5 8 9 7 4 2 2 3 4 6 9 8 4 2 3 11 37 104 218 255 43 2 0 0 0 0 0 0 0 0 0 0 0 0 0 0 0 0 0 0 0 0 0 0 0 0 0 0 0 0 0 0 0 0 0 0 0 0 0 0 0 0 0 0 0 0 0
0 0 1 2 3 2 1 1 1 1 1 1 2 2 1 1 1 1 1 2 2 1 1 1 1 2 2 2 1 1 1 2 8 33 90 164 255 255 14 1 0 0 2 47 255 231 136 78 33 12 6 2 1 2 10 41 101 184 255 170 8 0 0 0 0 0 0 0 0 0 0 0 0 0 0 5 102 255 212 123 70 25 7 2 1 1 3 13 52 115 202 255 131 6 0 0 0 0 0 0 0 0 0 0 0 0 0 0 0 0 0 0 0 0 0 0 0 0 0 0 0 0 0 1 33 255 255 144 77 24 5 1 1 2 6 20 60 109 182 255 191 9 0 0 0 0 0 0 0 0 0 0 0 0 2 50 255 227 131 66 18 4 1 1 2 4 7 7 6 4 2 1 2 5 13 44 86 137 235 255 47 2 0 0 0 7 167 255 187 103 43 11 3 1 1 3 8 27 74 129 226 255 65 3 0 0 0 0 0 0 0 0 0 0 0 0 0 0 0 0 0 0 0 0 0 0 0 0 0 0 0 0 0 0 0 0 0 0 0 0 0 0 0 0 0 0 0 0 0 0 0 0 1 12 255 255 175 96 36 8 2 1 2 3 4 2 2 1 1 1 1 1 2 1 1 1 1 2 8 34 94 168 255 254 12 1 0 0 0 0 0 1 16 255 255 172 94 34 8 2 1 1 1 2 7 30 89 159 255 255 22 1 0 0 0 0 0 0 0 0 0 0 0 0 0 0 0 0 0 0 0 0 0 0 6 130 255 184 104 41 10 2 1 1 1 1 2 2 2 2 1 1 3 15 59 126 220 255 53 2 0 0 0 0 0 0 0 0 0 0 0 0 0 0 0 0 0 0 0 0 0 0 0 0 0 0 0 0 0 0 2 44 255 240 138 73 22 5 1 1 2 4 7 5 4 2 1 1 2 4 5 4 3 2 1 1 2 3 4 4 3 2 1 1 2 4 4 3 2 1 1 1 3 3 2 2 1 1 1 1 2 4 6 6 5 4 4 5 5 3 2 1 1 4 16 60 125 221 255 78 4 0 0 1 24 255 255 153 80 23 5 1 1 1 4 15 56 116 207 255 105 5 0 0 0 0 0 0 8 186 255 187 137 164 117 82 124 155 80 56 45 22 7 3 1 1 2 6 12 14 11 5 2 1 1 1 1 1 1 1 1 1 5 21 70 132 228 255 62 3 1 10 215 255 183 99 39 9 2 1 1 1 2 7 20 35 46 65 32 12 4 1 0 0 1 3 11 49 114 202 255 77 4 8 178 255 185 108 50 12 3 1 1 2 3 3 2 1 1 1 1 1 2 3 3 1 1 2 6 28 86 159 255 255 21 1 0 0 0 0 0 0 0 0 0 0 0 0 0 0 0 0 0 0 0 0 0 0 0 0 0 0 0 0 0 0 0 0 0 0 0 0 0 0 0 0 0 0 0 0
0 0 0 1 1 1 0 0 0 0 0 0 0 0 0 0 0 0 0 0 0 0 0 0 0 1 1 0 0 0 0 1 5 32 105 135 203 255 142 6 0 1 23 255 255 166 124 108 37 7 2 1 0 1 7 42 107 142 220 255 85 4 0 0 0 0 0 0 0 0 0 0 0 0 2 55 255 245 156 125 107 24 4 1 0 0 2 10 59 109 147 229 255 63 3 0 0 0 0 0 0 0 0 0 0 0 0 0 0 0 0 0 0 0 0 0 0 0 0 0 0 0 1 16 255 255 181 123 88 21 4 1 0 1 3 18 97 125 142 214 255 85 4 0 0 0 0 0 0 0 0 0 0 1 25 255 255 163 117 78 15 3 1 0 1 1 2 2 2 1 1 0 1 2 10 62 131 130 170 255 255 26 1 0 4 83 255 225 143 105 45 8 1 0 0 1 5 27 108 127 165 255 255 37 2 0 0 0 0 0 0 0 0 0 0 0 0 0 0 0 0 0 0 0 0 0 0 0 0 0 0 0 0 0 0 0 0 0 0 0 0 0 0 0 0 0 0 0 0 0 0 0 6 137 255 210 137 104 36 6 1 0 1 1 1 1 0 0 0 0 0 0 0 0 0 0 0 1 6 35 110 136 202 255 110 5 0 0 0 0 0 7 146 255 200 134 102 34 5 1 0 0 0 1 5 30 105 132 193 255 249 11 0 0 0 0 0 0 0 0 0 0 0 0 0 0 0 0 0 0 0 0 0 3 61 255 222 144 113 46 7 1 0 0 0 0 0 1 1 0 0 0 2 12 70 118 162 255 255 27 1 0 0 0 0 0 0 0 0 0 0 0 0 0 0 0 0 0 0 0 0 0 0 0 0 0 0 0 0 1 21 255 255 169 119 84 19 3 1 0 1 1 2 2 1 1 0 0 1 1 1 1 1 0 0 0 1 1 1 1 1 1 0 0 1 1 1 1 1 0 0 0 1 1 1 1 0 0 0 0 1 1 2 2 1 1 1 2 1 1 1 0 1 2 13 76 120 160 252 255 40 2 1 11 255 255 188 131 100 21 3 1 0 1 2 12 69 117 153 237 255 53 2 0 0 0 0 4 88 255 216 151 178 235 208 131 191 181 91 40 33 14 4 1 0 0 1 2 4 5 4 2 1 0 0 0 0 0 0 0 0 1 3 19 87 119 163 255 255 34 6 97 255 213 140 106 40 7 1 0 0 0 1 3 10 19 30 59 25 7 2 0 0 0 0 2 9 58 115 153 243 255 46 89 255 219 141 113 63 10 2 0 0 1 1 1 1 0 0 0 0 0 1 1 1 0 0 1 4 27 97 130 191 255 197 9 0 0 0 0 0 0 0 0 0 0 0 0 0 0 0 0 0 0 0 0 0 0 0 0 0 0 0 0 0 0 0 0 0 0 0 0 0 0 0 0 0 0 0 0
0 0 0 0 0 0 0 0 0 0 0 0 0 0 0 0 0 0 0 0 0 0 0 0 0 0 0 0 0 0 0 1 5 46 172 131 142 219 255 68 4 10 210 255 179 128 149 222 79 8 1 0 0 1 8 68 150 125 150 242 255 47 2 0 0 0 0 0 0 0 0 0 0 1 28 255 255 161 128 171 243 44 4 1 0 0 1 13 116 135 120 152 246 255 31 1 0 0 0 0 0 0 0 0 0 0 0 0 0 0 0 0 0 0 0 0 0 0 0 0 0 0 7 162 255 192 131 130 155 27 3 0 0 0 3 36 255 195 132 147 232 255 42 2 0 0 0 0 0 0 0 0 0 12 255 255 177 126 133 156 20 2 0 0 0 0 1 1 1 0 0 0 0 2 17 203 249 163 132 183 255 255 13 2 43 255 241 151 124 144 78 9 1 0 0 1 5 49 230 165 131 173 255 255 18 1 0 0 0 0 0 0 0 0 0 0 0 0 0 0 0 0 0 0 0 0 0 0 0 0 0 0 0 0 0 0 0 0 0 0 0 0 0 0 0 0 0 0 0 0 0 3 69 255 224 143 125 150 56 6 1 0 0 0 0 0 0 0 0 0 0 0 0 0 0 0 0 1 6 55 169 131 142 221 255 55 3 0 0 0 3 67 255 212 138 123 151 50 6 1 0 0 0 1 5 44 169 133 137 208 255 113 5 0 0 0 0 0 0 0 0 0 0 0 0 0 0 0 0 0 0 0 1 30 255 246 153 129 158 85 9 1 0 0 0 0 0 0 0 0 0 0 2 17 148 138 128 176 255 249 12 1 0 0 0 0 0 0 0 0 0 0 0 0 0 0 0 0 0 0 0 0 0 0 0 0 0 0 0 9 185 255 181 126 130 158 23 3 0 0 0 0 1 0 0 0 0 0 0 0 0 0 0 0 0 0 0 0 0 0 0 0 0 0 0 0 0 0 0 0 0 0 0 0 0 0 0 0 0 0 0 0 1 1 0 0 0 0 0 0 0 0 0 2 20 171 146 126 165 255 255 20 6 117 255 203 136 136 181 31 3 0 0 0 2 17 161 154 125 157 255 255 28 1 0 0 2 47 255 236 150 147 221 236 255 255 249 202 171 46 24 8 2 0 0 0 0 1 1 1 1 1 0 0 0 0 0 0 0 0 0 0 3 26 176 138 125 173 255 255 82 255 229 145 123 151 63 7 1 0 0 0 0 1 4 9 22 64 21 4 1 0 0 0 0 1 12 123 148 128 165 255 255 255 240 149 126 159 145 14 1 0 0 0 0 0 0 0 0 0 0 0 0 0 0 0 0 1 4 37 154 127 135 203 255 87 4 0 0 0 0 0 0 0 0 0 0 0 0 0 0 0 0 0 0 0 0 0 0 0 0 0 0 0 0 0 0 0 0 0 0 0 0 0 0 0 0 0 0 0
0 0 0 0 0 0 0 0 0 0 0 0 0 0 0 0 0 0 0 0 0 0 0 0 0 0 0 0 0 0 0 1 11 144 217 148 105 135 229 255 40 93 255 184 115 114 196 255 255 31 2 0 0 1 18 232 203 127 104 148 255 255 22 1 0 0 0 0 0 0 0 0 1 12 255 255 158 106 124 216 243 206 13 1 0 0 3 38 255 197 115 102 152 255 255 13 1 0 0 0 0 0 0 0 0 0 0 0 0 0 0 0 0 0 0 0 0 0 0 0 0 4 74 255 199 120 104 165 234 65 5 0 0 1 11 189 255 236 146 105 144 253 255 18 1 0 0 0 0 0 0 0 6 119 255 186 114 110 184 255 53 4 0 0 0 0 0 0 0 0 0 0 0 5 83 255 253 203 117 116 186 255 138 28 255 255 147 103 125 206 255 23 2 0 0 1 15 241 242 207 119 111 173 255 162 8 0 0 0 0 0 0 0 0 0 0 0 0 0 0 0 0 0 0 0 0 0 0 0 0 0 0 0 0 0 0 0 0 0 0 0 0 0 0 0 0 0 0 0 0 2 36 255 234 136 102 133 204 207 15 1 0 0 0 0 0 0 0 0 0 0 0 0 0 0 0 0 1 14 189 209 145 105 138 242 255 28 1 0 1 33 255 226 131 100 134 203 164 12 1 0 0 0 1 10 135 210 153 104 127 211 255 55 3 0 0 0 0 0 0 0 0 0 0 0 0 0 0 0 0 0 1 12 253 255 153 107 132 205 255 26 2 0 0 0 0 0 0 0 0 0 0 3 49 255 189 113 114 180 255 102 5 0 0 0 0 0 0 0 0 0 0 0 0 0 0 0 0 0 0 0 0 0 0 0 0 0 0 4 82 255 187 115 105 174 246 58 5 0 0 0 0 0 0 0 0 0 0 0 0 0 0 0 0 0 0 0 0 0 0 0 0 0 0 0 0 0 0 0 0 0 0 0 0 0 0 0 0 0 0 0 0 0 0 0 0 0 0 0 0 0 0 0 4 64 255 197 113 107 168 255 185 79 255 210 126 107 162 223 91 7 1 0 0 4 54 255 212 119 105 160 255 255 13 1 1 23 255 254 146 109 148 186 182 211 251 212 195 248 114 20 4 1 0 0 0 0 0 0 0 0 0 0 0 0 0 0 0 0 0 0 0 6 82 249 188 110 111 177 255 255 255 143 102 127 205 219 17 1 0 0 0 0 1 2 5 19 86 19 3 0 0 0 0 0 3 39 255 203 122 112 178 255 255 152 105 133 225 255 49 3 0 0 0 0 0 0 0 0 0 0 0 0 0 0 0 0 1 8 104 212 147 102 126 215 255 43 2 0 0 0 0 0 0 0 0 0 0 0 0 0 0 0 0 0 0 0 0 0 0 0 0 0 0 0 0 0 0 0 0 0 0 0 0 0 0 0 0 0 0
0 0 0 0 0 0 0 0 0 0 0 0 0 0 0 0 0 0 0 0 0 0 0 0 0 0 0 0 0 0 0 3 51 255 187 149 83 79 131 255 255 255 199 105 75 109 176 193 255 238 12 1 0 5 84 255 200 133 76 84 145 255 179 9 0 0 0 0 0 0 0 0 5 109 255 162 89 73 121 169 181 255 78 4 0 1 12 228 222 202 124 72 87 158 255 117 6 0 0 0 0 0 0 0 0 0 0 0 0 0 0 0 0 0 0 0 0 0 0 0 2 36 255 209 112 74 91 171 188 255 22 1 0 4 75 255 182 170 146 81 84 145 255 140 7 0 0 0 0 0 0 3 55 255 191 105 74 107 186 191 255 17 1 0 0 0 0 0 0 0 0 0 2 38 255 200 170 167 108 75 104 193 255 255 255 147 83 74 133 207 255 127 7 0 0 5 91 255 186 168 111 73 96 175 255 68 3 0 0 0 0 0 0 0 0 0 0 0 0 0 0 0 0 0 0 0 0 0 0 0 0 0 0 0 0 0 0 0 0 0 0 0 0 0 0 0 0 0 0 1 15 255 255 133 79 77 141 201 255 72 4 0 0 0 0 0 0 0 0 0 0 0 0 0 0 0 0 4 66 255 188 146 83 82 140 255 230 11 1 13 255 255 131 78 78 144 197 255 58 3 0 0 0 3 49 255 185 153 85 75 119 226 255 27 1 0 0 0 0 0 0 0 0 0 0 0 0 0 0 0 0 5 101 255 157 88 78 134 193 251 146 8 0 0 0 0 0 0 0 0 0 1 16 255 197 185 110 74 102 189 255 48 2 0 0 0 0 0 0 0 0 0 0 0 0 0 0 0 0 0 0 0 0 0 0 0 0 2 42 255 203 107 73 99 180 187 255 19 1 0 0 0 0 0 0 0 0 0 0 0 0 0 0 0 0 0 0 0 0 0 0 0 0 0 0 0 0 0 0 0 0 0 0 0 0 0 0 0 0 0 0 0 0 0 0 0 0 0 0 0 0 0 1 26 255 193 181 111 72 95 176 255 255 241 119 76 90 157 177 255 35 2 0 1 19 255 196 187 122 74 91 164 255 116 6 10 218 255 145 85 81 126 123 118 128 142 138 151 192 255 49 4 1 0 0 0 0 0 0 0 0 0 0 0 0 0 0 0 0 0 0 2 33 255 192 181 108 73 103 196 255 152 85 76 135 199 255 78 5 0 0 0 0 0 1 3 25 144 25 3 0 0 0 0 1 12 211 215 193 124 78 99 151 136 88 79 143 194 206 255 18 1 0 0 0 0 0 0 0 0 0 0 0 0 0 0 0 2 39 255 192 155 84 76 124 240 255 20 1 0 0 0 0 0 0 0 0 0 0 0 0 0 0 0 0 0 0 0 0 0 0 0 0 0 0 0 0 0 0 0 0 0 0 0 0 0 0 0 0 0
0 0 0 0 0 0 0 0 0 0 0 0 0 0 0 0 0 0 0 0 0 0 0 0 0 0 0 0 0 0 1 21 255 194 136 117 66 46 70 152 255 255 114 57 49 95 115 116 157 255 101 5 2 35 255 169 139 118 58 46 75 156 255 75 4 0 0 0 0 0 0 2 49 255 176 86 48 51 100 105 117 181 255 35 2 5 93 255 153 136 120 54 48 84 174 255 53 3 0 0 0 0 0 0 0 0 0 0 0 0 0 0 0 0 0 0 0 0 0 1 15 255 240 114 58 45 80 126 145 255 139 7 2 34 255 187 114 101 110 62 48 77 160 255 59 3 0 0 0 0 1 25 255 210 102 55 49 98 128 141 255 102 5 0 0 0 0 0 0 0 0 1 16 255 235 125 97 102 88 48 55 107 239 255 178 80 46 56 120 140 167 255 53 3 2 41 255 175 118 106 91 48 51 93 194 255 31 1 0 0 0 0 0 0 0 0 0 0 0 0 0 0 0 0 0 0 0 0 0 0 0 0 0 0 0 0 0 0 0 0 0 0 0 0 0 0 0 0 0 6 121 255 140 69 44 61 123 144 178 255 29 1 0 0 0 0 0 0 0 0 0 0 0 0 0 0 1 28 255 179 134 117 66 47 73 148 255 87 10 99 255 140 69 45 65 126 146 189 255 23 1 0 1 20 255 199 138 119 70 44 62 125 255 238 11 0 0 0 0 0 0 0 0 0 0 0 0 0 0 0 2 46 255 175 84 49 58 114 130 161 255 61 3 0 0 0 0 0 0 0 0 6 106 255 142 125 99 50 55 104 220 255 23 1 0 0 0 0 0 0 0 0 0 0 0 0 0 0 0 0 0 0 0 0 0 0 1 18 255 233 112 57 47 91 129 142 255 106 6 0 0 0 0 0 0 0 0 0 0 0 0 0 0 0 0 0 0 0 0 0 0 0 0 0 0 0 0 0 0 0 0 0 0 0 0 0 0 0 0 0 0 0 0 0 0 0 0 0 0 0 0 0 10 205 255 139 120 100 50 52 99 217 255 133 64 46 74 115 136 227 255 13 1 6 116 255 136 119 107 54 49 86 176 255 65 106 255 159 76 47 57 86 72 66 66 69 77 96 129 209 250 15 1 0 0 0 0 0 0 0 0 0 0 0 0 0 0 0 0 0 1 12 229 237 141 124 99 49 54 86 105 72 48 61 120 140 173 255 32 2 0 0 0 0 0 4 48 173 52 4 0 0 0 0 4 76 255 144 126 109 55 48 59 55 46 61 121 122 141 255 116 6 0 0 0 0 0 0 0 0 0 0 0 0 0 0 1 14 255 218 149 126 71 45 65 134 255 171 8 0 0 0 0 0 0 0 0 0 0 0 0 0 0 0 0 0 0 0 0 0 0 0 0 0 0 0 0 0 0 0 0 0 0 0 0 0 0 0 0 0
0 0 0 0 0 0 0 0 0 0 0 0 0 0 0 0 0 0 0 0 0 0 0 0 0 0 0 0 0 0 8 153 255 124 84 76 49 26 36 76 139 117 59 30 32 69 64 63 88 179 255 50 15 244 227 109 84 84 44 25 37 83 187 255 36 2 0 0 0 0 1 22 255 211 95 42 25 35 68 59 67 108 234 255 16 45 255 177 97 81 92 42 26 42 94 208 255 24 1 0 0 0 0 0 0 0 0 0 0 0 0 0 0 0 0 0 0 0 0 6 123 255 132 57 29 28 63 79 95 151 255 58 17 255 238 109 64 55 66 44 26 39 87 195 255 26 1 0 0 0 9 179 255 116 51 28 33 77 77 92 159 255 45 2 0 0 0 0 0 0 0 6 123 255 134 69 50 55 60 30 28 53 108 144 86 41 26 43 86 82 105 201 255 23 18 255 222 104 66 59 62 31 26 47 108 244 237 12 1 0 0 0 0 0 0 0 0 0 0 0 0 0 0 0 0 0 0 0 0 0 0 0 0 0 0 0 0 0 0 0 0 0 0 0 0 0 0 0 3 55 255 163 72 34 25 47 85 86 113 240 191 10 0 0 0 0 0 0 0 0 0 0 0 0 0 0 10 221 251 115 82 77 49 27 36 77 172 255 134 255 166 73 34 26 53 88 90 120 255 172 8 1 8 155 255 127 87 77 53 26 31 63 145 255 92 5 0 0 0 0 0 0 0 0 0 0 0 0 0 1 19 255 214 96 43 27 42 78 77 101 195 255 26 1 0 0 0 0 0 0 2 48 255 162 91 74 75 33 28 53 124 255 192 9 0 0 0 0 0 0 0 0 0 0 0 0 0 0 0 0 0 0 0 0 0 0 7 149 255 128 57 29 31 74 79 94 154 255 45 2 0 0 0 0 0 0 0 0 0 0 0 0 0 0 0 0 0 0 0 0 0 0 0 0 0 0 0 0 0 0 0 0 0 0 0 0 0 0 0 0 0 0 0 0 0 0 0 0 0 0 0 4 85 255 149 86 71 75 35 27 49 91 105 63 32 27 56 73 87 137 255 105 8 49 255 153 84 68 76 38 26 42 95 221 255 255 189 83 38 25 36 48 37 32 30 30 38 53 75 128 255 86 5 0 0 0 0 0 0 0 0 0 0 0 0 0 0 0 0 0 5 92 255 137 86 75 78 33 26 33 37 30 26 47 86 85 111 235 255 13 1 0 0 0 1 11 165 134 191 13 1 0 0 2 33 255 170 91 73 78 37 22 21 20 23 45 80 70 86 157 255 48 2 0 0 0 0 0 0 0 0 0 0 0 0 0 5 100 255 133 94 84 57 27 33 69 156 255 70 4 0 0 0 0 0 0 0 0 0 0 0 0 0 0 0 0 0 0 0 0 0 0 0 0 0 0 0 0 0 0 0 0 0 0 0 0 0 0 0 0
0 0 0 0 0 0 0 0 0 0 0 0 0 0 0 0 0 0 0 0 0 0 0 0 0 0 0 0 0 3 64 255 154 73 49 43 32 15 17 33 51 45 26 15 20 43 33 32 47 101 222 255 173 255 132 64 47 51 30 13 18 42 106 241 255 16 1 0 0 0 8 173 255 121 48 20 13 21 38 31 35 59 133 255 192 255 226 104 56 46 60 31 14 20 48 117 255 185 9 0 0 0 0 0 0 0 0 0 0 0 0 0 0 0 0 0 0 0 3 58 255 167 70 28 14 17 44 46 57 92 199 255 233 255 136 59 33 27 34 27 14 19 44 111 255 182 9 0 0 4 71 255 144 60 25 14 21 52 44 55 97 217 255 20 1 0 0 0 0 0 3 53 255 162 72 35 24 27 34 17 14 24 42 52 36 19 14 30 52 46 60 117 255 215 182 255 129 57 35 31 35 18 13 23 55 136 255 95 5 0 0 0 0 0 0 0 0 0 0 0 0 0 0 0 0 0 0 0 0 0 0 0 0 0 0 0 0 0 0 0 0 0 0 0 0 0 0 1 26 255 209 91 36 16 14 34 51 48 65 136 255 74 4 0 0 0 0 0 0 0 0 0 0 0 0 4 86 255 145 68 47 45 33 15 17 39 100 255 255 254 97 37 17 15 40 54 52 71 149 255 75 7 67 255 157 74 50 45 36 15 15 31 77 176 255 41 2 0 0 0 0 0 0 0 0 0 0 0 0 7 146 255 122 49 21 14 27 46 43 58 114 255 192 10 0 0 0 0 0 1 22 255 216 97 54 42 48 21 14 26 64 152 255 80 4 0 0 0 0 0 0 0 0 0 0 0 0 0 0 0 0 0 0 0 0 3 67 255 161 67 28 15 20 52 46 57 95 213 255 19 1 0 0 0 0 0 0 0 0 0 0 0 0 0 0 0 0 0 0 0 0 0 0 0 0 0 0 0 0 0 0 0 0 0 0 0 0 0 0 0 0 0 0 0 0 0 0 0 0 0 2 40 255 185 85 49 39 48 23 14 21 34 37 25 15 16 37 42 52 80 174 255 97 255 206 91 48 38 46 25 13 20 49 128 255 253 108 42 18 12 19 23 17 14 12 12 17 26 41 75 158 255 35 2 0 0 0 0 0 0 0 0 0 0 0 0 0 0 0 2 45 255 177 79 49 43 52 22 11 11 12 11 13 34 53 48 66 138 255 100 5 0 0 0 3 55 255 157 255 64 4 0 1 13 255 238 103 53 40 47 23 10 7 7 11 29 45 38 48 92 205 255 20 1 0 0 0 0 0 0 0 0 0 0 0 2 45 255 165 78 55 51 42 16 16 34 84 189 255 31 1 0 0 0 0 0 0 0 0 0 0 0 0 0 0 0 0 0 0 0 0 0 0 0 0 0 0 0 0 0 0 0 0 0 0 0 0 0 0 0
0 0 0 0 0 0 0 0 0 0 0 0 0 0 0 0 0 0 0 0 0 0 0 0 0 0 0 0 1 30 255 199 89 41 26 22 17 7 7 12 17 15 10 7 10 21 16 15 24 54 131 255 255 194 79 37 25 27 17 7 8 21 57 139 255 142 7 0 0 4 70 255 155 65 24 9 6 11 18 15 17 32 76 189 255 255 135 58 31 25 34 20 8 9 24 63 152 255 75 4 0 0 0 0 0 0 0 0 0 0 0 0 0 0 0 0 0 1 29 255 215 95 36 13 7 10 25 25 32 53 122 255 255 192 78 31 16 12 15 13 7 9 22 60 146 255 73 4 2 33 255 190 81 31 12 7 12 29 24 32 56 129 255 171 8 0 0 0 0 1 24 255 210 93 38 17 11 12 15 8 6 9 15 17 13 8 7 17 27 24 33 67 163 255 255 176 73 31 17 14 16 9 6 11 28 76 179 255 46 2 0 0 0 0 0 0 0 0 0 0 0 0 0 0 0 0 0 0 0 0 0 0 0 0 0 0 0 0 0 0 0 0 0 0 0 0 0 10 208 255 122 48 18 7 7 20 27 26 37 80 185 255 34 2 0 0 0 0 0 0 0 0 0 0 2 39 255 183 83 39 25 23 18 8 8 20 57 142 221 136 55 19 8 9 27 30 29 41 87 197 255 96 255 201 90 42 27 24 20 8 7 15 39 101 227 255 16 1 0 0 0 0 0 0 0 0 0 0 3 61 255 158 66 25 10 7 15 23 22 31 63 146 255 79 4 0 0 0 0 9 197 255 128 55 30 22 26 12 7 12 33 84 191 255 39 2 0 0 0 0 0 0 0 0 0 0 0 0 0 0 0 0 0 0 1 34 255 205 91 35 13 7 12 32 26 33 56 128 255 151 7 0 0 0 0 0 0 0 0 0 0 0 0 0 0 0 0 0 0 0 0 0 0 0 0 0 0 0 0 0 0 0 0 0 0 0 0 0 0 0 0 0 0 0 0 0 0 0 0 1 17 255 236 107 47 26 21 26 13 6 8 11 12 9 6 8 20 22 28 46 103 250 255 255 125 52 26 19 23 14 7 10 25 66 122 111 56 21 8 5 8 9 7 5 4 4 7 11 21 42 99 231 246 13 1 0 0 0 0 0 0 0 0 0 0 0 0 0 1 20 255 231 104 44 26 23 30 12 5 4 4 4 7 21 28 26 38 80 176 255 44 2 0 1 22 255 191 174 183 255 26 1 5 100 255 139 59 29 21 23 12 4 2 3 5 15 22 19 26 51 121 255 153 7 0 0 0 0 0 0 0 0 0 0 1 21 255 223 98 44 30 28 26 9 7 16 43 109 249 228 11 1 0 0 0 0 0 0 0 0 0 0 0 0 0 0 0 0 0 0 0 0 0 0 0 0 0 0 0 0 0 0 0 0 0 0 0 0 0 0
0 0 0 0 0 0 0 0 0 0 0 0 0 0 0 0 0 0 0 0 0 0 0 0 0 0 0 1 13 255 255 120 51 23 13 10 7 3 3 4 5 5 3 3 4 8 6 6 12 29 77 168 213 113 47 21 13 12 8 3 4 10 30 79 179 255 67 3 2 31 255 198 90 35 12 4 3 4 7 6 8 17 44 110 210 174 80 33 16 13 16 10 4 4 12 34 88 196 255 35 2 0 0 0 0 0 0 0 0 0 0 0 0 0 0 0 1 13 255 255 128 53 19 6 3 5 11 12 17 31 75 161 199 108 44 16 7 5 5 5 3 4 11 33 86 195 255 36 16 255 255 115 45 16 5 3 6 13 12 17 32 75 169 255 77 4 0 0 0 9 191 255 127 52 20 8 4 4 5 3 2 3 5 5 4 3 3 8 11 11 17 39 100 211 219 105 42 16 8 6 6 4 2 5 14 42 108 236 255 22 1 0 0 0 0 0 0 0 0 0 0 0 0 0 0 0 0 0 0 0 0 0 0 0 0 0 0 0 0 0 0 0 0 0 0 0 4 88 255 155 68 26 8 3 4 9 12 12 20 47 114 253 255 14 1 0 0 0 0 0 0 0 0 1 16 255 239 109 47 21 12 10 8 3 4 10 30 66 90 64 29 9 4 5 14 15 14 23 51 121 255 255 255 123 51 23 13 11 9 4 3 7 20 56 135 255 129 6 0 0 0 0 0 0 0 0 0 1 28 255 206 93 36 12 4 3 6 9 10 16 35 86 195 255 39 2 0 0 4 82 255 166 73 31 16 10 11 5 3 6 17 46 114 248 255 18 1 0 0 0 0 0 0 0 0 0 0 0 0 0 0 0 0 1 15 255 255 121 50 18 6 3 6 15 13 18 33 75 166 255 64 3 0 0 0 0 0 0 0 0 0 0 0 0 0 0 0 0 0 0 0 0 0 0 0 0 0 0 0 0 0 0 0 0 0 0 0 0 0 0 0 0 0 0 0 0 0 0 0 7 152 255 139 60 25 13 10 11 6 3 3 3 4 3 2 4 9 10 14 26 61 142 251 181 78 30 14 9 9 6 3 4 12 30 47 44 25 10 4 2 3 3 2 2 1 1 2 5 10 24 59 139 255 102 5 0 0 0 0 0 0 0 0 0 0 0 0 0 8 167 255 136 59 25 13 11 13 6 2 1 1 1 3 10 13 13 21 45 105 227 255 18 1 8 180 255 141 146 136 255 181 12 47 255 181 82 34 15 10 9 5 2 1 1 2 6 9 8 13 28 71 166 255 68 3 0 0 0 0 0 0 0 0 0 8 181 255 136 57 25 15 13 13 5 3 8 23 61 146 255 90 5 0 0 0 0 0 0 0 0 0 0 0 0 0 0 0 0 0 0 0 0 0 0 0 0 0 0 0 0 0 0 0 0 0 0 0 0 0 0
0 0 0 0 0 0 0 0 0 0 0 0 0 0 0 0 0 0 0 0 0 0 0 0 0 0 0 6 114 255 163 73 30 12 6 4 2 1 1 1 1 1 1 1 2 3 2 3 5 16 43 78 92 61 28 11 5 4 3 1 2 5 16 46 109 225 255 36 15 255 255 124 53 19 6 2 1 1 2 2 3 8 25 59 91 80 45 18 8 5 6 4 2 2 6 19 52 123 255 255 15 1 0 0 0 0 0 0 0 0 0 0 0 0 0 0 6 134 255 167 76 30 10 3 1 2 4 5 8 18 43 74 85 56 25 8 3 2 2 1 1 2 5 18 52 124 255 255 184 255 157 70 26 8 2 1 2 5 5 8 18 45 103 216 255 39 2 0 4 85 255 169 77 30 10 3 2 1 2 1 1 1 1 1 1 1 1 3 4 5 9 23 57 95 98 59 24 8 3 2 2 1 1 2 7 24 65 146 255 219 10 0 0 0 0 0 0 0 0 0 0 0 0 0 0 0 0 0 0 0 0 0 0 0 0 0 0 0 0 0 0 0 0 0 0 2 46 255 204 94 39 13 4 1 1 3 4 5 11 28 70 156 255 127 6 0 0 0 0 0 0 0 0 7 154 255 149 65 27 11 5 4 3 1 2 5 14 28 34 27 14 4 2 2 5 6 7 12 30 75 163 255 169 77 31 12 6 4 3 1 1 3 10 32 82 182 255 61 3 0 0 0 0 0 0 0 1 12 255 255 130 56 20 6 2 1 2 3 4 8 20 53 124 255 255 18 1 2 39 255 206 100 44 17 7 4 4 2 1 3 8 26 68 154 255 156 7 0 0 0 0 0 0 0 0 0 0 0 0 0 0 0 0 7 141 255 160 72 28 9 3 1 2 6 6 9 19 45 103 215 255 30 1 0 0 0 0 0 0 0 0 0 0 0 0 0 0 0 0 0 0 0 0 0 0 0 0 0 0 0 0 0 0 0 0 0 0 0 0 0 0 0 0 0 0 0 0 0 3 71 255 185 84 35 13 6 4 4 2 1 1 1 1 1 1 1 3 4 6 14 36 74 109 88 47 17 6 4 3 2 1 2 5 12 16 16 10 4 1 1 1 1 1 0 0 0 1 2 4 13 37 89 194 255 51 2 0 0 0 0 0 0 0 0 0 0 0 4 72 255 176 81 35 13 6 4 5 2 1 0 0 1 1 3 5 6 11 26 63 142 255 149 11 79 255 178 108 115 104 166 255 151 255 242 114 50 19 7 4 3 2 1 0 0 1 2 3 3 6 16 43 104 217 255 33 1 0 0 0 0 0 0 0 4 79 255 177 83 34 14 7 5 5 2 1 3 12 36 90 195 255 42 2 0 0 0 0 0 0 0 0 0 0 0 0 0 0 0 0 0 0 0 0 0 0 0 0 0 0 0 0 0 0 0 0 0 0 0 0 0
0 0 0 0 0 0 0 0 0 0 0 0 0 0 0 0 0 0 0 0 0 0 0 0 0 0 3 56 255 206 106 49 18 6 2 1 1 0 0 0 0 0 0 0 0 1 1 1 2 8 22 35 39 31 15 5 2 1 1 0 1 2 9 29 71 145 255 255 187 255 171 82 34 11 3 1 0 0 1 1 1 4 13 29 38 36 24 10 4 2 2 1 1 1 3 10 34 81 167 255 125 6 0 0 0 0 0 0 0 0 0 0 0 0 0 3 68 255 210 107 50 18 5 1 1 1 1 2 4 9 23 33 35 27 13 4 1 1 0 0 0 1 3 10 34 83 173 255 255 214 104 47 15 4 1 1 1 1 2 4 10 29 68 140 255 255 17 3 45 255 222 111 51 18 5 1 1 0 0 0 0 0 0 0 0 0 0 1 1 2 4 13 31 42 42 31 13 4 1 1 1 0 0 1 4 14 43 95 190 255 102 5 0 0 0 0 0 0 0 0 0 0 0 0 0 0 0 0 0 0 0 0 0 0 0 0 0 0 0 0 0 0 0 0 1 22 255 255 135 62 24 7 2 1 1 1 1 2 5 17 47 103 202 255 62 3 0 0 0 0 0 0 4 76 255 200 99 44 16 5 2 1 1 0 1 2 6 10 12 10 5 2 1 1 2 2 3 6 19 49 89 119 91 51 19 6 2 1 1 0 1 1 5 20 55 122 239 255 32 1 0 0 0 0 0 0 6 121 255 178 86 37 11 3 1 0 1 1 2 4 11 35 82 166 255 177 9 18 255 255 134 65 28 9 3 2 1 1 1 1 4 15 44 99 192 255 68 3 0 0 0 0 0 0 0 0 0 0 0 0 0 0 3 64 255 199 103 47 16 5 1 1 1 2 2 4 10 29 68 142 255 255 13 1 0 0 0 0 0 0 0 0 0 0 0 0 0 0 0 0 0 0 0 0 0 0 0 0 0 0 0 0 0 0 0 0 0 0 0 0 0 0 0 0 0 0 0 2 35 255 231 121 56 21 7 2 1 1 1 0 0 0 0 0 0 0 1 1 3 7 20 37 46 41 27 9 3 1 1 1 0 1 2 4 5 5 3 1 1 0 0 0 0 0 0 0 0 1 2 7 25 62 130 253 255 26 1 0 0 0 0 0 0 0 0 0 2 35 255 223 115 54 21 7 3 2 1 1 0 0 0 0 0 1 2 2 5 15 42 94 192 255 195 255 223 124 95 100 92 120 243 255 255 163 76 32 11 3 1 1 1 0 0 0 0 1 1 1 3 8 28 69 142 255 255 14 1 0 0 0 0 0 2 39 255 222 115 55 22 7 3 2 1 1 1 2 6 22 61 131 255 255 18 1 0 0 0 0 0 0 0 0 0 0 0 0 0 0 0 0 0 0 0 0 0 0 0 0 0 0 0 0 0 0 0 0 0 0 0 0
0 0 0 0 0 0 0 0 0 0 0 0 0 0 0 0 0 0 0 0 0 0 0 0 0 1 30 255 253 138 77 37 11 3 1 0 0 0 0 0 0 0 0 0 0 0 0 0 1 4 10 15 16 14 7 2 1 0 0 0 0 1 5 19 53 100 187 255 255 229 120 63 24 6 1 0 0 0 0 0 1 2 6 13 15 15 11 4 1 1 1 0 0 0 1 6 24 62 115 207 255 58 3 0 0 0 0 0 0 0 0 0 0 0 2 36 255 247 139 77 36 10 2 1 0 0 0 1 1 4 10 14 14 12 6 2 1 0 0 0 0 0 1 6 24 65 123 217 243 144 79 35 9 2 0 0 0 0 1 2 5 19 52 97 173 255 162 32 255 255 150 82 38 11 3 1 0 0 0 0 0 0 0 0 0 0 0 0 0 1 2 6 15 18 18 15 6 2 1 0 0 0 0 0 2 8 31 70 127 227 255 54 2 0 0 0 0 0 0 0 0 0 0 0 0 0 0 0 0 0 0 0 0 0 0 0 0 0 0 0 0 0 0 0 10 218 255 170 95 48 15 4 1 0 0 0 0 1 3 10 36 76 137 247 255 32 1 0 0 0 0 2 40 255 240 135 75 33 9 2 1 0 0 0 0 1 2 3 4 3 2 1 0 0 0 1 1 3 11 33 49 55 50 34 11 3 1 0 0 0 0 1 3 12 43 89 160 255 255 14 1 0 0 0 0 3 62 255 218 122 66 26 6 1 0 0 0 0 1 2 6 25 62 113 205 255 108 175 255 174 94 49 18 5 1 1 0 0 0 1 2 9 32 72 129 233 255 33 1 0 0 0 0 0 0 0 0 0 0 0 0 1 32 255 239 132 74 34 10 2 1 0 0 1 1 2 5 19 53 101 185 255 120 6 0 0 0 0 0 0 0 0 0 0 0 0 0 0 0 0 0 0 0 0 0 0 0 0 0 0 0 0 0 0 0 0 0 0 0 0 0 0 0 0 0 0 1 16 255 255 153 86 43 13 3 1 0 0 0 0 0 0 0 0 0 0 0 0 1 3 10 17 19 18 13 4 1 0 0 0 0 0 1 1 2 2 1 0 0 0 0 0 0 0 0 0 0 0 1 4 17 51 95 167 255 235 11 0 0 0 0 0 0 0 0 1 14 255 255 150 83 41 13 3 1 1 0 0 0 0 0 0 0 0 0 1 2 9 31 72 135 255 255 255 155 100 110 117 110 104 161 252 202 117 61 22 6 2 1 0 0 0 0 0 0 0 0 0 1 5 19 53 99 180 255 130 6 0 0 0 0 1 17 255 255 149 83 41 13 4 1 1 0 0 0 1 3 14 47 94 169 255 156 7 0 0 0 0 0 0 0 0 0 0 0 0 0 0 0 0 0 0 0 0 0 0 0 0 0 0 0 0 0 0 0 0 0 0 0 0
0 0 0 0 0 0 0 0 0 0 0 0 0 0 0 0 0 0 0 0 0 0 0 0 1 15 255 255 171 103 69 31 7 1 0 0 0 0 0 0 0 0 0 0 0 0 0 0 0 1 4 5 6 5 3 1 0 0 0 0 0 1 3 13 48 84 132 217 247 154 98 61 18 4 1 0 0 0 0 0 0 1 2 5 6 5 4 2 1 0 0 0 0 0 1 3 17 58 92 143 249 255 29 1 0 0 0 0 0 0 0 0 0 1 17 255 255 164 101 68 30 6 1 0 0 0 0 0 1 2 4 5 5 4 2 1 0 0 0 0 0 0 1 4 19 63 95 117 123 100 73 29 6 1 0 0 0 0 0 1 3 13 48 80 121 210 255 255 255 177 109 74 32 7 1 0 0 0 0 0 0 0 0 0 0 0 0 0 0 0 1 2 5 7 7 6 2 1 0 0 0 0 0 0 1 5 24 64 96 152 255 255 29 1 0 0 0 0 0 0 0 0 0 0 0 0 0 0 0 0 0 0 0 0 0 0 0 0 0 0 0 0 0 5 97 255 203 119 80 45 10 2 0 0 0 0 0 0 1 6 30 70 102 166 255 255 15 1 0 0 1 21 255 255 160 101 69 28 6 1 0 0 0 0 0 0 1 1 1 1 1 0 0 0 0 0 0 1 6 21 28 27 27 21 6 1 0 0 0 0 0 0 2 8 38 78 114 188 255 125 6 0 0 0 1 34 255 255 147 95 63 20 4 1 0 0 0 0 0 1 4 18 58 90 140 250 255 255 212 123 80 44 12 3 1 0 0 0 0 0 1 5 25 63 97 159 255 255 14 1 0 0 0 0 0 0 0 0 0 0 1 14 255 255 162 99 65 28 6 1 0 0 0 0 0 1 3 13 51 85 129 218 255 57 3 0 0 0 0 0 0 0 0 0 0 0 0 0 0 0 0 0 0 0 0 0 0 0 0 0 0 0 0 0 0 0 0 0 0 0 0 0 0 0 0 0 7 152 255 184 110 74 37 9 2 0 0 0 0 0 0 0 0 0 0 0 0 0 0 1 4 7 7 7 5 2 1 0 0 0 0 0 0 0 0 0 0 0 0 0 0 0 0 0 0 0 0 0 0 2 12 50 83 118 195 255 101 5 0 0 0 0 0 0 0 6 127 255 182 109 73 36 8 2 0 0 0 0 0 0 0 0 0 0 0 0 1 5 26 69 107 167 242 186 121 115 194 208 201 125 110 126 113 92 61 17 3 1 0 0 0 0 0 0 0 0 0 0 1 3 13 49 84 127 218 255 64 3 0 0 0 7 161 255 179 108 73 36 8 2 0 0 0 0 0 0 2 10 42 81 121 204 255 70 3 0 0 0 0 0 0 0 0 0 0 0 0 0 0 0 0 0 0 0 0 0 0 0 0 0 0 0 0 0 0 0 0 0 0 0
0 0 0 0 0 0 0 0 0 0 0 0 0 0 0 0 0 0 0 0 0 0 0 0 7 159 255 199 124 98 87 30 5 1 0 0 0 0 0 0 0 0 0 0 0 0 0 0 0 0 1 2 2 2 1 0 0 0 0 0 0 0 2 10 59 96 104 120 127 110 102 86 16 2 0 0 0 0 0 0 0 0 1 1 2 2 1 1 0 0 0 0 0 0 0 2 15 77 96 112 171 255 255 13 1 0 0 0 0 0 0 0 0 8 180 255 189 118 93 84 28 5 1 0 0 0 0 0 0 1 1 1 2 1 1 0 0 0 0 0 0 0 0 2 17 86 89 70 69 81 93 28 4 1 0 0 0 0 0 0 2 10 60 92 103 153 255 255 225 131 99 94 32 5 1 0 0 0 0 0 0 0 0 0 0 0 0 0 0 0 0 1 2 2 2 2 1 0 0 0 0 0 0 0 1 3 21 83 94 114 177 255 255 13 1 0 0 0 0 0 0 0 0 0 0 0 0 0 0 0 0 0 0 0 0 0 0 0 0 0 0 0 2 49 255 233 141 101 90 57 9 1 0 0 0 0 0 0 1 5 29 93 99 122 194 255 147 7 0 0 10 240 255 188 118 97 89 28 4 1 0 0 0 0 0 0 0 0 0 0 0 0 0 0 0 0 0 1 3 10 14 13 14 11 3 1 0 0 0 0 0 0 1 6 42 94 100 133 220 255 62 3 0 1 15 255 255 173 113 96 84 17 3 0 0 0 0 0 0 0 2 15 75 96 111 171 255 255 154 105 96 54 9 2 0 0 0 0 0 0 1 4 22 78 95 119 189 255 121 6 0 0 0 0 0 0 0 0 0 0 6 133 255 193 120 95 80 25 4 1 0 0 0 0 0 0 2 11 71 99 106 151 255 255 29 1 0 0 0 0 0 0 0 0 0 0 0 0 0 0 0 0 0 0 0 0 0 0 0 0 0 0 0 0 0 0 0 0 0 0 0 0 0 0 0 3 73 255 217 132 98 88 40 7 1 0 0 0 0 0 0 0 0 0 0 0 0 0 0 0 1 2 2 2 2 1 0 0 0 0 0 0 0 0 0 0 0 0 0 0 0 0 0 0 0 0 0 0 0 1 10 68 101 102 137 227 255 52 2 0 0 0 0 0 3 62 255 217 132 99 90 39 6 1 0 0 0 0 0 0 0 0 0 0 0 0 1 4 25 97 104 108 123 113 124 218 255 255 255 223 99 71 71 90 93 15 2 0 0 0 0 0 0 0 0 0 0 0 0 2 10 60 97 106 152 253 255 32 1 0 4 76 255 213 129 98 93 37 6 1 0 0 0 0 0 0 1 8 49 95 104 145 242 255 35 2 0 0 0 0 0 0 0 0 0 0 0 0 0 0 0 0 0 0 0 0 0 0 0 0 0 0 0 0 0 0 0 0 0 0
0 0 0 0 0 0 0 0 0 0 0 0 0 0 0 0 0 0 0 0 0 0 0 4 81 255 222 139 112 146 193 45 5 1 0 0 0 0 0 0 0 0 0 0 0 0 0 0 0 0 0 0 1 0 0 0 0 0 0 0 0 0 1 14 149 181 108 75 74 97 164 224 27 3 0 0 0 0 0 0 0 0 0 0 0 0 0 0 0 0 0 0 0 0 0 2 22 195 163 117 128 198 255 123 6 0 0 0 0 0 0 0 4 91 255 218 135 109 137 188 41 4 1 0 0 0 0 0 0 0 0 0 0 0 0 0 0 0 0 0 0 0 0 3 26 204 132 56 49 100 192 41 4 1 0 0 0 0 0 0 2 15 158 182 127 123 160 188 144 117 137 197 50 5 1 0 0 0 0 0 0 0 0 0 0 0 0 0 0 0 0 0 0 1 1 0 0 0 0 0 0 0 0 0 0 3 29 201 151 111 128 199 255 135 6 0 0 0 0 0 0 0 0 0 0 0 0 0 0 0 0 0 0 0 0 0 0 0 0 0 0 1 26 255 255 159 114 125 170 154 13 1 0 0 0 0 0 0 1 5 44 209 150 112 137 220 255 71 4 5 112 255 213 134 112 145 194 43 4 1 0 0 0 0 0 0 0 0 0 0 0 0 0 0 0 0 0 0 1 4 5 5 5 4 1 0 0 0 0 0 0 0 1 8 75 180 129 113 154 255 255 33 2 7 144 255 192 126 114 157 206 26 3 0 0 0 0 0 0 0 2 21 185 170 119 122 149 144 121 128 192 138 12 1 0 0 0 0 0 0 0 3 28 178 149 113 137 218 255 59 3 0 0 0 0 0 0 0 0 3 65 255 220 138 112 145 182 34 4 1 0 0 0 0 0 0 2 20 217 188 122 119 174 255 255 13 1 0 0 0 0 0 0 0 0 0 0 0 0 0 0 0 0 0 0 0 0 0 0 0 0 0 0 0 0 0 0 0 0 0 0 0 0 0 2 38 255 247 151 113 133 177 70 7 1 0 0 0 0 0 0 0 0 0 0 0 0 0 0 0 0 1 1 1 0 0 0 0 0 0 0 0 0 0 0 0 0 0 0 0 0 0 0 0 0 0 0 0 0 2 17 195 201 132 114 158 255 255 28 1 0 0 0 1 32 255 254 153 115 136 191 76 7 1 0 0 0 0 0 0 0 0 0 0 0 0 0 4 44 222 150 85 70 86 189 255 245 241 241 255 149 55 61 145 247 29 3 0 0 0 0 0 0 0 0 0 0 0 0 1 14 142 186 124 119 171 255 255 15 2 39 255 244 149 114 137 202 61 6 1 0 0 0 0 0 0 1 10 99 179 128 118 167 255 255 16 1 0 0 0 0 0 0 0 0 0 0 0 0 0 0 0 0 0 0 0 0 0 0 0 0 0 0 0 0 0 0 0 0 0
0 0 0 0 0 0 0 0 0 0 0 0 0 0 0 0 0 0 0 0 0 0 2 45 255 240 143 109 144 255 255 202 13 1 0 0 0 0 0 0 0 0 0 0 0 0 0 0 0 0 0 0 0 0 0 0 0 0 0 0 0 0 4 58 255 255 176 65 55 133 255 255 118 7 0 0 0 0 0 0 0 0 0 0 0 0 0 0 0 0 0 0 0 0 0 5 84 255 255 179 114 133 213 255 60 3 0 0 0 0 0 2 50 255 236 143 109 146 255 255 181 11 1 0 0 0 0 0 0 0 0 0 0 0 0 0 0 0 0 0 0 0 0 6 94 255 255 82 60 218 255 152 10 1 0 0 0 0 0 0 4 62 255 255 222 120 94 95 97 140 244 255 222 14 1 0 0 0 0 0 0 0 0 0 0 0 0 0 0 0 0 0 0 0 0 0 0 0 0 0 0 0 0 0 1 7 108 255 255 162 108 132 216 255 69 3 0 0 0 0 0 0 0 0 0 0 0 0 0 0 0 0 0 0 0 0 0 0 0 0 1 13 255 255 173 115 121 221 255 255 60 4 0 0 0 0 0 0 1 12 190 255 255 149 110 144 239 255 41 59 255 224 138 109 154 255 255 209 12 1 0 0 0 0 0 0 0 0 0 0 0 0 0 0 0 0 0 0 0 1 2 2 2 1 0 0 0 0 0 0 0 0 2 25 255 255 228 130 115 166 255 255 18 72 255 208 128 109 171 255 255 100 6 0 0 0 0 0 0 0 5 78 255 255 183 100 81 83 115 215 255 255 54 3 0 0 0 0 0 0 1 7 99 255 255 154 112 146 247 255 32 1 0 0 0 0 0 0 1 35 255 243 145 111 151 255 255 137 8 1 0 0 0 0 0 0 5 91 255 255 204 119 122 191 255 133 6 0 0 0 0 0 0 0 0 0 0 0 0 0 0 0 0 0 0 0 0 0 0 0 0 0 0 0 0 0 0 0 0 0 0 0 0 1 17 255 255 160 113 132 240 255 255 24 1 0 0 0 0 0 0 0 0 0 0 0 0 0 0 0 0 0 0 0 0 0 0 0 0 0 0 0 0 0 0 0 0 0 0 0 0 0 0 0 0 0 0 0 0 4 74 255 255 233 129 116 172 255 255 13 1 0 1 14 255 255 165 116 136 242 255 255 29 2 0 0 0 0 0 0 0 0 0 0 0 0 1 13 237 255 242 104 54 101 227 205 176 166 171 194 225 85 110 255 255 132 8 1 0 0 0 0 0 0 0 0 0 0 0 3 52 255 255 207 119 120 185 255 140 26 255 255 159 114 138 247 255 255 20 1 0 0 0 0 0 0 2 35 255 255 215 124 120 182 255 155 7 0 0 0 0 0 0 0 0 0 0 0 0 0 0 0 0 0 0 0 0 0 0 0 0 0 0 0 0 0 0 0 0 0
0 0 0 0 0 0 0 0 0 0 0 0 0 0 0 0 0 0 0 0 0 1 20 255 248 138 89 97 183 216 219 255 82 4 0 0 0 0 0 0 0 0 0 0 0 0 0 0 0 0 0 0 0 0 0 0 0 0 0 0 0 1 26 255 224 214 214 89 65 190 202 201 255 50 3 0 0 0 0 0 0 0 0 0 0 0 0 0 0 0 0 0 0 0 2 36 255 207 214 209 118 88 124 226 255 32 1 0 0 0 1 26 255 244 135 89 102 198 227 224 255 73 4 0 0 0 0 0 0 0 0 0 0 0 0 0 0 0 0 0 0 0 2 39 255 201 219 222 176 240 210 255 57 3 0 0 0 0 0 1 27 255 222 219 219 132 59 48 72 171 216 215 255 88 5 0 0 0 0 0 0 0 0 0 0 0 0 0 0 0 0 0 0 0 0 0 0 0 0 0 0 0 0 0 2 44 255 209 219 208 109 86 125 224 255 37 2 0 0 0 0 0 0 0 0 0 0 0 0 0 0 0 0 0 0 0 0 0 0 0 6 126 255 174 103 89 151 225 224 224 255 26 1 0 0 0 0 0 4 70 255 210 213 190 101 90 139 255 255 255 233 128 87 103 198 219 220 255 85 4 0 0 0 0 0 0 0 0 0 0 0 0 0 0 0 0 0 0 0 0 0 0 0 0 0 0 0 0 0 0 0 0 8 161 255 223 221 166 92 99 163 255 255 255 221 122 86 113 209 214 205 255 42 2 0 0 0 0 0 2 33 255 209 213 207 100 47 52 126 213 215 229 255 23 1 0 0 0 0 0 2 43 255 217 219 194 104 93 145 255 255 15 1 0 0 0 0 1 15 255 255 142 91 102 193 222 223 255 58 3 0 0 0 0 0 2 40 255 206 208 216 139 89 111 193 255 61 3 0 0 0 0 0 0 0 0 0 0 0 0 0 0 0 0 0 0 0 0 0 0 0 0 0 0 0 0 0 0 0 0 0 0 0 7 156 255 157 96 92 169 224 228 255 170 8 0 0 0 0 0 0 0 0 0 0 0 0 0 0 0 0 0 0 0 0 0 0 0 0 0 0 0 0 0 0 0 0 0 0 0 0 0 0 0 0 0 0 0 2 32 255 206 206 219 162 92 102 170 255 117 6 1 6 136 255 164 99 94 170 220 224 255 196 10 1 0 0 0 0 0 0 0 0 0 0 0 5 94 255 207 201 167 69 141 159 127 109 102 106 127 185 242 255 218 196 255 53 3 0 0 0 0 0 0 0 0 0 0 1 20 255 221 214 215 137 87 109 190 255 255 255 157 96 95 175 219 217 255 122 6 0 0 0 0 0 1 12 239 247 220 216 148 90 108 187 255 71 3 0 0 0 0 0 0 0 0 0 0 0 0 0 0 0 0 0 0 0 0 0 0 0 0 0 0 0 0 0 0 0 0
0 0 0 0 0 0 0 0 0 0 0 0 0 0 0 0 0 0 0 0 0 8 151 255 132 70 53 87 144 127 132 186 255 38 2 0 0 0 0 0 0 0 0 0 0 0 0 0 0 0 0 0 0 0 0 0 0 0 0 0 0 10 195 255 140 121 145 152 116 155 119 127 207 255 21 1 0 0 0 0 0 0 0 0 0 0 0 0 0 0 0 0 0 1 14 255 230 134 122 140 109 58 65 123 255 255 14 1 0 0 11 235 255 131 69 54 95 153 134 136 191 255 33 2 0 0 0 0 0 0 0 0 0 0 0 0 0 0 0 0 0 1 14 255 220 135 143 255 255 164 140 192 255 24 1 0 0 0 0 10 196 255 138 119 131 116 41 26 57 135 129 131 180 255 41 2 0 0 0 0 0 0 0 0 0 0 0 0 0 0 0 0 0 0 0 0 0 0 0 0 0 0 0 1 17 255 212 133 126 149 106 56 65 120 243 255 16 1 0 0 0 0 0 0 0 0 0 0 0 0 0 0 0 0 0 0 0 0 0 3 57 255 176 89 57 70 140 138 123 139 255 188 9 0 0 0 0 1 30 255 182 128 125 144 91 55 73 149 255 255 130 66 53 95 148 129 133 186 255 38 2 0 0 0 0 0 0 0 0 0 0 0 0 0 0 0 0 0 0 0 0 0 0 0 0 0 0 0 0 0 0 3 67 255 162 130 136 144 76 56 86 185 255 255 123 64 57 109 144 123 132 216 255 17 1 0 0 0 1 13 255 237 134 120 135 95 32 38 114 129 118 140 255 180 9 0 0 0 0 1 19 255 221 138 127 144 94 57 75 146 255 122 6 0 0 0 0 6 126 255 141 73 56 92 146 129 138 203 255 25 1 0 0 0 1 15 255 222 127 115 135 130 65 60 101 202 255 28 1 0 0 0 0 0 0 0 0 0 0 0 0 0 0 0 0 0 0 0 0 0 0 0 0 0 0 0 0 0 0 0 0 0 3 67 255 164 82 55 77 143 134 131 167 255 74 4 0 0 0 0 0 0 0 0 0 0 0 0 0 0 0 0 0 0 0 0 0 0 0 0 0 0 0 0 0 0 0 0 0 0 0 0 0 0 0 0 0 1 12 246 239 129 113 131 141 73 57 88 174 255 54 6 63 255 171 85 56 77 141 132 126 157 255 79 4 0 0 0 0 0 0 0 0 0 0 2 42 255 179 125 125 175 142 150 92 67 57 54 57 74 127 255 235 139 127 199 255 22 1 0 0 0 0 0 0 0 0 0 7 139 255 140 120 135 128 64 59 104 232 255 178 84 55 79 143 130 127 167 255 53 3 0 0 0 0 5 95 255 152 126 135 132 68 59 98 196 255 34 2 0 0 0 0 0 0 0 0 0 0 0 0 0 0 0 0 0 0 0 0 0 0 0 0 0 0 0 0 0 0 0
0 0 0 0 0 0 0 0 0 0 0 0 0 0 0 0 0 0 0 0 3 61 255 146 64 33 31 67 81 65 68 106 225 255 14 1 0 0 0 0 0 0 0 0 0 0 0 0 0 0 0 0 0 0 0 0 0 0 0 0 4 74 255 141 75 62 87 190 208 100 64 69 117 255 154 8 0 0 0 0 0 0 0 0 0 0 0 0 0 0 0 0 0 5 107 255 129 72 61 73 78 37 32 60 135 255 116 6 0 5 97 255 142 63 33 33 75 85 68 70 108 234 243 12 1 0 0 0 0 0 0 0 0 0 0 0 0 0 0 0 0 5 96 255 125 77 86 153 174 100 80 114 255 162 8 0 0 0 4 78 255 138 73 57 64 74 28 16 41 76 65 68 103 220 255 17 1 0 0 0 0 0 0 0 0 0 0 0 0 0 0 0 0 0 0 0 0 0 0 0 0 0 0 6 117 255 121 71 64 80 82 36 32 57 129 255 126 6 0 0 0 0 0 0 0 0 0 0 0 0 0 0 0 0 0 0 0 0 1 26 255 199 90 42 30 52 90 70 60 74 139 255 73 4 0 0 1 11 235 237 105 67 63 80 70 33 36 72 137 129 64 33 33 73 81 66 69 105 221 255 14 1 0 0 0 0 0 0 0 0 0 0 0 0 0 0 0 0 0 0 0 0 0 0 0 0 0 0 0 0 1 31 255 186 91 66 70 87 56 31 42 91 168 127 61 32 37 82 76 62 71 123 255 115 6 0 0 0 5 102 255 134 73 59 69 73 24 29 76 64 57 74 145 255 72 4 0 0 0 7 140 255 127 74 65 79 71 34 37 72 159 255 52 3 0 0 3 55 255 158 70 35 33 69 80 65 71 115 255 198 9 0 0 0 6 117 255 123 67 56 69 87 45 30 48 108 249 232 11 0 0 0 0 0 0 0 0 0 0 0 0 0 0 0 0 0 0 0 0 0 0 0 0 0 0 0 0 0 0 0 0 1 30 255 187 84 39 30 57 85 68 66 93 187 255 36 2 0 0 0 0 0 0 0 0 0 0 0 0 0 0 0 0 0 0 0 0 0 0 0 0 0 0 0 0 0 0 0 0 0 0 0 0 0 0 0 0 5 99 255 134 69 55 66 86 53 30 42 90 202 255 68 255 197 88 41 31 56 83 66 62 86 177 255 38 2 0 0 0 0 0 0 0 0 1 17 255 214 100 66 71 129 222 124 52 32 26 24 27 39 76 135 122 77 71 114 255 158 8 0 0 0 0 0 0 0 0 3 57 255 148 76 59 69 85 45 31 51 103 142 84 41 31 58 82 66 64 94 199 255 24 1 0 0 2 43 255 168 85 63 69 85 48 31 47 104 237 255 14 1 0 0 0 0 0 0 0 0 0 0 0 0 0 0 0 0 0 0 0 0 0 0 0 0 0 0 0 0 0 0
0 0 0 0 0 0 0 0 0 0 0 0 0 0 0 0 0 0 0 1 27 255 189 78 30 15 18 43 39 30 32 55 125 255 112 5 0 0 0 0 0 0 0 0 0 0 0 0 0 0 0 0 0 0 0 0 0 0 0 1 32 255 176 76 38 31 57 151 186 72 33 34 62 148 255 64 3 0 0 0 0 0 0 0 0 0 0 0 0 0 0 0 2 47 255 163 70 36 28 34 45 22 16 28 69 167 255 54 5 48 255 176 73 29 15 19 48 41 31 34 56 131 255 95 5 0 0 0 0 0 0 0 0 0 0 0 0 0 0 0 2 40 255 158 69 41 46 71 78 53 43 62 142 255 68 3 0 2 37 255 179 75 36 25 28 37 17 10 25 35 30 33 54 125 255 126 6 0 0 0 0 0 0 0 0 0 0 0 0 0 0 0 0 0 0 0 0 0 0 0 0 0 2 49 255 152 65 36 29 38 51 22 15 27 65 160 255 56 3 0 0 0 0 0 0 0 0 0 0 0 0 0 0 0 0 0 0 0 10 217 255 111 43 19 16 33 46 32 27 37 76 179 255 34 2 0 5 93 255 135 56 32 29 38 44 19 17 30 49 47 27 15 19 46 39 30 32 54 123 255 101 5 0 0 0 0 0 0 0 0 0 0 0 0 0 0 0 0 0 0 0 0 0 0 0 0 0 0 0 1 12 237 247 106 47 31 33 43 35 16 19 38 61 49 27 16 23 50 36 29 36 66 154 255 48 2 0 2 44 255 166 73 37 27 32 45 18 19 40 29 26 37 78 183 255 33 2 0 3 57 255 153 67 37 30 37 43 19 17 34 85 202 255 23 1 1 25 255 201 85 33 16 19 43 38 30 34 60 143 255 78 4 0 3 56 255 162 66 33 25 32 46 27 15 22 54 138 255 89 5 0 0 0 0 0 0 0 0 0 0 0 0 0 0 0 0 0 0 0 0 0 0 0 0 0 0 0 0 0 0 1 11 224 246 103 41 18 16 36 42 31 30 47 105 240 255 15 1 0 0 0 0 0 0 0 0 0 0 0 0 0 0 0 0 0 0 0 0 0 0 0 0 0 0 0 0 0 0 0 0 0 0 0 0 0 0 2 46 255 171 72 35 25 30 42 32 16 19 44 115 255 255 255 111 43 19 16 34 40 30 28 44 101 234 255 16 1 0 0 0 0 0 0 0 7 147 255 122 51 33 40 88 160 95 31 14 10 10 12 19 38 57 53 38 36 61 145 255 65 3 0 0 0 0 0 0 1 25 255 193 83 39 27 32 45 28 16 22 39 50 34 18 17 36 40 30 30 49 115 255 191 9 0 1 18 255 219 95 44 29 32 43 29 16 22 52 133 255 131 6 0 0 0 0 0 0 0 0 0 0 0 0 0 0 0 0 0 0 0 0 0 0 0 0 0 0 0 0 0 0
0 0 0 0 0 0 0 0 0 0 0 0 0 0 0 0 0 0 0 10 213 255 113 41 14 7 9 23 17 13 15 28 70 174 255 53 3 0 0 0 0 0 0 0 0 0 0 0 0 0 0 0 0 0 0 0 0 0 1 13 255 249 105 40 18 16 38 97 113 54 19 17 33 86 199 255 29 1 0 0 0 0 0 0 0 0 0 0 0 0 0 1 19 255 219 96 37 17 12 15 21 11 7 13 35 96 218 255 60 255 231 102 37 14 7 10 25 18 13 15 29 74 178 255 45 2 0 0 0 0 0 0 0 0 0 0 0 0 0 1 15 255 224 95 37 21 22 29 31 25 22 34 83 198 255 34 2 17 255 246 107 40 17 11 11 15 8 5 11 14 12 15 28 69 164 255 55 3 0 0 0 0 0 0 0 0 0 0 0 0 0 0 0 0 0 0 0 0 0 0 0 1 22 255 212 90 35 17 13 17 26 12 7 12 33 92 213 255 27 1 0 0 0 0 0 0 0 0 0 0 0 0 0 0 0 0 0 4 91 255 150 59 21 9 8 17 20 14 11 17 40 107 249 255 14 3 44 255 182 78 30 15 12 17 22 10 7 11 16 16 10 7 10 24 17 13 15 27 69 169 255 45 2 0 0 0 0 0 0 0 0 0 0 0 0 0 0 0 0 0 0 0 0 0 0 0 0 0 0 5 99 255 142 58 24 14 14 19 18 8 8 14 20 17 10 7 12 25 16 12 17 35 91 212 255 20 2 18 255 221 96 38 18 12 14 23 11 11 17 12 11 18 42 109 249 255 13 2 25 255 202 88 35 17 13 16 21 10 8 16 45 121 255 208 10 11 222 255 119 45 16 8 10 21 16 13 16 32 82 188 255 35 3 29 255 220 96 35 16 11 13 20 14 7 10 27 77 181 255 41 2 0 0 0 0 0 0 0 0 0 0 0 0 0 0 0 0 0 0 0 0 0 0 0 0 0 0 0 0 0 5 94 255 142 55 20 8 8 18 18 13 13 24 56 138 255 117 6 0 0 0 0 0 0 0 0 0 0 0 0 0 0 0 0 0 0 0 0 0 0 0 0 0 0 0 0 0 0 0 0 0 0 0 0 0 1 19 255 225 100 39 17 10 12 18 16 8 9 22 66 168 255 157 62 21 9 8 16 17 12 12 22 55 136 255 140 7 0 0 0 0 0 0 3 66 255 168 68 27 16 22 56 87 66 20 6 4 3 4 8 16 22 21 17 18 33 85 197 255 29 1 0 0 0 0 0 10 209 255 116 45 19 12 14 20 14 7 9 13 16 12 8 8 18 17 13 13 25 63 152 255 79 4 7 131 255 129 51 22 13 14 19 14 7 10 26 74 177 255 61 3 0 0 0 0 0 0 0 0 0 0 0 0 0 0 0 0 0 0 0 0 0 0 0 0 0 0 0 0 0
0 0 0 0 0 0 0 0 0 0 0 0 0 0 0 0 0 0 4 86 255 159 67 23 7 3 4 9 7 5 6 14 41 108 229 255 24 1 0 0 0 0 0 0 0 0 0 0 0 0 0 0 0 0 0 0 0 0 6 120 255 154 63 22 9 9 25 58 62 38 11 8 18 50 124 255 255 12 1 0 0 0 0 0 0 0 0 0 0 0 0 7 145 255 135 56 20 8 5 6 7 4 3 6 19 55 135 255 255 255 143 59 20 6 3 5 10 7 5 7 15 43 111 240 255 20 1 0 0 0 0 0 0 0 0 0 0 0 0 6 115 255 139 57 21 10 9 11 11 10 10 19 50 125 255 255 23 150 255 150 63 22 8 4 4 5 3 2 4 5 5 6 14 40 101 222 255 27 1 0 0 0 0 0 0 0 0 0 0 0 0 0 0 0 0 0 0 0 0 0 0 9 193 255 134 54 19 8 5 7 10 5 3 6 18 53 131 255 244 11 0 0 0 0 0 0 0 0 0 0 0 0 0 0 0 0 2 44 255 199 90 33 10 4 3 7 7 5 5 8 22 64 152 255 132 27 255 240 112 46 16 7 5 6 9 4 3 4 5 5 3 3 4 9 7 5 6 14 40 107 233 255 20 1 0 0 0 0 0 0 0 0 0 0 0 0 0 0 0 0 0 0 0 0 0 0 0 0 2 50 255 194 86 33 12 6 5 7 7 3 3 5 6 5 4 3 5 10 6 5 8 19 54 132 255 147 15 135 255 137 56 20 8 5 6 9 5 5 6 4 4 8 23 64 150 255 103 15 202 255 126 51 19 8 5 6 8 4 3 8 25 72 169 255 103 117 255 166 70 24 8 3 4 8 6 5 7 17 47 116 252 255 29 255 255 135 56 19 7 4 5 7 5 3 5 14 44 111 243 255 18 1 0 0 0 0 0 0 0 0 0 0 0 0 0 0 0 0 0 0 0 0 0 0 0 0 0 0 0 2 48 255 197 87 31 10 4 4 7 7 5 6 11 31 82 183 255 54 3 0 0 0 0 0 0 0 0 0 0 0 0 0 0 0 0 0 0 0 0 0 0 0 0 0 0 0 0 0 0 0 0 0 0 0 0 7 147 255 137 58 21 8 4 5 6 6 3 4 11 37 83 116 79 34 11 4 3 6 6 5 5 11 31 81 183 255 68 3 0 0 0 0 1 31 255 216 102 40 14 8 12 33 45 42 12 3 1 1 2 3 6 7 7 7 8 18 50 123 255 232 11 1 0 0 0 5 95 255 164 70 25 9 5 5 7 6 3 3 4 5 4 3 3 7 6 5 6 13 36 92 202 255 44 61 255 173 76 29 11 5 5 7 5 3 5 13 42 106 222 255 29 1 0 0 0 0 0 0 0 0 0 0 0 0 0 0 0 0 0 0 0 0 0 0 0 0 0 0 0 0
0 0 0 0 0 0 0 0 0 0 0 0 0 0 0 0 0 2 40 255 203 100 42 13 3 1 2 3 2 2 3 7 25 68 142 255 188 9 0 0 0 0 0 0 0 0 0 0 0 0 0 0 0 0 0 0 0 3 58 255 197 97 40 12 4 5 15 32 33 25 7 4 10 31 78 168 255 119 6 0 0 0 0 0 0 0 0 0 0 0 3 65 255 178 85 35 11 4 2 2 2 2 1 3 10 34 88 189 255 194 92 36 11 3 1 2 3 2 2 3 8 26 70 150 255 190 9 0 0 0 0 0 0 0 0 0 0 0 3 53 255 187 90 36 12 5 3 4 4 4 4 10 32 79 163 255 255 255 190 93 40 12 4 2 1 1 1 1 1 2 2 3 7 24 64 142 255 255 12 1 0 0 0 0 0 0 0 0 0 0 0 0 0 0 0 0 0 0 0 0 4 91 255 180 86 34 10 3 2 2 3 2 1 3 9 32 81 172 255 105 5 0 0 0 0 0 0 0 0 0 0 0 0 0 0 1 19 255 248 125 56 19 5 2 1 2 2 2 2 4 12 40 96 198 255 255 255 151 70 28 8 3 2 2 3 2 1 1 1 1 1 1 2 3 2 2 3 7 25 68 147 255 160 8 0 0 0 0 0 0 0 0 0 0 0 0 0 0 0 0 0 0 0 0 0 0 0 1 26 255 247 123 54 19 6 2 2 2 2 1 1 1 2 2 1 1 2 3 2 2 3 10 34 85 178 255 253 255 181 87 35 11 4 2 2 3 2 2 2 2 2 4 13 40 95 195 255 255 255 172 80 31 10 3 2 2 2 1 1 4 14 45 106 217 255 255 217 105 44 14 4 1 2 2 2 2 3 9 29 73 157 255 255 255 171 83 35 11 3 2 2 2 2 1 2 7 26 70 153 255 161 7 0 0 0 0 0 0 0 0 0 0 0 0 0 0 0 0 0 0 0 0 0 0 0 0 0 0 1 23 255 248 125 55 18 5 2 1 2 2 2 2 5 18 51 116 233 255 26 1 0 0 0 0 0 0 0 0 0 0 0 0 0 0 0 0 0 0 0 0 0 0 0 0 0 0 0 0 0 0 0 0 0 0 3 63 255 179 85 35 11 3 2 2 2 2 1 2 6 19 38 47 36 17 5 2 1 2 2 2 2 5 17 51 115 230 255 36 2 0 0 1 14 255 255 135 63 24 7 4 6 17 22 23 7 2 1 0 1 1 2 2 2 2 4 10 31 77 164 255 92 5 0 0 2 50 255 212 104 45 14 4 2 2 2 2 1 1 1 1 1 1 1 2 2 2 2 6 21 58 129 255 255 255 230 111 48 16 5 2 2 2 2 1 2 7 24 65 138 255 255 13 1 0 0 0 0 0 0 0 0 0 0 0 0 0 0 0 0 0 0 0 0 0 0 0 0 0 0 0
0 0 0 0 0 0 0 0 0 0 0 0 0 0 0 0 1 17 255 252 129 65 27 7 2 1 1 1 1 1 1 4 15 44 89 175 255 81 4 0 0 0 0 0 0 0 0 0 0 0 0 0 0 0 0 0 1 28 255 235 123 64 26 7 2 2 7 16 16 13 4 2 5 19 52 106 205 255 60 3 0 0 0 0 0 0 0 0 0 1 34 255 225 114 57 22 6 2 1 1 1 0 0 1 5 21 58 101 133 102 59 23 6 1 1 1 1 1 1 1 4 16 47 95 185 255 83 4 0 0 0 0 0 0 0 0 0 1 25 255 235 121 61 24 6 2 1 1 1 1 2 5 20 52 105 216 255 255 123 60 25 7 2 1 0 0 0 0 0 0 1 1 4 14 43 91 177 255 119 6 0 0 0 0 0 0 0 0 0 0 0 0 0 0 0 0 0 0 0 2 47 255 218 113 58 22 6 2 1 1 1 1 1 1 5 20 53 107 205 255 52 2 0 0 0 0 0 0 0 0 0 0 0 0 0 8 180 255 153 79 37 11 3 1 0 1 1 1 1 2 7 26 63 129 255 255 204 99 47 17 4 1 1 1 1 0 0 0 0 0 0 0 1 1 1 1 1 4 15 46 94 182 255 69 3 0 0 0 0 0 0 0 0 0 0 0 0 0 0 0 0 0 0 0 0 0 0 11 241 255 153 79 36 11 3 1 1 1 1 0 0 0 0 0 0 0 1 1 1 1 2 6 22 57 118 254 255 255 120 58 22 6 2 1 1 1 1 1 1 0 1 2 7 25 62 129 255 255 236 113 54 20 5 1 1 1 1 0 1 2 8 29 69 139 255 255 138 69 29 8 2 1 0 1 1 1 1 5 17 49 105 219 255 225 110 54 21 6 1 1 1 1 1 0 1 4 16 47 97 189 255 74 4 0 0 0 0 0 0 0 0 0 0 0 0 0 0 0 0 0 0 0 0 0 0 0 0 0 9 203 255 153 79 37 11 2 1 0 1 1 1 1 3 10 33 74 147 255 255 12 0 0 0 0 0 0 0 0 0 0 0 0 0 0 0 0 0 0 0 0 0 0 0 0 0 0 0 0 0 0 0 0 0 1 29 255 221 114 56 22 6 2 1 0 1 1 0 1 3 8 15 18 15 8 2 1 0 1 1 1 1 3 10 33 73 143 255 255 16 1 0 6 126 255 169 85 41 14 4 2 3 7 9 10 3 1 0 0 0 0 1 1 1 1 2 5 19 52 104 201 255 43 2 1 23 255 249 132 68 29 8 2 1 1 1 1 0 0 0 0 0 0 0 1 1 1 1 3 12 38 84 171 255 255 152 73 32 9 2 1 1 1 1 0 1 4 14 42 86 173 255 119 6 0 0 0 0 0 0 0 0 0 0 0 0 0 0 0 0 0 0 0 0 0 0 0 0 0 0 0
0 0 0 0 0 0 0 0 0 0 0 0 0 0 0 0 7 164 255 159 84 46 17 4 1 0 0 0 0 0 1 2 9 30 60 112 217 255 42 2 0 0 0 0 0 0 0 0 0 0 0 0 0 0 0 1 11 240 255 148 79 44 17 4 1 1 3 6 6 5 2 1 3 12 37 70 129 242 255 32 1 0 0 0 0 0 0 0 1 16 255 255 145 76 40 13 3 1 0 0 0 0 0 1 3 13 37 51 58 51 38 14 3 1 0 0 0 0 0 1 2 9 32 64 117 218 255 41 2 0 0 0 0 0 0 0 0 11 236 255 150 80 44 15 3 1 0 0 0 0 1 3 12 37 71 124 182 139 81 43 15 4 1 0 0 0 0 0 0 0 0 0 2 8 30 61 110 205 255 57 3 0 0 0 0 0 0 0 0 0 0 0 0 0 0 0 0 0 1 22 255 255 137 74 41 14 3 1 0 0 0 0 0 1 3 12 37 70 129 247 255 26 1 0 0 0 0 0 0 0 0 0 0 0 4 87 255 190 98 53 24 6 1 0 0 0 0 0 0 1 4 16 45 84 140 176 119 68 33 10 2 1 0 0 0 0 0 0 0 0 0 0 0 0 0 0 0 2 9 32 64 117 221 255 33 1 0 0 0 0 0 0 0 0 0 0 0 0 0 0 0 0 0 0 0 0 5 106 255 180 96 54 25 6 1 0 0 0 0 0 0 0 0 0 0 0 0 0 0 0 1 3 13 42 82 146 210 148 83 42 14 3 1 0 0 0 0 0 0 0 0 1 4 16 45 87 155 208 137 77 39 12 3 1 0 0 0 0 0 1 4 19 48 86 131 128 85 48 19 4 1 0 0 0 0 0 1 2 10 36 72 122 166 123 73 38 13 3 1 0 0 0 0 0 0 2 9 33 65 119 226 255 38 2 0 0 0 0 0 0 0 0 0 0 0 0 0 0 0 0 0 0 0 0 0 0 0 4 93 255 183 96 54 24 6 1 0 0 0 0 0 0 1 6 22 51 94 181 255 113 5 0 0 0 0 0 0 0 0 0 0 0 0 0 0 0 0 0 0 0 0 0 0 0 0 0 0 0 0 0 0 0 1 12 249 255 142 75 40 13 3 1 0 0 0 0 0 0 1 3 5 6 5 3 1 0 0 0 0 0 0 1 5 22 50 89 167 255 159 7 3 59 255 201 107 58 27 8 2 1 1 2 3 3 1 0 0 0 0 0 0 0 0 0 1 3 11 36 69 130 251 255 19 11 215 255 154 83 47 19 4 1 0 0 0 0 0 0 0 0 0 0 0 0 0 0 0 2 7 27 59 106 173 164 99 53 21 5 1 0 0 0 0 0 0 2 8 28 58 108 202 255 55 3 0 0 0 0 0 0 0 0 0 0 0 0 0 0 0 0 0 0 0 0 0 0 0 0 0 0
0 0 0 0 0 0 0 0 0 0 0 0 0 0 0 4 82 255 206 110 63 35 10 2 0 0 0 0 0 0 0 1 5 20 47 81 148 255 255 20 1 0 0 0 0 0 0 0 0 0 0 0 0 0 0 5 109 255 185 101 59 33 10 2 1 0 1 2 2 2 1 0 1 7 28 54 89 161 255 255 15 1 0 0 0 0 0 0 8 174 255 185 101 59 31 8 2 0 0 0 0 0 0 0 2 7 22 26 26 26 22 8 2 0 0 0 0 0 0 0 1 5 23 49 82 146 255 255 20 1 0 0 0 0 0 0 5 108 255 193 105 62 34 9 2 0 0 0 0 0 0 1 7 27 54 73 87 76 58 33 9 2 0 0 0 0 0 0 0 0 0 0 1 5 21 47 78 137 251 255 29 1 0 0 0 0 0 0 0 0 0 0 0 0 0 0 0 0 9 214 255 167 93 57 30 8 2 0 0 0 0 0 0 0 1 7 27 53 90 166 255 255 12 1 0 0 0 0 0 0 0 0 0 2 48 255 237 130 72 41 15 3 1 0 0 0 0 0 0 0 2 10 36 59 75 84 71 52 25 6 1 0 0 0 0 0 0 0 0 0 0 0 0 0 0 0 0 1 5 22 50 83 151 255 255 14 1 0 0 0 0 0 0 0 0 0 0 0 0 0 0 0 0 0 0 2 54 255 222 121 69 41 16 4 1 0 0 0 0 0 0 0 0 0 0 0 0 0 0 0 0 2 8 33 63 84 100 85 63 33 9 2 0 0 0 0 0 0 0 0 0 0 2 10 36 65 86 100 81 59 30 7 2 0 0 0 0 0 0 1 2 11 36 56 64 63 55 36 12 2 0 0 0 0 0 0 0 1 6 27 54 69 79 68 53 28 7 2 0 0 0 0 0 0 0 1 5 23 50 84 152 255 255 19 1 0 0 0 0 0 0 0 0 0 0 0 0 0 0 0 0 0 0 0 0 0 2 51 255 230 124 70 41 16 3 1 0 0 0 0 0 0 1 3 14 40 70 122 218 255 55 3 0 0 0 0 0 0 0 0 0 0 0 0 0 0 0 0 0 0 0 0 0 0 0 0 0 0 0 0 0 0 5 111 255 183 99 58 30 8 2 0 0 0 0 0 0 0 0 1 2 2 2 1 0 0 0 0 0 0 0 1 3 14 37 65 112 208 255 79 35 255 247 135 76 45 18 4 1 0 0 1 1 1 0 0 0 0 0 0 0 0 0 0 0 1 7 27 54 92 169 255 187 124 255 195 104 61 36 12 3 1 0 0 0 0 0 0 0 0 0 0 0 0 0 0 0 1 4 18 46 69 85 83 68 43 14 3 1 0 0 0 0 0 0 1 4 18 45 77 135 249 255 28 1 0 0 0 0 0 0 0 0 0 0 0 0 0 0 0 0 0 0 0 0 0 0 0 0 0
0 0 0 0 0 0 0 0 0 0 0 0 0 0 2 47 255 254 151 97 65 30 6 1 0 0 0 0 0 0 0 1 3 13 49 78 117 190 255 190 9 0 0 0 0 0 0 0 0 0 0 0 0 0 3 59 255 235 138 89 60 26 6 1 0 0 0 1 1 0 0 0 1 4 21 53 81 122 202 255 156 7 0 0 0 0 0 4 89 255 225 136 90 62 25 5 1 0 0 0 0 0 0 0 1 3 11 12 11 12 11 4 1 0 0 0 0 0 0 0 1 3 16 49 76 115 192 255 225 10 0 0 0 0 0 3 57 255 238 143 94 65 29 6 1 0 0 0 0 0 0 1 4 20 50 49 46 47 50 27 6 1 0 0 0 0 0 0 0 0 0 0 1 3 14 44 73 108 178 255 255 14 1 0 0 0 0 0 0 0 0 0 0 0 0 0 0 5 99 255 212 126 83 57 24 5 1 0 0 0 0 0 0 0 1 4 20 52 82 126 208 255 130 6 0 0 0 0 0 0 0 0 1 27 255 255 168 106 72 38 10 2 0 0 0 0 0 0 0 0 1 6 30 50 46 45 48 47 19 4 1 0 0 0 0 0 0 0 0 0 0 0 0 0 0 0 0 1 3 15 50 80 119 196 255 136 6 0 0 0 0 0 0 0 0 0 0 0 0 0 0 0 0 0 1 27 255 255 160 100 67 36 10 2 0 0 0 0 0 0 0 0 0 0 0 0 0 0 0 0 0 1 5 28 59 56 54 55 58 28 6 1 0 0 0 0 0 0 0 0 0 0 1 6 32 58 55 53 56 55 24 5 1 0 0 0 0 0 0 0 1 7 29 42 35 35 40 28 7 1 0 0 0 0 0 0 0 1 4 21 48 45 42 43 45 21 4 1 0 0 0 0 0 0 0 1 3 17 49 79 118 194 255 189 8 0 0 0 0 0 0 0 0 0 0 0 0 0 0 0 0 0 0 0 0 1 27 255 255 165 103 69 37 10 2 0 0 0 0 0 0 0 0 2 9 36 69 100 156 255 255 29 1 0 0 0 0 0 0 0 0 0 0 0 0 0 0 0 0 0 0 0 0 0 0 0 0 0 0 0 0 3 59 255 233 139 90 58 24 5 1 0 0 0 0 0 0 0 0 0 0 1 0 0 0 0 0 0 0 0 0 0 2 8 32 63 95 151 255 255 255 255 176 108 72 45 12 2 1 0 0 0 0 0 0 0 0 0 0 0 0 0 0 0 0 1 4 20 55 86 131 221 255 255 251 144 91 60 30 7 1 0 0 0 0 0 0 0 0 0 0 0 0 0 0 0 0 0 2 13 42 52 47 48 54 40 9 2 0 0 0 0 0 0 0 0 2 12 44 71 108 178 255 255 13 1 0 0 0 0 0 0 0 0 0 0 0 0 0 0 0 0 0 0 0 0 0 0 0 0
0 0 0 0 0 0 0 0 0 0 0 0 0 1 26 255 255 179 132 127 116 32 5 1 0 0 0 0 0 0 0 0 2 12 84 125 124 146 219 255 84 4 0 0 0 0 0 0 0 0 0 0 0 1 32 255 255 171 128 122 108 24 4 1 0 0 0 0 0 0 0 0 0 3 18 83 120 122 151 230 255 76 4 0 0 0 2 51 255 255 162 126 125 107 25 4 1 0 0 0 0 0 0 0 0 1 4 5 4 5 4 1 0 0 0 0 0 0 0 0 0 2 13 76 119 124 148 223 255 108 5 0 0 0 1 30 255 255 171 130 129 115 30 4 1 0 0 0 0 0 0 0 3 15 61 40 29 35 56 23 4 1 0 0 0 0 0 0 0 0 0 0 0 2 11 59 116 121 141 212 255 163 7 0 0 0 0 0 0 0 0 0 0 0 0 0 2 52 255 245 158 124 119 96 21 3 1 0 0 0 0 0 0 0 0 3 17 82 122 124 154 237 255 66 3 0 0 0 0 0 0 1 13 255 255 196 136 122 123 48 7 1 0 0 0 0 0 0 0 0 1 4 25 52 33 28 40 53 14 2 0 0 0 0 0 0 0 0 0 0 0 0 0 0 0 0 0 0 2 13 81 126 126 151 233 255 68 3 0 0 0 0 0 0 0 0 0 0 0 0 0 0 0 0 11 248 255 187 133 121 113 42 7 1 0 0 0 0 0 0 0 0 0 0 0 0 0 0 0 0 0 1 4 26 78 48 35 46 74 25 4 1 0 0 0 0 0 0 0 0 0 0 1 5 32 71 43 35 49 68 20 3 1 0 0 0 0 0 0 0 1 4 21 33 21 22 32 19 4 1 0 0 0 0 0 0 0 0 3 16 49 34 25 32 46 15 3 0 0 0 0 0 0 0 0 0 2 14 71 122 123 148 223 255 88 4 0 0 0 0 0 0 0 0 0 0 0 0 0 0 0 0 0 0 1 13 255 255 192 135 122 120 43 7 1 0 0 0 0 0 0 0 0 1 7 43 115 119 132 188 255 255 13 1 0 0 0 0 0 0 0 0 0 0 0 0 0 0 0 0 0 0 0 0 0 0 0 0 0 0 1 33 255 255 170 130 127 96 23 4 1 0 0 0 0 0 0 0 0 0 0 0 0 0 0 0 0 0 0 0 0 0 1 6 34 105 121 130 185 255 255 220 143 122 112 70 10 2 0 0 0 0 0 0 0 0 0 0 0 0 0 0 0 0 0 0 3 18 94 128 130 169 255 255 181 131 124 103 29 5 1 0 0 0 0 0 0 0 0 0 0 0 0 0 0 0 0 0 2 9 44 49 32 33 55 44 7 1 0 0 0 0 0 0 0 0 2 10 64 109 122 142 213 255 142 6 0 0 0 0 0 0 0 0 0 0 0 0 0 0 0 0 0 0 0 0 0 0 0 0
0 0 0 0 0 0 0 0 0 0 0 0 1 12 255 255 192 138 153 242 255 76 6 1 0 0 0 0 0 0 0 0 2 30 255 255 193 136 154 238 255 42 2 0 0 0 0 0 0 0 0 0 1 15 255 255 182 137 164 255 255 53 4 1 0 0 0 0 0 0 0 0 0 3 33 255 255 181 133 159 248 255 39 2 0 1 29 255 255 172 133 164 254 255 53 4 0 0 0 0 0 0 0 0 0 0 1 1 1 1 1 0 0 0 0 0 0 0 0 0 0 2 26 255 255 197 137 155 238 255 57 3 0 1 14 255 255 182 136 160 255 255 68 6 1 0 0 0 0 0 0 0 2 17 134 47 21 34 92 22 3 0 0 0 0 0 0 0 0 0 0 0 0 2 17 191 255 207 139 150 228 255 84 4 0 0 0 0 0 0 0 0 0 0 0 1 27 255 255 167 135 177 255 255 41 4 0 0 0 0 0 0 0 0 0 3 31 255 255 176 133 162 255 255 36 2 0 0 0 0 0 7 147 255 207 142 141 212 255 163 12 1 0 0 0 0 0 0 0 0 1 3 23 74 30 20 42 85 13 2 0 0 0 0 0 0 0 0 0 0 0 0 0 0 0 0 0 0 2 27 255 255 193 139 163 253 255 34 2 0 0 0 0 0 0 0 0 0 0 0 0 0 0 5 116 255 203 140 144 227 255 110 9 1 0 0 0 0 0 0 0 0 0 0 0 0 0 0 0 0 0 0 4 34 176 65 30 59 161 31 4 0 0 0 0 0 0 0 0 0 0 0 1 5 43 146 51 29 66 145 23 3 0 0 0 0 0 0 0 0 0 3 13 25 13 13 23 11 2 0 0 0 0 0 0 0 0 0 2 13 60 29 17 26 59 12 2 0 0 0 0 0 0 0 0 0 2 23 243 255 189 135 156 240 255 45 2 0 0 0 0 0 0 0 0 0 0 0 0 0 0 0 0 0 7 149 255 208 141 143 222 255 125 10 1 0 0 0 0 0 0 0 0 1 10 120 255 221 147 141 201 255 130 6 0 0 0 0 0 0 0 0 0 0 0 0 0 0 0 0 0 0 0 0 0 0 0 0 0 1 18 255 255 183 138 166 255 255 46 4 0 0 0 0 0 0 0 0 0 0 0 0 0 0 0 0 0 0 0 0 0 0 1 7 78 255 239 151 143 184 202 153 144 209 255 255 22 2 0 0 0 0 0 0 0 0 0 0 0 0 0 0 0 0 0 0 3 38 255 255 179 140 149 153 136 160 255 255 61 5 1 0 0 0 0 0 0 0 0 0 0 0 0 0 0 0 0 0 1 8 59 63 26 30 81 66 8 1 0 0 0 0 0 0 0 0 2 20 249 255 206 140 151 228 255 70 3 0 0 0 0 0 0 0 0 0 0 0 0 0 0 0 0 0 0 0 0 0 0 0
0 0 0 0 0 0 0 0 0 0 0 0 5 114 255 187 122 119 192 254 255 255 32 2 0 0 0 0 0 0 0 1 10 183 255 255 238 150 113 149 255 255 19 1 0 0 0 0 0 0 0 0 6 133 255 181 119 125 212 255 255 255 20 1 0 0 0 0 0 0 0 0 1 10 192 255 255 236 141 112 153 255 255 18 1 14 255 255 169 115 128 214 255 255 255 20 1 0 0 0 0 0 0 0 0 0 0 0 0 0 0 0 0 0 0 0 0 0 0 0 0 8 145 255 255 243 150 112 146 247 255 29 2 6 135 255 183 120 124 204 255 255 255 26 1 0 0 0 0 0 0 0 3 49 255 135 24 58 236 38 3 0 0 0 0 0 0 0 0 0 0 0 0 5 81 255 255 251 162 113 141 232 255 45 2 0 0 0 0 0 0 0 0 0 0 11 246 255 165 115 135 231 255 255 241 14 1 0 0 0 0 0 0 0 1 10 194 255 255 228 137 113 158 255 255 18 1 0 0 0 3 75 255 210 129 112 172 250 255 255 68 4 0 0 0 0 0 0 0 0 0 3 30 175 42 19 77 220 25 2 0 0 0 0 0 0 0 0 0 0 0 0 0 0 0 0 0 0 8 149 255 255 236 148 115 156 255 255 15 1 0 0 0 0 0 0 0 0 0 0 0 0 3 60 255 214 130 116 182 255 255 255 46 3 0 0 0 0 0 0 0 0 0 0 0 0 0 0 0 0 0 1 8 113 255 215 55 184 255 92 7 1 0 0 0 0 0 0 0 0 0 0 1 10 147 255 143 48 213 255 59 4 0 0 0 0 0 0 0 0 0 1 6 13 7 7 11 5 1 0 0 0 0 0 0 0 0 0 2 14 99 30 12 28 119 14 2 0 0 0 0 0 0 0 0 0 7 124 255 255 238 147 112 149 255 255 21 1 0 0 0 0 0 0 0 0 0 0 0 0 0 0 0 3 76 255 212 131 114 176 253 255 255 51 3 0 0 0 0 0 0 0 0 3 50 255 255 255 187 116 129 210 255 65 3 0 0 0 0 0 0 0 0 0 0 0 0 0 0 0 0 0 0 0 0 0 0 0 0 8 174 255 183 120 127 208 255 255 255 17 1 0 0 0 0 0 0 0 0 0 0 0 0 0 0 0 0 0 0 0 0 0 2 33 255 255 255 194 117 98 100 106 164 252 255 255 140 7 0 0 0 0 0 0 0 0 0 0 0 0 0 0 0 0 0 1 13 248 255 255 219 126 84 82 112 202 255 255 255 24 1 0 0 0 0 0 0 0 0 0 0 0 0 0 0 0 0 0 1 13 138 144 32 44 207 202 17 1 0 0 0 0 0 0 0 0 6 123 255 255 252 161 113 141 233 255 35 2 0 0 0 0 0 0 0 0 0 0 0 0 0 0 0 0 0 0 0 0 0 0
0 0 0 0 0 0 0 0 0 0 0 3 53 255 186 101 74 102 159 160 172 252 225 11 1 0 0 0 0 0 0 4 74 255 176 160 165 140 83 85 144 255 148 7 0 0 0 0 0 0 0 3 58 255 178 98 76 110 164 161 173 255 132 7 0 0 0 0 0 0 0 0 4 76 255 186 165 170 134 79 86 148 255 159 15 130 255 162 92 75 118 166 161 176 255 147 7 0 0 0 0 0 0 0 0 0 0 0 0 0 0 0 0 0 0 0 0 0 0 0 3 60 255 185 165 167 138 81 82 137 255 242 15 63 255 180 100 76 110 161 157 171 255 175 9 0 0 0 0 0 0 1 16 255 212 255 104 253 225 182 11 1 0 0 0 0 0 0 0 0 0 0 2 37 255 201 170 168 148 86 80 127 238 255 21 1 0 0 0 0 0 0 0 0 5 102 255 160 91 78 125 168 163 178 255 92 5 0 0 0 0 0 0 0 4 78 255 185 164 168 129 78 88 153 255 172 8 0 0 2 40 255 214 115 76 90 156 166 169 209 255 31 1 0 0 0 0 0 0 0 1 6 91 236 148 49 255 236 99 6 0 0 0 0 0 0 0 0 0 0 0 0 0 0 0 0 0 3 59 255 179 160 163 134 81 87 149 255 121 6 0 0 0 0 0 0 0 0 0 0 0 1 30 255 221 118 79 97 160 166 174 228 255 19 1 0 0 0 0 0 0 0 0 0 0 0 0 0 0 0 0 2 43 255 210 255 255 255 210 255 35 2 0 0 0 0 0 0 0 0 0 0 3 56 255 227 255 255 255 212 255 21 1 0 0 0 0 0 0 0 0 1 2 5 3 3 4 2 1 0 0 0 0 0 0 0 0 0 2 27 189 47 12 58 241 37 3 0 0 0 0 0 0 0 0 3 54 255 192 166 167 138 81 84 142 255 189 9 0 0 0 0 0 0 0 0 0 0 0 0 0 0 2 39 255 213 115 77 94 157 164 170 218 255 21 1 0 0 0 0 0 0 1 23 255 224 175 168 163 97 78 116 214 255 32 1 0 0 0 0 0 0 0 0 0 0 0 0 0 0 0 0 0 0 0 0 0 0 4 73 255 175 98 76 111 161 161 181 255 132 6 0 0 0 0 0 0 0 0 0 0 0 0 0 0 0 0 0 0 0 0 1 13 255 254 178 166 162 94 51 48 73 145 168 169 190 255 60 3 0 0 0 0 0 0 0 0 0 0 0 0 0 0 0 0 5 95 255 178 158 158 106 49 46 91 159 161 177 255 170 8 0 0 0 0 0 0 0 0 0 0 0 0 0 0 0 0 0 3 46 255 255 111 180 255 255 74 4 0 0 0 0 0 0 0 3 57 255 198 173 170 147 85 80 129 249 255 15 1 0 0 0 0 0 0 0 0 0 0 0 0 0 0 0 0 0 0 0 0 0
0 0 0 0 0 0 0 0 0 0 1 23 255 204 97 50 43 74 93 83 91 141 255 82 4 0 0 0 0 0 2 34 255 181 98 79 87 94 56 45 72 151 255 60 3 0 0 0 0 0 1 24 255 194 92 49 45 79 91 82 94 155 255 56 3 0 0 0 0 0 0 2 33 255 180 104 84 91 94 53 44 74 155 255 255 255 166 80 46 47 87 93 83 96 157 255 61 3 0 0 0 0 0 0 0 0 0 0 0 0 0 0 0 0 0 0 0 0 0 1 26 255 191 105 82 87 92 55 43 67 139 255 213 255 199 93 50 45 80 91 81 91 145 255 67 3 0 0 0 0 0 5 101 255 156 216 255 255 181 255 66 4 0 0 0 0 0 0 0 0 0 1 15 255 229 118 86 88 95 59 42 62 126 255 162 8 0 0 0 0 0 0 0 2 47 255 172 81 46 50 88 90 82 98 167 255 40 2 0 0 0 0 0 2 36 255 181 103 83 91 92 51 45 76 161 255 73 4 1 18 255 234 111 56 42 65 98 87 86 120 243 246 12 1 0 0 0 0 0 0 2 33 255 186 255 255 255 177 255 40 2 0 0 0 0 0 0 0 0 0 0 0 0 0 0 0 1 26 255 188 102 80 86 89 52 45 75 162 255 54 3 0 0 0 0 0 0 0 0 0 1 12 251 252 117 59 45 71 97 86 90 132 255 150 7 0 0 0 0 0 0 0 0 0 0 0 0 0 0 0 1 16 255 205 145 192 255 204 152 222 255 13 1 0 0 0 0 0 0 0 0 1 23 255 194 157 225 255 193 153 255 137 7 0 0 0 0 0 0 0 0 0 1 1 1 1 1 1 0 0 0 0 0 0 0 0 0 0 5 75 174 149 36 254 179 173 10 1 0 0 0 0 0 0 1 23 255 201 110 85 89 94 55 44 71 151 255 79 4 0 0 0 0 0 0 0 0 0 0 0 0 1 16 255 232 111 56 43 68 97 86 87 126 255 158 8 0 0 0 0 0 0 9 197 255 131 90 88 98 70 44 57 113 244 255 13 1 0 0 0 0 0 0 0 0 0 0 0 0 0 0 0 0 0 0 0 0 2 33 255 184 88 49 46 79 90 83 99 165 255 57 3 0 0 0 0 0 0 0 0 0 0 0 0 0 0 0 0 0 0 0 5 106 255 144 93 85 93 64 27 23 47 90 86 83 106 195 255 27 1 0 0 0 0 0 0 0 0 0 0 0 0 0 0 2 41 255 169 98 80 84 71 29 26 63 88 82 94 151 255 67 3 0 0 0 0 0 0 0 0 0 0 0 0 0 0 0 1 17 255 200 220 255 255 188 179 255 31 2 0 0 0 0 0 1 25 255 204 111 86 89 95 58 43 64 133 255 122 6 0 0 0 0 0 0 0 0 0 0 0 0 0 0 0 0 0 0 0 0 0
0 0 0 0 0 0 0 0 0 0 8 172 255 109 45 23 23 43 44 37 43 74 162 255 35 2 0 0 0 1 13 255 231 100 49 35 39 49 33 22 34 78 183 255 26 1 0 0 0 0 9 173 252 104 43 23 25 44 42 36 45 84 190 255 25 1 0 0 0 0 1 13 255 228 99 51 38 42 50 31 22 34 82 213 255 227 87 37 21 26 49 43 37 46 84 186 255 27 1 0 0 0 0 0 0 0 0 0 0 0 0 0 0 0 0 0 0 0 0 10 209 250 106 52 37 39 47 31 21 31 71 184 255 255 110 44 23 25 45 43 36 44 78 174 255 28 1 0 0 0 2 42 255 154 98 126 226 176 128 176 255 27 1 0 0 0 0 0 0 0 0 6 114 255 125 59 39 40 47 34 21 28 60 142 255 64 3 0 0 0 0 0 1 20 255 207 90 38 22 28 47 41 37 48 92 211 255 15 1 0 0 0 1 15 255 226 98 50 38 42 50 29 22 35 80 182 255 33 9 159 255 124 52 26 22 39 48 39 40 60 131 255 101 5 0 0 0 0 0 1 11 199 218 148 222 255 164 128 210 255 14 1 0 0 0 0 0 0 0 0 0 0 0 0 0 0 10 211 251 105 51 36 39 46 29 22 36 85 195 255 22 1 0 0 0 0 0 0 0 0 5 94 255 133 56 27 23 42 47 39 42 68 148 255 62 3 0 0 0 0 0 0 0 0 0 0 0 0 0 0 6 110 255 121 83 98 135 104 89 131 255 100 5 0 0 0 0 0 0 0 0 8 170 255 116 89 114 146 102 92 149 255 59 3 0 0 0 0 0 0 0 0 0 0 0 0 0 0 0 0 0 0 0 0 0 0 0 1 26 255 143 255 255 255 155 255 62 3 0 0 0 0 0 0 8 171 255 110 55 38 41 49 32 22 33 76 178 255 37 2 0 0 0 0 0 0 0 0 0 0 0 6 122 255 121 52 25 22 40 47 39 40 65 144 255 65 3 0 0 0 0 4 81 255 145 67 42 39 47 41 23 26 54 131 255 106 5 0 0 0 0 0 0 0 0 0 0 0 0 0 0 0 0 0 0 0 1 13 255 231 98 41 22 24 44 42 38 48 87 191 255 24 1 0 0 0 0 0 0 0 0 0 0 0 0 0 0 0 0 0 2 46 255 160 74 44 38 43 35 13 11 25 43 38 37 52 106 250 215 10 0 0 0 0 0 0 0 0 0 0 0 0 0 1 16 255 208 91 48 35 37 36 16 15 35 39 36 44 80 177 255 29 1 0 0 0 0 0 0 0 0 0 0 0 0 0 0 6 116 255 136 139 230 200 116 116 233 233 12 1 0 0 0 0 10 203 255 110 54 38 40 47 33 21 29 65 155 255 53 3 0 0 0 0 0 0 0 0 0 0 0 0 0 0 0 0 0 0 0 0
0 0 0 0 0 0 0 0 0 4 72 255 139 54 21 10 11 19 18 15 19 36 90 224 255 14 1 0 0 5 103 255 125 50 22 14 16 20 15 10 15 37 102 252 174 9 0 0 0 4 71 255 135 52 20 10 11 19 17 15 20 42 107 255 202 10 0 0 0 0 5 98 255 126 49 23 15 17 21 15 10 16 40 103 171 108 43 16 9 13 22 18 15 20 41 103 250 199 10 0 0 0 0 0 0 0 0 0 0 0 0 0 0 0 0 0 0 0 4 86 255 136 54 24 15 16 19 15 9 14 35 94 182 135 56 20 10 12 20 17 15 19 38 97 241 192 10 0 0 1 15 255 206 89 55 62 92 81 74 105 244 195 10 0 0 0 0 0 0 0 2 48 255 154 64 28 16 16 19 15 9 12 28 74 180 255 28 1 0 0 0 0 8 158 255 113 43 17 10 13 20 16 15 22 46 117 255 112 6 0 0 0 6 123 255 126 49 23 16 17 21 14 10 15 38 97 234 250 105 255 153 61 24 11 10 18 20 16 17 29 68 167 255 49 2 0 0 0 0 4 74 255 130 94 110 132 88 78 122 255 94 5 0 0 0 0 0 0 0 0 0 0 0 0 0 4 81 255 137 54 24 15 15 19 13 10 16 41 107 255 152 8 0 0 0 0 0 0 0 2 42 255 163 67 26 12 11 19 19 16 18 33 79 186 255 26 1 0 0 0 0 0 0 0 0 0 0 0 0 2 47 255 152 66 42 43 51 45 46 73 161 255 43 2 0 0 0 0 0 0 4 71 255 140 63 44 49 56 46 49 85 193 255 27 1 0 0 0 0 0 0 0 0 0 0 0 0 0 0 0 0 0 0 0 0 0 0 8 144 239 146 220 255 179 125 177 255 25 1 0 0 0 0 4 70 255 139 55 25 16 17 21 15 10 15 36 96 228 255 16 1 0 0 0 0 0 0 0 0 0 3 55 255 154 60 23 11 10 19 19 16 17 31 77 184 255 28 1 0 0 2 38 255 178 75 32 18 16 19 19 11 11 25 66 162 255 47 2 0 0 0 0 0 0 0 0 0 0 0 0 0 0 0 0 0 0 5 101 255 126 48 18 10 11 19 17 15 21 42 105 255 159 8 0 0 0 0 0 0 0 0 0 0 0 0 0 0 0 0 1 21 255 207 86 35 19 15 16 15 6 5 11 16 15 15 24 53 136 255 83 4 0 0 0 0 0 0 0 0 0 0 0 0 6 113 255 116 45 21 14 14 15 8 7 15 15 14 19 39 98 241 196 10 0 0 0 0 0 0 0 0 0 0 0 0 0 2 49 255 154 81 74 97 88 61 66 131 255 86 4 0 0 0 4 80 255 138 55 25 16 16 19 15 10 13 31 82 196 255 22 1 0 0 0 0 0 0 0 0 0 0 0 0 0 0 0 0 0 0 0
0 0 0 0 0 0 0 0 2 35 255 189 77 26 9 4 4 7 6 6 8 17 47 130 255 118 6 0 2 47 255 166 67 24 10 6 6 7 6 4 7 18 53 137 255 68 4 0 2 35 255 187 75 25 9 4 4 7 6 6 9 20 56 144 255 86 4 0 0 2 43 255 167 68 24 10 6 6 7 6 4 7 18 42 62 44 19 7 4 5 8 6 6 9 20 53 138 255 77 4 0 0 0 0 0 0 0 0 0 0 0 0 0 0 0 0 0 2 43 255 181 74 27 10 6 6 7 5 4 6 16 41 67 54 25 9 4 5 7 6 6 8 18 51 133 255 74 4 0 6 111 255 119 48 28 27 33 33 38 59 139 255 80 4 0 0 0 0 0 1 21 255 206 86 32 12 6 6 7 6 4 5 13 37 104 255 235 11 0 0 0 3 66 255 152 59 21 7 4 5 7 6 6 9 23 63 161 255 52 2 0 3 56 255 166 67 24 10 6 6 7 5 4 7 17 49 134 255 255 212 84 30 10 5 4 7 7 6 7 13 34 94 220 255 22 1 0 0 2 34 255 175 78 53 48 50 41 43 69 160 255 40 2 0 0 0 0 0 0 0 0 0 0 0 2 36 255 177 74 27 10 6 5 6 5 4 7 19 55 143 255 60 3 0 0 0 0 0 1 18 255 221 91 33 11 5 4 7 7 6 7 15 40 106 255 185 9 0 0 0 0 0 0 0 0 0 0 0 1 19 255 208 87 35 19 17 18 18 22 38 91 215 255 17 1 0 0 0 0 2 35 255 189 79 33 20 19 20 19 24 45 111 255 212 10 0 0 0 0 0 0 0 0 0 0 0 0 0 0 0 0 0 0 0 0 0 3 59 255 146 119 123 153 101 86 112 255 175 9 0 0 0 1 33 255 188 77 28 11 6 6 7 6 4 6 17 49 129 255 127 6 0 0 0 0 0 0 0 0 1 25 255 206 86 30 10 4 4 7 7 6 7 15 39 104 252 209 10 1 1 15 255 233 100 37 14 7 6 7 7 4 5 11 32 90 213 255 20 1 0 0 0 0 0 0 0 0 0 0 0 0 0 0 0 0 2 47 255 167 68 23 8 4 4 7 6 6 9 20 54 140 255 62 3 0 0 0 0 0 0 0 0 0 0 0 0 0 0 0 8 171 255 120 44 16 8 5 6 5 2 2 4 5 5 6 10 26 74 177 255 37 2 0 0 0 0 0 0 0 0 0 0 2 50 255 160 62 22 9 5 5 5 3 3 5 5 5 8 19 51 133 255 77 4 0 0 0 0 0 0 0 0 0 0 0 1 20 255 205 89 45 35 37 34 29 35 73 170 255 37 2 0 2 36 255 180 75 27 11 6 6 6 6 4 5 14 41 112 255 174 8 0 0 0 0 0 0 0 0 0 0 0 0 0 0 0 0 0 0 0
0 0 0 0 0 0 0 1 16 255 252 112 41 13 4 2 1 2 2 2 3 8 25 74 174 255 55 4 22 255 224 97 35 12 4 2 2 2 2 2 3 8 28 80 190 255 32 2 16 255 253 112 41 13 4 2 2 2 2 2 4 10 30 82 192 255 44 2 1 17 255 223 98 36 12 4 2 2 2 2 2 3 7 15 20 16 8 3 1 2 2 2 2 3 9 28 79 186 255 35 2 0 0 0 0 0 0 0 0 0 0 0 0 0 0 0 1 21 255 238 106 40 13 4 2 2 2 2 1 2 6 15 22 19 10 4 2 2 2 2 2 3 9 27 77 186 255 35 4 51 255 167 68 26 13 11 11 13 18 33 81 190 255 39 2 0 0 0 0 8 159 255 123 46 16 5 2 2 2 2 1 2 6 19 58 148 255 96 5 0 1 30 255 198 87 31 10 3 2 2 2 2 2 4 11 34 95 219 255 25 2 26 255 214 95 35 12 4 2 2 2 2 1 3 8 26 81 198 244 121 46 15 5 2 1 2 2 2 2 6 17 50 128 255 178 9 0 1 14 255 248 108 46 27 20 18 17 22 39 97 226 255 16 1 0 0 0 0 0 0 0 0 0 1 14 255 238 103 39 13 4 2 2 2 2 1 3 9 29 83 196 255 26 1 0 0 0 0 7 159 255 132 50 16 5 2 2 2 2 2 3 7 20 58 145 255 74 4 0 0 0 0 0 0 0 0 0 0 7 141 255 124 48 18 8 6 6 6 9 19 50 127 255 136 7 0 0 0 1 15 255 253 112 43 16 8 7 6 7 11 24 61 149 255 91 4 0 0 0 0 0 0 0 0 0 0 0 0 0 0 0 0 0 0 0 1 28 255 203 99 85 63 62 51 55 69 149 255 73 4 0 1 13 255 252 111 41 14 5 2 2 2 2 2 3 8 25 71 170 255 58 3 0 0 0 0 0 0 0 9 195 255 121 46 15 5 2 1 2 2 2 3 7 20 57 144 255 84 5 7 133 255 135 53 19 6 3 2 2 2 2 2 5 16 48 125 255 152 8 0 0 0 0 0 0 0 0 0 0 0 0 0 0 0 1 22 255 225 98 36 11 3 2 1 2 2 2 4 9 28 82 193 255 27 1 0 0 0 0 0 0 0 0 0 0 0 0 0 4 73 255 160 67 23 7 3 2 2 1 1 1 1 2 2 2 4 13 39 103 235 255 14 1 0 0 0 0 0 0 0 0 1 22 255 215 94 34 11 4 2 2 1 1 1 1 2 2 3 9 27 77 187 255 37 2 0 0 0 0 0 0 0 0 0 0 8 170 255 123 50 23 15 13 12 12 18 40 101 233 255 14 1 14 255 240 105 40 13 5 2 2 2 2 1 2 6 21 62 156 255 73 4 0 0 0 0 0 0 0 0 0 0 0 0 0 0 0 0 0 0
0 0 0 0 0 0 0 7 145 255 148 63 22 6 2 1 0 1 1 1 1 4 13 42 103 223 255 41 189 255 135 55 19 5 2 1 1 1 1 1 1 4 14 46 117 255 255 22 154 255 148 64 22 6 2 1 0 1 1 1 1 4 15 46 114 242 255 21 8 136 255 133 55 19 6 2 1 1 1 1 1 1 2 5 6 5 3 1 1 1 1 1 1 1 4 15 45 112 248 255 14 1 0 0 0 0 0 0 0 0 0 0 0 0 0 0 9 205 255 141 60 21 6 2 1 1 1 1 0 1 2 5 7 6 3 1 1 1 1 1 1 1 4 14 44 114 251 255 43 255 224 102 39 14 6 4 4 5 8 18 47 115 248 255 18 1 0 0 3 71 255 164 71 25 8 2 1 1 1 1 0 1 3 9 32 86 189 255 45 3 13 255 255 118 48 16 5 1 1 1 1 1 1 2 5 18 55 132 255 242 23 227 255 127 53 19 6 2 1 1 1 1 1 1 4 14 45 89 103 62 24 7 2 1 0 1 1 1 1 2 8 27 72 161 255 75 4 6 120 255 148 64 27 13 8 6 7 10 22 57 137 255 135 7 0 0 0 0 0 0 0 0 0 6 130 255 142 59 21 6 2 1 1 1 0 1 1 4 15 48 120 255 196 10 0 0 0 3 71 255 172 76 27 8 2 1 1 1 1 1 1 3 10 32 86 194 255 36 2 0 0 0 0 0 0 0 0 3 63 255 166 72 27 9 3 2 2 2 4 9 27 74 172 255 63 3 0 0 6 127 255 149 64 23 8 3 2 2 3 5 12 34 87 195 255 46 2 0 0 0 0 0 0 0 0 0 0 0 0 0 0 0 0 0 1 12 255 255 127 66 56 32 25 24 33 43 91 200 255 36 2 5 103 255 147 63 22 7 2 1 1 1 1 1 1 4 13 39 100 217 255 28 1 0 0 0 0 0 4 83 255 157 68 25 7 2 1 0 1 1 1 1 3 10 32 85 191 255 46 67 255 178 78 29 9 3 1 1 1 1 1 1 2 8 26 72 163 255 63 3 0 0 0 0 0 0 0 0 0 0 0 0 0 0 10 215 255 136 55 19 5 2 1 0 1 1 1 1 4 15 47 118 255 230 11 0 0 0 0 0 0 0 0 0 0 0 0 2 35 255 202 92 37 12 3 1 1 1 0 0 0 0 0 1 1 2 6 21 58 139 255 111 6 0 0 0 0 0 0 0 0 9 190 255 129 54 18 5 2 1 0 0 0 0 0 0 1 1 4 14 44 114 248 255 15 1 0 0 0 0 0 0 0 0 4 76 255 167 72 28 11 6 4 4 5 8 22 58 138 255 109 11 108 255 141 59 21 6 2 1 1 1 1 0 1 3 11 35 93 200 255 34 2 0 0 0 0 0 0 0 0 0 0 0 0 0 0 0 0 0
0 0 0 0 0 0 3 67 255 181 84 36 12 3 1 0 0 0 0 0 0 2 7 23 59 134 255 255 255 168 77 31 10 3 1 0 0 0 0 0 1 2 7 26 69 153 255 255 255 184 85 36 12 3 1 0 0 0 0 0 1 2 8 26 65 142 255 209 83 255 173 78 31 10 3 1 0 0 0 0 0 0 1 1 2 1 1 0 0 0 0 0 0 1 2 7 25 65 146 255 114 6 0 0 0 0 0 0 0 0 0 0 0 0 0 4 91 255 173 80 34 11 3 1 0 0 0 0 0 0 1 1 2 2 1 0 0 0 0 0 0 1 2 7 25 66 148 255 255 255 135 60 23 7 2 1 1 2 3 9 27 66 146 255 165 8 0 2 36 255 209 97 41 14 4 1 0 0 0 0 0 0 1 5 18 49 112 233 255 27 124 255 155 68 27 8 2 1 0 0 0 0 0 1 2 10 31 76 166 255 255 255 161 73 29 9 3 1 0 0 0 0 0 0 2 7 21 36 39 27 12 3 1 0 0 0 0 0 0 1 4 14 40 94 201 255 42 59 255 180 86 38 15 6 3 2 2 4 12 34 81 177 255 62 3 0 0 0 0 0 0 0 3 63 255 184 84 34 11 3 1 0 0 0 0 0 1 2 8 27 70 155 255 78 4 0 2 34 255 208 100 43 15 4 1 0 0 0 0 0 0 1 5 18 50 118 253 255 16 1 0 0 0 0 0 0 1 32 255 213 99 42 14 4 1 1 1 1 1 4 15 43 103 217 255 32 1 3 56 255 178 85 36 12 4 1 1 1 1 2 6 19 50 116 238 255 20 1 0 0 0 0 0 0 0 0 0 0 0 0 0 0 0 0 5 115 255 159 77 45 34 15 10 11 18 27 55 121 254 255 18 48 255 182 85 36 12 3 1 0 0 0 0 0 0 2 6 22 57 130 255 252 12 1 0 0 0 2 43 255 199 92 39 13 4 1 0 0 0 0 0 0 1 5 17 49 115 251 255 255 221 105 45 15 4 1 0 0 0 0 0 0 1 4 14 41 96 205 255 29 1 0 0 0 0 0 0 0 0 0 0 0 0 5 97 255 169 78 32 10 3 1 0 0 0 0 0 1 2 8 27 70 158 255 99 5 0 0 0 0 0 0 0 0 0 0 1 14 255 253 120 53 20 6 2 0 0 0 0 0 0 0 0 0 0 1 3 11 33 82 180 255 52 2 0 0 0 0 0 0 4 85 255 168 75 30 9 2 1 0 0 0 0 0 0 0 0 1 2 7 25 66 145 255 125 6 0 0 0 0 0 0 0 2 38 255 206 99 42 15 5 2 1 1 2 4 11 33 82 179 255 172 255 178 82 34 11 3 1 0 0 0 0 0 0 1 5 19 53 119 253 255 14 1 0 0 0 0 0 0 0 0 0 0 0 0 0 0 0 0
0 0 0 0 0 1 33 255 213 104 47 19 6 1 0 0 0 0 0 0 0 1 3 12 33 78 174 255 229 101 44 17 5 1 0 0 0 0 0 0 0 1 4 14 40 91 206 255 244 109 48 20 6 1 0 0 0 0 0 0 0 1 4 13 36 80 174 255 255 229 103 45 17 5 1 0 0 0 0 0 0 0 0 0 0 0 0 0 0 0 0 0 0 0 1 4 13 37 84 177 255 50 2 0 0 0 0 0 0 0 0 0 0 0 2 45 255 200 98 45 18 5 1 0 0 0 0 0 0 0 0 0 1 0 0 0 0 0 0 0 0 0 1 4 14 39 90 204 255 178 80 35 12 3 1 0 0 1 1 4 14 38 83 175 255 72 4 15 255 255 124 56 23 7 2 0 0 0 0 0 0 0 1 2 9 27 63 137 255 255 255 191 89 39 14 4 1 0 0 0 0 0 0 0 1 5 17 43 98 218 255 220 97 41 16 5 1 0 0 0 0 0 0 0 1 3 8 13 14 10 5 1 0 0 0 0 0 0 0 0 2 7 22 53 120 255 255 255 225 105 49 21 7 2 1 1 1 2 6 19 47 103 214 255 30 1 0 0 0 0 0 1 31 255 218 107 48 19 5 1 0 0 0 0 0 0 0 1 4 15 40 91 193 255 37 2 15 255 255 122 56 24 7 2 0 0 0 0 0 0 0 1 2 9 29 68 148 255 131 6 0 0 0 0 0 1 14 255 255 127 57 24 7 2 1 0 0 0 1 2 8 24 59 127 255 255 15 27 255 215 103 47 20 6 2 1 0 0 0 1 3 10 28 65 137 255 151 7 0 0 0 0 0 0 0 0 0 0 0 0 0 0 0 3 57 255 191 91 46 28 18 7 4 4 8 15 32 69 146 255 218 255 229 107 48 19 6 1 0 0 0 0 0 0 0 1 3 11 32 73 157 255 100 5 0 0 1 21 255 245 118 52 21 6 2 0 0 0 0 0 0 0 1 2 9 28 67 152 255 255 134 60 25 8 2 1 0 0 0 0 0 0 0 2 7 22 55 123 255 243 12 1 0 0 0 0 0 0 0 0 0 0 2 48 255 199 96 44 17 5 1 0 0 0 0 0 0 0 1 4 15 41 92 193 255 48 2 0 0 0 0 0 0 0 0 0 5 106 255 146 68 29 10 3 1 0 0 0 0 0 0 0 0 0 0 0 1 5 18 47 107 224 255 25 1 0 0 0 0 2 42 255 202 97 43 16 5 1 0 0 0 0 0 0 0 0 0 0 1 4 14 38 83 176 255 56 3 0 0 0 0 0 1 16 255 249 120 56 24 8 2 1 0 0 1 2 6 18 48 110 255 255 255 109 47 18 5 1 0 0 0 0 0 0 0 1 3 10 29 68 149 255 129 6 0 0 0 0 0 0 0 0 0 0 0 0 0 0 0 0
0 0 0 0 1 14 255 255 124 57 25 9 3 1 0 0 0 0 0 0 0 0 1 6 18 44 89 138 109 57 24 8 2 1 0 0 0 0 0 0 0 0 2 7 22 52 106 163 120 61 27 10 3 1 0 0 0 0 0 0 0 0 2 6 19 45 103 221 255 135 60 25 9 2 1 0 0 0 0 0 0 0 0 0 0 0 0 0 0 0 0 0 0 0 0 2 7 20 47 104 220 255 22 1 0 0 0 0 0 0 0 0 0 1 20 255 237 115 53 24 9 2 1 0 0 0 0 0 0 0 0 0 0 0 0 0 0 0 0 0 0 0 0 2 7 21 51 99 134 90 45 19 6 2 0 0 0 0 1 2 7 20 46 100 205 255 44 139 255 146 69 31 12 3 1 0 0 0 0 0 0 0 0 1 4 14 35 81 189 255 255 114 51 21 7 2 0 0 0 0 0 0 0 0 1 2 8 24 55 109 159 111 55 23 8 2 1 0 0 0 0 0 0 0 0 1 3 4 4 3 2 1 0 0 0 0 0 0 0 0 1 3 11 30 69 156 255 255 139 60 27 11 3 1 0 0 0 1 3 10 26 58 126 255 255 13 1 0 0 0 1 14 255 255 127 59 27 9 3 1 0 0 0 0 0 0 0 0 2 7 22 52 115 249 255 25 135 255 150 68 31 12 4 1 0 0 0 0 0 0 0 0 1 4 15 38 84 175 255 57 3 0 0 0 0 6 129 255 153 71 32 12 3 1 0 0 0 0 0 1 4 13 33 71 154 255 174 244 255 128 57 25 10 3 1 0 0 0 0 0 1 5 15 35 76 165 255 62 3 0 0 0 0 0 0 0 0 0 0 0 0 0 1 26 255 224 110 52 26 16 8 3 1 2 3 7 18 39 85 193 255 255 141 61 26 10 3 1 0 0 0 0 0 0 0 0 1 5 17 41 89 186 255 46 2 0 9 190 255 143 66 29 11 3 1 0 0 0 0 0 0 0 0 1 4 15 39 85 152 142 75 34 13 4 1 0 0 0 0 0 0 0 0 1 3 11 31 70 154 255 104 5 0 0 0 0 0 0 0 0 0 1 23 255 235 114 53 24 8 2 1 0 0 0 0 0 0 0 0 2 7 23 52 112 231 255 21 1 0 0 0 0 0 0 0 2 47 255 177 83 37 15 5 1 0 0 0 0 0 0 0 0 0 0 0 0 1 2 9 26 61 133 255 197 10 0 0 0 1 18 255 241 117 54 24 8 2 1 0 0 0 0 0 0 0 0 0 0 0 2 7 20 46 103 218 255 27 1 0 0 0 0 6 126 255 145 67 31 12 4 1 0 0 0 0 1 3 9 27 65 138 213 139 65 27 9 2 1 0 0 0 0 0 0 0 0 1 5 15 38 85 181 255 62 3 0 0 0 0 0 0 0 0 0 0 0 0 0 0 0
0 0 0 0 6 136 255 158 72 32 13 4 1 0 0 0 0 0 0 0 0 0 1 3 9 23 42 55 48 30 13 4 1 0 0 0 0 0 0 0 0 0 1 3 11 28 50 66 54 32 14 4 1 0 0 0 0 0 0 0 0 0 1 3 9 25 58 104 119 74 35 14 4 1 0 0 0 0 0 0 0 0 0 0 0 0 0 0 0 0 0 0 0 0 0 1 3 10 27 61 137 255 187 9 0 0 0 0 0 0 0 0 0 8 189 255 145 66 29 12 4 1 0 0 0 0 0 0 0 0 0 0 0 0 0 0 0 0 0 0 0 0 0 1 3 11 27 44 53 41 24 9 3 1 0 0 0 0 0 1 3 10 25 57 126 255 255 255 190 87 39 17 5 1 0 0 0 0 0 0 0 0 0 0 2 7 19 49 105 166 130 67 29 11 3 1 0 0 0 0 0 0 0 0 0 1 4 12 29 50 64 51 29 12 4 1 0 0 0 0 0 0 0 0 0 0 1 1 1 1 1 0 0 0 0 0 0 0 0 0 0 1 5 16 41 91 165 154 83 36 14 5 1 0 0 0 0 0 1 4 14 33 74 162 255 113 5 0 0 0 6 141 255 162 74 33 14 4 1 0 0 0 0 0 0 0 0 0 1 3 11 30 69 155 255 255 255 189 89 39 16 6 2 0 0 0 0 0 0 0 0 0 1 2 7 21 48 106 222 255 27 1 0 0 3 62 255 192 90 41 17 6 2 0 0 0 0 0 0 0 2 6 17 41 92 202 255 255 170 76 33 13 4 1 0 0 0 0 0 0 1 2 7 19 44 101 212 255 28 1 0 0 0 0 0 0 0 0 0 0 0 0 10 216 255 136 63 29 14 7 3 1 1 1 1 3 9 22 51 116 211 176 87 37 14 4 1 0 0 0 0 0 0 0 0 0 1 2 8 22 51 113 240 255 22 5 80 255 176 83 38 16 5 1 0 0 0 0 0 0 0 0 0 0 2 7 21 43 64 61 39 18 6 2 0 0 0 0 0 0 0 0 0 0 1 5 17 41 93 198 255 53 2 0 0 0 0 0 0 0 0 10 208 255 143 66 29 12 4 1 0 0 0 0 0 0 0 0 0 1 3 12 29 65 141 255 168 8 0 0 0 0 0 0 1 20 255 233 110 48 20 7 2 1 0 0 0 0 0 0 0 0 0 0 0 0 0 1 4 14 35 78 166 255 85 4 0 0 7 142 255 146 67 31 12 4 1 0 0 0 0 0 0 0 0 0 0 0 0 1 3 10 26 60 136 255 227 11 0 0 0 3 57 255 182 85 38 16 6 2 0 0 0 0 0 0 1 5 15 37 67 90 68 37 14 4 1 0 0 0 0 0 0 0 0 0 1 2 7 21 49 110 229 255 32 1 0 0 0 0 0 0 0 0 0 0 0 0 0 0
0 0 0 3 67 255 209 104 47 18 6 2 1 0 0 0 0 0 0 0 0 0 0 1 4 11 18 22 20 14 6 2 0 0 0 0 0 0 0 0 0 0 0 1 5 14 23 26 23 15 6 2 1 0 0 0 0 0 0 0 0 0 0 1 4 14 32 48 52 40 20 7 2 0 0 0 0 0 0 0 0 0 0 0 0 0 0 0 0 0 0 0 0 0 0 0 1 5 15 40 92 188 255 82 4 0 0 0 0 0 0 0 4 91 255 195 96 42 16 6 2 0 0 0 0 0 0 0 0 0 0 0 0 0 0 0 0 0 0 0 0 0 0 0 1 5 13 19 21 18 11 4 1 0 0 0 0 0 0 0 1 5 14 36 86 187 255 255 133 58 24 8 2 1 0 0 0 0 0 0 0 0 0 0 1 3 11 30 57 75 64 40 17 5 1 0 0 0 0 0 0 0 0 0 0 0 2 5 14 22 25 22 14 5 2 0 0 0 0 0 0 0 0 0 0 0 0 0 0 0 0 0 0 0 0 0 0 0 0 0 0 1 2 8 24 53 76 73 49 22 7 2 1 0 0 0 0 0 1 2 7 20 49 107 210 255 56 3 0 3 70 255 210 106 48 19 7 2 1 0 0 0 0 0 0 0 0 0 0 1 5 18 47 107 221 255 255 130 59 24 8 2 1 0 0 0 0 0 0 0 0 0 0 1 3 11 30 70 150 255 249 11 1 1 30 255 241 127 59 25 9 3 1 0 0 0 0 0 0 0 1 3 9 25 62 134 245 229 118 52 20 6 2 1 0 0 0 0 0 0 0 1 3 10 28 67 144 255 230 11 0 0 0 0 0 0 0 0 0 0 0 5 93 255 180 88 40 17 7 3 1 0 0 0 0 1 4 12 33 68 99 88 55 23 7 2 1 0 0 0 0 0 0 0 0 0 0 1 4 12 32 76 161 255 209 57 255 223 115 54 22 8 2 1 0 0 0 0 0 0 0 0 0 0 1 3 10 21 26 25 19 8 3 1 0 0 0 0 0 0 0 0 0 0 1 2 9 25 62 133 255 255 28 1 0 0 0 0 0 0 5 96 255 189 93 42 17 6 2 0 0 0 0 0 0 0 0 0 0 0 2 5 17 42 93 188 255 78 4 0 0 0 0 0 8 178 255 157 74 31 11 3 1 0 0 0 0 0 0 0 0 0 0 0 0 0 0 0 2 7 21 51 111 222 255 46 2 3 66 255 195 96 43 17 6 2 0 0 0 0 0 0 0 0 0 0 0 0 0 0 1 5 15 40 90 180 255 96 5 0 1 28 255 241 122 56 23 8 2 1 0 0 0 0 0 0 1 2 7 20 32 37 32 19 7 2 1 0 0 0 0 0 0 0 0 0 0 1 3 11 31 73 151 255 255 15 1 0 0 0 0 0 0 0 0 0 0 0 0 0
0 0 1 34 255 255 152 85 37 11 3 1 0 0 0 0 0 0 0 0 0 0 0 0 2 4 7 8 8 5 2 1 0 0 0 0 0 0 0 0 0 0 0 1 2 6 9 10 9 6 3 1 0 0 0 0 0 0 0 0 0 0 0 1 2 7 17 23 24 21 10 3 1 0 0 0 0 0 0 0 0 0 0 0 0 0 0 0 0 0 0 0 0 0 0 0 1 2 9 31 78 141 242 255 42 2 0 0 0 0 0 2 51 255 248 144 79 33 9 3 1 0 0 0 0 0 0 0 0 0 0 0 0 0 0 0 0 0 0 0 0 0 0 0 1 2 5 7 8 7 4 2 0 0 0 0 0 0 0 0 1 2 8 28 75 131 182 159 106 51 15 4 1 0 0 0 0 0 0 0 0 0 0 0 0 1 5 18 32 36 34 24 9 2 1 0 0 0 0 0 0 0 0 0 0 0 1 2 6 9 10 9 6 2 1 0 0 0 0 0 0 0 0 0 0 0 0 0 0 0 0 0 0 0 0 0 0 0 0 0 0 0 1 4 14 32 38 37 30 13 3 1 0 0 0 0 0 0 0 1 3 12 39 87 153 255 255 29 3 38 255 255 151 86 39 12 3 1 0 0 0 0 0 0 0 0 0 0 0 1 3 11 39 90 147 204 166 106 50 16 4 1 0 0 0 0 0 0 0 0 0 0 0 0 2 6 21 60 116 203 255 111 6 13 255 255 171 99 49 16 4 1 0 0 0 0 0 0 0 0 0 1 4 17 52 98 131 127 93 43 12 3 1 0 0 0 0 0 0 0 0 0 1 5 19 57 113 197 255 106 5 0 0 0 0 0 0 0 0 0 2 48 255 236 135 73 30 9 3 1 0 0 0 0 0 1 2 6 22 44 50 48 37 14 4 1 0 0 0 0 0 0 0 0 0 0 0 0 2 6 23 65 123 212 255 255 255 162 91 43 14 4 1 0 0 0 0 0 0 0 0 0 0 0 0 1 4 8 10 10 8 3 1 0 0 0 0 0 0 0 0 0 0 0 0 1 4 17 53 105 181 255 255 14 1 0 0 0 0 2 51 255 242 139 77 32 9 3 1 0 0 0 0 0 0 0 0 0 0 0 1 3 9 32 77 141 248 255 43 2 0 0 0 4 84 255 212 122 64 22 6 1 0 0 0 0 0 0 0 0 0 0 0 0 0 0 0 0 1 3 13 41 91 163 255 255 25 37 255 255 146 80 34 10 3 1 0 0 0 0 0 0 0 0 0 0 0 0 0 0 1 2 8 30 75 135 234 255 50 3 12 255 255 174 98 46 15 4 1 0 0 0 0 0 0 0 0 1 3 9 14 16 14 9 3 1 0 0 0 0 0 0 0 0 0 0 0 0 2 6 22 61 115 198 255 159 7 0 0 0 0 0 0 0 0 0 0 0 0 0
0 1 15 255 255 191 137 109 40 7 2 0 0 0 0 0 0 0 0 0 0 0 0 0 1 1 2 3 2 2 1 0 0 0 0 0 0 0 0 0 0 0 0 0 1 2 3 4 3 2 1 0 0 0 0 0 0 0 0 0 0 0 0 0 1 3 7 10 10 9 4 1 0 0 0 0 0 0 0 0 0 0 0 0 0 0 0 0 0 0 0 0 0 0 0 0 0 1 6 31 105 136 184 255 255 23 1 0 0 0 1 30 255 255 185 135 104 33 6 1 0 0 0 0 0 0 0 0 0 0 0 0 0 0 0 0 0 0 0 0 0 0 0 0 0 1 2 2 2 2 1 1 0 0 0 0 0 0 0 0 0 1 5 27 104 113 110 109 115 70 12 2 0 0 0 0 0 0 0 0 0 0 0 0 0 1 3 9 17 18 18 13 4 1 0 0 0 0 0 0 0 0 0 0 0 0 0 1 2 3 3 3 2 1 0 0 0 0 0 0 0 0 0 0 0 0 0 0 0 0 0 0 0 0 0 0 0 0 0 0 0 0 0 2 7 19 20 20 17 6 2 0 0 0 0 0 0 0 0 0 2 8 43 110 140 198 255 255 36 255 255 191 137 107 43 8 2 0 0 0 0 0 0 0 0 0 0 0 0 0 1 7 43 114 117 119 116 119 63 12 2 0 0 0 0 0 0 0 0 0 0 0 0 0 1 3 17 83 127 164 247 255 70 156 255 216 146 115 62 12 2 1 0 0 0 0 0 0 0 0 0 1 2 13 65 97 86 87 102 48 9 2 0 0 0 0 0 0 0 0 0 0 1 3 16 74 127 163 251 255 59 3 0 0 0 0 0 0 0 1 24 255 255 182 133 99 28 6 1 0 0 0 0 0 0 0 1 3 13 30 29 30 25 8 2 0 0 0 0 0 0 0 0 0 0 0 0 0 1 4 20 90 129 174 255 255 221 148 113 50 10 2 0 0 0 0 0 0 0 0 0 0 0 0 0 1 1 3 3 3 3 1 0 0 0 0 0 0 0 0 0 0 0 0 0 1 2 13 67 121 151 223 255 149 7 0 0 0 1 26 255 255 183 134 101 31 6 1 0 0 0 0 0 0 0 0 0 0 0 0 0 1 6 32 104 137 189 255 255 22 1 0 2 46 255 255 169 130 87 19 3 1 0 0 0 0 0 0 0 0 0 0 0 0 0 0 0 0 0 2 9 48 116 145 205 255 255 255 255 192 138 106 35 6 1 0 0 0 0 0 0 0 0 0 0 0 0 0 0 0 0 1 5 29 99 133 181 255 255 34 127 255 219 150 119 56 11 2 0 0 0 0 0 0 0 0 0 0 1 3 5 6 5 3 1 0 0 0 0 0 0 0 0 0 0 0 0 0 1 3 18 82 123 159 243 255 82 4 0 0 0 0 0 0 0 0 0 0 0 0
0 7 150 255 214 164 180 236 90 8 1 0 0 0 0 0 0 0 0 0 0 0 0 0 0 0 1 1 1 0 0 0 0 0 0 0 0 0 0 0 0 0 0 0 0 1 1 1 1 1 0 0 0 0 0 0 0 0 0 0 0 0 0 0 0 1 2 4 4 3 1 1 0 0 0 0 0 0 0 0 0 0 0 0 0 0 0 0 0 0 0 0 0 0 0 0 0 1 6 58 243 192 166 213 255 255 11 0 0 1 15 255 255 209 164 187 243 66 6 1 0 0 0 0 0 0 0 0 0 0 0 0 0 0 0 0 0 0 0 0 0 0 0 0 0 0 0 1 1 1 0 0 0 0 0 0 0 0 0 0 0 1 5 49 252 154 95 112 197 237 21 2 0 0 0 0 0 0 0 0 0 0 0 0 0 0 1 4 7 8 8 5 2 0 0 0 0 0 0 0 0 0 0 0 0 0 0 0 1 1 1 1 1 0 0 0 0 0 0 0 0 0 0 0 0 0 0 0 0 0 0 0 0 0 0 0 0 0 0 0 0 0 0 1 3 8 10 10 7 3 1 0 0 0 0 0 0 0 0 0 1 9 100 236 183 167 223 255 255 255 215 163 180 232 106 10 1 0 0 0 0 0 0 0 0 0 0 0 0 0 1 9 95 225 143 96 119 208 188 18 2 0 0 0 0 0 0 0 0 0 0 0 0 0 0 3 29 255 212 167 187 255 255 255 251 174 173 223 197 17 2 0 0 0 0 0 0 0 0 0 0 0 2 18 177 164 89 96 184 102 10 1 0 0 0 0 0 0 0 0 0 0 0 2 24 216 214 170 190 255 255 34 1 0 0 0 0 0 0 11 255 255 206 165 196 255 52 5 1 0 0 0 0 0 0 0 0 2 7 18 17 18 14 4 1 0 0 0 0 0 0 0 0 0 0 0 0 0 0 3 34 255 207 170 175 190 167 183 238 137 12 1 0 0 0 0 0 0 0 0 0 0 0 0 0 0 0 1 1 1 1 0 0 0 0 0 0 0 0 0 0 0 0 0 0 0 2 19 201 222 170 173 243 255 73 3 0 1 13 255 255 204 163 190 247 59 6 1 0 0 0 0 0 0 0 0 0 0 0 0 0 1 6 63 253 192 166 212 255 243 11 1 26 255 255 193 167 208 245 31 3 0 0 0 0 0 0 0 0 0 0 0 0 0 0 0 0 0 0 1 11 123 240 178 170 240 255 255 225 168 188 250 73 7 1 0 0 0 0 0 0 0 0 0 0 0 0 0 0 0 0 1 5 48 242 197 166 207 255 255 255 247 175 174 227 162 15 2 0 0 0 0 0 0 0 0 0 0 0 1 2 2 2 1 0 0 0 0 0 0 0 0 0 0 0 0 0 0 0 3 28 244 211 165 183 255 255 45 2 0 0 0 0 0 0 0 0 0 0 0
4 73 255 220 154 164 238 255 255 37 2 0 0 0 0 0 0 0 0 0 0 0 0 0 0 0 0 0 0 0 0 0 0 0 0 0 0 0 0 0 0 0 0 0 0 0 0 0 0 0 0 0 0 0 0 0 0 0 0 0 0 0 0 0 0 0 1 1 1 1 0 0 0 0 0 0 0 0 0 0 0 0 0 0 0 0 0 0 0 0 0 0 0 0 0 0 0 1 21 255 255 246 172 154 213 255 127 6 1 7 169 255 205 150 168 245 255 255 27 2 0 0 0 0 0 0 0 0 0 0 0 0 0 0 0 0 0 0 0 0 0 0 0 0 0 0 0 0 0 0 0 0 0 0 0 0 0 0 0 0 0 1 18 255 255 249 151 197 255 255 107 6 0 0 0 0 0 0 0 0 0 0 0 0 0 0 0 1 2 3 3 2 1 0 0 0 0 0 0 0 0 0 0 0 0 0 0 0 0 0 0 0 0 0 0 0 0 0 0 0 0 0 0 0 0 0 0 0 0 0 0 0 0 0 0 0 0 0 0 0 0 0 0 0 1 3 3 3 2 1 0 0 0 0 0 0 0 0 0 0 2 41 255 255 237 162 162 247 255 235 158 164 241 255 255 46 3 0 0 0 0 0 0 0 0 0 0 0 0 0 2 37 255 255 229 135 192 255 255 81 5 0 0 0 0 0 0 0 0 0 0 0 0 0 1 9 157 255 255 194 152 194 255 255 175 156 222 255 255 84 5 0 0 0 0 0 0 0 0 0 0 0 5 77 255 255 197 208 255 255 38 2 0 0 0 0 0 0 0 0 0 0 0 7 116 255 255 197 151 186 255 255 16 1 0 0 0 0 6 120 255 209 152 173 254 255 255 19 1 0 0 0 0 0 0 0 0 1 3 8 8 9 6 2 0 0 0 0 0 0 0 0 0 0 0 0 0 0 1 10 192 255 255 183 119 111 140 225 255 255 57 3 0 0 0 0 0 0 0 0 0 0 0 0 0 0 0 0 0 0 0 0 0 0 0 0 0 0 0 0 0 0 0 0 0 0 5 83 255 255 213 150 164 247 255 38 2 6 134 255 208 150 170 250 255 255 23 1 0 0 0 0 0 0 0 0 0 0 0 0 0 1 25 255 255 246 168 152 212 255 113 19 255 255 193 150 188 255 255 155 9 1 0 0 0 0 0 0 0 0 0 0 0 0 0 0 0 0 0 3 50 255 255 227 160 164 224 216 161 168 242 255 255 30 2 0 0 0 0 0 0 0 0 0 0 0 0 0 0 0 0 1 16 255 255 254 175 155 221 255 255 173 154 215 255 255 70 4 0 0 0 0 0 0 0 0 0 0 0 0 0 1 0 0 0 0 0 0 0 0 0 0 0 0 0 0 0 0 1 8 132 255 255 199 148 176 255 255 22 1 0 0 0 0 0 0 0 0 0 0
40 255 223 132 109 151 192 208 255 255 16 1 0 0 0 0 0 0 0 0 0 0 0 0 0 0 0 0 0 0 0 0 0 0 0 0 0 0 0 0 0 0 0 0 0 0 0 0 0 0 0 0 0 0 0 0 0 0 0 0 0 0 0 0 0 0 0 0 0 0 0 0 0 0 0 0 0 0 0 0 0 0 0 0 0 0 0 0 0 0 0 0 0 0 0 0 0 7 143 255 206 188 155 110 125 206 255 63 7 82 255 197 120 108 155 191 209 255 237 11 1 0 0 0 0 0 0 0 0 0 0 0 0 0 0 0 0 0 0 0 0 0 0 0 0 0 0 0 0 0 0 0 0 0 0 0 0 0 0 0 0 7 136 255 207 217 252 246 209 209 255 48 2 0 0 0 0 0 0 0 0 0 0 0 0 0 0 0 1 1 1 1 0 0 0 0 0 0 0 0 0 0 0 0 0 0 0 0 0 0 0 0 0 0 0 0 0 0 0 0 0 0 0 0 0 0 0 0 0 0 0 0 0 0 0 0 0 0 0 0 0 0 0 0 0 1 1 1 1 0 0 0 0 0 0 0 0 0 0 1 17 255 251 206 190 147 112 128 156 125 112 153 194 209 249 255 20 1 0 0 0 0 0 0 0 0 0 0 0 1 13 255 251 208 219 231 229 205 218 255 38 2 0 0 0 0 0 0 0 0 0 0 0 0 3 65 255 205 192 173 122 115 144 133 111 136 189 202 217 255 38 2 0 0 0 0 0 0 0 0 0 2 36 255 225 236 255 255 229 251 255 15 1 0 0 0 0 0 0 0 0 0 3 54 255 214 193 172 119 113 170 255 144 7 0 0 0 3 58 255 204 125 111 158 190 206 255 151 7 0 0 0 0 0 0 0 0 0 1 3 3 3 2 1 0 0 0 0 0 0 0 0 0 0 0 0 0 0 4 80 255 205 189 159 87 71 117 181 202 232 255 25 1 0 0 0 0 0 0 0 0 0 0 0 0 0 0 0 0 0 0 0 0 0 0 0 0 0 0 0 0 0 0 0 0 2 36 255 211 197 184 129 106 146 255 255 20 65 255 200 124 110 157 192 210 255 195 9 0 0 0 0 0 0 0 0 0 0 0 0 0 9 183 255 206 188 152 109 125 207 255 255 255 182 116 116 168 189 204 255 65 3 0 0 0 0 0 0 0 0 0 0 0 0 0 0 0 0 1 20 255 236 201 186 141 104 105 104 107 151 188 206 255 228 11 1 0 0 0 0 0 0 0 0 0 0 0 0 0 0 0 6 111 255 207 190 159 114 125 168 144 113 133 183 199 227 255 34 2 0 0 0 0 0 0 0 0 0 0 0 0 0 0 0 0 0 0 0 0 0 0 0 0 0 0 0 0 0 3 57 255 205 195 178 120 109 161 255 190 9 0 0 0 0 0 0 0 0 0 0
255 254 125 74 75 112 118 120 159 255 140 7 0 0 0 0 0 0 0 0 0 0 0 0 0 0 0 0 0 0 0 0 0 0 0 0 0 0 0 0 0 0 0 0 0 0 0 0 0 0 0 0 0 0 0 0 0 0 0 0 0 0 0 0 0 0 0 0 0 0 0 0 0 0 0 0 0 0 0 0 0 0 0 0 0 0 0 0 0 0 0 0 0 0 0 0 3 60 255 173 123 114 110 75 70 112 217 255 107 255 207 107 68 75 113 116 123 170 255 104 5 0 0 0 0 0 0 0 0 0 0 0 0 0 0 0 0 0 0 0 0 0 0 0 0 0 0 0 0 0 0 0 0 0 0 0 0 0 0 0 3 62 255 182 130 144 198 174 128 133 223 255 21 1 0 0 0 0 0 0 0 0 0 0 0 0 0 0 0 0 0 0 0 0 0 0 0 0 0 0 0 0 0 0 0 0 0 0 0 0 0 0 0 0 0 0 0 0 0 0 0 0 0 0 0 0 0 0 0 0 0 0 0 0 0 0 0 0 0 0 0 0 0 0 0 0 0 0 0 0 0 0 0 0 0 0 0 0 0 6 126 255 154 118 116 108 72 60 63 60 74 113 119 119 152 255 148 7 0 0 0 0 0 0 0 0 0 0 0 5 97 255 156 127 150 202 168 126 139 244 255 17 1 0 0 0 0 0 0 0 0 0 0 1 29 255 203 127 110 115 88 62 60 58 66 100 118 114 135 238 255 15 1 0 0 0 0 0 0 0 1 14 255 247 148 145 190 184 146 163 255 127 6 0 0 0 0 0 0 0 0 1 25 255 221 134 112 113 85 66 91 175 255 66 3 0 1 28 255 217 112 70 77 111 112 123 180 255 67 3 0 0 0 0 0 0 0 0 0 1 1 1 1 0 0 0 0 0 0 0 0 0 0 0 0 0 0 2 38 255 197 126 109 106 64 49 87 109 113 143 255 197 9 0 0 0 0 0 0 0 0 0 0 0 0 0 0 0 0 0 0 0 0 0 0 0 0 0 0 0 0 0 0 0 1 14 255 239 134 112 117 98 67 79 144 255 255 255 214 109 69 78 113 115 124 175 255 83 4 0 0 0 0 0 0 0 0 0 0 0 4 71 255 167 121 112 109 74 70 118 255 255 204 100 68 83 113 111 128 204 255 30 1 0 0 0 0 0 0 0 0 0 0 0 0 0 0 0 7 142 255 146 115 115 103 62 46 47 67 107 113 120 162 255 91 5 0 0 0 0 0 0 0 0 0 0 0 0 0 0 2 51 255 185 126 113 112 78 63 68 64 68 99 116 114 142 254 255 14 1 0 0 0 0 0 0 0 0 0 0 0 0 0 0 0 0 0 0 0 0 0 0 0 0 0 0 0 1 27 255 212 129 112 117 89 66 86 162 255 77 4 0 0 0 0 0 0 0 0 0
255 150 67 40 48 71 65 65 90 176 255 65 3 0 0 0 0 0 0 0 0 0 0 0 0 0 0 0 0 0 0 0 0 0 0 0 0 0 0 0 0 0 0 0 0 0 0 0 0 0 0 0 0 0 0 0 0 0 0 0 0 0 0 0 0 0 0 0 0 0 0 0 0 0 0 0 0 0 0 0 0 0 0 0 0 0 0 0 0 0 0 0 0 0 0 1 27 255 203 102 68 62 66 47 38 58 125 255 255 255 117 55 37 49 70 63 67 96 189 255 52 2 0 0 0 0 0 0 0 0 0 0 0 0 0 0 0 0 0 0 0 0 0 0 0 0 0 0 0 0 0 0 0 0 0 0 0 0 0 1 29 255 210 106 76 85 111 98 72 77 132 255 160 8 0 0 0 0 0 0 0 0 0 0 0 0 0 0 0 0 0 0 0 0 0 0 0 0 0 0 0 0 0 0 0 0 0 0 0 0 0 0 0 0 0 0 0 0 0 0 0 0 0 0 0 0 0 0 0 0 0 0 0 0 0 0 0 0 0 0 0 0 0 0 0 0 0 0 0 0 0 0 0 0 0 0 0 0 3 53 255 167 88 63 63 67 43 26 24 27 45 71 65 63 85 162 255 63 3 0 0 0 0 0 0 0 0 0 2 43 255 175 92 73 91 120 101 73 81 143 255 141 7 0 0 0 0 0 0 0 0 0 0 11 217 255 120 71 59 65 56 31 24 24 36 63 64 59 76 139 255 116 6 0 0 0 0 0 0 0 5 107 255 143 86 80 97 96 83 98 178 255 60 3 0 0 0 0 0 0 0 10 212 255 130 75 60 64 55 38 48 97 208 255 34 2 11 233 255 124 58 39 50 67 61 67 104 204 255 32 1 0 0 0 0 0 0 0 0 0 0 0 0 0 0 0 0 0 0 0 0 0 0 0 0 0 1 17 255 241 116 70 58 60 45 35 57 59 59 81 155 255 84 4 0 0 0 0 0 0 0 0 0 0 0 0 0 0 0 0 0 0 0 0 0 0 0 0 0 0 0 0 0 0 6 113 255 141 77 60 65 65 41 42 79 186 255 255 126 57 38 51 69 63 67 100 195 255 40 2 0 0 0 0 0 0 0 0 0 1 31 255 190 96 65 61 66 48 39 63 124 169 103 52 38 54 65 60 72 122 255 255 13 1 0 0 0 0 0 0 0 0 0 0 0 0 0 3 61 255 160 83 61 63 64 35 20 21 38 64 61 64 92 184 255 43 2 0 0 0 0 0 0 0 0 0 0 0 0 1 22 255 218 109 70 62 66 48 30 26 27 38 64 64 61 80 145 255 109 5 0 0 0 0 0 0 0 0 0 0 0 0 0 0 0 0 0 0 0 0 0 0 0 0 0 0 0 10 211 255 128 73 60 66 60 39 45 88 190 255 37 2 0 0 0 0 0 0 0 0
164 84 36 22 30 41 34 34 51 103 217 255 32 1 0 0 0 0 0 0 0 0 0 0 0 0 0 0 0 0 0 0 0 0 0 0 0 0 0 0 0 0 0 0 0 0 0 0 0 0 0 0 0 0 0 0 0 0 0 0 0 0 0 0 0 0 0 0 0 0 0 0 0 0 0 0 0 0 0 0 0 0 0 0 0 0 0 0 0 0 0 0 0 0 0 11 224 255 124 58 36 32 36 28 20 31 72 163 245 150 66 29 20 30 39 33 35 54 111 234 255 26 1 0 0 0 0 0 0 0 0 0 0 0 0 0 0 0 0 0 0 0 0 0 0 0 0 0 0 0 0 0 0 0 0 0 0 0 1 12 240 255 126 61 43 47 55 51 40 44 77 164 255 69 3 0 0 0 0 0 0 0 0 0 0 0 0 0 0 0 0 0 0 0 0 0 0 0 0 0 0 0 0 0 0 0 0 0 0 0 0 0 0 0 0 0 0 0 0 0 0 0 0 0 0 0 0 0 0 0 0 0 0 0 0 0 0 0 0 0 0 0 0 0 0 0 0 0 0 0 0 0 0 0 0 0 0 1 23 255 214 100 49 33 33 37 23 11 9 12 25 40 34 32 47 96 210 255 32 1 0 0 0 0 0 0 0 1 17 255 231 107 54 41 51 63 55 42 47 83 174 255 62 3 0 0 0 0 0 0 0 0 4 89 255 151 69 39 30 34 32 15 9 10 19 35 33 30 42 81 176 255 53 3 0 0 0 0 0 2 50 255 179 84 49 42 45 46 45 58 107 221 255 29 1 0 0 0 0 0 4 94 255 160 74 41 31 33 32 21 25 53 124 255 255 20 104 255 155 68 31 21 30 36 31 36 58 122 255 255 13 1 0 0 0 0 0 0 0 0 0 0 0 0 0 0 0 0 0 0 0 0 0 0 0 0 7 148 255 144 66 38 29 32 29 25 34 30 30 45 92 199 255 42 2 0 0 0 0 0 0 0 0 0 0 0 0 0 0 0 0 0 0 0 0 0 0 0 0 0 0 0 0 3 53 255 180 84 44 31 34 40 25 22 44 104 188 150 72 31 21 32 39 33 36 56 115 246 255 18 1 0 0 0 0 0 0 0 1 12 236 255 116 54 34 31 37 29 21 31 53 66 47 26 21 32 35 31 40 71 155 255 114 6 0 0 0 0 0 0 0 0 0 0 0 0 1 30 255 212 96 47 32 32 35 18 9 9 20 34 31 33 52 111 238 255 18 1 0 0 0 0 0 0 0 0 0 0 0 8 167 255 131 62 38 32 36 27 14 10 11 20 37 33 31 44 84 181 255 52 2 0 0 0 0 0 0 0 0 0 0 0 0 0 0 0 0 0 0 0 0 0 0 0 0 0 4 87 255 157 74 41 31 35 36 22 24 48 114 252 255 17 1 0 0 0 0 0 0 0
72 45 20 12 16 22 17 18 30 63 137 255 255 13 1 0 0 0 0 0 0 0 0 0 0 0 0 0 0 0 0 0 0 0 0 0 0 0 0 0 0 0 0 0 0 0 0 0 0 0 0 0 0 0 0 0 0 0 0 0 0 0 0 0 0 0 0 0 0 0 0 0 0 0 0 0 0 0 0 0 0 0 0 0 0 0 0 0 0 0 0 0 0 0 5 97 255 169 78 35 19 16 18 14 10 17 41 82 107 77 38 15 11 16 20 17 18 32 68 148 255 239 11 0 0 0 0 0 0 0 0 0 0 0 0 0 0 0 0 0 0 0 0 0 0 0 0 0 0 0 0 0 0 0 0 0 0 0 5 106 255 166 78 37 25 25 27 25 21 26 48 105 220 255 35 2 0 0 0 0 0 0 0 0 0 0 0 0 0 0 0 0 0 0 0 0 0 0 0 0 0 0 0 0 0 0 0 0 0 0 0 0 0 0 0 0 0 0 0 0 0 0 0 0 0 0 0 0 0 0 0 0 0 0 0 0 0 0 0 0 0 0 0 0 0 0 0 0 0 0 0 0 0 0 0 0 0 10 211 255 139 62 29 17 16 18 11 5 3 5 12 20 17 16 27 60 137 255 255 14 1 0 0 0 0 0 0 7 150 255 149 68 33 23 28 32 29 24 28 51 110 226 255 31 1 0 0 0 0 0 0 2 45 255 205 97 42 21 15 16 16 7 4 4 9 17 16 15 24 50 114 235 255 25 1 0 0 0 1 25 255 242 117 53 29 21 20 21 24 35 66 141 255 255 13 1 0 0 0 2 49 255 212 101 45 23 15 16 16 11 13 30 75 161 255 255 255 209 97 40 16 11 16 18 15 19 34 76 166 255 120 6 0 0 0 0 0 0 0 0 0 0 0 0 0 0 0 0 0 0 0 0 0 0 0 3 71 255 190 90 40 21 14 16 16 15 18 14 15 26 57 128 255 255 18 1 0 0 0 0 0 0 0 0 0 0 0 0 0 0 0 0 0 0 0 0 0 0 0 0 0 0 1 27 255 240 116 52 25 16 17 22 14 12 25 55 81 70 39 17 11 17 20 16 19 33 71 156 255 158 7 0 0 0 0 0 0 0 5 101 255 160 73 32 18 15 18 15 11 14 21 24 19 12 11 17 17 16 22 44 97 198 255 55 3 0 0 0 0 0 0 0 0 0 0 1 13 255 255 139 61 28 16 15 17 8 4 4 9 16 15 17 31 69 151 255 151 7 0 0 0 0 0 0 0 0 0 0 4 73 255 175 82 38 20 16 17 13 6 4 4 9 18 16 16 25 51 117 242 255 26 1 0 0 0 0 0 0 0 0 0 0 0 0 0 0 0 0 0 0 0 0 0 0 0 2 44 255 207 99 45 23 16 18 19 12 12 28 71 160 255 172 8 0 0 0 0 0 0 0
32 23 10 6 7 10 8 9 18 44 93 178 255 125 6 0 0 0 0 0 0 0 0 0 0 0 0 0 0 0 0 0 0 0 0 0 0 0 0 0 0 0 0 0 0 0 0 0 0 0 0 0 0 0 0 0 0 0 0 0 0 0 0 0 0 0 0 0 0 0 0 0 0 0 0 0 0 0 0 0 0 0 0 0 0 0 0 0 0 0 0 0 0 2 50 255 220 117 57 23 10 7 7 6 5 9 23 41 47 39 21 8 5 7 9 7 9 19 47 100 189 255 104 5 0 0 0 0 0 0 0 0 0 0 0 0 0 0 0 0 0 0 0 0 0 0 0 0 0 0 0 0 0 0 0 0 0 3 56 255 218 114 56 25 14 12 12 11 10 15 33 76 151 255 255 17 1 0 0 0 0 0 0 0 0 0 0 0 0 0 0 0 0 0 0 0 0 0 0 0 0 0 0 0 0 0 0 0 0 0 0 0 0 0 0 0 0 0 0 0 0 0 0 0 0 0 0 0 0 0 0 0 0 0 0 0 0 0 0 0 0 0 0 0 0 0 0 0 0 0 0 0 0 0 0 0 5 97 255 192 99 45 17 8 7 7 4 2 1 2 5 8 7 8 17 43 96 181 255 124 6 0 0 0 0 0 3 70 255 202 105 50 21 13 14 15 14 13 17 35 77 154 255 255 14 1 0 0 0 0 1 22 255 255 142 71 29 12 7 7 6 3 1 2 3 6 6 7 14 35 81 159 255 219 10 0 0 0 11 237 255 164 84 38 17 10 9 9 12 22 48 96 184 255 121 6 0 0 1 23 255 255 143 72 31 12 7 7 6 5 7 18 52 113 234 255 255 146 69 26 9 5 7 7 7 10 22 54 113 210 255 56 3 0 0 0 0 0 0 0 0 0 0 0 0 0 0 0 0 0 0 0 0 0 2 38 255 240 129 64 27 11 6 7 7 7 8 6 7 16 40 88 168 255 176 8 0 0 0 0 0 0 0 0 0 0 0 0 0 0 0 0 0 0 0 0 0 0 0 0 0 1 12 255 255 162 83 37 15 8 8 10 6 6 13 28 35 32 21 9 5 8 9 7 9 20 50 106 200 255 72 3 0 0 0 0 0 2 53 255 216 113 53 21 9 7 8 7 5 6 8 9 7 5 5 7 7 7 12 30 69 134 252 255 30 1 0 0 0 0 0 0 0 0 0 6 122 255 182 97 45 17 8 6 6 3 2 2 3 6 6 8 19 49 104 197 255 70 3 0 0 0 0 0 0 0 0 2 37 255 230 122 59 24 11 7 7 5 2 1 2 4 7 7 7 14 36 83 163 255 252 12 0 0 0 0 0 0 0 0 0 0 0 0 0 0 0 0 0 0 0 0 0 0 1 21 255 255 142 71 31 13 7 8 8 5 6 17 50 109 207 255 81 4 0 0 0 0 0 0
13 10 5 2 3 3 3 4 11 36 76 126 219 255 62 3 0 0 0 0 0 0 0 0 0 0 0 0 0 0 0 0 0 0 0 0 0 0 0 0 0 0 0 0 0 0 0 0 0 0 0 0 0 0 0 0 0 0 0 0 0 0 0 0 0 0 0 0 0 0 0 0 0 0 0 0 0 0 0 0 0 0 0 0 0 0 0 0 0 0 0 0 1 25 255 255 152 93 50 16 5 3 3 2 2 4 12 19 21 19 10 4 2 3 3 3 4 12 39 80 131 225 255 53 2 0 0 0 0 0 0 0 0 0 0 0 0 0 0 0 0 0 0 0 0 0 0 0 0 0 0 0 0 0 0 0 1 30 255 255 151 91 49 17 7 5 5 4 5 9 26 67 111 187 255 157 7 0 0 0 0 0 0 0 0 0 0 0 0 0 0 0 0 0 0 0 0 0 0 0 0 0 0 0 0 0 0 0 0 0 0 0 0 0 0 0 0 0 0 0 0 0 0 0 0 0 0 0 0 0 0 0 0 0 0 0 0 0 0 0 0 0 0 0 0 0 0 0 0 0 0 0 0 0 0 2 50 255 232 136 83 38 11 4 3 2 1 1 0 1 2 3 3 4 10 37 79 127 215 255 59 3 0 0 0 2 35 255 243 142 88 44 14 6 6 6 6 6 10 27 67 113 191 255 151 7 0 0 0 0 10 213 255 179 107 63 22 6 3 2 2 1 0 1 1 2 2 3 8 28 70 116 196 255 93 5 0 5 101 255 197 118 73 31 10 4 3 3 6 14 41 79 129 221 255 60 3 1 10 209 255 174 105 63 23 7 3 2 2 2 3 12 43 92 149 210 169 110 61 19 5 2 2 3 3 5 14 47 89 144 251 255 28 1 0 0 0 0 0 0 0 0 0 0 0 0 0 0 0 0 0 0 0 1 18 255 255 163 98 56 19 6 3 2 2 3 3 2 3 9 32 74 120 210 255 89 4 0 0 0 0 0 0 0 0 0 0 0 0 0 0 0 0 0 0 0 0 0 0 0 0 6 122 255 196 117 72 29 8 3 3 3 2 3 6 12 15 14 9 4 2 3 3 3 4 13 43 85 139 240 255 37 2 0 0 0 1 28 255 255 152 92 47 14 4 3 3 2 2 2 3 3 2 2 2 2 2 3 6 22 59 101 171 255 255 14 1 0 0 0 0 0 0 0 3 63 255 221 128 80 38 11 4 2 2 1 1 1 1 2 2 4 13 41 84 139 242 255 37 2 0 0 0 0 0 0 1 17 255 255 160 96 53 17 5 3 2 2 1 0 1 1 2 2 3 8 29 71 117 196 255 113 5 0 0 0 0 0 0 0 0 0 0 0 0 0 0 0 0 0 0 0 0 0 9 199 255 178 107 63 22 7 3 3 3 2 3 11 42 87 141 240 255 41 2 0 0 0 0 0
5 4 2 1 1 1 1 2 7 35 83 103 151 252 255 31 1 0 0 0 0 0 0 0 0 0 0 0 0 0 0 0 0 0 0 0 0 0 0 0 0 0 0 0 0 0 0 0 0 0 0 0 0 0 0 0 0 0 0 0 0 0 0 0 0 0 0 0 0 0 0 0 0 0 0 0 0 0 0 0 0 0 0 0 0 0 0 0 0 0 0 0 10 227 255 177 115 94 58 12 3 1 1 1 1 2 5 8 8 8 4 2 1 1 1 1 2 8 40 83 104 154 255 255 28 1 0 0 0 0 0 0 0 0 0 0 0 0 0 0 0 0 0 0 0 0 0 0 0 0 0 0 0 0 0 1 14 255 255 175 114 93 56 13 3 2 1 1 2 5 22 81 99 131 212 255 75 4 0 0 0 0 0 0 0 0 0 0 0 0 0 0 0 0 0 0 0 0 0 0 0 0 0 0 0 0 0 0 0 0 0 0 0 0 0 0 0 0 0 0 0 0 0 0 0 0 0 0 0 0 0 0 0 0 0 0 0 0 0 0 0 0 0 0 0 0 0 0 0 0 0 0 0 0 1 25 255 255 157 109 92 40 7 2 1 1 0 0 0 0 1 1 1 2 7 37 84 103 148 251 255 30 1 0 1 15 255 255 164 111 95 50 10 3 2 2 2 2 6 24 81 99 134 221 255 75 3 0 0 5 100 255 203 127 98 75 18 4 1 1 1 0 0 0 0 1 1 1 5 24 82 101 137 227 255 46 4 50 255 225 136 101 86 31 6 2 1 1 3 9 43 87 104 151 253 255 30 6 93 255 200 123 94 73 20 4 1 1 1 1 2 8 46 94 98 106 99 95 73 15 3 1 1 1 1 2 11 54 88 110 170 255 254 12 1 0 0 0 0 0 0 0 0 0 0 0 0 0 0 0 0 0 0 8 170 255 186 118 93 65 15 3 1 1 1 1 1 1 2 6 29 81 102 145 243 255 50 2 0 0 0 0 0 0 0 0 0 0 0 0 0 0 0 0 0 0 0 0 0 0 3 63 255 227 136 100 84 26 5 1 1 1 1 1 2 4 5 5 3 1 1 1 1 1 2 9 47 87 108 163 255 255 19 1 0 1 12 255 255 177 116 95 53 10 2 1 1 1 1 1 1 1 1 1 1 1 1 1 4 17 67 95 123 196 255 149 7 0 0 0 0 0 0 1 36 255 255 151 105 86 38 7 2 1 1 0 0 0 0 1 1 2 9 43 89 110 166 255 255 17 1 0 0 0 0 0 8 173 255 186 119 95 64 13 3 1 1 0 0 0 0 0 1 1 1 5 27 82 100 136 225 255 58 3 0 0 0 0 0 0 0 0 0 0 0 0 0 0 0 0 0 0 0 4 90 255 205 127 97 77 18 4 1 1 1 1 2 8 43 87 107 160 255 255 18 1 0 0 0 0
1 1 1 0 0 0 0 1 6 46 138 109 111 165 255 255 15 1 0 0 0 0 0 0 0 0 0 0 0 0 0 0 0 0 0 0 0 0 0 0 0 0 0 0 0 0 0 0 0 0 0 0 0 0 0 0 0 0 0 0 0 0 0 0 0 0 0 0 0 0 0 0 0 0 0 0 0 0 0 0 0 0 0 0 0 0 0 0 0 0 0 5 95 255 194 122 105 133 112 13 2 0 0 0 0 1 2 3 3 2 1 1 0 0 0 0 1 8 60 131 105 112 171 255 255 12 1 0 0 0 0 0 0 0 0 0 0 0 0 0 0 0 0 0 0 0 0 0 0 0 0 0 0 0 0 6 129 255 191 121 105 136 113 14 2 1 0 0 1 4 28 159 120 105 141 239 255 41 2 0 0 0 0 0 0 0 0 0 0 0 0 0 0 0 0 0 0 0 0 0 0 0 0 0 0 0 0 0 0 0 0 0 0 0 0 0 0 0 0 0 0 0 0 0 0 0 0 0 0 0 0 0 0 0 0 0 0 0 0 0 0 0 0 0 0 0 0 0 0 0 0 0 0 0 11 247 255 173 113 109 143 62 7 1 0 0 0 0 0 0 0 0 0 1 6 51 130 108 110 166 255 255 13 1 7 141 255 182 117 109 146 93 11 2 1 1 1 1 4 31 161 118 106 146 241 255 38 2 3 55 255 229 136 105 123 145 22 3 1 0 0 0 0 0 0 0 0 1 4 29 147 116 108 152 255 255 52 255 255 150 106 114 152 42 5 1 0 0 1 9 73 147 109 111 165 255 255 72 255 226 135 103 117 140 23 3 1 0 0 0 1 9 76 128 76 59 66 106 141 19 2 0 0 0 0 2 12 103 126 105 120 191 255 112 5 0 0 0 0 0 0 0 0 0 0 0 0 0 0 0 0 0 4 77 255 204 126 102 125 127 17 2 0 0 0 0 0 0 1 5 35 138 114 110 158 255 255 27 1 0 0 0 0 0 0 0 0 0 0 0 0 0 0 0 0 0 0 0 0 1 31 255 250 150 107 115 153 32 4 1 0 0 0 0 1 1 2 2 1 0 0 0 0 0 1 10 84 129 105 117 185 255 209 9 1 5 111 255 191 122 107 137 95 11 2 0 0 0 0 0 0 0 0 0 0 0 0 1 3 19 128 127 104 131 218 255 77 4 0 0 0 0 1 16 255 255 168 112 110 135 51 7 1 0 0 0 0 0 0 0 0 1 8 63 137 108 118 183 255 151 7 0 0 0 0 4 87 255 210 128 106 133 140 16 2 0 0 0 0 0 0 0 0 0 1 4 33 144 112 106 150 254 255 30 1 0 0 0 0 0 0 0 0 0 0 0 0 0 0 0 0 0 2 47 255 229 138 105 123 163 23 3 1 0 0 0 1 8 59 122 101 113 177 255 174 8 0 0 0 0
0 0 0 0 0 0 0 1 11 149 244 163 97 108 180 255 158 7 0 0 0 0 0 0 0 0 0 0 0 0 0 0 0 0 0 0 0 0 0 0 0 0 0 0 0 0 0 0 0 0 0 0 0 0 0 0 0 0 0 0 0 0 0 0 0 0 0 0 0 0 0 0 0 0 0 0 0 0 0 0 0 0 0 0 0 0 0 0 0 0 2 46 255 211 123 94 131 230 255 37 3 0 0 0 0 0 0 1 1 1 0 0 0 0 0 0 1 17 224 240 151 95 111 183 255 123 6 0 0 0 0 0 0 0 0 0 0 0 0 0 0 0 0 0 0 0 0 0 0 0 0 0 0 0 3 59 255 202 120 93 132 239 255 40 3 0 0 0 1 6 75 255 198 107 99 151 255 255 21 1 0 0 0 0 0 0 0 0 0 0 0 0 0 0 0 0 0 0 0 0 0 0 0 0 0 0 0 0 0 0 0 0 0 0 0 0 0 0 0 0 0 0 0 0 0 0 0 0 0 0 0 0 0 0 0 0 0 0 0 0 0 0 0 0 0 0 0 0 0 0 0 0 0 5 113 255 186 112 96 148 229 229 17 1 0 0 0 0 0 0 0 0 0 1 12 159 226 158 98 109 179 255 116 9 68 255 202 118 96 144 237 255 30 2 0 0 0 1 7 92 255 196 106 99 149 255 255 18 30 255 253 144 97 111 205 255 57 4 0 0 0 0 0 0 0 0 0 1 6 72 247 185 104 104 165 255 255 255 162 102 103 181 245 140 10 1 0 0 2 23 255 255 162 96 108 181 255 255 255 145 97 111 205 255 61 5 0 0 0 0 2 22 255 207 82 40 60 174 255 49 4 0 0 0 0 2 35 255 235 136 95 122 210 255 57 3 0 0 0 0 0 0 0 0 0 0 0 0 0 0 0 2 39 255 224 129 93 119 223 255 45 3 0 0 0 0 0 0 1 7 84 242 176 100 104 166 255 255 12 1 0 0 0 0 0 0 0 0 0 0 0 0 0 0 0 0 0 0 1 14 255 255 154 101 104 186 247 81 6 1 0 0 0 0 0 0 0 0 0 0 0 0 0 0 2 27 255 236 142 96 118 198 255 98 7 52 255 206 121 94 132 224 255 30 2 0 0 0 0 0 0 0 0 0 0 0 0 0 4 47 255 220 114 95 136 236 255 42 2 0 0 0 7 158 255 174 109 98 161 227 149 12 1 0 0 0 0 0 0 0 0 1 17 207 229 145 96 117 196 255 66 3 0 0 2 47 255 230 133 97 126 232 255 49 3 0 0 0 0 0 0 0 0 0 1 7 93 245 178 102 101 158 255 255 13 1 0 0 0 0 0 0 0 0 0 0 0 0 0 0 0 1 25 255 255 144 98 112 211 255 65 5 0 0 0 0 1 14 170 209 132 92 114 196 255 82 4 0 0 0
0 0 0 0 0 0 0 3 58 255 230 206 104 73 104 188 255 76 4 0 0 0 0 0 0 0 0 0 0 0 0 0 0 0 0 0 0 0 0 0 0 0 0 0 0 0 0 0 0 0 0 0 0 0 0 0 0 0 0 0 0 0 0 0 0 0 0 0 0 0 0 0 0 0 0 0 0 0 0 0 0 0 0 0 0 0 0 0 0 1 22 255 235 123 77 85 176 224 231 205 11 1 0 0 0 0 0 0 0 0 0 0 0 0 0 0 5 93 255 239 206 100 73 105 193 255 58 3 0 0 0 0 0 0 0 0 0 0 0 0 0 0 0 0 0 0 0 0 0 0 0 0 0 1 28 255 217 116 74 85 178 225 235 255 14 1 0 0 2 29 255 204 211 135 75 89 155 255 191 9 0 0 0 0 0 0 0 0 0 0 0 0 0 0 0 0 0 0 0 0 0 0 0 0 0 0 0 0 0 0 0 0 0 0 0 0 0 0 0 0 0 0 0 0 0 0 0 0 0 0 0 0 0 0 0 0 0 0 0 0 0 0 0 0 0 0 0 0 0 0 0 0 3 57 255 198 107 73 97 190 223 255 89 5 0 0 0 0 0 0 0 0 0 3 61 255 231 205 106 74 103 188 255 129 255 217 117 76 94 187 220 248 153 9 1 0 0 2 37 255 212 213 131 72 87 152 255 203 255 255 145 85 76 144 213 207 255 20 1 0 0 0 0 0 0 0 0 1 26 255 207 209 124 75 100 188 255 185 99 74 124 210 220 255 55 3 0 0 7 121 255 231 207 104 74 109 208 255 156 88 77 151 224 217 255 24 1 0 0 0 6 101 255 220 131 41 88 214 204 255 16 1 0 0 1 12 219 242 236 190 89 77 122 230 255 30 1 0 0 0 0 0 0 0 0 0 0 0 0 0 1 18 255 250 131 79 79 164 226 222 255 15 1 0 0 0 0 0 2 31 255 216 208 111 72 94 167 255 119 6 0 0 0 0 0 0 0 0 0 0 0 0 0 0 0 0 0 0 6 117 255 161 89 72 126 210 205 255 29 2 0 0 0 0 0 0 0 0 0 0 0 0 0 0 9 170 255 238 196 94 75 112 205 255 98 255 225 120 75 84 172 220 245 173 9 1 0 0 0 0 0 0 0 0 0 0 0 1 15 255 219 221 152 77 81 135 251 255 19 1 0 3 71 255 184 99 72 103 202 225 255 53 3 0 0 0 0 0 0 0 0 5 81 255 225 188 92 75 114 209 255 30 1 1 21 255 242 131 81 83 168 220 215 255 17 1 0 0 0 0 0 0 0 0 2 37 255 217 211 124 73 91 163 255 113 6 0 0 0 0 0 0 0 0 0 0 0 0 0 0 0 10 224 255 149 86 76 146 215 202 255 24 1 0 0 0 4 58 255 229 187 90 74 114 210 255 42 2 0 0
0 0 0 0 0 0 1 25 255 200 154 153 113 52 55 98 200 255 38 2 0 0 0 0 0 0 0 0 0 0 0 0 0 0 0 0 0 0 0 0 0 0 0 0 0 0 0 0 0 0 0 0 0 0 0 0 0 0 0 0 0 0 0 0 0 0 0 0 0 0 0 0 0 0 0 0 0 0 0 0 0 0 0 0 0 0 0 0 0 9 206 255 130 65 47 83 154 141 153 255 74 4 0 0 0 0 0 0 0 0 0 0 0 0 0 2 43 255 184 155 160 109 50 56 102 206 255 26 1 0 0 0 0 0 0 0 0 0 0 0 0 0 0 0 0 0 0 0 0 0 0 0 1 12 254 255 120 61 46 85 154 139 154 255 105 5 0 1 10 210 243 146 141 142 62 49 79 157 255 77 4 0 0 0 0 0 0 0 0 0 0 0 0 0 0 0 0 0 0 0 0 0 0 0 0 0 0 0 0 0 0 0 0 0 0 0 0 0 0 0 0 0 0 0 0 0 0 0 0 0 0 0 0 0 0 0 0 0 0 0 0 0 0 0 0 0 0 0 0 0 0 1 27 255 214 105 57 49 103 151 147 176 255 39 2 0 0 0 0 0 0 0 1 27 255 196 159 157 117 52 55 103 236 255 255 120 62 50 97 150 138 155 255 58 3 0 1 14 255 226 147 142 137 58 48 81 176 255 255 153 75 48 66 145 140 149 255 138 7 0 0 0 0 0 0 0 0 9 179 249 151 144 132 59 55 86 117 85 54 59 136 148 150 202 255 24 1 3 49 255 165 143 153 114 53 58 91 110 74 51 69 155 148 155 255 153 8 0 0 2 41 255 164 150 181 79 167 150 149 255 102 5 0 0 5 89 255 158 147 160 91 49 64 125 255 255 14 1 0 0 0 0 0 0 0 0 0 0 0 0 7 152 255 136 68 47 76 157 143 153 255 104 5 0 0 0 0 1 11 212 234 155 147 118 52 50 86 177 255 56 3 0 0 0 0 0 0 0 0 0 0 0 0 0 0 0 0 3 52 255 169 84 49 56 134 144 148 235 171 9 0 0 0 0 0 0 0 0 0 0 0 0 0 4 71 255 167 150 160 98 48 58 110 246 255 255 126 63 47 82 149 142 160 255 70 4 0 0 0 0 0 0 0 0 0 0 0 5 94 255 152 141 149 69 46 68 135 255 166 8 2 33 255 196 97 53 49 110 153 155 193 255 21 1 0 0 0 0 0 0 2 37 255 181 150 152 93 48 60 115 245 229 12 9 174 255 130 67 48 78 150 136 145 255 111 6 0 0 0 0 0 0 0 1 14 255 227 155 150 136 57 50 84 169 255 49 2 0 0 0 0 0 0 0 0 0 0 0 0 0 4 86 255 153 77 49 66 146 138 142 255 156 8 0 0 1 22 255 184 162 165 99 49 60 113 233 255 20 1 0
0 0 0 0 0 0 9 188 255 119 85 87 96 38 28 47 105 231 255 15 1 0 0 0 0 0 0 0 0 0 0 0 0 0 0 0 0 0 0 0 0 0 0 0 0 0 0 0 0 0 0 0 0 0 0 0 0 0 0 0 0 0 0 0 0 0 0 0 0 0 0 0 0 0 0 0 0 0 0 0 0 0 0 0 0 0 0 0 4 87 255 148 64 32 30 75 93 76 91 167 255 31 1 0 0 0 0 0 0 0 0 0 0 0 1 18 255 217 109 84 92 98 36 28 49 109 253 212 10 0 0 0 0 0 0 0 0 0 0 0 0 0 0 0 0 0 0 0 0 0 0 0 5 100 255 138 59 30 29 77 92 75 89 165 255 46 2 4 80 255 140 86 79 102 52 27 37 79 177 255 36 2 0 0 0 0 0 0 0 0 0 0 0 0 0 0 0 0 0 0 0 0 0 0 0 0 0 0 0 0 0 0 0 0 0 0 0 0 0 0 0 0 0 0 0 0 0 0 0 0 0 0 0 0 0 0 0 0 0 0 0 0 0 0 0 0 0 0 0 0 0 11 223 255 113 50 28 35 92 90 81 106 218 255 15 1 0 0 0 0 0 0 10 210 253 120 88 92 100 38 28 52 119 209 138 61 31 33 86 88 74 92 180 255 24 1 5 101 255 129 83 79 100 47 26 40 92 191 171 79 36 27 56 100 79 89 151 255 57 3 0 0 0 0 0 0 4 73 255 143 90 82 100 46 28 34 41 33 27 47 105 85 83 119 255 186 10 20 255 194 96 75 86 99 39 27 34 38 30 28 60 105 82 90 144 255 58 3 1 16 255 207 102 91 152 246 202 97 94 158 255 44 2 2 42 255 174 92 78 94 81 32 31 61 139 255 114 6 0 0 0 0 0 0 0 0 0 0 0 3 64 255 153 67 33 28 69 99 79 90 160 255 45 2 0 0 0 4 86 255 138 90 84 95 39 25 41 92 202 255 26 1 0 0 0 0 0 0 0 0 0 0 0 0 0 0 1 24 255 201 88 40 26 45 102 82 87 135 255 65 3 0 0 0 0 0 0 0 0 0 0 0 2 34 255 185 97 80 93 87 32 29 55 125 228 154 66 31 29 73 91 78 96 181 255 32 1 0 0 0 0 0 0 0 0 0 2 39 255 156 90 78 98 60 27 32 66 151 255 70 17 252 234 103 46 27 36 94 88 87 119 255 148 7 0 0 0 0 0 1 15 255 227 111 83 89 81 32 29 56 131 255 96 83 255 146 63 32 28 67 92 73 84 152 255 47 2 0 0 0 0 0 0 5 101 255 132 89 87 106 46 26 40 88 199 255 20 1 0 0 0 0 0 0 0 0 0 0 0 2 38 255 169 76 37 27 55 98 76 84 143 255 64 3 1 8 146 255 117 92 102 96 34 29 55 125 255 163 8 0
0 0 0 0 0 4 75 255 139 64 42 45 63 26 14 21 50 124 255 111 6 0 0 0 0 0 0 0 0 0 0 0 0 0 0 0 0 0 0 0 0 0 0 0 0 0 0 0 0 0 0 0 0 0 0 0 0 0 0 0 0 0 0 0 0 0 0 0 0 0 0 0 0 0 0 0 0 0 0 0 0 0 0 0 0 0 0 2 42 255 179 76 30 15 19 55 47 38 48 96 231 210 11 1 0 0 0 0 0 0 0 0 0 0 7 132 255 121 57 41 47 67 25 14 22 54 138 255 88 4 0 0 0 0 0 0 0 0 0 0 0 0 0 0 0 0 0 0 0 0 0 2 44 255 167 70 28 14 19 58 47 36 46 91 207 255 21 37 255 171 77 45 41 57 38 15 17 37 96 231 255 15 1 0 0 0 0 0 0 0 0 0 0 0 0 0 0 0 0 0 0 0 0 0 0 0 0 0 0 0 0 0 0 0 0 0 0 0 0 0 0 0 0 0 0 0 0 0 0 0 0 0 0 0 0 0 0 0 0 0 0 0 0 0 0 0 0 0 0 0 4 85 255 137 55 23 14 24 65 47 41 57 122 255 115 6 0 0 0 0 0 4 86 255 137 64 44 48 66 27 14 24 50 77 56 27 15 22 61 45 36 49 104 255 183 11 47 255 161 70 42 40 56 34 14 19 40 71 65 35 16 15 41 54 41 48 85 190 255 24 1 0 0 0 0 2 34 255 180 81 48 43 58 32 13 12 13 12 13 34 62 44 42 63 142 255 99 153 255 112 50 36 43 65 27 12 12 12 11 15 45 56 42 46 79 180 255 24 8 131 255 120 57 55 118 246 157 66 54 91 208 255 18 18 255 219 97 48 38 47 58 21 15 28 69 161 255 49 2 0 0 0 0 0 0 0 0 0 1 30 255 188 79 32 15 18 54 52 39 48 90 206 255 17 1 0 2 41 255 175 78 47 44 59 27 13 19 44 109 255 195 10 0 0 0 0 0 0 0 0 0 0 0 0 0 0 9 198 255 112 43 18 14 32 59 43 46 77 176 255 29 1 0 0 0 0 0 0 0 0 0 1 13 255 238 103 50 38 47 62 21 14 25 53 85 63 30 15 19 55 47 39 51 103 238 230 12 1 0 0 0 0 0 0 0 1 14 255 210 90 48 39 52 46 16 15 31 78 185 255 226 255 127 50 21 13 25 62 46 44 66 145 255 60 3 0 0 0 0 6 107 255 127 60 42 46 57 21 14 26 68 171 255 255 189 76 30 15 17 48 46 36 44 86 202 255 20 1 0 0 0 0 2 43 255 159 71 46 45 63 33 14 18 42 110 255 152 7 0 0 0 0 0 0 0 0 0 0 1 16 255 221 91 36 16 15 40 52 38 45 81 185 255 30 4 60 255 140 66 47 55 75 24 14 25 61 148 255 67 4
0 0 0 0 2 35 255 182 77 32 20 21 33 16 7 9 24 64 158 255 47 2 0 0 0 0 0 0 0 0 0 0 0 0 0 0 0 0 0 0 0 0 0 0 0 0 0 0 0 0 0 0 0 0 0 0 0 0 0 0 0 0 0 0 0 0 0 0 0 0 0 0 0 0 0 0 0 0 0 0 0 0 0 0 0 0 1 19 255 229 99 37 14 7 11 33 22 17 24 51 131 255 81 4 0 0 0 0 0 0 0 0 0 3 58 255 155 64 28 19 23 37 15 7 10 26 74 181 255 43 2 0 0 0 0 0 0 0 0 0 0 0 0 0 0 0 0 0 0 0 1 18 255 216 92 34 13 7 12 35 22 16 22 47 117 255 215 255 235 97 40 22 19 26 22 8 7 17 49 131 255 133 6 0 0 0 0 0 0 0 0 0 0 0 0 0 0 0 0 0 0 0 0 0 0 0 0 0 0 0 0 0 0 0 0 0 0 0 0 0 0 0 0 0 0 0 0 0 0 0 0 0 0 0 0 0 0 0 0 0 0 0 0 0 0 0 0 0 0 2 38 255 174 73 26 10 7 15 37 23 19 29 66 162 255 52 3 0 0 0 2 43 255 180 75 33 21 23 35 16 7 10 18 25 20 11 7 13 34 21 17 25 57 146 255 145 255 218 92 37 20 19 26 19 7 8 15 23 22 13 7 8 24 25 19 23 44 109 255 168 8 0 0 0 1 14 255 243 103 43 24 21 28 18 6 4 4 4 7 20 30 20 19 33 79 197 255 255 154 61 25 16 20 34 16 5 4 4 4 8 26 26 19 22 41 106 255 172 78 255 161 66 32 34 81 129 97 44 30 49 119 255 163 157 255 123 50 24 17 22 33 12 7 13 33 88 207 255 21 1 0 0 0 0 0 0 0 1 12 245 253 107 39 14 7 11 34 24 18 24 47 117 255 134 7 1 18 255 229 99 41 23 21 29 16 6 8 20 56 142 255 81 4 0 0 0 0 0 0 0 0 0 0 0 0 4 79 255 146 58 20 8 7 18 28 20 23 41 104 253 238 11 1 0 0 0 0 0 0 0 0 5 107 255 133 54 25 17 22 35 13 6 10 20 28 23 12 7 11 33 22 18 25 54 132 255 86 4 0 0 0 0 0 0 0 5 94 255 120 48 24 18 24 28 9 7 14 39 108 255 255 189 70 24 9 6 15 33 22 21 35 82 191 255 26 1 0 0 2 45 255 161 68 30 19 22 32 12 7 12 35 101 255 255 110 39 14 7 9 27 21 16 22 45 117 255 143 7 0 0 0 1 17 255 213 90 37 22 21 30 20 7 8 20 58 151 255 66 3 0 0 0 0 0 0 0 0 0 6 123 255 128 47 17 7 8 23 24 18 22 43 107 255 255 48 255 194 81 35 23 28 48 16 7 11 29 79 190 255 34
0 0 0 1 16 255 248 108 41 16 9 9 14 7 3 4 11 33 92 215 255 20 1 0 0 0 0 0 0 0 0 0 0 0 0 0 0 0 0 0 0 0 0 0 0 0 0 0 0 0 0 0 0 0 0 0 0 0 0 0 0 0 0 0 0 0 0 0 0 0 0 0 0 0 0 0 0 0 0 0 0 0 0 0 0 0 8 178 255 134 52 18 6 3 6 15 9 7 11 28 76 182 255 38 2 0 0 0 0 0 0 0 1 29 255 209 90 34 14 8 10 16 8 3 4 13 39 105 235 255 19 1 0 0 0 0 0 0 0 0 0 0 0 0 0 0 0 0 0 0 7 133 255 127 49 17 6 3 6 17 10 7 10 24 66 174 255 255 144 54 20 10 8 10 10 4 3 8 25 73 174 255 63 3 0 0 0 0 0 0 0 0 0 0 0 0 0 0 0 0 0 0 0 0 0 0 0 0 0 0 0 0 0 0 0 0 0 0 0 0 0 0 0 0 0 0 0 0 0 0 0 0 0 0 0 0 0 0 0 0 0 0 0 0 0 0 0 0 1 16 255 235 102 38 13 4 3 7 17 10 8 14 36 95 215 255 23 1 0 1 20 255 239 106 40 16 9 10 15 8 3 4 6 7 6 4 3 6 15 9 7 12 31 87 216 255 255 131 51 19 9 8 10 8 3 3 5 7 7 5 3 4 11 10 8 11 23 60 150 255 70 4 0 0 6 114 255 142 57 22 11 9 11 7 3 1 1 1 3 9 12 8 9 16 44 117 253 228 95 33 12 7 9 14 7 2 1 1 2 4 12 10 8 10 22 60 152 255 255 224 94 37 17 21 49 59 52 27 17 27 68 172 255 255 172 68 26 11 7 9 14 6 3 5 16 46 122 255 170 8 0 0 0 0 0 0 0 5 95 255 145 58 20 6 3 6 16 10 8 11 25 66 165 255 61 10 135 255 132 54 21 11 9 12 7 3 3 9 28 80 191 255 41 2 0 0 0 0 0 0 0 0 0 0 2 37 255 188 81 30 10 4 3 8 11 9 10 22 59 147 255 102 5 0 0 0 0 0 0 0 2 51 255 176 74 28 12 7 9 15 6 3 4 6 8 7 4 3 6 15 10 8 12 28 75 177 255 39 2 0 0 0 0 0 2 42 255 169 70 25 11 8 10 13 4 3 6 20 61 145 192 104 38 12 4 3 7 14 9 9 18 44 113 255 216 10 0 1 19 255 217 94 36 15 8 9 13 6 3 6 18 54 112 115 58 20 6 3 4 11 8 7 10 24 66 158 255 60 3 0 0 6 128 255 126 49 19 10 9 12 9 3 4 10 31 87 202 255 31 1 0 0 0 0 0 0 0 3 55 255 168 71 24 8 3 4 10 9 7 10 22 59 149 255 255 255 118 45 18 11 14 25 9 3 5 14 42 112 255 255
0 0 0 7 134 255 149 63 22 8 4 3 4 3 1 2 5 17 53 132 255 162 8 0 0 0 0 0 0 0 0 0 0 0 0 0 0 0 0 0 0 0 0 0 0 0 0 0 0 0 0 0 0 0 0 0 0 0 0 0 0 0 0 0 0 0 0 0 0 0 0 0 0 0 0 0 0 0 0 0 0 0 0 0 0 4 83 255 174 77 28 9 3 1 2 5 3 3 5 15 44 113 246 255 15 1 0 0 0 0 0 1 13 255 255 128 52 18 6 3 4 5 3 1 2 6 21 59 140 255 163 8 0 0 0 0 0 0 0 0 0 0 0 0 0 0 0 0 0 3 58 255 168 74 27 8 2 1 3 6 4 3 5 13 39 105 207 185 88 32 10 4 3 3 3 2 1 4 13 41 103 221 255 32 1 0 0 0 0 0 0 0 0 0 0 0 0 0 0 0 0 0 0 0 0 0 0 0 0 0 0 0 0 0 0 0 0 0 0 0 0 0 0 0 0 0 0 0 0 0 0 0 0 0 0 0 0 0 0 0 0 0 0 0 0 0 0 0 7 141 255 142 58 20 6 2 1 3 6 4 3 7 19 54 131 255 195 9 1 8 178 255 143 61 22 8 4 4 5 3 1 1 2 2 2 1 1 2 5 3 3 6 17 52 125 228 178 80 29 9 4 3 3 3 1 1 2 2 2 1 1 2 3 3 3 5 12 34 91 203 255 34 2 3 51 255 180 82 32 11 5 3 4 2 1 0 0 1 1 3 4 3 3 8 24 63 111 104 54 18 6 3 3 4 3 1 0 0 1 2 4 4 3 4 11 35 98 230 255 135 55 20 9 12 25 25 25 15 9 14 40 107 229 231 107 40 13 5 3 3 5 2 1 2 8 25 71 168 255 74 4 0 0 0 0 0 2 44 255 187 85 32 10 3 1 2 6 4 3 5 13 38 100 216 255 138 255 171 76 30 11 4 3 4 2 1 1 4 15 46 116 248 255 18 1 0 0 0 0 0 0 0 0 1 15 255 249 114 46 15 4 2 1 3 4 3 5 11 34 87 193 255 51 2 0 0 0 0 0 1 24 255 230 106 42 14 5 3 3 5 2 1 1 2 2 2 1 1 2 5 4 3 5 15 42 109 243 255 17 1 0 0 0 1 18 255 234 106 41 13 5 3 3 4 2 1 3 10 32 64 78 51 20 6 2 1 3 4 4 4 8 25 67 159 255 93 5 8 154 255 133 54 19 7 3 3 4 2 1 3 9 26 44 45 27 10 3 1 2 4 3 3 4 12 37 95 209 255 28 1 3 58 255 172 74 27 9 4 3 4 3 1 2 5 16 50 122 255 251 12 1 0 0 0 0 0 1 28 255 221 100 40 12 4 1 2 3 3 3 4 11 34 92 212 255 171 72 26 9 5 6 10 4 2 2 7 22 66 161 255
0 0 3 59 255 188 92 38 12 4 1 1 1 1 0 1 2 9 32 83 178 255 71 3 0 0 0 0 0 0 0 0 0 0 0 0 0 0 0 0 0 0 0 0 0 0 0 0 0 0 0 0 0 0 0 0 0 0 0 0 0 0 0 0 0 0 0 0 0 0 0 0 0 0 0 0 0 0 0 0 0 0 0 0 2 44 255 220 107 46 16 4 1 1 1 1 1 1 2 8 27 70 153 255 136 6 0 0 0 0 0 6 129 255 169 79 31 9 3 1 1 1 1 1 1 3 11 35 86 183 255 73 4 0 0 0 0 0 0 0 0 0 0 0 0 0 0 0 1 28 255 225 107 45 15 4 1 1 1 2 1 1 2 7 23 59 92 85 51 19 5 2 1 1 1 1 1 2 7 24 62 138 255 255 14 1 0 0 0 0 0 0 0 0 0 0 0 0 0 0 0 0 0 0 0 0 0 0 0 0 0 0 0 0 0 0 0 0 0 0 0 0 0 0 0 0 0 0 0 0 0 0 0 0 0 0 0 0 0 0 0 0 0 0 0 0 0 3 66 255 191 89 35 11 3 1 1 1 2 1 1 3 10 33 81 174 255 84 8 79 255 181 87 36 12 4 1 1 1 1 0 0 1 1 1 0 0 1 1 1 1 3 9 31 67 100 85 48 17 5 2 1 1 1 0 0 0 1 1 0 0 1 1 1 1 2 6 20 57 130 255 255 15 25 255 233 113 50 18 5 2 1 1 1 0 0 0 0 0 1 1 1 1 4 12 31 46 44 28 10 3 1 1 1 1 0 0 0 0 1 1 1 1 2 6 22 62 113 127 78 34 11 4 5 10 10 10 6 4 8 25 64 106 107 63 24 7 2 1 1 1 1 1 1 4 14 44 106 215 255 35 2 0 0 0 1 21 255 246 118 52 18 5 1 1 1 2 1 1 2 6 23 62 139 255 255 254 111 46 16 5 2 1 1 1 0 1 2 8 27 71 153 255 149 7 0 0 0 0 0 0 0 0 7 143 255 155 70 27 8 2 1 0 1 1 1 2 6 20 54 121 246 255 26 1 0 0 0 0 10 207 255 145 65 24 7 2 1 1 1 1 0 0 1 1 1 0 0 1 1 1 1 2 7 25 69 154 255 159 7 0 0 0 7 152 255 149 67 25 7 2 1 1 1 1 1 1 5 15 26 30 22 9 3 1 0 1 1 1 2 4 14 42 101 208 255 54 77 255 181 84 33 10 3 1 1 1 1 1 1 4 10 16 16 11 4 1 1 1 1 1 1 2 6 22 59 135 255 239 13 28 255 228 111 47 15 4 2 1 1 1 1 1 2 9 30 75 161 255 100 5 0 0 0 0 1 13 255 255 142 62 23 6 2 1 1 1 1 1 2 6 20 56 108 139 94 45 15 4 2 2 3 2 1 1 3 12 41 101 189
0 1 28 255 236 125 63 25 7 2 1 0 0 0 0 0 1 5 21 58 121 229 255 35 2 0 0 0 0 0 0 0 0 0 0 0 0 0 0 0 0 0 0 0 0 0 0 0 0 0 0 0 0 0 0 0 0 0 0 0 0 0 0 0 0 0 0 0 0 0 0 0 0 0 0 0 0 0 0 0 0 0 0 1 21 255 255 144 72 30 9 2 1 0 0 0 0 0 1 4 17 49 104 206 255 69 3 0 0 0 3 67 255 215 112 55 20 5 1 0 0 0 0 0 0 1 6 22 59 122 230 255 36 2 0 0 0 0 0 0 0 0 0 0 0 0 0 1 12 255 255 152 75 30 8 2 0 0 0 0 0 0 1 3 13 32 41 39 28 10 3 1 0 0 0 0 0 1 3 14 42 91 178 255 130 6 0 0 0 0 0 0 0 0 0 0 0 0 0 0 0 0 0 0 0 0 0 0 0 0 0 0 0 0 0 0 0 0 0 0 0 0 0 0 0 0 0 0 0 0 0 0 0 0 0 0 0 0 0 0 0 0 0 0 0 0 1 33 255 237 128 63 23 6 1 0 0 0 0 0 1 1 5 21 56 117 223 255 131 255 227 119 59 23 6 2 1 0 0 0 0 0 0 0 0 0 0 0 0 0 0 1 5 17 35 44 40 27 9 2 1 0 0 0 0 0 0 0 0 0 0 0 0 0 0 1 3 12 40 89 173 255 165 255 255 156 77 33 10 3 1 0 0 0 0 0 0 0 0 0 0 0 1 2 6 14 18 18 13 4 1 0 0 0 0 0 0 0 0 0 0 0 0 1 3 13 39 55 58 44 20 6 2 2 3 3 3 2 2 4 15 37 49 49 36 14 3 1 0 0 0 0 0 0 2 8 29 72 144 255 255 15 1 0 0 9 193 255 164 81 35 10 2 1 0 0 0 0 0 1 3 14 44 99 191 252 160 80 32 9 2 1 0 0 0 0 0 1 4 17 49 102 196 255 70 3 0 0 0 0 0 0 3 73 255 205 105 49 16 4 1 0 0 0 0 0 1 3 11 37 82 162 255 248 11 0 0 0 4 94 255 185 97 45 15 4 1 0 0 0 0 0 0 0 0 0 0 0 0 0 0 0 1 4 16 49 105 200 255 75 4 0 3 73 255 197 102 48 15 4 1 0 0 0 0 0 1 2 6 10 11 8 4 1 0 0 0 0 0 1 2 8 28 70 139 255 255 255 239 123 60 21 5 1 0 0 0 0 0 0 1 4 5 5 4 2 0 0 0 0 0 0 1 3 13 41 92 181 255 146 255 255 153 77 32 9 2 1 0 0 0 0 0 1 5 18 52 108 208 255 48 2 0 0 0 6 132 255 186 96 43 13 3 1 0 0 0 0 0 1 3 12 35 54 62 51 28 8 2 1 1 1 0 0 0 2 7 27 63 92
1 12 254 255 163 94 51 17 4 1 0 0 0 0 0 0 1 3 14 49 93 158 255 255 15 1 0 0 0 0 0 0 0 0 0 0 0 0 0 0 0 0 0 0 0 0 0 0 0 0 0 0 0 0 0 0 0 0 0 0 0 0 0 0 0 0 0 0 0 0 0 0 0 0 0 0 0 0 0 0 0 0 0 9 198 255 177 103 59 21 5 1 0 0 0 0 0 0 1 2 11 41 84 144 251 255 38 2 0 2 36 255 255 147 86 45 13 3 1 0 0 0 0 0 0 1 3 15 49 92 158 255 255 17 1 0 0 0 0 0 0 0 0 0 0 0 0 6 116 255 194 112 64 22 5 1 0 0 0 0 0 0 0 2 6 15 18 17 14 5 1 0 0 0 0 0 0 0 2 8 33 72 124 215 255 62 3 0 0 0 0 0 0 0 0 0 0 0 0 0 0 0 0 0 0 0 0 0 0 0 0 0 0 0 0 0 0 0 0 0 0 0 0 0 0 0 0 0 0 0 0 0 0 0 0 0 0 0 0 0 0 0 0 0 0 1 16 255 255 161 95 53 16 3 1 0 0 0 0 0 0 1 3 14 47 90 157 255 255 255 159 90 48 15 3 1 0 0 0 0 0 0 0 0 0 0 0 0 0 0 0 1 2 8 17 19 18 14 4 1 0 0 0 0 0 0 0 0 0 0 0 0 0 0 0 0 2 7 31 73 125 227 255 255 207 115 65 24 6 1 0 0 0 0 0 0 0 0 0 0 0 0 0 1 2 5 6 6 5 2 1 0 0 0 0 0 0 0 0 0 0 0 0 0 2 7 23 27 27 24 11 3 1 1 1 1 1 1 1 2 7 20 23 23 19 7 2 0 0 0 0 0 0 0 1 5 21 60 105 183 255 146 7 0 4 88 255 203 118 68 26 6 1 0 0 0 0 0 0 0 2 9 36 80 109 125 101 68 24 5 1 0 0 0 0 0 0 0 2 10 39 80 138 245 255 38 2 0 0 0 0 2 41 255 251 143 84 40 10 2 0 0 0 0 0 0 0 1 7 28 67 114 196 255 107 5 0 2 51 255 232 130 76 36 9 2 0 0 0 0 0 0 0 0 0 0 0 0 0 0 0 0 0 2 10 41 83 139 242 255 40 4 41 255 246 139 83 40 10 2 0 0 0 0 0 0 0 1 2 3 3 3 1 0 0 0 0 0 0 0 1 4 20 59 104 187 255 255 169 96 51 15 3 1 0 0 0 0 0 0 0 1 2 2 1 1 0 0 0 0 0 0 0 2 8 33 76 130 237 255 255 198 112 65 24 5 1 0 0 0 0 0 0 1 2 12 42 85 147 255 255 23 1 0 3 66 255 221 129 77 36 8 2 0 0 0 0 0 0 0 1 6 20 28 29 27 16 4 1 0 0 0 0 0 0 1 4 18 42 47
6 115 255 197 122 90 54 12 2 0 0 0 0 0 0 0 0 2 10 53 92 120 188 255 151 7 0 0 0 0 0 0 0 0 0 0 0 0 0 0 0 0 0 0 0 0 0 0 0 0 0 0 0 0 0 0 0 0 0 0 0 0 0 0 0 0 0 0 0 0 0 0 0 0 0 0 0 0 0 0 0 0 4 90 255 207 127 92 63 17 3 1 0 0 0 0 0 0 0 1 8 42 90 113 170 255 255 19 2 19 255 255 171 112 86 45 9 2 0 0 0 0 0 0 0 0 2 11 53 89 119 189 255 168 8 0 0 0 0 0 0 0 0 0 0 0 3 56 255 224 138 100 73 18 3 1 0 0 0 0 0 0 0 1 2 6 7 7 5 2 1 0 0 0 0 0 0 0 1 5 30 76 102 150 252 255 32 1 0 0 0 0 0 0 0 0 0 0 0 0 0 0 0 0 0 0 0 0 0 0 0 0 0 0 0 0 0 0 0 0 0 0 0 0 0 0 0 0 0 0 0 0 0 0 0 0 0 0 0 0 0 0 0 0 0 7 163 255 195 120 90 57 12 2 0 0 0 0 0 0 0 0 2 10 51 91 124 193 255 195 125 89 51 11 2 0 0 0 0 0 0 0 0 0 0 0 0 0 0 0 0 0 1 3 7 8 7 5 2 0 0 0 0 0 0 0 0 0 0 0 0 0 0 0 0 0 1 5 28 80 107 160 255 240 150 103 74 20 4 1 0 0 0 0 0 0 0 0 0 0 0 0 0 0 1 2 2 2 1 1 0 0 0 0 0 0 0 0 0 0 0 0 0 0 1 3 10 12 12 11 5 1 0 0 0 0 0 0 0 1 3 8 10 10 8 3 1 0 0 0 0 0 0 0 1 3 16 65 96 133 219 255 71 6 47 255 237 143 101 76 22 4 1 0 0 0 0 0 0 0 1 6 34 80 69 68 72 73 21 4 1 0 0 0 0 0 0 0 1 7 37 83 110 169 255 255 18 1 0 0 1 21 255 255 170 112 86 40 7 1 0 0 0 0 0 0 0 1 4 24 74 97 137 226 255 53 4 26 255 255 161 107 80 33 6 1 0 0 0 0 0 0 0 0 0 0 0 0 0 0 0 0 0 1 7 40 86 110 166 255 255 47 255 255 169 112 88 40 7 1 0 0 0 0 0 0 0 0 1 1 1 1 0 0 0 0 0 0 0 0 1 3 16 65 99 131 181 173 126 96 56 11 2 0 0 0 0 0 0 0 0 0 0 0 0 0 0 0 0 0 0 0 0 1 5 32 83 110 164 255 240 146 102 73 20 3 1 0 0 0 0 0 0 0 1 8 43 87 115 179 255 208 10 2 36 255 255 151 104 80 35 6 1 0 0 0 0 0 0 0 1 3 9 13 13 13 7 2 0 0 0 0 0 0 0 0 2 10 27 25
67 255 231 144 116 135 95 12 2 0 0 0 0 0 0 0 0 1 11 92 137 116 139 224 255 77 4 0 0 0 0 0 0 0 0 0 0 0 0 0 0 0 0 0 0 0 0 0 0 0 0 0 0 0 0 0 0 0 0 0 0 0 0 0 0 0 0 0 0 0 0 0 0 0 0 0 0 0 0 0 0 2 48 255 240 147 113 122 120 17 2 0 0 0 0 0 0 0 0 1 8 66 152 118 128 194 255 206 19 213 255 196 127 113 138 69 9 1 0 0 0 0 0 0 0 0 1 12 97 131 115 138 220 255 82 4 0 0 0 0 0 0 0 0 0 1 27 255 255 157 117 129 147 21 3 0 0 0 0 0 0 0 0 0 1 2 2 2 2 1 0 0 0 0 0 0 0 0 1 5 36 135 117 120 174 255 255 16 1 0 0 0 0 0 0 0 0 0 0 0 0 0 0 0 0 0 0 0 0 0 0 0 0 0 0 0 0 0 0 0 0 0 0 0 0 0 0 0 0 0 0 0 0 0 0 0 0 0 0 0 0 0 0 0 4 80 255 222 141 116 130 101 13 2 0 0 0 0 0 0 0 0 1 11 94 142 121 122 136 122 119 140 93 11 1 0 0 0 0 0 0 0 0 0 0 0 0 0 0 0 0 0 0 1 2 3 2 2 1 0 0 0 0 0 0 0 0 0 0 0 0 0 0 0 0 0 1 4 33 147 129 121 138 133 120 132 156 24 3 0 0 0 0 0 0 0 0 0 0 0 0 0 0 0 0 0 1 1 0 0 0 0 0 0 0 0 0 0 0 0 0 0 0 0 0 1 4 5 4 4 2 1 0 0 0 0 0 0 0 0 1 3 3 3 3 1 0 0 0 0 0 0 0 0 0 2 17 122 130 117 155 251 255 78 255 255 166 118 123 149 26 3 0 0 0 0 0 0 0 0 1 5 40 118 58 45 69 123 24 3 0 0 0 0 0 0 0 0 1 6 49 142 118 128 192 255 168 8 0 0 9 212 255 191 127 117 139 59 7 1 0 0 0 0 0 0 0 1 3 27 142 121 115 159 255 255 43 255 255 182 124 120 136 42 5 1 0 0 0 0 0 0 0 0 0 0 0 0 0 0 0 0 0 1 7 57 139 118 126 192 255 255 255 194 128 121 149 59 7 1 0 0 0 0 0 0 0 0 0 0 0 0 0 0 0 0 0 0 0 0 0 2 17 123 138 107 100 100 112 144 104 12 1 0 0 0 0 0 0 0 0 0 0 0 0 0 0 0 0 0 0 0 0 1 5 42 148 127 122 140 134 121 134 140 22 3 0 0 0 0 0 0 0 0 1 8 69 142 118 134 207 255 93 23 255 255 175 119 116 132 48 6 1 0 0 0 0 0 0 0 0 1 3 5 5 5 3 1 0 0 0 0 0 0 0 0 1 5 14 13
255 255 160 124 165 255 255 33 2 0 0 0 0 0 0 0 0 2 30 255 255 170 124 156 250 255 42 2 0 0 0 0 0 0 0 0 0 0 0 0 0 0 0 0 0 0 0 0 0 0 0 0 0 0 0 0 0 0 0 0 0 0 0 0 0 0 0 0 0 0 0 0 0 0 0 0 0 0 0 0 1 24 255 255 164 121 149 252 255 47 3 0 0 0 0 0 0 0 0 1 19 255 255 187 123 137 214 255 255 255 217 138 120 180 255 255 21 2 0 0 0 0 0 0 0 0 2 35 255 255 168 122 152 244 255 44 2 0 0 0 0 0 0 0 1 12 255 255 175 124 141 239 255 59 4 0 0 0 0 0 0 0 0 0 0 1 1 1 0 0 0 0 0 0 0 0 0 0 1 8 109 255 214 130 131 197 255 162 7 0 0 0 0 0 0 0 0 0 0 0 0 0 0 0 0 0 0 0 0 0 0 0 0 0 0 0 0 0 0 0 0 0 0 0 0 0 0 0 0 0 0 0 0 0 0 0 0 0 0 0 0 0 0 2 43 255 246 152 121 167 255 255 34 2 0 0 0 0 0 0 0 0 2 33 255 255 168 92 78 91 164 255 255 33 2 0 0 0 0 0 0 0 0 0 0 0 0 0 0 0 0 0 0 0 1 1 1 0 0 0 0 0 0 0 0 0 0 0 0 0 0 0 0 0 0 0 1 7 89 255 220 117 82 84 126 238 255 73 5 0 0 0 0 0 0 0 0 0 0 0 0 0 0 0 0 0 0 0 0 0 0 0 0 0 0 0 0 0 0 0 0 0 0 0 0 0 1 1 1 1 1 0 0 0 0 0 0 0 0 0 0 1 1 1 1 0 0 0 0 0 0 0 0 0 0 3 44 255 252 148 124 171 255 255 255 187 127 136 227 255 74 5 0 0 0 0 0 0 0 0 1 8 94 238 90 48 130 255 55 4 0 0 0 0 0 0 0 0 1 12 167 255 195 124 137 213 255 79 4 5 102 255 210 135 121 185 255 227 16 1 0 0 0 0 0 0 0 1 5 75 255 237 138 124 178 255 255 255 206 133 126 206 255 129 9 1 0 0 0 0 0 0 0 0 0 0 0 0 0 0 0 0 0 1 15 206 255 193 125 142 228 255 225 141 126 197 255 224 16 1 0 0 0 0 0 0 0 0 0 0 0 0 0 0 0 0 0 0 0 0 0 3 47 255 252 125 68 72 144 255 255 36 2 0 0 0 0 0 0 0 0 0 0 0 0 0 0 0 0 0 0 0 0 1 10 146 255 209 113 83 85 133 243 255 59 4 0 0 0 0 0 0 0 0 1 21 255 255 183 124 146 233 255 255 255 192 129 127 205 255 183 12 1 0 0 0 0 0 0 0 0 0 1 2 2 1 1 0 0 0 0 0 0 0 0 0 1 2 5 5
255 167 111 128 221 255 255 209 11 1 0 0 0 0 0 0 1 9 171 255 252 225 133 108 151 255 255 22 1 0 0 0 0 0 0 0 0 0 0 0 0 0 0 0 0 0 0 0 0 0 0 0 0 0 0 0 0 0 0 0 0 0 0 0 0 0 0 0 0 0 0 0 0 0 0 0 0 0 0 0 10 218 255 165 110 119 216 255 249 255 18 1 0 0 0 0 0 0 0 6 108 255 247 232 148 104 135 244 255 244 136 103 145 239 255 255 118 6 0 0 0 0 0 0 0 1 13 251 255 255 229 131 106 149 255 255 21 1 0 0 0 0 0 0 5 110 255 181 115 113 194 242 230 255 23 1 0 0 0 0 0 0 0 0 0 0 0 0 0 0 0 0 0 0 0 0 0 0 2 47 255 255 250 174 108 124 199 255 73 4 0 0 0 0 0 0 0 0 0 0 0 0 0 0 0 0 0 0 0 0 0 0 0 0 0 0 0 0 0 0 0 0 0 0 0 0 0 0 0 0 0 0 0 0 0 0 0 0 0 0 0 0 1 20 255 255 150 105 127 226 255 255 216 11 1 0 0 0 0 0 0 1 11 223 255 250 213 93 54 90 213 253 255 225 11 1 0 0 0 0 0 0 0 0 0 0 0 0 0 0 0 0 0 0 0 0 0 0 0 0 0 0 0 0 0 0 0 0 0 0 0 0 0 0 0 0 2 36 255 236 231 142 60 66 163 234 232 255 32 2 0 0 0 0 0 0 0 0 0 0 0 0 0 0 0 0 0 0 0 0 0 0 0 0 0 0 0 0 0 0 0 0 0 0 0 0 0 0 0 0 0 0 0 0 0 0 0 0 0 0 0 0 0 0 0 0 0 0 0 0 0 0 0 0 1 15 255 242 249 203 116 116 183 255 197 123 111 186 244 235 255 31 2 0 0 0 0 0 0 0 2 35 255 244 255 148 255 238 255 21 1 0 0 0 0 0 0 0 4 66 255 252 237 149 104 132 223 255 45 57 255 218 129 102 146 234 254 255 99 5 0 0 0 0 0 0 0 2 31 255 242 252 197 112 119 197 255 229 132 106 158 241 253 255 53 3 0 0 0 0 0 0 0 0 0 0 0 0 0 0 0 0 0 5 82 255 254 239 154 108 124 152 123 107 152 233 248 255 85 5 0 0 0 0 0 0 0 0 0 0 0 0 0 0 0 0 0 0 0 0 1 17 255 242 239 184 68 77 201 241 255 235 12 1 0 0 0 0 0 0 0 0 0 0 0 0 0 0 0 0 0 0 0 3 59 255 246 229 135 59 69 170 236 233 255 23 1 0 0 0 0 0 0 0 7 128 255 255 230 141 107 149 255 255 211 123 105 170 249 255 255 72 4 0 0 0 0 0 0 0 0 0 0 0 0 0 0 0 0 0 0 0 0 0 0 0 0 1 2 2
136 90 77 126 168 155 172 255 85 4 0 0 0 0 0 0 4 70 255 171 156 168 133 76 83 146 255 213 10 0 0 0 0 0 0 0 0 0 0 0 0 0 0 0 0 0 0 0 0 0 0 0 0 0 0 0 0 0 0 0 0 0 0 0 0 0 0 0 0 0 0 0 0 0 0 0 0 0 0 4 88 255 161 90 73 119 177 161 169 255 147 7 0 0 0 0 0 0 2 46 255 180 155 164 151 82 78 119 164 118 78 81 153 172 161 184 255 53 3 0 0 0 0 0 0 5 97 255 173 158 171 133 75 82 143 255 179 9 0 0 0 0 0 2 49 255 182 99 73 108 168 154 160 255 181 9 0 0 0 0 0 0 0 0 0 0 0 0 0 0 0 0 0 0 0 0 0 1 20 255 228 169 166 167 93 73 108 202 255 34 2 0 0 0 0 0 0 0 0 0 0 0 0 0 0 0 0 0 0 0 0 0 0 0 0 0 0 0 0 0 0 0 0 0 0 0 0 0 0 0 0 0 0 0 0 0 0 0 0 0 0 0 8 169 255 142 82 74 128 170 158 171 255 86 4 0 0 0 0 0 0 5 90 255 170 151 158 106 49 104 160 152 170 255 95 5 0 0 0 0 0 0 0 0 0 0 0 0 0 0 0 0 0 0 0 0 0 0 0 0 0 0 0 0 0 0 0 0 0 0 0 0 0 0 0 1 14 255 237 160 150 143 57 67 153 147 157 253 255 13 1 0 0 0 0 0 0 0 0 0 0 0 0 0 0 0 0 0 0 0 0 0 0 0 0 0 0 0 0 0 0 0 0 0 0 0 0 0 0 0 0 0 0 0 0 0 0 0 0 0 0 0 0 0 0 0 0 0 0 0 0 0 0 0 6 109 255 165 155 168 112 75 89 114 92 74 101 168 158 162 253 239 12 1 0 0 0 0 0 1 12 245 236 190 255 255 233 185 255 165 8 0 0 0 0 0 0 1 30 255 203 162 164 150 82 76 124 246 255 255 230 120 74 81 152 168 162 195 255 47 2 0 0 0 0 0 1 11 226 252 164 160 174 107 76 98 134 107 77 88 156 163 166 218 255 24 1 0 0 0 0 0 0 0 0 0 0 0 0 0 0 0 2 38 255 194 163 167 155 82 61 62 61 81 150 162 157 187 255 36 2 0 0 0 0 0 0 0 0 0 0 0 0 0 0 0 0 0 0 0 6 129 255 165 150 172 101 114 167 150 168 255 99 5 0 0 0 0 0 0 0 0 0 0 0 0 0 0 0 0 0 0 1 26 255 209 160 153 141 55 68 153 148 161 255 164 8 0 0 0 0 0 0 3 53 255 181 157 165 141 80 86 137 170 110 74 92 169 170 168 201 255 31 1 0 0 0 0 0 0 0 0 0 0 0 0 0 0 0 0 0 0 0 0 0 0 0 0 0 1
52 43 52 99 96 83 101 183 255 41 2 0 0 0 0 2 34 255 190 102 84 96 102 53 44 74 158 255 87 4 0 0 0 0 0 0 0 0 0 0 0 0 0 0 0 0 0 0 0 0 0 0 0 0 0 0 0 0 0 0 0 0 0 0 0 0 0 0 0 0 0 0 0 0 0 0 0 0 2 41 255 179 84 46 49 100 104 87 98 167 255 67 3 0 0 0 0 1 19 255 210 108 84 93 111 64 42 50 61 50 41 64 115 97 86 110 210 255 25 1 0 0 0 0 2 43 255 174 100 84 97 104 53 43 73 155 255 74 4 0 0 0 1 21 255 209 98 51 46 90 103 85 94 157 255 76 4 0 0 0 0 0 0 0 0 0 0 0 0 0 0 0 0 0 0 0 0 7 148 255 134 93 92 110 76 43 54 110 241 255 15 1 0 0 0 0 0 0 0 0 0 0 0 0 0 0 0 0 0 0 0 0 0 0 0 0 0 0 0 0 0 0 0 0 0 0 0 0 0 0 0 0 0 0 0 0 0 0 0 0 0 4 75 255 157 73 43 52 102 97 84 102 181 255 41 2 0 0 0 0 2 42 255 179 98 80 91 109 62 109 93 80 98 182 255 46 2 0 0 0 0 0 0 0 0 0 0 0 0 0 0 0 0 0 0 0 0 0 0 0 0 0 0 0 0 0 0 0 0 0 0 0 0 0 0 6 111 255 141 91 85 105 64 77 102 81 90 146 255 107 5 0 0 0 0 0 0 0 0 0 0 0 0 0 0 0 0 0 0 0 0 0 0 0 0 0 0 0 0 0 0 0 0 0 0 0 0 0 0 0 0 0 0 0 0 0 0 0 0 0 0 0 0 0 0 0 0 0 0 0 0 0 0 2 53 255 171 98 84 100 91 47 38 42 38 43 83 106 88 94 146 255 96 5 0 0 0 0 0 5 97 255 146 122 166 208 143 119 165 255 70 3 0 0 0 0 1 12 252 252 122 89 92 108 64 43 64 140 255 255 130 61 42 64 113 96 89 116 219 255 19 1 0 0 0 0 4 84 255 144 93 88 107 90 46 43 49 44 42 71 109 91 92 131 255 210 10 0 0 0 0 0 0 0 0 0 0 0 0 0 0 1 16 255 233 118 89 94 109 60 29 24 29 59 106 91 85 113 227 255 14 1 0 0 0 0 0 0 0 0 0 0 0 0 0 0 0 0 0 3 55 255 164 97 85 117 179 175 107 83 99 180 255 47 2 0 0 0 0 0 0 0 0 0 0 0 0 0 0 0 0 0 9 188 255 124 88 87 108 61 74 98 82 94 154 255 70 3 0 0 0 0 1 22 255 201 106 84 93 105 59 45 56 64 49 43 76 113 94 90 119 241 232 12 1 0 0 0 0 0 0 0 0 0 0 0 0 0 0 0 0 0 0 0 0 0 0 0 0 0
18 19 33 63 49 41 55 106 233 255 18 1 0 0 1 15 255 249 112 56 42 49 64 35 23 36 83 184 255 41 2 0 0 0 0 0 0 0 0 0 0 0 0 0 0 0 0 0 0 0 0 0 0 0 0 0 0 0 0 0 0 0 0 0 0 0 0 0 0 0 0 0 0 0 0 0 0 1 18 255 230 100 42 24 32 68 54 43 53 94 203 255 33 1 0 0 0 7 139 255 124 59 42 48 66 46 22 19 21 19 21 47 69 50 44 60 123 255 237 11 0 0 0 1 19 255 221 99 53 41 50 66 36 23 36 83 190 255 36 2 0 0 8 151 255 120 49 26 29 64 56 43 52 89 191 255 35 2 0 0 0 0 0 0 0 0 0 0 0 0 0 0 0 0 0 0 3 64 255 155 73 48 47 60 55 25 27 56 138 255 139 6 0 0 0 0 0 0 0 0 0 0 0 0 0 0 0 0 0 0 0 0 0 0 0 0 0 0 0 0 0 0 0 0 0 0 0 0 0 0 0 0 0 0 0 0 0 0 0 0 2 38 255 196 85 36 22 36 66 50 42 55 105 232 255 18 1 0 0 1 18 255 228 103 53 40 52 101 109 104 53 40 53 104 226 255 21 1 0 0 0 0 0 0 0 0 0 0 0 0 0 0 0 0 0 0 0 0 0 0 0 0 0 0 0 0 0 0 0 0 0 0 0 0 2 50 255 171 80 49 45 66 83 99 61 42 48 81 173 255 48 2 0 0 0 0 0 0 0 0 0 0 0 0 0 0 0 0 0 0 0 0 0 0 0 0 0 0 0 0 0 0 0 0 0 0 0 0 0 0 0 0 0 0 0 0 0 0 0 0 0 0 0 0 0 0 0 0 0 0 0 0 1 26 255 219 100 54 43 53 62 28 16 14 15 24 59 57 45 50 82 177 255 46 2 0 0 0 2 45 255 176 87 70 83 94 75 69 95 194 255 32 1 0 0 0 5 102 255 144 68 46 48 64 47 24 32 73 144 137 67 30 24 48 68 50 45 62 125 255 149 7 0 0 0 2 37 255 174 81 49 44 57 64 28 17 17 17 22 52 63 47 47 72 153 255 93 4 0 0 0 0 0 0 0 0 0 0 0 0 0 6 130 255 135 65 45 48 62 40 14 9 14 39 61 47 43 62 132 255 108 5 0 0 0 0 0 0 0 0 0 0 0 0 0 0 0 0 1 23 255 203 94 53 47 84 204 186 74 45 54 103 222 255 20 1 0 0 0 0 0 0 0 0 0 0 0 0 0 0 0 4 77 255 145 68 45 46 70 79 85 57 42 51 89 195 255 34 2 0 0 0 8 161 255 117 57 42 48 64 41 22 21 22 20 25 57 63 48 45 65 138 255 95 5 0 0 0 0 0 0 0 0 0 0 0 0 0 0 0 0 0 0 0 0 0 0 0 0 0
