P3
320 240
256
0 0 0 0 0 0 0 0 0 0 0 0 0 0 0 0 0 0 0 0 0 0 0 0 0 0 0 0 0 0 0 0 0 0 0 0 0 0 0 0 0 0 0 0 0 0 0 0 0 0 0 0 0 0 0 0 0 0 0 0 0 0 0 0 0 0 0 0 0 0 0 0 0 0 0 0 0 0 0 0 0 0 0 0 0 0 0 0 0 0 0 0 0 0 0 0 0 0 0 0 0 0 0 0 0 0 0 0 0 0 0 0 0 0 0 0 0 0 0 0 0 0 0 0 0 0 0 0 0 0 0 0 0 0 0 0 0 0 0 0 0 0 0 0 0 0 0 0 0 0 0 0 0 0 0 0 0 0 0 0 0 0 0 0 0 0 0 0 0 0 0 0 0 0 0 0 0 0 0 0 0 0 0 0 0 0 0 0 0 0 0 0 0 0 0 0 0 0 0 0 0 0 0 0 0 0 0 0 0 0 0 0 0 0 0 0 0 0 0 0 0 0 0 0 0 0 0 0 0 0 0 0 0 0 0 0 0 0 0 0 0 0 0 0 0 0 0 0 0 0 0 0 0 0 0 0 0 0 0 0 0 0 0 0 0 0 0 0 0 0 0 0 0 0 0 0 0 0 0 0 0 0 0 0 0 0 0 0 0 0 0 0 0 0 0 0 0 0 0 0 0 0 0 0 0 0 0 0 0 0 0 0 0 0 0 0 0 0 0 0 0 0 0 0 0 0 0 0 0 0 0 0 0 0 0 0 0 0 0 0 0 0 0 0 0 0 0 0 0 0 0 0 0 0 0 0 0 0 0 0 0 0 0 0 0 0 0 0 0 0 0 0 0 0 0 0 0 0 0 0 0 0 0 0 0 0 0 0 0 0 0 0 0 0 0 0 0 0 0 0 0 0 0 0 0 0 0 0 0 0 0 0 0 0 0 0 0 0 0 0 0 0 0 0 0 0 0 0 0 0 0 0 0 0 0 0 0 0 0 0 0 0 0 0 0 0 0 0 0 0 0 0 0 0 0 0 0 0 0 0 0 0 0 0 0 0 0 0 0 0 0 0 0 0 0 0 0 0 0 0 0 0 0 0 0 0 0 0 0 0 0 0 0 0 0 0 0 0 0 0 0 0 0 0 0 0 0 0 0 0 0 0 0 0 0 0 0 0 0 0 0 0 0 0 0 0 0 0 0 0 0 0 0 0 0 0 0 0 0 0 0 0 0 0 0 0 0 0 0 0 0 0 0 0 0 0 0 0 0 0 0 0 0 0 0 0 0 0 0 0 0 0 0 0 0 0 0 0 0 0 0 0 0 0 0 0 0 0 0 0 0 0 0 0 0 0 0 0 0 0 0 0 0 0 0 0 0 0 0 0 0 0 0 0 0 0 0 0 0 0 0 0 0 0 0 0 0 0 0 0 0 0 0 0 0 0 0 0 0 0 0 0 0 0 0 0 0 0 0 0 0 0 0 0 0 0 0 0 0 0 0 0 0 0 0 0 0 0 0 0 0 0 0 0 0 0 0 0 0 0 0 0 0 0 0 0 0 0 0 0 0 0 0 0 0 0 0 0 0 0 0 0 0 0 0 0 0 0 0 0 0 0 0 0 0 0 0 0 0 0 0 0 0 0 0 0 0 0 0 0 0 0 0 0 0 0 0 0 0 0 0 0 0 0 0 0 0 0 0 0 0 0 0 0 0 0 0 0 0 0 0 0 0 0 0 0 0 0 0 0 0 0 0 0 0 0 0 0 0 0 0 0 0 0 0 0 0 0 0 0 0 0 0 0 0 0 0 0 0 0 0 0 0 0 0 0 0 0 0 0 0 0 0 0 0 0 0 0 0 0 0 0 0 0 0 0 0 0 0 0 0 0 0 0 0 0 0 0 0 0 0 0 0 0 0 0 0 0 0 0 0 0 0 0 0 0 0 0 0 0 0 0 0 0 0 0 0 0 0 0 0 0 0 0 0 0 0 0 0 0 0 0 0 0 0 0 0 0 0 0 0 0 0 0 0 0 0 0 0 0 0 0 0 0 0 0 0 0 0 0 0 0 0 0 0 0 0 0 0 0 0 0 0 0 0 0 0 0 0 0 0 0 0 0 0 0 0 0 0 0 0 0 0 0 0 0 0 0 0 0 0 0 0 0 0 0 0 0 0 0
0 0 0 0 0 0 0 0 0 0 0 0 0 0 0 0 0 0 0 0 0 0 0 0 0 0 0 0 0 0 0 0 0 0 0 0 0 0 0 0 0 0 0 0 0 0 0 0 0 0 0 0 0 0 0 0 0 0 0 0 0 0 0 0 0 0 0 0 0 0 0 0 0 0 0 0 0 0 0 0 0 0 0 0 0 0 0 0 0 0 0 0 0 0 0 0 0 0 0 0 0 0 0 0 0 0 0 0 0 0 0 0 0 0 0 0 0 0 0 0 0 0 0 0 0 0 0 0 0 0 0 0 0 0 0 0 0 0 0 0 0 0 0 0 0 0 0 0 0 0 0 0 0 0 0 0 0 0 0 0 0 0 0 0 0 0 0 0 0 0 0 0 0 0 0 0 0 0 0 0 0 0 0 0 0 0 0 0 0 0 0 0 0 0 0 0 0 0 0 0 0 0 0 0 0 0 0 0 0 0 0 0 0 0 0 0 0 0 0 0 0 0 0 0 0 0 0 0 0 0 0 0 0 0 0 0 0 0 0 0 0 0 0 0 0 0 0 0 0 0 0 0 0 0 0 0 0 0 0 0 0 0 0 0 0 0 0 0 0 0 0 0 0 0 0 0 0 0 0 0 0 0 0 0 0 0 0 0 0 0 0 0 0 0 0 0 0 0 0 0 0 0 0 0 0 0 0 0 0 0 0 0 0 0 0 0 0 0 0 0 0 0 0 0 0 0 0 0 0 0 0 0 0 0 0 0 0 0 0 0 0 0 0 0 0 0 0 0 0 0 0 0 0 0 0 0 0 0 0 0 0 0 0 0 0 0 0 0 0 0 0 0 0 0 0 0 0 0 0 0 0 0 0 0 0 0 0 0 0 0 0 0 0 0 0 0 0 0 0 0 0 0 0 0 0 0 0 0 0 0 0 0 0 0 0 0 0 0 0 0 0 0 0 0 0 0 0 0 0 0 0 0 0 0 0 0 0 0 0 0 0 0 0 0 0 0 0 0 0 0 0 0 0 0 0 0 0 0 0 0 0 0 0 0 0 0 0 0 0 0 0 0 0 0 0 0 0 0 0 0 0 0 0 0 0 0 0 0 0 0 0 0 0 0 0 0 0 0 0 0 0 0 0 0 0 0 0 0 0 0 0 0 0 0 0 0 0 0 0 0 0 0 0 0 0 0 0 0 0 0 0 0 0 0 0 0 0 0 0 0 0 0 0 0 0 0 0 0 0 0 0 0 0 0 0 0 0 0 0 0 0 0 0 0 0 0 0 0 0 0 0 0 0 0 0 0 0 0 0 0 0 0 0 0 0 0 0 0 0 0 0 0 0 0 0 0 0 0 0 0 0 0 0 0 0 0 0 0 0 0 0 0 0 0 0 0 0 0 0 0 0 0 0 0 0 0 0 0 0 0 0 0 0 0 0 0 0 0 0 0 0 0 0 0 0 0 0 0 0 0 0 0 0 0 0 0 0 0 0 0 0 0 0 0 0 0 0 0 0 0 0 0 0 0 0 0 0 0 0 0 0 0 0 0 0 0 0 0 0 0 0 0 0 0 0 0 0 0 0 0 0 0 0 0 0 0 0 0 0 0 0 0 0 0 0 0 0 0 0 0 0 0 0 0 0 0 0 0 0 0 0 0 0 0 0 0 0 0 0 0 0 0 0 0 0 0 0 0 0 0 0 0 0 0 0 0 0 0 0 0 0 0 0 0 0 0 0 0 0 0 0 0 0 0 0 0 0 0 0 0 0 0 0 0 0 0 0 0 0 0 0 0 0 0 0 0 0 0 0 0 0 0 0 0 0 0 0 0 0 0 0 0 0 0 0 0 0 0 0 0 0 0 0 0 0 0 0 0 0 0 0 0 0 0 0 0 0 0 0 0 0 0 0 0 0 0 0 0 0 0 0 0 0 0 0 0 0 0 0 0 0 0 0 0 0 0 0 0 0 0 0 0 0 0 0 0 0 0 0 0 0 0 0 0 0 0 0 0 0 0 0 0 0 0 0 0 0 0 0 0 0 0 0 0 0 0 0 0 0 0 0 0 0 0 0 0 0 0 0 0 0 0 0 0 0 0 0 0 0 0 0 0 0 0 0 0 0 0 0 0 0 0 0 0 0 0 0 0 0 0 0 0 0 0 0 0 0 0 0 0
0 0 0 0 0 0 0 0 0 0 0 0 0 0 0 0 0 0 0 0 0 0 0 0 0 0 0 0 0 0 0 0 0 0 0 0 0 0 0 0 0 0 0 0 0 0 0 0 0 0 0 0 0 0 0 0 0 0 0 0 0 0 0 0 0 0 0 0 0 0 0 0 0 0 0 0 0 0 0 0 0 0 0 0 0 0 0 0 0 0 0 0 0 0 0 0 0 0 0 0 0 0 0 0 0 0 0 0 0 0 0 0 0 0 0 0 0 0 0 0 0 0 0 0 0 0 0 0 0 0 0 0 0 0 0 0 0 0 0 0 0 0 0 0 0 0 0 0 0 0 0 0 0 0 0 0 0 0 0 0 0 0 0 0 0 0 0 0 0 0 0 0 0 0 0 0 0 0 0 0 0 0 0 0 0 0 0 0 0 0 0 0 0 0 0 0 0 0 0 0 0 0 0 0 0 0 0 0 0 0 0 0 0 0 0 0 0 0 0 0 0 0 0 0 0 0 0 0 0 0 0 0 0 0 0 0 0 0 0 0 0 0 0 0 0 0 0 0 0 0 0 0 0 0 0 0 0 0 0 0 0 0 0 0 0 0 0 0 0 0 0 0 0 0 0 0 0 0 0 0 0 0 0 0 0 0 0 0 0 0 0 0 0 0 0 0 0 0 0 0 0 0 0 0 0 0 0 0 0 0 0 0 0 0 0 0 0 0 0 0 0 0 0 0 0 0 0 0 0 0 0 0 0 0 0 0 0 0 0 0 0 0 0 0 0 0 0 0 0 0 0 0 0 0 0 0 0 0 0 0 0 0 0 0 0 0 0 0 0 0 0 0 0 0 0 0 0 0 0 0 0 0 0 0 0 0 0 0 0 0 0 0 0 0 0 0 0 0 0 0 0 0 0 0 0 0 0 0 0 0 0 0 0 0 0 0 0 0 0 0 0 0 0 0 0 0 0 0 0 0 0 0 0 0 0 0 0 0 0 0 0 0 0 0 0 0 0 0 0 0 0 0 0 0 0 0 0 0 0 0 0 0 0 0 0 0 0 0 0 0 0 0 0 0 0 0 0 0 0 0 0 0 0 0 0 0 0 0 0 0 0 0 0 0 0 0 0 0 0 0 0 0 0 0 0 0 0 0 0 0 0 0 0 0 0 0 0 0 0 0 0 0 0 0 0 0 0 0 0 0 0 0 0 0 0 0 0 0 0 0 0 0 0 0 0 0 0 0 0 0 0 0 0 0 0 0 0 0 0 0 0 0 0 0 0 0 0 0 0 0 0 0 0 0 0 0 0 0 0 0 0 0 0 0 0 0 0 0 0 0 0 0 0 0 0 0 0 0 0 0 0 0 0 0 0 0 0 0 0 0 0 0 0 0 0 0 0 0 0 0 0 0 0 0 0 0 0 0 0 0 0 0 0 0 0 0 0 0 0 0 0 0 0 0 0 0 0 0 0 0 0 0 0 0 0 0 0 0 0 0 0 0 0 0 0 0 0 0 0 0 0 0 0 0 0 0 0 0 0 0 0 0 0 0 0 0 0 0 0 0 0 0 0 0 0 0 0 0 0 0 0 0 0 0 0 0 0 0 0 0 0 0 0 0 0 0 0 0 0 0 0 0 0 0 0 0 0 0 0 0 0 0 0 0 0 0 0 0 0 0 0 0 0 0 0 0 0 0 0 0 0 0 0 0 0 0 0 0 0 0 0 0 0 0 0 0 0 0 0 0 0 0 0 0 0 0 0 0 0 0 0 0 0 0 0 0 0 0 0 0 0 0 0 0 0 0 0 0 0 0 0 0 0 0 0 0 0 0 0 0 0 0 0 0 0 0 0 0 0 0 0 0 0 0 0 0 0 0 0 0 0 0 0 0 0 0 0 0 0 0 0 0 0 0 0 0 0 0 0 0 0 0 0 0 0 0 0 0 0 0 0 0 0 0 0 0 0 0 0 0 0 0 0 0 0 0 0 0 0 0 0 0 0 0 0 0 0 0 0 0 0 0 0 0 0 0 0 0 0 0 0 0 0 0 0 0 0 0 0 0 0 0 0 0 0 0 0 0 0 0 0 0 0 0 0 0 0 0 0 0 0 0 0 0 0 0 0 0 0 0 0 0 0 0 0 0 0 0 0 0 0 0 0 0 0 0 0 0 0 0
0 0 0 0 0 0 0 0 0 0 0 0 0 0 0 0 0 0 0 0 0 0 0 0 0 0 0 0 0 0 0 0 0 0 0 0 0 0 0 0 0 0 0 0 0 0 0 0 0 0 0 0 0 0 0 0 0 0 0 0 0 0 0 0 0 0 0 0 0 0 0 0 0 0 0 0 0 0 0 0 0 0 0 0 0 0 0 0 0 0 0 0 0 0 0 0 0 0 0 0 0 0 0 0 0 0 0 0 0 0 0 0 0 0 0 0 0 0 0 0 0 0 0 0 0 0 0 0 0 0 0 0 0 0 0 0 0 0 0 0 0 0 0 0 0 0 0 0 0 0 0 0 0 0 0 0 0 0 0 0 0 0 0 0 0 0 0 0 0 0 0 0 0 0 0 0 0 0 0 0 0 0 0 0 0 0 0 0 0 0 0 0 0 0 0 0 0 0 0 0 0 0 0 0 0 0 0 0 0 0 0 0 0 0 0 0 0 0 0 0 0 0 0 0 0 0 0 0 0 0 0 0 0 0 0 0 0 0 0 0 0 0 0 0 0 0 0 0 0 0 0 0 0 0 0 0 0 0 0 0 0 0 0 0 0 0 0 0 0 0 0 0 0 0 0 0 0 0 0 0 0 0 0 0 0 0 0 0 0 0 0 0 0 0 0 0 0 0 0 0 0 0 0 0 0 0 0 0 0 0 0 0 0 0 0 0 0 0 0 0 0 0 0 0 0 0 0 0 0 0 0 0 0 0 0 0 0 0 0 0 0 0 0 0 0 0 0 0 0 0 0 0 0 0 0 0 0 0 0 0 0 0 0 0 0 0 0 0 0 0 0 0 0 0 0 0 0 0 0 0 0 0 0 0 0 0 0 0 0 0 0 0 0 0 0 0 0 0 0 0 0 0 0 0 0 0 0 0 0 0 0 0 0 0 0 0 0 0 0 0 0 0 0 0 0 0 0 0 0 0 0 0 0 0 0 0 0 0 0 0 0 0 0 0 0 0 0 0 0 0 0 0 0 0 0 0 0 0 0 0 0 0 0 0 0 0 0 0 0 0 0 0 0 0 0 0 0 0 0 0 0 0 0 0 0 0 0 0 0 0 0 0 0 0 0 0 0 0 0 0 0 0 0 0 0 0 0 0 0 0 0 0 0 0 0 0 0 0 0 0 0 0 0 0 0 0 0 0 0 0 0 0 0 0 0 0 0 0 0 0 0 0 0 0 0 0 0 0 0 0 0 0 0 0 0 0 0 0 0 0 0 0 0 0 0 0 0 0 0 0 0 0 0 0 0 0 0 0 0 0 0 0 0 0 0 0 0 0 0 0 0 0 0 0 0 0 0 0 0 0 0 0 0 0 0 0 0 0 0 0 0 0 0 0 0 0 0 0 0 0 0 0 0 0 0 0 0 0 0 0 0 0 0 0 0 0 0 0 0 0 0 0 0 0 0 0 0 0 0 0 0 0 0 0 0 0 0 0 0 0 0 0 0 0 0 0 0 0 0 0 0 0 0 0 0 0 0 0 0 0 0 0 0 0 0 0 0 0 0 0 0 0 0 0 0 0 0 0 0 0 0 0 0 0 0 0 0 0 0 0 0 0 0 0 0 0 0 0 0 0 0 0 0 0 0 0 0 0 0 0 0 0 0 0 0 0 0 0 0 0 0 0 0 0 0 0 0 0 0 0 0 0 0 0 0 0 0 0 0 0 0 0 0 0 0 0 0 0 0 0 0 0 0 0 0 0 0 0 0 0 0 0 0 0 0 0 0 0 0 0 0 0 0 0 0 0 0 0 0 0 0 0 0 0 0 0 0 0 0 0 0 0 0 0 0 0 0 0 0 0 0 0 0 0 0 0 0 0 0 0 0 0 0 0 0 0 0 0 0 0 0 0 0 0 0 0 0 0 0 0 0 0 0 0 0 0 0 0 0 0 0 0 0 0 0 0 0 0 0 0 0 0 0 0 0 0 0 0 0 0 0 0 0 0 0 0 0 0 0 0 0 0 0 0 0 0 0 0 0 0 0 0 0 0 0 0 0 0 0 0 0 0 0 0 0 0 0 0 0 0 0 0 0 0 0 0 0 0 0 0 0 0 0 0 0 0 0 0 0 0 0 0 0 0 0 0 0 0 0 0 0 0 0 0 0 0 0 0 0 0
0 0 0 0 0 0 0 0 0 0 0 0 0 0 0 0 0 0 0 0 0 0 0 0 0 0 0 0 0 0 0 0 0 0 0 0 0 0 0 0 0 0 0 0 0 0 0 0 0 0 0 0 0 0 0 0 0 0 0 0 0 0 0 0 0 0 0 0 0 0 0 0 0 0 0 0 0 0 0 0 0 0 0 0 0 0 0 0 0 0 0 0 0 0 0 0 0 0 0 0 0 0 0 0 0 0 0 0 0 0 0 0 0 0 0 0 0 0 0 0 0 0 0 0 0 0 0 0 0 0 0 0 0 0 0 0 0 0 0 0 0 0 0 0 0 0 0 0 0 0 0 0 0 0 0 0 0 0 0 0 0 0 0 0 0 0 0 0 0 0 0 0 0 0 0 0 0 0 0 0 0 0 0 0 0 0 0 0 0 0 0 0 0 0 0 0 0 0 0 0 0 0 0 0 0 0 0 0 0 0 0 0 0 0 0 0 0 0 0 0 0 0 0 0 0 0 0 0 0 0 0 0 0 0 0 0 0 0 0 0 0 0 0 0 0 0 0 0 0 0 0 0 0 0 0 0 0 0 0 0 0 0 0 0 0 0 0 0 0 0 0 0 0 0 0 0 0 0 0 0 0 0 0 0 0 0 0 0 0 0 0 0 0 0 0 0 0 0 0 0 0 0 0 0 0 0 0 0 0 0 0 0 0 0 0 0 0 0 0 0 0 0 0 0 0 0 0 0 0 0 0 0 0 0 0 0 0 0 0 0 0 0 0 0 0 0 0 0 0 0 0 0 0 0 0 0 0 0 0 0 0 0 0 0 0 0 0 0 0 0 0 0 0 0 0 0 0 0 0 0 0 0 0 0 0 0 0 0 0 0 0 0 0 0 0 0 0 0 0 0 0 0 0 0 0 0 0 0 0 0 0 0 0 0 0 0 0 0 0 0 0 0 0 0 0 0 0 0 0 0 0 0 0 0 0 0 0 0 0 0 0 0 0 0 0 0 0 0 0 0 0 0 0 0 0 0 0 0 0 0 0 0 0 0 0 0 0 0 0 0 0 0 0 0 0 0 0 0 0 0 0 0 0 0 0 0 0 0 0 0 0 0 0 0 0 0 0 0 0 0 0 0 0 0 0 0 0 0 0 0 0 0 0 0 0 0 0 0 0 0 0 0 0 0 0 0 0 0 0 0 0 0 0 0 0 0 0 0 0 0 0 0 0 0 0 0 0 0 0 0 0 0 0 0 0 0 0 0 0 0 0 0 0 0 0 0 0 0 0 0 0 0 0 0 0 0 0 0 0 0 0 0 0 0 0 0 0 0 0 0 0 0 0 0 0 0 0 0 0 0 0 0 0 0 0 0 0 0 0 0 0 0 0 0 0 0 0 0 0 0 0 0 0 0 0 0 0 0 0 0 0 0 0 0 0 0 0 0 0 0 0 0 0 0 0 0 0 0 0 0 0 0 0 0 0 0 0 0 0 0 0 0 0 0 0 0 0 0 0 0 0 0 0 0 0 0 0 0 0 0 0 0 0 0 0 0 0 0 0 0 0 0 0 0 0 0 0 0 0 0 0 0 0 0 0 0 0 0 0 0 0 0 0 0 0 0 0 0 0 0 0 0 0 0 0 0 0 0 0 0 0 0 0 0 0 0 0 0 0 0 0 0 0 0 0 0 0 0 0 0 0 0 0 0 0 0 0 0 0 0 0 0 0 0 0 0 0 0 0 0 0 0 0 0 0 0 0 0 0 0 0 0 0 0 0 0 0 0 0 0 0 0 0 0 0 0 0 0 0 0 0 0 0 0 0 0 0 0 0 0 0 0 0 0 0 0 0 0 0 0 0 0 0 0 0 0 0 0 0 0 0 0 0 0 0 0 0 0 0 0 0 0 0 0 0 0 0 0 0 0 0 0 0 0 0 0 0 0 0 0 0 0 0 0 0 0 0 0 0 0 0 0 0 0 0 0 0 0 0 0 0 0 0 0 0 0 0 0 0 0 0 0 0 0 0 0 0 0 0 0 0 0 0 0 0 0 0 0 0 0 0 0 0 0 0 0 0 0 0 0 0 0 0 0 0 0 0 0 0 0 0 0 0 0 0 0 0 0 0 0 0 0 0 0 0 0 0 0 0 0 0 0 0 0 0 0 0 0 0 0
0 0 0 0 0 0 0 0 0 0 0 0 0 0 0 0 0 0 0 0 0 0 0 0 0 0 0 0 0 0 0 0 0 0 0 0 0 0 0 0 0 0 0 0 0 0 0 0 0 0 0 0 0 0 0 0 0 0 0 0 0 0 0 0 0 0 0 0 0 0 0 0 0 0 0 0 0 0 0 0 0 0 0 0 0 0 0 0 0 0 0 0 0 0 0 0 0 0 0 0 0 0 0 0 0 0 0 0 0 0 0 0 0 0 0 0 0 0 0 0 0 0 0 0 0 0 0 0 0 0 0 0 0 0 0 0 0 0 0 0 0 0 0 0 0 0 0 0 0 0 0 0 0 0 0 0 0 0 0 0 0 0 0 0 0 0 0 0 0 0 0 0 0 0 0 0 0 0 0 0 0 0 0 0 0 0 0 0 0 0 0 0 0 0 0 0 0 0 0 0 0 0 0 0 0 0 0 0 0 0 0 0 0 0 0 0 0 0 0 0 0 0 0 0 0 0 0 0 0 0 0 0 0 0 0 0 0 0 0 0 0 0 0 0 0 0 0 0 0 0 0 0 0 0 0 0 0 0 0 0 0 0 0 0 0 0 0 0 0 0 0 0 0 0 0 0 0 0 0 0 0 0 0 0 0 0 0 0 0 0 0 0 0 0 0 0 0 0 0 0 0 0 0 0 0 0 0 0 0 0 0 0 0 0 0 0 0 0 0 0 0 0 0 0 0 0 0 0 0 0 0 0 0 0 0 0 0 0 0 0 0 0 0 0 0 0 0 0 0 0 0 0 0 0 0 0 0 0 0 0 0 0 0 0 0 0 0 0 0 0 0 0 0 0 0 0 0 0 0 0 0 0 0 0 0 0 0 0 0 0 0 0 0 0 0 0 0 0 0 0 0 0 0 0 0 0 0 0 0 0 0 0 0 0 0 0 0 0 0 0 0 0 0 0 0 0 0 0 0 0 0 0 0 0 0 0 0 0 0 0 0 0 0 0 0 0 0 0 0 0 0 0 0 0 0 0 0 0 0 0 0 0 0 0 0 0 0 0 0 0 0 0 0 0 0 0 0 0 0 0 0 0 0 0 0 0 0 0 0 0 0 0 0 0 0 0 0 0 0 0 0 0 0 0 0 0 0 0 0 0 0 0 0 0 0 0 0 0 0 0 0 0 0 0 0 0 0 0 0 0 0 0 0 0 0 0 0 0 0 0 0 0 0 0 0 0 0 0 0 0 0 0 0 0 0 0 0 0 0 0 0 0 0 0 0 0 0 0 0 0 0 0 0 0 0 0 0 0 0 0 0 0 0 0 0 0 0 0 0 0 0 0 0 0 0 0 0 0 0 0 0 0 0 0 0 0 0 0 0 0 0 0 0 0 0 0 0 0 0 0 0 0 0 0 0 0 0 0 0 0 0 0 0 0 0 0 0 0 0 0 0 0 0 0 0 0 0 0 0 0 0 0 0 0 0 0 0 0 0 0 0 0 0 0 0 0 0 0 0 0 0 0 0 0 0 0 0 0 0 0 0 0 0 0 0 0 0 0 0 0 0 0 0 0 0 0 0 0 0 0 0 0 0 0 0 0 0 0 0 0 0 0 0 0 0 0 0 0 0 0 0 0 0 0 0 0 0 0 0 0 0 0 0 0 0 0 0 0 0 0 0 0 0 0 0 0 0 0 0 0 0 0 0 0 0 0 0 0 0 0 0 0 0 0 0 0 0 0 0 0 0 0 0 0 0 0 0 0 0 0 0 0 0 0 0 0 0 0 0 0 0 0 0 0 0 0 0 0 0 0 0 0 0 0 0 0 0 0 0 0 0 0 0 0 0 0 0 0 0 0 0 0 0 0 0 0 0 0 0 0 0 0 0 0 0 0 0 0 0 0 0 0 0 0 0 0 0 0 0 0 0 0 0 0 0 0 0 0 0 0 0 0 0 0 0 0 0 0 0 0 0 0 0 0 0 0 0 0 0 0 0 0 0 0 0 0 0 0 0 0 0 0 0 0 0 0 0 0 0 0 0 0 0 0 0 0 0 0 0 0 0 0 0 0 0 0 0 0 0 0 0 0 0 0 0 0 0 0 0 0 0 0 0 0 0 0 0 0 0 0 0 0 0 0 0 0 0 0 0 0 0 0 0 0 0 0 0 0 0 0
0 0 0 0 0 0 0 0 0 0 0 0 0 0 0 0 0 0 0 0 0 0 0 0 0 0 0 0 0 0 0 0 0 0 0 0 0 0 0 0 0 0 0 0 0 0 0 0 0 0 0 0 0 0 0 0 0 0 0 0 0 0 0 0 0 0 0 0 0 0 0 0 0 0 0 0 0 0 0 0 0 0 0 0 0 0 0 0 0 0 0 0 0 0 0 0 0 0 0 0 0 0 0 0 0 0 0 0 0 0 0 0 0 0 0 0 0 0 0 0 0 0 0 0 0 0 0 0 0 0 0 0 0 0 0 0 0 0 0 0 0 0 0 0 0 0 0 0 0 0 0 0 0 0 0 0 0 0 0 0 0 0 0 0 0 0 0 0 0 0 0 0 0 0 0 0 0 0 0 0 0 0 0 0 0 0 0 0 0 0 0 0 0 0 0 0 0 0 0 0 0 0 0 0 0 0 0 0 0 0 0 0 0 0 0 0 0 0 0 0 0 0 0 0 0 0 0 0 0 0 0 0 0 0 0 0 0 0 0 0 0 0 0 0 0 0 0 0 0 0 0 0 0 0 0 0 0 0 0 0 0 0 0 0 0 0 0 0 0 0 0 0 0 0 0 0 0 0 0 0 0 0 0 0 0 0 0 0 0 0 0 0 0 0 0 0 0 0 0 0 0 0 0 0 0 0 0 0 0 0 0 0 0 0 0 0 0 0 0 0 0 0 0 0 0 0 0 0 0 0 0 0 0 0 0 0 0 0 0 0 0 0 0 0 0 0 0 0 0 0 0 0 0 0 0 0 0 0 0 0 0 0 0 0 0 0 0 0 0 0 0 0 0 0 0 0 0 0 0 0 0 0 0 0 0 0 0 0 0 0 0 0 0 0 0 0 0 0 0 0 0 0 0 0 0 0 0 0 0 0 0 0 0 0 0 0 0 0 0 0 0 0 0 0 0 0 0 0 0 0 0 0 0 0 0 0 0 0 0 0 0 0 0 0 0 0 0 0 0 0 0 0 0 0 0 0 0 0 0 0 0 0 0 0 0 0 0 0 0 0 0 0 0 0 0 0 0 0 0 0 0 0 0 0 0 0 0 0 0 0 0 0 0 0 0 0 0 0 0 0 0 0 0 0 0 0 0 0 0 0 0 0 0 0 0 0 0 0 0 0 0 0 0 0 0 0 0 0 0 0 0 0 0 0 0 0 0 0 0 0 0 0 0 0 0 0 0 0 0 0 0 0 0 0 0 0 0 0 0 0 0 0 0 0 0 0 0 0 0 0 0 0 0 0 0 0 0 0 0 0 0 0 0 0 0 0 0 0 0 0 0 0 0 0 0 0 0 0 0 0 0 0 0 0 0 0 0 0 0 0 0 0 0 0 0 0 0 0 0 0 0 0 0 0 0 0 0 0 0 0 0 0 0 0 0 0 0 0 0 0 0 0 0 0 0 0 0 0 0 0 0 0 0 0 0 0 0 0 0 0 0 0 0 0 0 0 0 0 0 0 0 0 0 0 0 0 0 0 0 0 0 0 0 0 0 0 0 0 0 0 0 0 0 0 0 0 0 0 0 0 0 0 0 0 0 0 0 0 0 0 0 0 0 0 0 0 0 0 0 0 0 0 0 0 0 0 0 0 0 0 0 0 0 0 0 0 0 0 0 0 0 0 0 0 0 0 0 0 0 0 0 0 0 0 0 0 0 0 0 0 0 0 0 0 0 0 0 0 0 0 0 0 0 0 0 0 0 0 0 0 0 0 0 0 0 0 0 0 0 0 0 0 0 0 0 0 0 0 0 0 0 0 0 0 0 0 0 0 0 0 0 0 0 0 0 0 0 0 0 0 0 0 0 0 0 0 0 0 0 0 0 0 0 0 0 0 0 0 0 0 0 0 0 0 0 0 0 0 0 0 0 0 0 0 0 0 0 0 0 0 0 0 0 0 0 0 0 0 0 0 0 0 0 0 0 0 0 0 0 0 0 0 0 0 0 0 0 0 0 0 0 0 0 0 0 0 0 0 0 0 0 0 0 0 0 0 0 0 0 0 0 0 0 0 0 0 0 0 0 0 0 0 0 0 0 0 0 0 0 0 0 0 0 0 0 0 0 0 0 0 0 0 0 0 0 0 0 0 0 0 0 0 0 0 0 0 0 0 0 0
0 0 0 0 0 0 0 0 0 0 0 0 0 0 0 0 0 0 0 0 0 0 0 0 0 0 0 0 0 0 0 0 0 0 0 0 0 0 0 0 0 0 0 0 0 0 0 0 0 0 0 0 0 0 0 0 0 0 0 0 0 0 0 0 0 0 0 0 0 0 0 0 0 0 0 0 0 0 0 0 0 0 0 0 0 0 0 0 0 0 0 0 0 0 0 0 0 0 0 0 0 0 0 0 0 0 0 0 0 0 0 0 0 0 0 0 0 0 0 0 0 0 0 0 0 0 0 0 0 0 0 0 0 0 0 0 0 0 0 0 0 0 0 0 0 0 0 0 0 0 0 0 0 0 0 0 0 0 0 0 0 0 0 0 0 0 0 0 0 0 0 0 0 0 0 0 0 0 0 0 0 0 0 0 0 0 0 0 0 0 0 0 0 0 0 0 0 0 0 0 0 0 0 0 0 0 0 0 0 0 0 0 0 0 0 0 0 0 0 0 0 0 0 0 0 0 0 0 0 0 0 0 0 0 0 0 0 0 0 0 0 0 0 0 0 0 0 0 0 0 0 0 0 0 0 0 0 0 0 0 0 0 0 0 0 0 0 0 0 0 0 0 0 0 0 0 0 0 0 0 0 0 0 0 0 0 0 0 0 0 0 0 0 0 0 0 0 0 0 0 0 0 0 0 0 0 0 0 0 0 0 0 0 0 0 0 0 0 0 0 0 0 0 0 0 0 0 0 0 0 0 0 0 0 0 0 0 0 0 0 0 0 0 0 0 0 0 0 0 0 0 0 0 0 0 0 0 0 0 0 0 0 0 0 0 0 0 0 0 0 0 0 0 0 0 0 0 0 0 0 0 0 0 0 0 0 0 0 0 0 0 0 0 0 0 0 0 0 0 0 0 0 0 0 0 0 0 0 0 0 0 0 0 0 0 0 0 0 0 0 0 0 0 0 0 0 0 0 0 0 0 0 0 0 0 0 0 0 0 0 0 0 0 0 0 0 0 0 0 0 0 0 0 0 0 0 0 0 0 0 0 0 0 0 0 0 0 0 0 0 0 0 0 0 0 0 0 0 0 0 0 0 0 0 0 0 0 0 0 0 0 0 0 0 0 0 0 0 0 0 0 0 0 0 0 0 0 0 0 0 0 0 0 0 0 0 0 0 0 0 0 0 0 0 0 0 0 0 0 0 0 0 0 0 0 0 0 0 0 0 0 0 0 0 0 0 0 0 0 0 0 0 0 0 0 0 0 0 0 0 0 0 0 0 0 0 0 0 0 0 0 0 0 0 0 0 0 0 0 0 0 0 0 0 0 0 0 0 0 0 0 0 0 0 0 0 0 0 0 0 0 0 0 0 0 0 0 0 0 0 0 0 0 0 0 0 0 0 0 0 0 0 0 0 0 0 0 0 0 0 0 0 0 0 0 0 0 0 0 0 0 0 0 0 0 0 0 0 0 0 0 0 0 0 0 0 0 0 0 0 0 0 0 0 0 0 0 0 0 0 0 0 0 0 0 0 0 0 0 0 0 0 0 0 0 0 0 0 0 0 0 0 0 0 0 0 0 0 0 0 0 0 0 0 0 0 0 0 0 0 0 0 0 0 0 0 0 0 0 0 0 0 0 0 0 0 0 0 0 0 0 0 0 0 0 0 0 0 0 0 0 0 0 0 0 0 0 0 0 0 0 0 0 0 0 0 0 0 0 0 0 0 0 0 0 0 0 0 0 0 0 0 0 0 0 0 0 0 0 0 0 0 0 0 0 0 0 0 0 0 0 0 0 0 0 0 0 0 0 0 0 0 0 0 0 0 0 0 0 0 0 0 0 0 0 0 0 0 0 0 0 0 0 0 0 0 0 0 0 0 0 0 0 0 0 0 0 0 0 0 0 0 0 0 0 0 0 0 0 0 0 0 0 0 0 0 0 0 0 0 0 0 0 0 0 0 0 0 0 0 0 0 0 0 0 0 0 0 0 0 0 0 0 0 0 0 0 0 0 0 0 0 0 0 0 0 0 0 0 0 0 0 0 0 0 0 0 0 0 0 0 0 0 0 0 0 0 0 0 0 0 0 0 0 0 0 0 0 0 0 0 0 0 0 0 0 0 0 0 0 0 0 0 0 0 0 0 0 0 0 0 0 0 0 0 0 0 0 0 0
0 0 0 0 0 0 0 0 0 0 0 0 0 0 0 0 0 0 0 0 0 0 0 0 0 0 0 0 0 0 0 0 0 0 0 0 0 0 0 0 0 0 0 0 0 0 0 0 0 0 0 0 0 0 0 0 0 0 0 0 0 0 0 0 0 0 0 0 0 0 0 0 0 0 0 0 0 0 0 0 0 0 0 0 0 0 0 0 0 0 0 0 0 0 0 0 0 0 0 0 0 0 0 0 0 0 0 0 0 0 0 0 0 0 0 0 0 0 0 0 0 0 0 0 0 0 0 0 0 0 0 0 0 0 0 0 0 0 0 0 0 0 0 0 0 0 0 0 0 0 0 0 0 0 0 0 0 0 0 0 0 0 0 0 0 0 0 0 0 0 0 0 0 0 0 0 0 0 0 0 0 0 0 0 0 0 0 0 0 0 0 0 0 0 0 0 0 0 0 0 0 0 0 0 0 0 0 0 0 0 0 0 0 0 0 0 0 0 0 0 0 0 0 0 0 0 0 0 0 0 0 0 0 0 0 0 0 0 0 0 0 0 0 0 0 0 0 0 0 0 0 0 0 0 0 0 0 0 0 0 0 0 0 0 0 0 0 0 0 0 0 0 0 0 0 0 0 0 0 0 0 0 0 0 0 0 0 0 0 0 0 0 0 0 0 0 0 0 0 0 0 0 0 0 0 0 0 0 0 0 0 0 0 0 0 0 0 0 0 0 0 0 0 0 0 0 0 0 0 0 0 0 0 0 0 0 0 0 0 0 0 0 0 0 0 0 0 0 0 0 0 0 0 0 0 0 0 0 0 0 0 0 0 0 0 0 0 0 0 0 0 0 0 0 0 0 0 0 0 0 0 0 0 0 0 0 0 0 0 0 0 0 0 0 0 0 0 0 0 0 0 0 0 0 0 0 0 0 0 0 0 0 0 0 0 0 0 0 0 0 0 0 0 0 0 0 0 0 0 0 0 0 0 0 0 0 0 0 0 0 0 0 0 0 0 0 0 0 0 0 0 0 0 0 0 0 0 0 0 0 0 0 0 0 0 0 0 0 0 0 0 0 0 0 0 0 0 0 0 0 0 0 0 0 0 0 0 0 0 0 0 0 0 0 0 0 0 0 0 0 0 0 0 0 0 0 0 0 0 0 0 0 0 0 0 0 0 0 0 0 0 0 0 0 0 0 0 0 0 0 0 0 0 0 0 0 0 0 0 0 0 0 0 0 0 0 0 0 0 0 0 0 0 0 0 0 0 0 0 0 0 0 0 0 0 0 0 0 0 0 0 0 0 0 0 0 0 0 0 0 0 0 0 0 0 0 0 0 0 0 0 0 0 0 0 0 0 0 0 0 0 0 0 0 0 0 0 0 0 0 0 0 0 0 0 0 0 0 0 0 0 0 0 0 0 0 0 0 0 0 0 0 0 0 0 0 0 0 0 0 0 0 0 0 0 0 0 0 0 0 0 0 0 0 0 0 0 0 0 0 0 0 0 0 0 0 0 0 0 0 0 0 0 0 0 0 0 0 0 0 0 0 0 0 0 0 0 0 0 0 0 0 0 0 0 0 0 0 0 0 0 0 0 0 0 0 0 0 0 0 0 0 0 0 0 0 0 0 0 0 0 0 0 0 0 0 0 0 0 0 0 0 0 0 0 0 0 0 0 0 0 0 0 0 0 0 0 0 0 0 0 0 0 0 0 0 0 0 0 0 0 0 0 0 0 0 0 0 0 0 0 0 0 0 0 0 0 0 0 0 0 0 0 0 0 0 0 0 0 0 0 0 0 0 0 0 0 0 0 0 0 0 0 0 0 0 0 0 0 0 0 0 0 0 0 0 0 0 0 0 0 0 0 0 0 0 0 0 0 0 0 0 0 0 0 0 0 0 0 0 0 0 0 0 0 0 0 0 0 0 0 0 0 0 0 0 0 0 0 0 0 0 0 0 0 0 0 0 0 0 0 0 0 0 0 0 0 0 0 0 0 0 0 0 0 0 0 0 0 0 0 0 0 0 0 0 0 0 0 0 0 0 0 0 0 0 0 0 0 0 0 0 0 0 0 0 0 0 0 0 0 0 0 0 0 0 0 0 0 0 0 0 0 0 0 0 0 0 0 0 0 0 0 0 0 0 0 0 0 0 0 0 0 0 0 0 0 0 0 0
0 0 0 0 0 0 0 0 0 0 0 0 0 0 0 0 0 0 0 0 0 0 0 0 0 0 0 0 0 0 0 0 0 0 0 0 0 0 0 0 0 0 0 0 0 0 0 0 0 0 0 0 0 0 0 0 0 0 0 0 0 0 0 0 0 0 0 0 0 0 0 0 0 0 0 0 0 0 0 0 0 0 0 0 0 0 0 0 0 0 0 0 0 0 0 0 0 0 0 0 0 0 0 0 0 0 0 0 0 0 0 0 0 0 0 0 0 0 0 0 0 0 0 0 0 0 0 0 0 0 0 0 0 0 0 0 0 0 0 0 0 0 0 0 0 0 0 0 0 0 0 0 0 0 0 0 0 0 0 0 0 0 0 0 0 0 0 0 0 0 0 0 0 0 0 0 0 0 0 0 0 0 0 0 0 0 0 0 0 0 0 0 0 0 0 0 0 0 0 0 0 0 0 0 0 0 0 0 0 0 0 0 0 0 0 0 0 0 0 0 0 0 0 0 0 0 0 0 0 0 0 0 0 0 0 0 0 0 0 0 0 0 0 0 0 0 0 0 0 0 0 0 0 0 0 0 0 0 0 0 0 0 0 0 0 0 0 0 0 0 0 0 0 0 0 0 0 0 0 0 0 0 0 0 0 0 0 0 0 0 0 0 0 0 0 0 0 0 0 0 0 0 0 0 0 0 0 0 0 0 0 0 0 0 0 0 0 0 0 0 0 0 0 0 0 0 0 0 0 0 0 0 0 0 0 0 0 0 0 0 0 0 0 0 0 0 0 0 0 0 0 0 0 0 0 0 0 0 0 0 0 0 0 0 0 0 0 0 0 0 0 0 0 0 0 0 0 0 0 0 0 0 0 0 0 0 0 0 0 0 0 0 0 0 0 0 0 0 0 0 0 0 0 0 0 0 0 0 0 0 0 0 0 0 0 0 0 0 0 0 0 0 0 0 0 0 0 0 0 0 0 0 0 0 0 0 0 0 0 0 0 0 0 0 0 0 0 0 0 0 0 0 0 0 0 0 0 0 0 0 0 0 0 0 0 0 0 0 0 0 0 0 0 0 0 0 0 0 0 0 0 0 0 0 0 0 0 0 0 0 0 0 0 0 0 0 0 0 0 0 0 0 0 0 0 0 0 0 0 0 0 0 0 0 0 0 0 0 0 0 0 0 0 0 0 0 0 0 0 0 0 0 0 0 0 0 0 0 0 0 0 0 0 0 0 0 0 0 0 0 0 0 0 0 0 0 0 0 0 0 0 0 0 0 0 0 0 0 0 0 0 0 0 0 0 0 0 0 0 0 0 0 0 0 0 0 0 0 0 0 0 0 0 0 0 0 0 0 0 0 0 0 0 0 0 0 0 0 0 0 0 0 0 0 0 0 0 0 0 0 0 0 0 0 0 0 0 0 0 0 0 0 0 0 0 0 0 0 0 0 0 0 0 0 0 0 0 0 0 0 0 0 0 0 0 0 0 0 0 0 0 0 0 0 0 0 0 0 0 0 0 0 0 0 0 0 0 0 0 0 0 0 0 0 0 0 0 0 0 0 0 0 0 0 0 0 0 0 0 0 0 0 0 0 0 0 0 0 0 0 0 0 0 0 0 0 0 0 0 0 0 0 0 0 0 0 0 0 0 0 0 0 0 0 0 0 0 0 0 0 0 0 0 0 0 0 0 0 0 0 0 0 0 0 0 0 0 0 0 0 0 0 0 0 0 0 0 0 0 0 0 0 0 0 0 0 0 0 0 0 0 0 0 0 0 0 0 0 0 0 0 0 0 0 0 0 0 0 0 0 0 0 0 0 0 0 0 0 0 0 0 0 0 0 0 0 0 0 0 0 0 0 0 0 0 0 0 0 0 0 0 0 0 0 0 0 0 0 0 0 0 0 0 0 0 0 0 0 0 0 0 0 0 0 0 0 0 0 0 0 0 0 0 0 0 0 0 0 0 0 0 0 0 0 0 0 0 0 0 0 0 0 0 0 0 0 0 0 0 0 0 0 0 0 0 0 0 0 0 0 0 0 0 0 0 0 0 0 0 0 0 0 0 0 0 0 0 0 0 0 0 0 0 0 0 0 0 0 0 0 0 0 0 0 0 0 0 0 0 0 0 0 0 0 0 0 0 0 0 0 0 0 0 0 0 0 0 0 0 0
0 0 0 0 0 0 0 0 0 0 0 0 0 0 0 0 0 0 0 0 0 0 0 0 0 0 0 0 0 0 0 0 0 0 0 0 0 0 0 0 0 0 0 0 0 0 0 0 0 0 0 0 0 0 0 0 0 0 0 0 0 0 0 0 0 0 0 0 0 0 0 0 0 0 0 0 0 0 0 0 0 0 0 0 0 0 0 0 0 0 0 0 0 0 0 0 0 0 0 0 0 0 0 0 0 0 0 0 0 0 0 0 0 0 0 0 0 0 0 0 0 0 0 0 0 0 0 0 0 0 0 0 0 0 0 0 0 0 0 0 0 0 0 0 0 0 0 0 0 0 0 0 0 0 0 0 0 0 0 0 0 0 0 0 0 0 0 0 0 0 0 0 0 0 0 0 0 0 0 0 0 0 0 0 0 0 0 0 0 0 0 0 0 0 0 0 0 0 0 0 0 0 0 0 0 0 0 0 0 0 0 0 0 0 0 0 0 0 0 0 0 0 0 0 0 0 0 0 0 0 0 0 0 0 0 0 0 0 0 0 0 0 0 0 0 0 0 0 0 0 0 0 0 0 0 0 0 0 0 0 0 0 0 0 0 0 0 0 0 0 0 0 0 0 0 0 0 0 0 0 0 0 0 0 0 0 0 0 0 0 0 0 0 0 0 0 0 0 0 0 0 0 0 0 0 0 0 0 0 0 0 0 0 0 0 0 0 0 0 0 0 0 0 0 0 0 0 0 0 0 0 0 0 0 0 0 0 0 0 0 0 0 0 0 0 0 0 0 0 0 0 0 0 0 0 0 0 0 0 0 0 0 0 0 0 0 0 0 0 0 0 0 0 0 0 0 0 0 0 0 0 0 0 0 0 0 0 0 0 0 0 0 0 0 0 0 0 0 0 0 0 0 0 0 0 0 0 0 0 0 0 0 0 0 0 0 0 0 0 0 0 0 0 0 0 0 0 0 0 0 0 0 0 0 0 0 0 0 0 0 0 0 0 0 0 0 0 0 0 0 0 0 0 0 0 0 0 0 0 0 0 0 0 0 0 0 0 0 0 0 0 0 0 0 0 0 0 0 0 0 0 0 0 0 0 0 0 0 0 0 0 0 0 0 0 0 0 0 0 0 0 0 0 0 0 0 0 0 0 0 0 0 0 0 0 0 0 0 0 0 0 0 0 0 0 0 0 0 0 0 0 0 0 0 0 0 0 0 0 0 0 0 0 0 0 0 0 0 0 0 0 0 0 0 0 0 0 0 0 0 0 0 0 0 0 0 0 0 0 0 0 0 0 0 0 0 0 0 0 0 0 0 0 0 0 0 0 0 0 0 0 0 0 0 0 0 0 0 0 0 0 0 0 0 0 0 0 0 0 0 0 0 0 0 0 0 0 0 0 0 0 0 0 0 0 0 0 0 0 0 0 0 0 0 0 0 0 0 0 0 0 0 0 0 0 0 0 0 0 0 0 0 0 0 0 0 0 0 0 0 0 0 0 0 0 0 0 0 0 0 0 0 0 0 0 0 0 0 0 0 0 0 0 0 0 0 0 0 0 0 0 0 0 0 0 0 0 0 0 0 0 0 0 0 0 0 0 0 0 0 0 0 0 0 0 0 0 0 0 0 0 0 0 0 0 0 0 0 0 0 0 0 0 0 0 0 0 0 0 0 0 0 0 0 0 0 0 0 0 0 0 0 0 0 0 0 0 0 0 0 0 0 0 0 0 0 0 0 0 0 0 0 0 0 0 0 0 0 0 0 0 0 0 0 0 0 0 0 0 0 0 0 0 0 0 0 0 0 0 0 0 0 0 0 0 0 0 0 0 0 0 0 0 0 0 0 0 0 0 0 0 0 0 0 0 0 0 0 0 0 0 0 0 0 0 0 0 0 0 0 0 0 0 0 0 0 0 0 0 0 0 0 0 0 0 0 0 0 0 0 0 0 0 0 0 0 0 0 0 0 0 0 0 0 0 0 0 0 0 0 0 0 0 0 0 0 0 0 0 0 0 0 0 0 0 0 0 0 0 0 0 0 0 0 0 0 0 0 0 0 0 0 0 0 0 0 0 0 0 0 0 0 0 0 0 0 0 0 0 0 0 0 0 0 0 0 0 0 0 0 0 0 0 0 0 0 0 0 0 0 0 0 0 0 0 0 0 0 0 0
0 0 0 0 0 0 0 0 0 0 0 0 0 0 0 0 0 0 0 0 0 0 0 0 0 0 0 0 0 0 0 0 0 0 0 0 0 0 0 0 0 0 0 0 0 0 0 0 0 0 0 0 0 0 0 0 0 0 0 0 0 0 0 0 0 0 0 0 0 0 0 0 0 0 0 0 0 0 0 0 0 0 0 0 0 0 0 0 0 0 0 0 0 0 0 0 0 0 0 0 0 0 0 0 0 0 0 0 0 0 0 0 0 0 0 0 0 0 0 0 0 0 0 0 0 0 0 0 0 0 0 0 0 0 0 0 0 0 0 0 0 0 0 0 0 0 0 0 0 0 0 0 0 0 0 0 0 0 0 0 0 0 0 0 0 0 0 0 0 0 0 0 0 0 0 0 0 0 0 0 0 0 0 0 0 0 0 0 0 0 0 0 0 0 0 0 0 0 0 0 0 0 0 0 0 0 0 0 0 0 0 0 0 0 0 0 0 0 0 0 0 0 0 0 0 0 0 0 0 0 0 0 0 0 0 0 0 0 0 0 0 0 0 0 0 0 0 0 0 0 0 0 0 0 0 0 0 0 0 0 0 0 0 0 0 0 0 0 0 0 0 0 0 0 0 0 0 0 0 0 0 0 0 0 0 0 0 0 0 0 0 0 0 0 0 0 0 0 0 0 0 0 0 0 0 0 0 0 0 0 0 0 0 0 0 0 0 0 0 0 0 0 0 0 0 0 0 0 0 0 0 0 0 0 0 0 0 0 0 0 0 0 0 0 0 0 0 0 0 0 0 0 0 0 0 0 0 0 0 0 0 0 0 0 0 0 0 0 0 0 0 0 0 0 0 0 0 0 0 0 0 0 0 0 0 0 0 0 0 0 0 0 0 0 0 0 0 0 0 0 0 0 0 0 0 0 0 0 0 0 0 0 0 0 0 0 0 0 0 0 0 0 0 0 0 0 0 0 0 0 0 0 0 0 0 0 0 0 0 0 0 0 0 0 0 0 0 0 0 0 0 0 0 0 0 0 0 0 0 0 0 0 0 0 0 0 0 0 0 0 0 0 0 0 0 0 0 0 0 0 0 0 0 0 0 0 0 0 0 0 0 0 0 0 0 0 0 0 0 0 0 0 0 0 0 0 0 0 0 0 0 0 0 0 0 0 0 0 0 0 0 0 0 0 0 0 0 0 0 0 0 0 0 0 0 0 0 0 0 0 0 0 0 0 0 0 0 0 0 0 0 0 0 0 0 0 0 0 0 0 0 0 0 0 0 0 0 0 0 0 0 0 0 0 0 0 0 0 0 0 0 0 0 0 0 0 0 0 0 0 0 0 0 0 0 0 0 0 0 0 0 0 0 0 0 0 0 0 0 0 0 0 0 0 0 0 0 0 0 0 0 0 0 0 0 0 0 0 0 0 0 0 0 0 0 0 0 0 0 0 0 0 0 0 0 0 0 0 0 0 0 0 0 0 0 0 0 0 0 0 0 0 0 0 0 0 0 0 0 0 0 0 0 0 0 0 0 0 0 0 0 0 0 0 0 0 0 0 0 0 0 0 0 0 0 0 0 0 0 0 0 0 0 0 0 0 0 0 0 0 0 0 0 0 0 0 0 0 0 0 0 0 0 0 0 0 0 0 0 0 0 0 0 0 0 0 0 0 0 0 0 0 0 0 0 0 0 0 0 0 0 0 0 0 0 0 0 0 0 0 0 0 0 0 0 0 0 0 0 0 0 0 0 0 0 0 0 0 0 0 0 0 0 0 0 0 0 0 0 0 0 0 0 0 0 0 0 0 0 0 0 0 0 0 0 0 0 0 0 0 0 0 0 0 0 0 0 0 0 0 0 0 0 0 0 0 0 0 0 0 0 0 0 0 0 0 0 0 0 0 0 0 0 0 0 0 0 0 0 0 0 0 0 0 0 0 0 0 0 0 0 0 0 0 0 0 0 0 0 0 0 0 0 0 0 0 0 0 0 0 0 0 0 0 0 0 0 0 0 0 0 0 0 0 0 0 0 0 0 0 0 0 0 0 0 0 0 0 0 0 0 0 0 0 0 0 0 0 0 0 0 0 0 0 0 0 0 0 0 0 0 0 0 0 0 0 0 0 0 0 0 0 0 0 0 0 0 0 0 0 0 0 0 0 0 0 0 0 0 0
0 0 0 0 0 0 0 0 0 0 0 0 0 0 0 0 0 0 0 0 0 0 0 0 0 0 0 0 0 0 0 0 0 0 0 0 0 0 0 0 0 0 0 0 0 0 0 0 0 0 0 0 0 0 0 0 0 0 0 0 0 0 0 0 0 0 0 0 0 0 0 0 0 0 0 0 0 0 0 0 0 0 0 0 0 0 0 0 0 0 0 0 0 0 0 0 0 0 0 0 0 0 0 0 0 0 0 0 0 0 0 0 0 0 0 0 0 0 0 0 0 0 0 0 0 0 0 0 0 0 0 0 0 0 0 0 0 0 0 0 0 0 0 0 0 0 0 0 0 0 0 0 0 0 0 0 0 0 0 0 0 0 0 0 0 0 0 0 0 0 0 0 0 0 0 0 0 0 0 0 0 0 0 0 0 0 0 0 0 0 0 0 0 0 0 0 0 0 0 0 0 0 0 0 0 0 0 0 0 0 0 0 0 0 0 0 0 0 0 0 0 0 0 0 0 0 0 0 0 0 0 0 0 0 0 0 0 0 0 0 0 0 0 0 0 0 0 0 0 0 0 0 0 0 0 0 0 0 0 0 0 0 0 0 0 0 0 0 0 0 0 0 0 0 0 0 0 0 0 0 0 0 0 0 0 0 0 0 0 0 0 0 0 0 0 0 0 0 0 0 0 0 0 0 0 0 0 0 0 0 0 0 0 0 0 0 0 0 0 0 0 0 0 0 0 0 0 0 0 0 0 0 0 0 0 0 0 0 0 0 0 0 0 0 0 0 0 0 0 0 0 0 0 0 0 0 0 0 0 0 0 0 0 0 0 0 0 0 0 0 0 0 0 0 0 0 0 0 0 0 0 0 0 0 0 0 0 0 0 0 0 0 0 0 0 0 0 0 0 0 0 0 0 0 0 0 0 0 0 0 0 0 0 0 0 0 0 0 0 0 0 0 0 0 0 0 0 0 0 0 0 0 0 0 0 0 0 0 0 0 0 0 0 0 0 0 0 0 0 0 0 0 0 0 0 0 0 0 0 0 0 0 0 0 0 0 0 0 0 0 0 0 0 0 0 0 0 0 0 0 0 0 0 0 0 0 0 0 0 0 0 0 0 0 0 0 0 0 0 0 0 0 0 0 0 0 0 0 0 0 0 0 0 0 0 0 0 0 0 0 0 0 0 0 0 0 0 0 0 0 0 0 0 0 0 0 0 0 0 0 0 0 0 0 0 0 0 0 0 0 0 0 0 0 0 0 0 0 0 0 0 0 0 0 0 0 0 0 0 0 0 0 0 0 0 0 0 0 0 0 0 0 0 0 0 0 0 0 0 0 0 0 0 0 0 0 0 0 0 0 0 0 0 0 0 0 0 0 0 0 0 0 0 0 0 0 0 0 0 0 0 0 0 0 0 0 0 0 0 0 0 0 0 0 0 0 0 0 0 0 0 0 0 0 0 0 0 0 0 0 0 0 0 0 0 0 0 0 0 0 0 0 0 0 0 0 0 0 0 0 0 0 0 0 0 0 0 0 0 0 0 0 0 0 0 0 0 0 0 0 0 0 0 0 0 0 0 0 0 0 0 0 0 0 0 0 0 0 0 0 0 0 0 0 0 0 0 0 0 0 0 0 0 0 0 0 0 0 0 0 0 0 0 0 0 0 0 0 0 0 0 0 0 0 0 0 0 0 0 0 0 0 0 0 0 0 0 0 0 0 0 0 0 0 0 0 0 0 0 0 0 0 0 0 0 0 0 0 0 0 0 0 0 0 0 0 0 0 0 0 0 0 0 0 0 0 0 0 0 0 0 0 0 0 0 0 0 0 0 0 0 0 0 0 0 0 0 0 0 0 0 0 0 0 0 0 0 0 0 0 0 0 0 0 0 0 0 0 0 0 0 0 0 0 0 0 0 0 0 0 0 0 0 0 0 0 0 0 0 0 0 0 0 0 0 0 0 0 0 0 0 0 0 0 0 0 0 0 0 0 0 0 0 0 0 0 0 0 0 0 0 0 0 0 0 0 0 0 0 0 0 0 0 0 0 0 0 0 0 0 0 0 0 0 0 0 0 0 0 0 0 0 0 0 0 0 0 0 0 0 0 0 0 0 0 0 0 0 0 0 0 0 0 0 0 0 0 0 0 0 0 0 0 0 0 0 0 0 0 0
0 0 0 0 0 0 0 0 0 0 0 0 0 0 0 0 0 0 0 0 0 0 0 0 0 0 0 0 0 0 0 0 0 0 0 0 0 0 0 0 0 0 0 0 0 0 0 0 0 0 0 0 0 0 0 0 0 0 0 0 0 0 0 0 0 0 0 0 0 0 0 0 0 0 0 0 0 0 0 0 0 0 0 0 0 0 0 0 0 0 0 0 0 0 0 0 0 0 0 0 0 0 0 0 0 0 0 0 0 0 0 0 0 0 0 0 0 0 0 0 0 0 0 0 0 0 0 0 0 0 0 0 0 0 0 0 0 0 0 0 0 0 0 0 0 0 0 0 0 0 0 0 0 0 0 0 0 0 0 0 0 0 0 0 0 0 0 0 0 0 0 0 0 0 0 0 0 0 0 0 0 0 0 0 0 0 0 0 0 0 0 0 0 0 0 0 0 0 0 0 0 0 0 0 0 0 0 0 0 0 0 0 0 0 0 0 0 0 0 0 0 0 0 0 0 0 0 0 0 0 0 0 0 0 0 0 0 0 0 0 0 0 0 0 0 0 0 0 0 0 0 0 0 0 0 0 0 0 0 0 0 0 0 0 0 0 0 0 0 0 0 0 0 0 0 0 0 0 0 0 0 0 0 0 0 0 0 0 0 0 0 0 0 0 0 0 0 0 0 0 0 0 0 0 0 0 0 0 0 0 0 0 0 0 0 0 0 0 0 0 0 0 0 0 0 0 0 0 0 0 0 0 0 0 0 0 0 0 0 0 0 0 0 0 0 0 0 0 0 0 0 0 0 0 0 0 0 0 0 0 0 0 0 0 0 0 0 0 0 0 0 0 0 0 0 0 0 0 0 0 0 0 0 0 0 0 0 0 0 0 0 0 0 0 0 0 0 0 0 0 0 0 0 0 0 0 0 0 0 0 0 0 0 0 0 0 0 0 0 0 0 0 0 0 0 0 0 0 0 0 0 0 0 0 0 0 0 0 0 0 0 0 0 0 0 0 0 0 0 0 0 0 0 0 0 0 0 0 0 0 0 0 0 0 0 0 0 0 0 0 0 0 0 0 0 0 0 0 0 0 0 0 0 0 0 0 0 0 0 0 0 0 0 0 0 0 0 0 0 0 0 0 0 0 0 0 0 0 0 0 0 0 0 0 0 0 0 0 0 0 0 0 0 0 0 0 0 0 0 0 0 0 0 0 0 0 0 0 0 0 0 0 0 0 0 0 0 0 0 0 0 0 0 0 0 0 0 0 0 0 0 0 0 0 0 0 0 0 0 0 0 0 0 0 0 0 0 0 0 0 0 0 0 0 0 0 0 0 0 0 0 0 0 0 0 0 0 0 0 0 0 0 0 0 0 0 0 0 0 0 0 0 0 0 0 0 0 0 0 0 0 0 0 0 0 0 0 0 0 0 0 0 0 0 0 0 0 0 0 0 0 0 0 0 0 0 0 0 0 0 0 0 0 0 0 0 0 0 0 0 0 0 0 0 0 0 0 0 0 0 0 0 0 0 0 0 0 0 0 0 0 0 0 0 0 0 0 0 0 0 0 0 0 0 0 0 0 0 0 0 0 0 0 0 0 0 0 0 0 0 0 0 0 0 0 0 0 0 0 0 0 0 0 0 0 0 0 0 0 0 0 0 0 0 0 0 0 0 0 0 0 0 0 0 0 0 0 0 0 0 0 0 0 0 0 0 0 0 0 0 0 0 0 0 0 0 0 0 0 0 0 0 0 0 0 0 0 0 0 0 0 0 0 0 0 0 0 0 0 0 0 0 0 0 0 0 0 0 0 0 0 0 0 0 0 0 0 0 0 0 0 0 0 0 0 0 0 0 0 0 0 0 0 0 0 0 0 0 0 0 0 0 0 0 0 0 0 0 0 0 0 0 0 0 0 0 0 0 0 0 0 0 0 0 0 0 0 0 0 0 0 0 0 0 0 0 0 0 0 0 0 0 0 0 0 0 0 0 0 0 0 0 0 0 0 0 0 0 0 0 0 0 0 0 0 0 0 0 0 0 0 0 0 0 0 0 0 0 0 0 0 0 0 0 0 0 0 0 0 0 0 0 0 0 0 0 0 0 0 0 0 0 0 0 0 0 0 0 0 0 0 0 0 0 0 0 0 0 0 0 0 0 0 0 0 0 0 0 0 0
0 0 0 0 0 0 0 0 0 0 0 0 0 0 0 0 0 0 0 0 0 0 0 0 0 0 0 0 0 0 0 0 0 0 0 0 0 0 0 0 0 0 0 0 0 0 0 0 0 0 0 0 0 0 0 0 0 0 0 0 0 0 0 0 0 0 0 0 0 0 0 0 0 0 0 0 0 0 0 0 0 0 0 0 0 0 0 0 0 0 0 0 0 0 0 0 0 0 0 0 0 0 0 0 0 0 0 0 0 0 0 0 0 0 0 0 0 0 0 0 0 0 0 0 0 0 0 0 0 0 0 0 0 0 0 0 0 0 0 0 0 0 0 0 0 0 0 0 0 0 0 0 0 0 0 0 0 0 0 0 0 0 0 0 0 0 0 0 0 0 0 0 0 0 0 0 0 0 0 0 0 0 0 0 0 0 0 0 0 0 0 0 0 0 0 0 0 0 0 0 0 0 0 0 0 0 0 0 0 0 0 0 0 0 0 0 0 0 0 0 0 0 0 0 0 0 0 0 0 0 0 0 0 0 0 0 0 0 0 0 0 0 0 0 0 0 0 0 0 0 0 0 0 0 0 0 0 0 0 0 0 0 0 0 0 0 0 0 0 0 0 0 0 0 0 0 0 0 0 0 0 0 0 0 0 0 0 0 0 0 0 0 0 0 0 0 0 0 0 0 0 0 0 0 0 0 0 0 0 0 0 0 0 0 0 0 0 0 0 0 0 0 0 0 0 0 0 0 0 0 0 0 0 0 0 0 0 0 0 0 0 0 0 0 0 0 0 0 0 0 0 0 0 0 0 0 0 0 0 0 0 0 0 0 0 0 0 0 0 0 0 0 0 0 0 0 0 0 0 0 0 0 0 0 0 0 0 0 0 0 0 0 0 0 0 0 0 0 0 0 0 0 0 0 0 0 0 0 0 0 0 0 0 0 0 0 0 0 0 0 0 0 0 0 0 0 0 0 0 0 0 0 0 0 0 0 0 0 0 0 0 0 0 0 0 0 0 0 0 0 0 0 0 0 0 0 0 0 0 0 0 0 0 0 0 0 0 0 0 0 0 0 0 0 0 0 0 0 0 0 0 0 0 0 0 0 0 0 0 0 0 0 0 0 0 0 0 0 0 0 0 0 0 0 0 0 0 0 0 0 0 0 0 0 0 0 0 0 0 0 0 0 0 0 0 0 0 0 0 0 0 0 0 0 0 0 0 0 0 0 0 0 0 0 0 0 0 0 0 0 0 0 0 0 0 0 0 0 0 0 0 0 0 0 0 0 0 0 0 0 0 0 0 0 0 0 0 0 0 0 0 0 0 0 0 0 0 0 0 0 0 0 0 0 0 0 0 0 0 0 0 0 0 0 0 0 0 0 0 0 0 0 0 0 0 0 0 0 0 0 0 0 0 0 0 0 0 0 0 0 0 0 0 0 0 0 0 0 0 0 0 0 0 0 0 0 0 0 0 0 0 0 0 0 0 0 0 0 0 0 0 0 0 0 0 0 0 0 0 0 0 0 0 0 0 0 0 0 0 0 0 0 0 0 0 0 0 0 0 0 0 0 0 0 0 0 0 0 0 0 0 0 0 0 0 0 0 0 0 0 0 0 0 0 0 0 0 0 0 0 0 0 0 0 0 0 0 0 0 0 0 0 0 0 0 0 0 0 0 0 0 0 0 0 0 0 0 0 0 0 0 0 0 0 0 0 0 0 0 0 0 0 0 0 0 0 0 0 0 0 0 0 0 0 0 0 0 0 0 0 0 0 0 0 0 0 0 0 0 0 0 0 0 0 0 0 0 0 0 0 0 0 0 0 0 0 0 0 0 0 0 0 0 0 0 0 0 0 0 0 0 0 0 0 0 0 0 0 0 0 0 0 0 0 0 0 0 0 0 0 0 0 0 0 0 0 0 0 0 0 0 0 0 0 0 0 0 0 0 0 0 0 0 0 0 0 0 0 0 0 0 0 0 0 0 0 0 0 0 0 0 0 0 0 0 0 0 0 0 0 0 0 0 0 0 0 0 0 0 0 0 0 0 0 0 0 0 0 0 0 0 0 0 0 0 0 0 0 0 0 0 0 0 0 0 0 0 0 0 0 0 0 0 0 0 0 0 0 0 0 0 0 0 0 0 0 0 0 0 0 0 0 0 0 0 0 0 0 0 0
0 0 0 0 0 0 0 0 0 0 0 0 0 0 0 0 0 0 0 0 0 0 0 0 0 0 0 0 0 0 0 0 0 0 0 0 0 0 0 0 0 0 0 0 0 0 0 0 0 0 0 0 0 0 0 0 0 0 0 0 0 0 0 0 0 0 0 0 0 0 0 0 0 0 0 0 0 0 0 0 0 0 0 0 0 0 0 0 0 0 0 0 0 0 0 0 0 0 0 0 0 0 0 0 0 0 0 0 0 0 0 0 0 0 0 0 0 0 0 0 0 0 0 0 0 0 0 0 0 0 0 0 0 0 0 0 0 0 0 0 0 0 0 0 0 0 0 0 0 0 0 0 0 0 0 0 0 0 0 0 0 0 0 0 0 0 0 0 0 0 0 0 0 0 0 0 0 0 0 0 0 0 0 0 0 0 0 0 0 0 0 0 0 0 0 0 0 0 0 0 0 0 0 0 0 0 0 0 0 0 0 0 0 0 0 0 0 0 0 0 0 0 0 0 0 0 0 0 0 0 0 0 0 0 0 0 0 0 0 0 0 0 0 0 0 0 0 0 0 0 0 0 0 0 0 0 0 0 0 0 0 0 0 0 0 0 0 0 0 0 0 0 0 0 0 0 0 0 0 0 0 0 0 0 0 0 0 0 0 0 0 0 0 0 0 0 0 0 0 0 0 0 0 0 0 0 0 0 0 0 0 0 0 0 0 0 0 0 0 0 0 0 0 0 0 0 0 0 0 0 0 0 0 0 0 0 0 0 0 0 0 0 0 0 0 0 0 0 0 0 0 0 0 0 0 0 0 0 0 0 0 0 0 0 0 0 0 0 0 0 0 0 0 0 0 0 0 0 0 0 0 0 0 0 0 0 0 0 0 0 0 0 0 0 0 0 0 0 0 0 0 0 0 0 0 0 0 0 0 0 0 0 0 0 0 0 0 0 0 0 0 0 0 0 0 0 0 0 0 0 0 0 0 0 0 0 0 0 0 0 0 0 0 0 0 0 0 0 0 0 0 0 0 0 0 0 0 0 0 0 0 0 0 0 0 0 0 0 0 0 0 0 0 0 0 0 0 0 0 0 0 0 0 0 0 0 0 0 0 0 0 0 0 0 0 0 0 0 0 0 0 0 0 0 0 0 0 0 0 0 0 0 0 0 0 0 0 0 0 0 0 0 0 0 0 0 0 0 0 0 0 0 0 0 0 0 0 0 0 0 0 0 0 0 0 0 0 0 0 0 0 0 0 0 0 0 0 0 0 0 0 0 0 0 0 0 0 0 0 0 0 0 0 0 0 0 0 0 0 0 0 0 0 0 0 0 0 0 0 0 0 0 0 0 0 0 0 0 0 0 0 0 0 0 0 0 0 0 0 0 0 0 0 0 0 0 0 0 0 0 0 0 0 0 0 0 0 0 0 0 0 0 0 0 0 0 0 0 0 0 0 0 0 0 0 0 0 0 0 0 0 0 0 0 0 0 0 0 0 0 0 0 0 0 0 0 0 0 0 0 0 0 0 0 0 0 0 0 0 0 0 0 0 0 0 0 0 0 0 0 0 0 0 0 0 0 0 0 0 0 0 0 0 0 0 0 0 0 0 0 0 0 0 0 0 0 0 0 0 0 0 0 0 0 0 0 0 0 0 0 0 0 0 0 0 0 0 0 0 0 0 0 0 0 0 0 0 0 0 0 0 0 0 0 0 0 0 0 0 0 0 0 0 0 0 0 0 0 0 0 0 0 0 0 0 0 0 0 0 0 0 0 0 0 0 0 0 0 0 0 0 0 0 0 0 0 0 0 0 0 0 0 0 0 0 0 0 0 0 0 0 0 0 0 0 0 0 0 0 0 0 0 0 0 0 0 0 0 0 0 0 0 0 0 0 0 0 0 0 0 0 0 0 0 0 0 0 0 0 0 0 0 0 0 0 0 0 0 0 0 0 0 0 0 0 0 0 0 0 0 0 0 0 0 0 0 0 0 0 0 0 0 0 0 0 0 0 0 0 0 0 0 0 0 0 0 0 0 0 0 0 0 0 0 0 0 0 0 0 0 0 0 0 0 0 0 0 0 0 0 0 0 0 0 0 0 0 0 0 0 0 0 0 0 0 0 0 0 0 0 0 0 0 0 0 0 0 0 0 0 0 0 0 0 0 0 0 0 0 0
0 0 0 0 0 0 0 0 0 0 0 0 0 0 0 0 0 0 0 0 0 0 0 0 0 0 0 0 0 0 0 0 0 0 0 0 0 0 0 0 0 0 0 0 0 0 0 0 0 0 0 0 0 0 0 0 0 0 0 0 0 0 0 0 0 0 0 0 0 0 0 0 0 0 0 0 0 0 0 0 0 0 0 0 0 0 0 0 0 0 0 0 0 0 0 0 0 0 0 0 0 0 0 0 0 0 0 0 0 0 0 0 0 0 0 0 0 0 0 0 0 0 0 0 0 0 0 0 0 0 0 0 0 0 0 0 0 0 0 0 0 0 0 0 0 0 0 0 0 0 0 0 0 0 0 0 0 0 0 0 0 0 0 0 0 0 0 0 0 0 0 0 0 0 0 0 0 0 0 0 0 0 0 0 0 0 0 0 0 0 0 0 0 0 0 0 0 0 0 0 0 0 0 0 0 0 0 0 0 0 0 0 0 0 0 0 0 0 0 0 0 0 0 0 0 0 0 0 0 0 0 0 0 0 0 0 0 0 0 0 0 0 0 0 0 0 0 0 0 0 0 0 0 0 0 0 0 0 0 0 0 0 0 0 0 0 0 0 0 0 0 0 0 0 0 0 0 0 0 0 0 0 0 0 0 0 0 0 0 0 0 0 0 0 0 0 0 0 0 0 0 0 0 0 0 0 0 0 0 0 0 0 0 0 0 0 0 0 0 0 0 0 0 0 0 0 0 0 0 0 0 0 0 0 0 0 0 0 0 0 0 0 0 0 0 0 0 0 0 0 0 0 0 0 0 0 0 0 0 0 0 0 0 0 0 0 0 0 0 0 0 0 0 0 0 0 0 0 0 0 0 0 0 0 0 0 0 0 0 0 0 0 0 0 0 0 0 0 0 0 0 0 0 0 0 0 0 0 0 0 0 0 0 0 0 0 0 0 0 0 0 0 0 0 0 0 0 0 0 0 0 0 0 0 0 0 0 0 0 0 0 0 0 0 0 0 0 0 0 0 0 0 0 0 0 0 0 0 0 0 0 0 0 0 0 0 0 0 0 0 0 0 0 0 0 0 0 0 0 0 0 0 0 0 0 0 0 0 0 0 0 0 0 0 0 0 0 0 0 0 0 0 0 0 0 0 0 0 0 0 0 0 0 0 0 0 0 0 0 0 0 0 0 0 0 0 0 0 0 0 0 0 0 0 0 0 0 0 0 0 0 0 0 0 0 0 0 0 0 0 0 0 0 0 0 0 0 0 0 0 0 0 0 0 0 0 0 0 0 0 0 0 0 0 0 0 0 0 0 0 0 0 0 0 0 0 0 0 0 0 0 0 0 0 0 0 0 0 0 0 0 0 0 0 0 0 0 0 0 0 0 0 0 0 0 0 0 0 0 0 0 0 0 0 0 0 0 0 0 0 0 0 0 0 0 0 0 0 0 0 0 0 0 0 0 0 0 0 0 0 0 0 0 0 0 0 0 0 0 0 0 0 0 0 0 0 0 0 0 0 0 0 0 0 0 0 0 0 0 0 0 0 0 0 0 0 0 0 0 0 0 0 0 0 0 0 0 0 0 0 0 0 0 0 0 0 0 0 0 0 0 0 0 0 0 0 0 0 0 0 0 0 0 0 0 0 0 0 0 0 0 0 0 0 0 0 0 0 0 0 0 0 0 0 0 0 0 0 0 0 0 0 0 0 0 0 0 0 0 0 0 0 0 0 0 0 0 0 0 0 0 0 0 0 0 0 0 0 0 0 0 0 0 0 0 0 0 0 0 0 0 0 0 0 0 0 0 0 0 0 0 0 0 0 0 0 0 0 0 0 0 0 0 0 0 0 0 0 0 0 0 0 0 0 0 0 0 0 0 0 0 0 0 0 0 0 0 0 0 0 0 0 0 0 0 0 0 0 0 0 0 0 0 0 0 0 0 0 0 0 0 0 0 0 0 0 0 0 0 0 0 0 0 0 0 0 0 0 0 0 0 0 0 0 0 0 0 0 0 0 0 0 0 0 0 0 0 0 0 0 0 0 0 0 0 0 0 0 0 0 0 0 0 0 0 0 0 0 0 0 0 0 0 0 0 0 0 0 0 0 0 0 0 0 0 0 0 0 0 0 0 0 0 0 0 0 0 0 0 0 0 0 0 0 0 0 0 0 0 0
0 0 0 0 0 0 0 0 0 0 0 0 0 0 0 0 0 0 0 0 0 0 0 0 0 0 0 0 0 0 0 0 0 0 0 0 0 0 0 0 0 0 0 0 0 0 0 0 0 0 0 0 0 0 0 0 0 0 0 0 0 0 0 0 0 0 0 0 0 0 0 0 0 0 0 0 0 0 0 0 0 0 0 0 0 0 0 0 0 0 0 0 0 0 0 0 0 0 0 0 0 0 0 0 0 0 0 0 0 0 0 0 0 0 0 0 0 0 0 0 0 0 0 0 0 0 0 0 0 0 0 0 0 0 0 0 0 0 0 0 0 0 0 0 0 0 0 0 0 0 0 0 0 0 0 0 0 0 0 0 0 0 0 0 0 0 0 0 0 0 0 0 0 0 0 0 0 0 0 0 0 0 0 0 0 0 0 0 0 0 0 0 0 0 0 0 0 0 0 0 0 0 0 0 0 0 0 0 0 0 0 0 0 0 0 0 0 0 0 0 0 0 0 0 0 0 0 0 0 0 0 0 0 0 0 0 0 0 0 0 0 0 0 0 0 0 0 0 0 0 0 0 0 0 0 0 0 0 0 0 0 0 0 0 0 0 0 0 0 0 0 0 0 0 0 0 0 0 0 0 0 0 0 0 0 0 0 0 0 0 0 0 0 0 0 0 0 0 0 0 0 0 0 0 0 0 0 0 0 0 0 0 0 0 0 0 0 0 0 0 0 0 0 0 0 0 0 0 0 0 0 0 0 0 0 0 0 0 0 0 0 0 0 0 0 0 0 0 0 0 0 0 0 0 0 0 0 0 0 0 0 0 0 0 0 0 0 0 0 0 0 0 0 0 0 0 0 0 0 0 0 0 0 0 0 0 0 0 0 0 0 0 0 0 0 0 0 0 0 0 0 0 0 0 0 0 0 0 0 0 0 0 0 0 0 0 0 0 0 0 0 0 0 0 0 0 0 0 0 0 0 0 0 0 0 0 0 0 0 0 0 0 0 0 0 0 0 0 0 0 0 0 0 0 0 0 0 0 0 0 0 0 0 0 0 0 0 0 0 0 0 0 0 0 0 0 0 0 0 0 0 0 0 0 0 0 0 0 0 0 0 0 0 0 0 0 0 0 0 0 0 0 0 0 0 0 0 0 0 0 0 0 0 0 0 0 0 0 0 0 0 0 0 0 0 0 0 0 0 0 0 0 0 0 0 0 0 0 0 0 0 0 0 0 0 0 0 0 0 0 0 0 0 0 0 0 0 0 0 0 0 0 0 0 0 0 0 0 0 0 0 0 0 0 0 0 0 0 0 0 0 0 0 0 0 0 0 0 0 0 0 0 0 0 0 0 0 0 0 0 0 0 0 0 0 0 0 0 0 0 0 0 0 0 0 0 0 0 0 0 0 0 0 0 0 0 0 0 0 0 0 0 0 0 0 0 0 0 0 0 0 0 0 0 0 0 0 0 0 0 0 0 0 0 0 0 0 0 0 0 0 0 0 0 0 0 0 0 0 0 0 0 0 0 0 0 0 0 0 0 0 0 0 0 0 0 0 0 0 0 0 0 0 0 0 0 0 0 0 0 0 0 0 0 0 0 0 0 0 0 0 0 0 0 0 0 0 0 0 0 0 0 0 0 0 0 0 0 0 0 0 0 0 0 0 0 0 0 0 0 0 0 0 0 0 0 0 0 0 0 0 0 0 0 0 0 0 0 0 0 0 0 0 0 0 0 0 0 0 0 0 0 0 0 0 0 0 0 0 0 0 0 0 0 0 0 0 0 0 0 0 0 0 0 0 0 0 0 0 0 0 0 0 0 0 0 0 0 0 0 0 0 0 0 0 0 0 0 0 0 0 0 0 0 0 0 0 0 0 0 0 0 0 0 0 0 0 0 0 0 0 0 0 0 0 0 0 0 0 0 0 0 0 0 0 0 0 0 0 0 0 0 0 0 0 0 0 0 0 0 0 0 0 0 0 0 0 0 0 0 0 0 0 0 0 0 0 0 0 0 0 0 0 0 0 0 0 0 0 0 0 0 0 0 0 0 0 0 0 0 0 0 0 0 0 0 0 0 0 0 0 0 0 0 0 0 0 0 0 0 0 0 0 0 0 0 0 0 0 0 0 0 0 0 0 0 0 0 0 0 0 0 0 0 0 0 0 0 0 0
0 0 0 0 0 0 0 0 0 0 0 0 0 0 0 0 0 0 0 0 0 0 0 0 0 0 0 0 0 0 0 0 0 0 0 0 0 0 0 0 0 0 0 0 0 0 0 0 0 0 0 0 0 0 0 0 0 0 0 0 0 0 0 0 0 0 0 0 0 0 0 0 0 0 0 0 0 0 0 0 0 0 0 0 0 0 0 0 0 0 0 0 0 0 0 0 0 0 0 0 0 0 0 0 0 0 0 0 0 0 0 0 0 0 0 0 0 0 0 0 0 0 0 0 0 0 0 0 0 0 0 0 0 0 0 0 0 0 0 0 0 0 0 0 0 0 0 0 0 0 0 0 0 0 0 0 0 0 0 0 0 0 0 0 0 0 0 0 0 0 0 0 0 0 0 0 0 0 0 0 0 0 0 0 0 0 0 0 0 0 0 0 0 0 0 0 0 0 0 0 0 0 0 0 0 0 0 0 0 0 0 0 0 0 0 0 0 0 0 0 0 0 0 0 0 0 0 0 0 0 0 0 0 0 0 0 0 0 0 0 0 0 0 0 0 0 0 0 0 0 0 0 0 0 0 0 0 0 0 0 0 0 0 0 0 0 0 0 0 0 0 0 0 0 0 0 0 0 0 0 0 0 0 0 0 0 0 0 0 0 0 0 0 0 0 0 0 0 0 0 0 0 0 0 0 0 0 0 0 0 0 0 0 0 0 0 0 0 0 0 0 0 0 0 0 0 0 0 0 0 0 0 0 0 0 0 0 0 0 0 0 0 0 0 0 0 0 0 0 0 0 0 0 0 0 0 0 0 0 0 0 0 0 0 0 0 0 0 0 0 0 0 0 0 0 0 0 0 0 0 0 0 0 0 0 0 0 0 0 0 0 0 0 0 0 0 0 0 0 0 0 0 0 0 0 0 0 0 0 0 0 0 0 0 0 0 0 0 0 0 0 0 0 0 0 0 0 0 0 0 0 0 0 0 0 0 0 0 0 0 0 0 0 0 0 0 0 0 0 0 0 0 0 0 0 0 0 0 0 0 0 0 0 0 0 0 0 0 0 0 0 0 0 0 0 0 0 0 0 0 0 0 0 0 0 0 0 0 0 0 0 0 0 0 0 0 0 0 0 0 0 0 0 0 0 0 0 0 0 0 0 0 0 0 0 0 0 0 0 0 0 0 0 0 0 0 0 0 0 0 0 0 0 0 0 0 0 0 0 0 0 0 0 0 0 0 0 0 0 0 0 0 0 0 0 0 0 0 0 0 0 0 0 0 0 0 0 0 0 0 0 0 0 0 0 0 0 0 0 0 0 0 0 0 0 0 0 0 0 0 0 0 0 0 0 0 0 0 0 0 0 0 0 0 0 0 0 0 0 0 0 0 0 0 0 0 0 0 0 0 0 0 0 0 0 0 0 0 0 0 0 0 0 0 0 0 0 0 0 0 0 0 0 0 0 0 0 0 0 0 0 0 0 0 0 0 0 0 0 0 0 0 0 0 0 0 0 0 0 0 0 0 0 0 0 0 0 0 0 0 0 0 0 0 0 0 0 0 0 0 0 0 0 0 0 0 0 0 0 0 0 0 0 0 0 0 0 0 0 0 0 0 0 0 0 0 0 0 0 0 0 0 0 0 0 0 0 0 0 0 0 0 0 0 0 0 0 0 0 0 0 0 0 0 0 0 0 0 0 0 0 0 0 0 0 0 0 0 0 0 0 0 0 0 0 0 0 0 0 0 0 0 0 0 0 0 0 0 0 0 0 0 0 0 0 0 0 0 0 0 0 0 0 0 0 0 0 0 0 0 0 0 0 0 0 0 0 0 0 0 0 0 0 0 0 0 0 0 0 0 0 0 0 0 0 0 0 0 0 0 0 0 0 0 0 0 0 0 0 0 0 0 0 0 0 0 0 0 0 0 0 0 0 0 0 0 0 0 0 0 0 0 0 0 0 0 0 0 0 0 0 0 0 0 0 0 0 0 0 0 0 0 0 0 0 0 0 0 0 0 0 0 0 0 0 0 0 0 0 0 0 0 0 0 0 0 0 0 0 0 0 0 0 0 0 0 0 0 0 0 0 0 0 0 0 0 0 0 0 0 0 0 0 0 0 0 0 0 0 0 0 0 0 0 0 0 0 0 0 0 0 0 0 0 0 0 0 0 0 0
0 0 0 0 0 0 0 0 0 0 0 0 0 0 0 0 0 0 0 0 0 0 0 0 0 0 0 0 0 0 0 0 0 0 0 0 0 0 0 0 0 0 0 0 0 0 0 0 0 0 0 0 0 0 0 0 0 0 0 0 0 0 0 0 0 0 0 0 0 0 0 0 0 0 0 0 0 0 0 0 0 0 0 0 0 0 0 0 0 0 0 0 0 0 0 0 0 0 0 0 0 0 0 0 0 0 0 0 0 0 0 0 0 0 0 0 0 0 0 0 0 0 0 0 0 0 0 0 0 0 0 0 0 0 0 0 0 0 0 0 0 0 0 0 0 0 0 0 0 0 0 0 0 0 0 0 0 0 0 0 0 0 0 0 0 0 0 0 0 0 0 0 0 0 0 0 0 0 0 0 0 0 0 0 0 0 0 0 0 0 0 0 0 0 0 0 0 0 0 0 0 0 0 0 0 0 0 0 0 0 0 0 0 0 0 0 0 0 0 0 0 0 0 0 0 0 0 0 0 0 0 0 0 0 0 0 0 0 0 0 0 0 0 0 0 0 0 0 0 0 0 0 0 0 0 0 0 0 0 0 0 0 0 0 0 0 0 0 0 0 0 0 0 0 0 0 0 0 0 0 0 0 0 0 0 0 0 0 0 0 0 0 0 0 0 0 0 0 0 0 0 0 0 0 0 0 0 0 0 0 0 0 0 0 0 0 0 0 0 0 0 0 0 0 0 0 0 0 0 0 0 0 0 0 0 0 0 0 0 0 0 0 0 0 0 0 0 0 0 0 0 0 0 0 0 0 0 0 0 0 0 0 0 0 0 0 0 0 0 0 0 0 0 0 0 0 0 0 0 0 0 0 0 0 0 0 0 0 0 0 0 0 0 0 0 0 0 0 0 0 0 0 0 0 0 0 0 0 0 0 0 0 0 0 0 0 0 0 0 0 0 0 0 0 0 0 0 0 0 0 0 0 0 0 0 0 0 0 0 0 0 0 0 0 0 0 0 0 0 0 0 0 0 0 0 0 0 0 0 0 0 0 0 0 0 0 0 0 0 0 0 0 0 0 0 0 0 0 0 0 0 0 0 0 0 0 0 0 0 0 0 0 0 0 0 0 0 0 0 0 0 0 0 0 0 0 0 0 0 0 0 0 0 0 0 0 0 0 0 0 0 0 0 0 0 0 0 0 0 0 0 0 0 0 0 0 0 0 0 0 0 0 0 0 0 0 0 0 0 0 0 0 0 0 0 0 0 0 0 0 0 0 0 0 0 0 0 0 0 0 0 0 0 0 0 0 0 0 0 0 0 0 0 0 0 0 0 0 0 0 0 0 0 0 0 0 0 0 0 0 0 0 0 0 0 0 0 0 0 0 0 0 0 0 0 0 0 0 0 0 0 0 0 0 0 0 0 0 0 0 0 0 0 0 0 0 0 0 0 0 0 0 0 0 0 0 0 0 0 0 0 0 0 0 0 0 0 0 0 0 0 0 0 0 0 0 0 0 0 0 0 0 0 0 0 0 0 0 0 0 0 0 0 0 0 0 0 0 0 0 0 0 0 0 0 0 0 0 0 0 0 0 0 0 0 0 0 0 0 0 0 0 0 0 0 0 0 0 0 0 0 0 0 0 0 0 0 0 0 0 0 0 0 0 0 0 0 0 0 0 0 0 0 0 0 0 0 0 0 0 0 0 0 0 0 0 0 0 0 0 0 0 0 0 0 0 0 0 0 0 0 0 0 0 0 0 0 0 0 0 0 0 0 0 0 0 0 0 0 0 0 0 0 0 0 0 0 0 0 0 0 0 0 0 0 0 0 0 0 0 0 0 0 0 0 0 0 0 0 0 0 0 0 0 0 0 0 0 0 0 0 0 0 0 0 0 0 0 0 0 0 0 0 0 0 0 0 0 0 0 0 0 0 0 0 0 0 0 0 0 0 0 0 0 0 0 0 0 0 0 0 0 0 0 0 0 0 0 0 0 0 0 0 0 0 0 0 0 0 0 0 0 0 0 0 0 0 0 0 0 0 0 0 0 0 0 0 0 0 0 0 0 0 0 0 0 0 0 0 0 0 0 0 0 0 0 0 0 0 0 0 0 0 0 0 0 0 0 0 0 0 0 0 0 0 0 0 0 0 0 0 0 0 0 0 0 0 0 0 0
0 0 0 0 0 0 0 0 0 0 0 0 0 0 0 0 0 0 0 0 0 0 0 0 0 0 0 0 0 0 0 0 0 0 0 0 0 0 0 0 0 0 0 0 0 0 0 0 0 0 0 0 0 0 0 0 0 0 0 0 0 0 0 0 0 0 0 0 0 0 0 0 0 0 0 0 0 0 0 0 0 0 0 0 0 0 0 0 0 0 0 0 0 0 0 0 0 0 0 0 0 0 0 0 0 0 0 0 0 0 0 0 0 0 0 0 0 0 0 0 0 0 0 0 0 0 0 0 0 0 0 0 0 0 0 0 0 0 0 0 0 0 0 0 0 0 0 0 0 0 0 0 0 0 0 0 0 0 0 0 0 0 0 0 0 0 0 0 0 0 0 0 0 0 0 0 0 0 0 0 0 0 0 0 0 0 0 0 0 0 0 0 0 0 0 0 0 0 0 0 0 0 0 0 0 0 0 0 0 0 0 0 0 0 0 0 0 0 0 0 0 0 0 0 0 0 0 0 0 0 0 0 0 0 0 0 0 0 0 0 0 0 0 0 0 0 0 0 0 0 0 0 0 0 0 0 0 0 0 0 0 0 0 0 0 0 0 0 0 0 0 0 0 0 0 0 0 0 0 0 0 0 0 0 0 0 0 0 0 0 0 0 0 0 0 0 0 0 0 0 0 0 0 0 0 0 0 0 0 0 0 0 0 0 0 0 0 0 0 0 0 0 0 0 0 0 0 0 0 0 0 0 0 0 0 0 0 0 0 0 0 0 0 0 0 0 0 0 0 0 0 0 0 0 0 0 0 0 0 0 0 0 0 0 0 0 0 0 0 0 0 0 0 0 0 0 0 0 0 0 0 0 0 0 0 0 0 0 0 0 0 0 0 0 0 0 0 0 0 0 0 0 0 0 0 0 0 0 0 0 0 0 0 0 0 0 0 0 0 0 0 0 0 0 0 0 0 0 0 0 0 0 0 0 0 0 0 0 0 0 0 0 0 0 0 0 0 0 0 0 0 0 0 0 0 0 0 0 0 0 0 0 0 0 0 0 0 0 0 0 0 0 0 0 0 0 0 0 0 0 0 0 0 0 0 0 0 0 0 0 0 0 0 0 0 0 0 0 0 0 0 0 0 0 0 0 0 0 0 0 0 0 0 0 0 0 0 0 0 0 0 0 0 0 0 0 0 0 0 0 0 0 0 0 0 0 0 0 0 0 0 0 0 0 0 0 0 0 0 0 0 0 0 0 0 0 0 0 0 0 0 0 0 0 0 0 0 0 0 0 0 0 0 0 0 0 0 0 0 0 0 0 0 0 0 0 0 0 0 0 0 0 0 0 0 0 0 0 0 0 0 0 0 0 0 0 0 0 0 0 0 0 0 0 0 0 0 0 0 0 0 0 0 0 0 0 0 0 0 0 0 0 0 0 0 0 0 0 0 0 0 0 0 0 0 0 0 0 0 0 0 0 0 0 0 0 0 0 0 0 0 0 0 0 0 0 0 0 0 0 0 0 0 0 0 0 0 0 0 0 0 0 0 0 0 0 0 0 0 0 0 0 0 0 0 0 0 0 0 0 0 0 0 0 0 0 0 0 0 0 0 0 0 0 0 0 0 0 0 0 0 0 0 0 0 0 0 0 0 0 0 0 0 0 0 0 0 0 0 0 0 0 0 0 0 0 0 0 0 0 0 0 0 0 0 0 0 0 0 0 0 0 0 0 0 0 0 0 0 0 0 0 0 0 0 0 0 0 0 0 0 0 0 0 0 0 0 0 0 0 0 0 0 0 0 0 0 0 0 0 0 0 0 0 0 0 0 0 0 0 0 0 0 0 0 0 0 0 0 0 0 0 0 0 0 0 0 0 0 0 0 0 0 0 0 0 0 0 0 0 0 0 0 0 0 0 0 0 0 0 0 0 0 0 0 0 0 0 0 0 0 0 0 0 0 0 0 0 0 0 0 0 0 0 0 0 0 0 0 0 0 0 0 0 0 0 0 0 0 0 0 0 0 0 0 0 0 0 0 0 0 0 0 0 0 0 0 0 0 0 0 0 0 0 0 0 0 0 0 0 0 0 0 0 0 0 0 0 0 0 0 0 0 0 0 0 0 0 0 0 0 0 0 0 0 0 0 0 0 0 0 0 0 0 0 0 0 0 0 0
0 0 0 0 0 0 0 0 0 0 0 0 0 0 0 0 0 0 0 0 0 0 0 0 0 0 0 0 0 0 0 0 0 0 0 0 0 0 0 0 0 0 0 0 0 0 0 0 0 0 0 0 0 0 0 0 0 0 0 0 0 0 0 0 0 0 0 0 0 0 0 0 0 0 0 0 0 0 0 0 0 0 0 0 0 0 0 0 0 0 0 0 0 0 0 0 0 0 0 0 0 0 0 0 0 0 0 0 0 0 0 0 0 0 0 0 0 0 0 0 0 0 0 0 0 0 0 0 0 0 0 0 0 0 0 0 0 0 0 0 0 0 0 0 0 0 0 0 0 0 0 0 0 0 0 0 0 0 0 0 0 0 0 0 0 0 0 0 0 0 0 0 0 0 0 0 0 0 0 0 0 0 0 0 0 0 0 0 0 0 0 0 0 0 0 0 0 0 0 0 0 0 0 0 0 0 0 0 0 0 0 0 0 0 0 0 0 0 0 0 0 0 0 0 0 0 0 0 0 0 0 0 0 0 0 0 0 0 0 0 0 0 0 0 0 0 0 0 0 0 0 0 0 0 0 0 0 0 0 0 0 0 0 0 0 0 0 0 0 0 0 0 0 0 0 0 0 0 0 0 0 0 0 0 0 0 0 0 0 0 0 0 0 0 0 0 0 0 0 0 0 0 0 0 0 0 0 0 0 0 0 0 0 0 0 0 0 0 0 0 0 0 0 0 0 0 0 0 0 0 0 0 0 0 0 0 0 0 0 0 0 0 0 0 0 0 0 0 0 0 0 0 0 0 0 0 0 0 0 0 0 0 0 0 0 0 0 0 0 0 0 0 0 0 0 0 0 0 0 0 0 0 0 0 0 0 0 0 0 0 0 0 0 0 0 0 0 0 0 0 0 0 0 0 0 0 0 0 0 0 0 0 0 0 0 0 0 0 0 0 0 0 0 0 0 0 0 0 0 0 0 0 0 0 0 0 0 0 0 0 0 0 0 0 0 0 0 0 0 0 0 0 0 0 0 0 0 0 0 0 0 0 0 0 0 0 0 0 0 0 0 0 0 0 0 0 0 0 0 0 0 0 0 0 0 0 0 0 0 0 0 0 0 0 0 0 0 0 0 0 0 0 0 0 0 0 0 0 0 0 0 0 0 0 0 0 0 0 0 0 0 0 0 0 0 0 0 0 0 0 0 0 0 0 0 0 0 0 0 0 0 0 0 0 0 0 0 0 0 0 0 0 0 0 0 0 0 0 0 0 0 0 0 0 0 0 0 0 0 0 0 0 0 0 0 0 0 0 0 0 0 0 0 0 0 0 0 0 0 0 0 0 0 0 0 0 0 0 0 0 0 0 0 0 0 0 0 0 0 0 0 0 0 0 0 0 0 0 0 0 0 0 0 0 0 0 0 0 0 0 0 0 0 0 0 0 0 0 0 0 0 0 0 0 0 0 0 0 0 0 0 0 0 0 0 0 0 0 0 0 0 0 0 0 0 0 0 0 0 0 0 0 0 0 0 0 0 0 0 0 0 0 0 0 0 0 0 0 0 0 0 0 0 0 0 0 0 0 0 0 0 0 0 0 0 0 0 0 0 0 0 0 0 0 0 0 0 0 0 0 0 0 0 0 0 0 0 0 0 0 0 0 0 0 0 0 0 0 0 0 0 0 0 0 0 0 0 0 0 0 0 0 0 0 0 0 0 0 0 0 0 0 0 0 0 0 0 0 0 0 0 0 0 0 0 0 0 0 0 0 0 0 0 0 0 0 0 0 0 0 0 0 0 0 0 0 0 0 0 0 0 0 0 0 0 0 0 0 0 0 0 0 0 0 0 0 0 0 0 0 0 0 0 0 0 0 0 0 0 0 0 0 0 0 0 0 0 0 0 0 0 0 0 0 0 0 0 0 0 0 0 0 0 0 0 0 0 0 0 0 0 0 0 0 0 0 0 0 0 0 0 0 0 0 0 0 0 0 0 0 0 0 0 0 0 0 0 0 0 0 0 0 0 0 0 0 0 0 0 0 0 0 0 0 0 0 0 0 0 0 0 0 0 0 0 0 0 0 0 0 0 0 0 0 0 0 0 0 0 0 0 0 0 0 0 0 0 0 0 0 0 0 0 0 0 0 0 0 0 0 0 0 0 0 0 0 0 0 0 0
0 0 0 0 0 0 0 0 0 0 0 0 0 0 0 0 0 0 0 0 0 0 0 0 0 0 0 0 0 0 0 0 0 0 0 0 0 0 0 0 0 0 0 0 0 0 0 0 0 0 0 0 0 0 0 0 0 0 0 0 0 0 0 0 0 0 0 0 0 0 0 0 0 0 0 0 0 0 0 0 0 0 0 0 0 0 0 0 0 0 0 0 0 0 0 0 0 0 0 0 0 0 0 0 0 0 0 0 0 0 0 0 0 0 0 0 0 0 0 0 0 0 0 0 0 0 0 0 0 0 0 0 0 0 0 0 0 0 0 0 0 0 0 0 0 0 0 0 0 0 0 0 0 0 0 0 0 0 0 0 0 0 0 0 0 0 0 0 0 0 0 0 0 0 0 0 0 0 0 0 0 0 0 0 0 0 0 0 0 0 0 0 0 0 0 0 0 0 0 0 0 0 0 0 0 0 0 0 0 0 0 0 0 0 0 0 0 0 0 0 0 0 0 0 0 0 0 0 0 0 0 0 0 0 0 0 0 0 0 0 0 0 0 0 0 0 0 0 0 0 0 0 0 0 0 0 0 0 0 0 0 0 0 0 0 0 0 0 0 0 0 0 0 0 0 0 0 0 0 0 0 0 0 0 0 0 0 0 0 0 0 0 0 0 0 0 0 0 0 0 0 0 0 0 0 0 0 0 0 0 0 0 0 0 0 0 0 0 0 0 0 0 0 0 0 0 0 0 0 0 0 0 0 0 0 0 0 0 0 0 0 0 0 0 0 0 0 0 0 0 0 0 0 0 0 0 0 0 0 0 0 0 0 0 0 0 0 0 0 0 0 0 0 0 0 0 0 0 0 0 0 0 0 0 0 0 0 0 0 0 0 0 0 0 0 0 0 0 0 0 0 0 0 0 0 0 0 0 0 0 0 0 0 0 0 0 0 0 0 0 0 0 0 0 0 0 0 0 0 0 0 0 0 0 0 0 0 0 0 0 0 0 0 0 0 0 0 0 0 0 0 0 0 0 0 0 0 0 0 0 0 0 0 0 0 0 0 0 0 0 0 0 0 0 0 0 0 0 0 0 0 0 0 0 0 0 0 0 0 0 0 0 0 0 0 0 0 0 0 0 0 0 0 0 0 0 0 0 0 0 0 0 0 0 0 0 0 0 0 0 0 0 0 0 0 0 0 0 0 0 0 0 0 0 0 0 0 0 0 0 0 0 0 0 0 0 0 0 0 0 0 0 0 0 0 0 0 0 0 0 0 0 0 0 0 0 0 0 0 0 0 0 0 0 0 0 0 0 0 0 0 0 0 0 0 0 0 0 0 0 0 0 0 0 0 0 0 0 0 0 0 0 0 0 0 0 0 0 0 0 0 0 0 0 0 0 0 0 0 0 0 0 0 0 0 0 0 0 0 0 0 0 0 0 0 0 0 0 0 0 0 0 0 0 0 0 0 0 0 0 0 0 0 0 0 0 0 0 0 0 0 0 0 0 0 0 0 0 0 0 0 0 0 0 0 0 0 0 0 0 0 0 0 0 0 0 0 0 0 0 0 0 0 0 0 0 0 0 0 0 0 0 0 0 0 0 0 0 0 0 0 0 0 0 0 0 0 0 0 0 0 0 0 0 0 0 0 0 0 0 0 0 0 0 0 0 0 0 0 0 0 0 0 0 0 0 0 0 0 0 0 0 0 0 0 0 0 0 0 0 0 0 0 0 0 0 0 0 0 0 0 0 0 0 0 0 0 0 0 0 0 0 0 0 0 0 0 0 0 0 0 0 0 0 0 0 0 0 0 0 0 0 0 0 0 0 0 0 0 0 0 0 0 0 0 0 0 0 0 0 0 0 0 0 0 0 0 0 0 0 0 0 0 0 0 0 0 0 0 0 0 0 0 0 0 0 0 0 0 0 0 0 0 0 0 0 0 0 0 0 0 0 0 0 0 0 0 0 0 0 0 0 0 0 0 0 0 0 0 0 0 0 0 0 0 0 0 0 0 0 0 0 0 0 0 0 0 0 0 0 0 0 0 0 0 0 0 0 0 0 0 0 0 0 0 0 0 0 0 0 0 0 0 0 0 0 0 0 0 0 0 0 0 0 0 0 0 0 0 0 0 0 0 0 0 0 0 0 0 0 0 0 0 0 0 0 0 0 0 0
0 0 0 0 0 0 0 0 0 0 0 0 0 0 0 0 0 0 0 0 0 0 0 0 0 0 0 0 0 0 0 0 0 0 0 0 0 0 0 0 0 0 0 0 0 0 0 0 0 0 0 0 0 0 0 0 0 0 0 0 0 0 0 0 0 0 0 0 0 0 0 0 0 0 0 0 0 0 0 0 0 0 0 0 0 0 0 0 0 0 0 0 0 0 0 0 0 0 0 0 0 0 0 0 0 0 0 0 0 0 0 0 0 0 0 0 0 0 0 0 0 0 0 0 0 0 0 0 0 0 0 0 0 0 0 0 0 0 0 0 0 0 0 0 0 0 0 0 0 0 0 0 0 0 0 0 0 0 0 0 0 0 0 0 0 0 0 0 0 0 0 0 0 0 0 0 0 0 0 0 0 0 0 0 0 0 0 0 0 0 0 0 0 0 0 0 0 0 0 0 0 0 0 0 0 0 0 0 0 0 0 0 0 0 0 0 0 0 0 0 0 0 0 0 0 0 0 0 0 0 0 0 0 0 0 0 0 0 0 0 0 0 0 0 0 0 0 0 0 0 0 0 0 0 0 0 0 0 0 0 0 0 0 0 0 0 0 0 0 0 0 0 0 0 0 0 0 0 0 0 0 0 0 0 0 0 0 0 0 0 0 0 0 0 0 0 0 0 0 0 0 0 0 0 0 0 0 0 0 0 0 0 0 0 0 0 0 0 0 0 0 0 0 0 0 0 0 0 0 0 0 0 0 0 0 0 0 0 0 0 0 0 0 0 0 0 0 0 0 0 0 0 0 0 0 0 0 0 0 0 0 0 0 0 0 0 0 0 0 0 0 0 0 0 0 0 0 0 0 0 0 0 0 0 0 0 0 0 0 0 0 0 0 0 0 0 0 0 0 0 0 0 0 0 0 0 0 0 0 0 0 0 0 0 0 0 0 0 0 0 0 0 0 0 0 0 0 0 0 0 0 0 0 0 0 0 0 0 0 0 0 0 0 0 0 0 0 0 0 0 0 0 0 0 0 0 0 0 0 0 0 0 0 0 0 0 0 0 0 0 0 0 0 0 0 0 0 0 0 0 0 0 0 0 0 0 0 0 0 0 0 0 0 0 0 0 0 0 0 0 0 0 0 0 0 0 0 0 0 0 0 0 0 0 0 0 0 0 0 0 0 0 0 0 0 0 0 0 0 0 0 0 0 0 0 0 0 0 0 0 0 0 0 0 0 0 0 0 0 0 0 0 0 0 0 0 0 0 0 0 0 0 0 0 0 0 0 0 0 0 0 0 0 0 0 0 0 0 0 0 0 0 0 0 0 0 0 0 0 0 0 0 0 0 0 0 0 0 0 0 0 0 0 0 0 0 0 0 0 0 0 0 0 0 0 0 0 0 0 0 0 0 0 0 0 0 0 0 0 0 0 0 0 0 0 0 0 0 0 0 0 0 0 0 0 0 0 0 0 0 0 0 0 0 0 0 0 0 0 0 0 0 0 0 0 0 0 0 0 0 0 0 0 0 0 0 0 0 0 0 0 0 0 0 0 0 0 0 0 0 0 0 0 0 0 0 0 0 0 0 0 0 0 0 0 0 0 0 0 0 0 0 0 0 0 0 0 0 0 0 0 0 0 0 0 0 0 0 0 0 0 0 0 0 0 0 0 0 0 0 0 0 0 0 0 0 0 0 0 0 0 0 0 0 0 0 0 0 0 0 0 0 0 0 0 0 0 0 0 0 0 0 0 0 0 0 0 0 0 0 0 0 0 0 0 0 0 0 0 0 0 0 0 0 0 0 0 0 0 0 0 0 0 0 0 0 0 0 0 0 0 0 0 0 0 0 0 0 0 0 0 0 0 0 0 0 0 0 0 0 0 0 0 0 0 0 0 0 0 0 0 0 0 0 0 0 0 0 0 0 0 0 0 0 0 0 0 0 0 0 0 0 0 0 0 0 0 0 0 0 0 0 0 0 0 0 0 0 0 0 0 0 0 0 0 0 0 0 0 0 0 0 0 0 0 0 0 0 0 0 0 0 0 0 0 0 0 0 0 0 0 0 0 0 0 0 0 0 0 0 0 0 0 0 0 0 0 0 0 0 0 0 0 0 0 0 0 0 0 0 0 0 0 0 0 0 0 0 0 0 0 0 0 0 0 0 0 0 0 0
0 0 0 0 0 0 0 0 0 0 0 0 0 0 0 0 0 0 0 0 0 0 0 0 0 0 0 0 0 0 0 0 0 0 0 0 0 0 0 0 0 0 0 0 0 0 0 0 0 0 0 0 0 0 0 0 0 0 0 0 0 0 0 0 0 0 0 0 0 0 0 0 0 0 0 0 0 0 0 0 0 0 0 0 0 0 0 0 0 0 0 0 0 0 0 0 0 0 0 0 0 0 0 0 0 0 0 0 0 0 0 0 0 0 0 0 0 0 0 0 0 0 0 0 0 0 0 0 0 0 0 0 0 0 0 0 0 0 0 0 0 0 0 0 0 0 0 0 0 0 0 0 0 0 0 0 0 0 0 0 0 0 0 0 0 0 0 0 0 0 0 0 0 0 0 0 0 0 0 0 0 0 0 0 0 0 0 0 0 0 0 0 0 0 0 0 0 0 0 0 0 0 0 0 0 0 0 0 0 0 0 0 0 0 0 0 0 0 0 0 0 0 0 0 0 0 0 0 0 0 0 0 0 0 0 0 0 0 0 0 0 0 0 0 0 0 0 0 0 0 0 0 0 0 0 0 0 0 0 0 0 0 0 0 0 0 0 0 0 0 0 0 0 0 0 0 0 0 0 0 0 0 0 0 0 0 0 0 0 0 0 0 0 0 0 0 0 0 0 0 0 0 0 0 0 0 0 0 0 0 0 0 0 0 0 0 0 0 0 0 0 0 0 0 0 0 0 0 0 0 0 0 0 0 0 0 0 0 0 0 0 0 0 0 0 0 0 0 0 0 0 0 0 0 0 0 0 0 0 0 0 0 0 0 0 0 0 0 0 0 0 0 0 0 0 0 0 0 0 0 0 0 0 0 0 0 0 0 0 0 0 0 0 0 0 0 0 0 0 0 0 0 0 0 0 0 0 0 0 0 0 0 0 0 0 0 0 0 0 0 0 0 0 0 0 0 0 0 0 0 0 0 0 0 0 0 0 0 0 0 0 0 0 0 0 0 0 0 0 0 0 0 0 0 0 0 0 0 0 0 0 0 0 0 0 0 0 0 0 0 0 0 0 0 0 0 0 0 0 0 0 0 0 0 0 0 0 0 0 0 0 0 0 0 0 0 0 0 0 0 0 0 0 0 0 0 0 0 0 0 0 0 0 0 0 0 0 0 0 0 0 0 0 0 0 0 0 0 0 0 0 0 0 0 0 0 0 0 0 0 0 0 0 0 0 0 0 0 0 0 0 0 0 0 0 0 0 0 0 0 0 0 0 0 0 0 0 0 0 0 0 0 0 0 0 0 0 0 0 0 0 0 0 0 0 0 0 0 0 0 0 0 0 0 0 0 0 0 0 0 0 0 0 0 0 0 0 0 0 0 0 0 0 0 0 0 0 0 0 0 0 0 0 0 0 0 0 0 0 0 0 0 0 0 0 0 0 0 0 0 0 0 0 0 0 0 0 0 0 0 0 0 0 0 0 0 0 0 0 0 0 0 0 0 0 0 0 0 0 0 0 0 0 0 0 0 0 0 0 0 0 0 0 0 0 0 0 0 0 0 0 0 0 0 0 0 0 0 0 0 0 0 0 0 0 0 0 0 0 0 0 0 0 0 0 0 0 0 0 0 0 0 0 0 0 0 0 0 0 0 0 0 0 0 0 0 0 0 0 0 0 0 0 0 0 0 0 0 0 0 0 0 0 0 0 0 0 0 0 0 0 0 0 0 0 0 0 0 0 0 0 0 0 0 0 0 0 0 0 0 0 0 0 0 0 0 0 0 0 0 0 0 0 0 0 0 0 0 0 0 0 0 0 0 0 0 0 0 0 0 0 0 0 0 0 0 0 0 0 0 0 0 0 0 0 0 0 0 0 0 0 0 0 0 0 0 0 0 0 0 0 0 0 0 0 0 0 0 0 0 0 0 0 0 0 0 0 0 0 0 0 0 0 0 0 0 0 0 0 0 0 0 0 0 0 0 0 0 0 0 0 0 0 0 0 0 0 0 0 0 0 0 0 0 0 0 0 0 0 0 0 0 0 0 0 0 0 0 0 0 0 0 0 0 0 0 0 0 0 0 0 0 0 0 0 0 0 0 0 0 0 0 0 0 0 0 0 0 0 0 0 0 0 0 0 0 0 0 0 0 0 0 0 0 0 0 0 0 0 0
0 0 0 0 0 0 0 0 0 0 0 0 0 0 0 0 0 0 0 0 0 0 0 0 0 0 0 0 0 0 0 0 0 0 0 0 0 0 0 0 0 0 0 0 0 0 0 0 0 0 0 0 0 0 0 0 0 0 0 0 0 0 0 0 0 0 0 0 0 0 0 0 0 0 0 0 0 0 0 0 0 0 0 0 0 0 0 0 0 0 0 0 0 0 0 0 0 0 0 0 0 0 0 0 0 0 0 0 0 0 0 0 0 0 0 0 0 0 0 0 0 0 0 0 0 0 0 0 0 0 0 0 0 0 0 0 0 0 0 0 0 0 0 0 0 0 0 0 0 0 0 0 0 0 0 0 0 0 0 0 0 0 0 0 0 0 0 0 0 0 0 0 0 0 0 0 0 0 0 0 0 0 0 0 0 0 0 0 0 0 0 0 0 0 0 0 0 0 0 0 0 0 0 0 0 0 0 0 0 0 0 0 0 0 0 0 0 0 0 0 0 0 0 0 0 0 0 0 0 0 0 0 0 0 0 0 0 0 0 0 0 0 0 0 0 0 0 0 0 0 0 0 0 0 0 0 0 0 0 0 0 0 0 0 0 0 0 0 0 0 0 0 0 0 0 0 0 0 0 0 0 0 0 0 0 0 0 0 0 0 0 0 0 0 0 0 0 0 0 0 0 0 0 0 0 0 0 0 0 0 0 0 0 0 0 0 0 0 0 0 0 0 0 0 0 0 0 0 0 0 0 0 0 0 0 0 0 0 0 0 0 0 0 0 0 0 0 0 0 0 0 0 0 0 0 0 0 0 0 0 0 0 0 0 0 0 0 0 0 0 0 0 0 0 0 0 0 0 0 0 0 0 0 0 0 0 0 0 0 0 0 0 0 0 0 0 0 0 0 0 0 0 0 0 0 0 0 0 0 0 0 0 0 0 0 0 0 0 0 0 0 0 0 0 0 0 0 0 0 0 0 0 0 0 0 0 0 0 0 0 0 0 0 0 0 0 0 0 0 0 0 0 0 0 0 0 0 0 0 0 0 0 0 0 0 0 0 0 0 0 0 0 0 0 0 0 0 0 0 0 0 0 0 0 0 0 0 0 0 0 0 0 0 0 0 0 0 0 0 0 0 0 0 0 0 0 0 0 0 0 0 0 0 0 0 0 0 0 0 0 0 0 0 0 0 0 0 0 0 0 0 0 0 0 0 0 0 0 0 0 0 0 0 0 0 0 0 0 0 0 0 0 0 0 0 0 0 0 0 0 0 0 0 0 0 0 0 0 0 0 0 0 0 0 0 0 0 0 0 0 0 0 0 0 0 0 0 0 0 0 0 0 0 0 0 0 0 0 0 0 0 0 0 0 0 0 0 0 0 0 0 0 0 0 0 0 0 0 0 0 0 0 0 0 0 0 0 0 0 0 0 0 0 0 0 0 0 0 0 0 0 0 0 0 0 0 0 0 0 0 0 0 0 0 0 0 0 0 0 0 0 0 0 0 0 0 0 0 0 0 0 0 0 0 0 0 0 0 0 0 0 0 0 0 0 0 0 0 0 0 0 0 0 0 0 0 0 0 0 0 0 0 0 0 0 0 0 0 0 0 0 0 0 0 0 0 0 0 0 0 0 0 0 0 0 0 0 0 0 0 0 0 0 0 0 0 0 0 0 0 0 0 0 0 0 0 0 0 0 0 0 0 0 0 0 0 0 0 0 0 0 0 0 0 0 0 0 0 0 0 0 0 0 0 0 0 0 0 0 0 0 0 0 0 0 0 0 0 0 0 0 0 0 0 0 0 0 0 0 0 0 0 0 0 0 0 0 0 0 0 0 0 0 0 0 0 0 0 0 0 0 0 0 0 0 0 0 0 0 0 0 0 0 0 0 0 0 0 0 0 0 0 0 0 0 0 0 0 0 0 0 0 0 0 0 0 0 0 0 0 0 0 0 0 0 0 0 0 0 0 0 0 0 0 0 0 0 0 0 0 0 0 0 0 0 0 0 0 0 0 0 0 0 0 0 0 0 0 0 0 0 0 0 0 0 0 0 0 0 0 0 0 0 0 0 0 0 0 0 0 0 0 0 0 0 0 0 0 0 0 0 0 0 0 0 0 0 0 0 0 0 0 0 0 0 0 0 0 0 0 0 0 0 0 0 0 0 0 0 0
0 0 0 0 0 0 0 0 0 0 0 0 0 0 0 0 0 0 0 0 0 0 0 0 0 0 0 0 0 0 0 0 0 0 0 0 0 0 0 0 0 0 0 0 0 0 0 0 0 0 0 0 0 0 0 0 0 0 0 0 0 0 0 0 0 0 0 0 0 0 0 0 0 0 0 0 0 0 0 0 0 0 0 0 0 0 0 0 0 0 0 0 0 0 0 0 0 0 0 0 0 0 0 0 0 0 0 0 0 0 0 0 0 0 0 0 0 0 0 0 0 0 0 0 0 0 0 0 0 0 0 0 0 0 0 0 0 0 0 0 0 0 0 0 0 0 0 0 0 0 0 0 0 0 0 0 0 0 0 0 0 0 0 0 0 0 0 0 0 0 0 0 0 0 0 0 0 0 0 0 0 0 0 0 0 0 0 0 0 0 0 0 0 0 0 0 0 0 0 0 0 0 0 0 0 0 0 0 0 0 0 0 0 0 0 0 0 0 0 0 0 0 0 0 0 0 0 0 0 0 0 0 0 0 0 0 0 0 0 0 0 0 0 0 0 0 0 0 0 0 0 0 0 0 0 0 0 0 0 0 0 0 0 0 0 0 0 0 0 0 0 0 0 0 0 0 0 0 0 0 0 0 0 0 0 0 0 0 0 0 0 0 0 0 0 0 0 0 0 0 0 0 0 0 0 0 0 0 0 0 0 0 0 0 0 0 0 0 0 0 0 0 0 0 0 0 0 0 0 0 0 0 0 0 0 0 0 0 0 0 0 0 0 0 0 0 0 0 0 0 0 0 0 0 0 0 0 0 0 0 0 0 0 0 0 0 0 0 0 0 0 0 0 0 0 0 0 0 0 0 0 0 0 0 0 0 0 0 0 0 0 0 0 0 0 0 0 0 0 0 0 0 0 0 0 0 0 0 0 0 0 0 0 0 0 0 0 0 0 0 0 0 0 0 0 0 0 0 0 0 0 0 0 0 0 0 0 0 0 0 0 0 0 0 0 0 0 0 0 0 0 0 0 0 0 0 0 0 0 0 0 0 0 0 0 0 0 0 0 0 0 0 0 0 0 0 0 0 0 0 0 0 0 0 0 0 0 0 0 0 0 0 0 0 0 0 0 0 0 0 0 0 0 0 0 0 0 0 0 0 0 0 0 0 0 0 0 0 0 0 0 0 0 0 0 0 0 0 0 0 0 0 0 0 0 0 0 0 0 0 0 0 0 0 0 0 0 0 0 0 0 0 0 0 0 0 0 0 0 0 0 0 0 0 0 0 0 0 0 0 0 0 0 0 0 0 0 0 0 0 0 0 0 0 0 0 0 0 0 0 0 0 0 0 0 0 0 0 0 0 0 0 0 0 0 0 0 0 0 0 0 0 0 0 0 0 0 0 0 0 0 0 0 0 0 0 0 0 0 0 0 0 0 0 0 0 0 0 0 0 0 0 0 0 0 0 0 0 0 0 0 0 0 0 0 0 0 0 0 0 0 0 0 0 0 0 0 0 0 0 0 0 0 0 0 0 0 0 0 0 0 0 0 0 0 0 0 0 0 0 0 0 0 0 0 0 0 0 0 0 0 0 0 0 0 0 0 0 0 0 0 0 0 0 0 0 0 0 0 0 0 0 0 0 0 0 0 0 0 0 0 0 0 0 0 0 0 0 0 0 0 0 0 0 0 0 0 0 0 0 0 0 0 0 0 0 0 0 0 0 0 0 0 0 0 0 0 0 0 0 0 0 0 0 0 0 0 0 0 0 0 0 0 0 0 0 0 0 0 0 0 0 0 0 0 0 0 0 0 0 0 0 0 0 0 0 0 0 0 0 0 0 0 0 0 0 0 0 0 0 0 0 0 0 0 0 0 0 0 0 0 0 0 0 0 0 0 0 0 0 0 0 0 0 0 0 0 0 0 0 0 0 0 0 0 0 0 0 0 0 0 0 0 0 0 0 0 0 0 0 0 0 0 0 0 0 0 0 0 0 0 0 0 0 0 0 0 0 0 0 0 0 0 0 0 0 0 0 0 0 0 0 0 0 0 0 0 0 0 0 0 0 0 0 0 0 0 0 0 0 0 0 0 0 0 0 0 0 0 0 0 0 0 0 0 0 0 0 0 0 0 0 0 0 0 0 0 0 0 0 0 0 0 0 0 0 0 0 0 0
0 0 0 0 0 0 0 0 0 0 0 0 0 0 0 0 0 0 0 0 0 0 0 0 0 0 0 0 0 0 0 0 0 0 0 0 0 0 0 0 0 0 0 0 0 0 0 0 0 0 0 0 0 0 0 0 0 0 0 0 0 0 0 0 0 0 0 0 0 0 0 0 0 0 0 0 0 0 0 0 0 0 0 0 0 0 0 0 0 0 0 0 0 0 0 0 0 0 0 0 0 0 0 0 0 0 0 0 0 0 0 0 0 0 0 0 0 0 0 0 0 0 0 0 0 0 0 0 0 0 0 0 0 0 0 0 0 0 0 0 0 0 0 0 0 0 0 0 0 0 0 0 0 0 0 0 0 0 0 0 0 0 0 0 0 0 0 0 0 0 0 0 0 0 0 0 0 0 0 0 0 0 0 0 0 0 0 0 0 0 0 0 0 0 0 0 0 0 0 0 0 0 0 0 0 0 0 0 0 0 0 0 0 0 0 0 0 0 0 0 0 0 0 0 0 0 0 0 0 0 0 0 0 0 0 0 0 0 0 0 0 0 0 0 0 0 0 0 0 0 0 0 0 0 0 0 0 0 0 0 0 0 0 0 0 0 0 0 0 0 0 0 0 0 0 0 0 0 0 0 0 0 0 0 0 0 0 0 0 0 0 0 0 0 0 0 0 0 0 0 0 0 0 0 0 0 0 0 0 0 0 0 0 0 0 0 0 0 0 0 0 0 0 0 0 0 0 0 0 0 0 0 0 0 0 0 0 0 0 0 0 0 0 0 0 0 0 0 0 0 0 0 0 0 0 0 0 0 0 0 0 0 0 0 0 0 0 0 0 0 0 0 0 0 0 0 0 0 0 0 0 0 0 0 0 0 0 0 0 0 0 0 0 0 0 0 0 0 0 0 0 0 0 0 0 0 0 0 0 0 0 0 0 0 0 0 0 0 0 0 0 0 0 0 0 0 0 0 0 0 0 0 0 0 0 0 0 0 0 0 0 0 0 0 0 0 0 0 0 0 0 0 0 0 0 0 0 0 0 0 0 0 0 0 0 0 0 0 0 0 0 0 0 0 0 0 0 0 0 0 0 0 0 0 0 0 0 0 0 0 0 0 0 0 0 0 0 0 0 0 0 0 0 0 0 0 0 0 0 0 0 0 0 0 0 0 0 0 0 0 0 0 0 0 0 0 0 0 0 0 0 0 0 0 0 0 0 0 0 0 0 0 0 0 0 0 0 0 0 0 0 0 0 0 0 0 0 0 0 0 0 0 0 0 0 0 0 0 0 0 0 0 0 0 0 0 0 0 0 0 0 0 0 0 0 0 0 0 0 0 0 0 0 0 0 0 0 0 0 0 0 0 0 0 0 0 0 0 0 0 0 0 0 0 0 0 0 0 0 0 0 0 0 0 0 0 0 0 0 0 0 0 0 0 0 0 0 0 0 0 0 0 0 0 0 0 0 0 0 0 0 0 0 0 0 0 0 0 0 0 0 0 0 0 0 0 0 0 0 0 0 0 0 0 0 0 0 0 0 0 0 0 0 0 0 0 0 0 0 0 0 0 0 0 0 0 0 0 0 0 0 0 0 0 0 0 0 0 0 0 0 0 0 0 0 0 0 0 0 0 0 0 0 0 0 0 0 0 0 0 0 0 0 0 0 0 0 0 0 0 0 0 0 0 0 0 0 0 0 0 0 0 0 0 0 0 0 0 0 0 0 0 0 0 0 0 0 0 0 0 0 0 0 0 0 0 0 0 0 0 0 0 0 0 0 0 0 0 0 0 0 0 0 0 0 0 0 0 0 0 0 0 0 0 0 0 0 0 0 0 0 0 0 0 0 0 0 0 0 0 0 0 0 0 0 0 0 0 0 0 0 0 0 0 0 0 0 0 0 0 0 0 0 0 0 0 0 0 0 0 0 0 0 0 0 0 0 0 0 0 0 0 0 0 0 0 0 0 0 0 0 0 0 0 0 0 0 0 0 0 0 0 0 0 0 0 0 0 0 0 0 0 0 0 0 0 0 0 0 0 0 0 0 0 0 0 0 0 0 0 0 0 0 0 0 0 0 0 0 0 0 0 0 0 0 0 0 0 0 0 0 0 0 0 0 0 0 0 0 0 0 0 0 0 0 0 0 0 0 0 0 0 0 0 0 0 0 0 0 0
0 0 0 0 0 0 0 0 0 0 0 0 0 0 0 0 0 0 0 0 0 0 0 0 0 0 0 0 0 0 0 0 0 0 0 0 0 0 0 0 0 0 0 0 0 0 0 0 0 0 0 0 0 0 0 0 0 0 0 0 0 0 0 0 0 0 0 0 0 0 0 0 0 0 0 0 0 0 0 0 0 0 0 0 0 0 0 0 0 0 0 0 0 0 0 0 0 0 0 0 0 0 0 0 0 0 0 0 0 0 0 0 0 0 0 0 0 0 0 0 0 0 0 0 0 0 0 0 0 0 0 0 0 0 0 0 0 0 0 0 0 0 0 0 0 0 0 0 0 0 0 0 0 0 0 0 0 0 0 0 0 0 0 0 0 0 0 0 0 0 0 0 0 0 0 0 0 0 0 0 0 0 0 0 0 0 0 0 0 0 0 0 0 0 0 0 0 0 0 0 0 0 0 0 0 0 0 0 0 0 0 0 0 0 0 0 0 0 0 0 0 0 0 0 0 0 0 0 0 0 0 0 0 0 0 0 0 0 0 0 0 0 0 0 0 0 0 0 0 0 0 0 0 0 0 0 0 0 0 0 0 0 0 0 0 0 0 0 0 0 0 0 0 0 0 0 0 0 0 0 0 0 0 0 0 0 0 0 0 0 0 0 0 0 0 0 0 0 0 0 0 0 0 0 0 0 0 0 0 0 0 0 0 0 0 0 0 0 0 0 0 0 0 0 0 0 0 0 0 0 0 0 0 0 0 0 0 0 0 0 0 0 0 0 0 0 0 0 0 0 0 0 0 0 0 0 0 0 0 0 0 0 0 0 0 0 0 0 0 0 0 0 0 0 0 0 0 0 0 0 0 0 0 0 0 0 0 0 0 0 0 0 0 0 0 0 0 0 0 0 0 0 0 0 0 0 0 0 0 0 0 0 0 0 0 0 0 0 0 0 0 0 0 0 0 0 0 0 0 0 0 0 0 0 0 0 0 0 0 0 0 0 0 0 0 0 0 0 0 0 0 0 0 0 0 0 0 0 0 0 0 0 0 0 0 0 0 0 0 0 0 0 0 0 0 0 0 0 0 0 0 0 0 0 0 0 0 0 0 0 0 0 0 0 0 0 0 0 0 0 0 0 0 0 0 0 0 0 0 0 0 0 0 0 0 0 0 0 0 0 0 0 0 0 0 0 0 0 0 0 0 0 0 0 0 0 0 0 0 0 0 0 0 0 0 0 0 0 0 0 0 0 0 0 0 0 0 0 0 0 0 0 0 0 0 0 0 0 0 0 0 0 0 0 0 0 0 0 0 0 0 0 0 0 0 0 0 0 0 0 0 0 0 0 0 0 0 0 0 0 0 0 0 0 0 0 0 0 0 0 0 0 0 0 0 0 0 0 0 0 0 0 0 0 0 0 0 0 0 0 0 0 0 0 0 0 0 0 0 0 0 0 0 0 0 0 0 0 0 0 0 0 0 0 0 0 0 0 0 0 0 0 0 0 0 0 0 0 0 0 0 0 0 0 0 0 0 0 0 0 0 0 0 0 0 0 0 0 0 0 0 0 0 0 0 0 0 0 0 0 0 0 0 0 0 0 0 0 0 0 0 0 0 0 0 0 0 0 0 0 0 0 0 0 0 0 0 0 0 0 0 0 0 0 0 0 0 0 0 0 0 0 0 0 0 0 0 0 0 0 0 0 0 0 0 0 0 0 0 0 0 0 0 0 0 0 0 0 0 0 0 0 0 0 0 0 0 0 0 0 0 0 0 0 0 0 0 0 0 0 0 0 0 0 0 0 0 0 0 0 0 0 0 0 0 0 0 0 0 0 0 0 0 0 0 0 0 0 0 0 0 0 0 0 0 0 0 0 0 0 0 0 0 0 0 0 0 0 0 0 0 0 0 0 0 0 0 0 0 0 0 0 0 0 0 0 0 0 0 0 0 0 0 0 0 0 0 0 0 0 0 0 0 0 0 0 0 0 0 0 0 0 0 0 0 0 0 0 0 0 0 0 0 0 0 0 0 0 0 0 0 0 0 0 0 0 0 0 0 0 0 0 0 0 0 0 0 0 0 0 0 0 0 0 0 0 0 0 0 0 0 0 0 0 0 0 0 0 0 0 0 0 0 0 0 0 0 0 0 0 0 0 0 0 0 0 0 0 0 0
0 0 0 0 0 0 0 0 0 0 0 0 0 0 0 0 0 0 0 0 0 0 0 0 0 0 0 0 0 0 0 0 0 0 0 0 0 0 0 0 0 0 0 0 0 0 0 0 0 0 0 0 0 0 0 0 0 0 0 0 0 0 0 0 0 0 0 0 0 0 0 0 0 0 0 0 0 0 0 0 0 0 0 0 0 0 0 0 0 0 0 0 0 0 0 0 0 0 0 0 0 0 0 0 0 0 0 0 0 0 0 0 0 0 0 0 0 0 0 0 0 0 0 0 0 0 0 0 0 0 0 0 0 0 0 0 0 0 0 0 0 0 0 0 0 0 0 0 0 0 0 0 0 0 0 0 0 0 0 0 0 0 0 0 0 0 0 0 0 0 0 0 0 0 0 0 0 0 0 0 0 0 0 0 0 0 0 0 0 0 0 0 0 0 0 0 0 0 0 0 0 0 0 0 0 0 0 0 0 0 0 0 0 0 0 0 0 0 0 0 0 0 0 0 0 0 0 0 0 0 0 0 0 0 0 0 0 0 0 0 0 0 0 0 0 0 0 0 0 0 0 0 0 0 0 0 0 0 0 0 0 0 0 0 0 0 0 0 0 0 0 0 0 0 0 0 0 0 0 0 0 0 0 0 0 0 0 0 0 0 0 0 0 0 0 0 0 0 0 0 0 0 0 0 0 0 0 0 0 0 0 0 0 0 0 0 0 0 0 0 0 0 0 0 0 0 0 0 0 0 0 0 0 0 0 0 0 0 0 0 0 0 0 0 0 0 0 0 0 0 0 0 0 0 0 0 0 0 0 0 0 0 0 0 0 0 0 0 0 0 0 0 0 0 0 0 0 0 0 0 0 0 0 0 0 0 0 0 0 0 0 0 0 0 0 0 0 0 0 0 0 0 0 0 0 0 0 0 0 0 0 0 0 0 0 0 0 0 0 0 0 0 0 0 0 0 0 0 0 0 0 0 0 0 0 0 0 0 0 0 0 0 0 0 0 0 0 0 0 0 0 0 0 0 0 0 0 0 0 0 0 0 0 0 0 0 0 0 0 0 0 0 0 0 0 0 0 0 0 0 0 0 0 0 0 0 0 0 0 0 0 0 0 0 0 0 0 0 0 0 0 0 0 0 0 0 0 0 0 0 0 0 0 0 0 0 0 0 0 0 0 0 0 0 0 0 0 0 0 0 0 0 0 0 0 0 0 0 0 0 0 0 0 0 0 0 0 0 0 0 0 0 0 0 0 0 0 0 0 0 0 0 0 0 0 0 0 0 0 0 0 0 0 0 0 0 0 0 0 0 0 0 0 0 0 0 0 0 0 0 0 0 0 0 0 0 0 0 0 0 0 0 0 0 0 0 0 0 0 0 0 0 0 0 0 0 0 0 0 0 0 0 0 0 0 0 0 0 0 0 0 0 0 0 0 0 0 0 0 0 0 0 0 0 0 0 0 0 0 0 0 0 0 0 0 0 0 0 0 0 0 0 0 0 0 0 0 0 0 0 0 0 0 0 0 0 0 0 0 0 0 0 0 0 0 0 0 0 0 0 0 0 0 0 0 0 0 0 0 0 0 0 0 0 0 0 0 0 0 0 0 0 0 0 0 0 0 0 0 0 0 0 0 0 0 0 0 0 0 0 0 0 0 0 0 0 0 0 0 0 0 0 0 0 0 0 0 0 0 0 0 0 0 0 0 0 0 0 0 0 0 0 0 0 0 0 0 0 0 0 0 0 0 0 0 0 0 0 0 0 0 0 0 0 0 0 0 0 0 0 0 0 0 0 0 0 0 0 0 0 0 0 0 0 0 0 0 0 0 0 0 0 0 0 0 0 0 0 0 0 0 0 0 0 0 0 0 0 0 0 0 0 0 0 0 0 0 0 0 0 0 0 0 0 0 0 0 0 0 0 0 0 0 0 0 0 0 0 0 0 0 0 0 0 0 0 0 0 0 0 0 0 0 0 0 0 0 0 0 0 0 0 0 0 0 0 0 0 0 0 0 0 0 0 0 0 0 0 0 0 0 0 0 0 0 0 0 0 0 0 0 0 0 0 0 0 0 0 0 0 0 0 0 0 0 0 0 0 0 0 0 0 0 0 0 0 0 0 0 0 0 0 0 0 0 0 0 0 0 0 0 0 0 0 0 0 0 0 0 0
0 0 0 0 0 0 0 0 0 0 0 0 0 0 0 0 0 0 0 0 0 0 0 0 0 0 0 0 0 0 0 0 0 0 0 0 0 0 0 0 0 0 0 0 0 0 0 0 0 0 0 0 0 0 0 0 0 0 0 0 0 0 0 0 0 0 0 0 0 0 0 0 0 0 0 0 0 0 0 0 0 0 0 0 0 0 0 0 0 0 0 0 0 0 0 0 0 0 0 0 0 0 0 0 0 0 0 0 0 0 0 0 0 0 0 0 0 0 0 0 0 0 0 0 0 0 0 0 0 0 0 0 0 0 0 0 0 0 0 0 0 0 0 0 0 0 0 0 0 0 0 0 0 0 0 0 0 0 0 0 0 0 0 0 0 0 0 0 0 0 0 0 0 0 0 0 0 0 0 0 0 0 0 0 0 0 0 0 0 0 0 0 0 0 0 0 0 0 0 0 0 0 0 0 0 0 0 0 0 0 0 0 0 0 0 0 0 0 0 0 0 0 0 0 0 0 0 0 0 0 0 0 0 0 0 0 0 0 0 0 0 0 0 0 0 0 0 0 0 0 0 0 0 0 0 0 0 0 0 0 0 0 0 0 0 0 0 0 0 0 0 0 0 0 0 0 0 0 0 0 0 0 0 0 0 0 0 0 0 0 0 0 0 0 0 0 0 0 0 0 0 0 0 0 0 0 0 0 0 0 0 0 0 0 0 0 0 0 0 0 0 0 0 0 0 0 0 0 0 0 0 0 0 0 0 0 0 0 0 0 0 0 0 0 0 0 0 0 0 0 0 0 0 0 0 0 0 0 0 0 0 0 0 0 0 0 0 0 0 0 0 0 0 0 0 0 0 0 0 0 0 0 0 0 0 0 0 0 0 0 0 0 0 0 0 0 0 0 0 0 0 0 0 0 0 0 0 0 0 0 0 0 0 0 0 0 0 0 0 0 0 0 0 0 0 0 0 0 0 0 0 0 0 0 0 0 0 0 0 0 0 0 0 0 0 0 0 0 0 0 0 0 0 0 0 0 0 0 0 0 0 0 0 0 0 0 0 0 0 0 0 0 0 0 0 0 0 0 0 0 0 0 0 0 0 0 0 0 0 0 0 0 0 0 0 0 0 0 0 0 0 0 0 0 0 0 0 0 0 0 0 0 0 0 0 0 0 0 0 0 0 0 0 0 0 0 0 0 0 0 0 0 0 0 0 0 0 0 0 0 0 0 0 0 0 0 0 0 0 0 0 0 0 0 0 0 0 0 0 0 0 0 0 0 0 0 0 0 0 0 0 0 0 0 0 0 0 0 0 0 0 0 0 0 0 0 0 0 0 0 0 0 0 0 0 0 0 0 0 0 0 0 0 0 0 0 0 0 0 0 0 0 0 0 0 0 0 0 0 0 0 0 0 0 0 0 0 0 0 0 0 0 0 0 0 0 0 0 0 0 0 0 0 0 0 0 0 0 0 0 0 0 0 0 0 0 0 0 0 0 0 0 0 0 0 0 0 0 0 0 0 0 0 0 0 0 0 0 0 0 0 0 0 0 0 0 0 0 0 0 0 0 0 0 0 0 0 0 0 0 0 0 0 0 0 0 0 0 0 0 0 0 0 0 0 0 0 0 0 0 0 0 0 0 0 0 0 0 0 0 0 0 0 0 0 0 0 0 0 0 0 0 0 0 0 0 0 0 0 0 0 0 0 0 0 0 0 0 0 0 0 0 0 0 0 0 0 0 0 0 0 0 0 0 0 0 0 0 0 0 0 0 0 0 0 0 0 0 0 0 0 0 0 0 0 0 0 0 0 0 0 0 0 0 0 0 0 0 0 0 0 0 0 0 0 0 0 0 0 0 0 0 0 0 0 0 0 0 0 0 0 0 0 0 0 0 0 0 0 0 0 0 0 0 0 0 0 0 0 0 0 0 0 0 0 0 0 0 0 0 0 0 0 0 0 0 0 0 0 0 0 0 0 0 0 0 0 0 0 0 0 0 0 0 0 0 0 0 0 0 0 0 0 0 0 0 0 0 0 0 0 0 0 0 0 0 0 0 0 0 0 0 0 0 0 0 0 0 0 0 0 0 0 0 0 0 0 0 0 0 0 0 0 0 0 0 0 0 0 0 0 0 0 0 0 0 0 0 0 0 0 0 0 0 0 0 0 0 0 0
0 0 0 0 0 0 0 0 0 0 0 0 0 0 0 0 0 0 0 0 0 0 0 0 0 0 0 0 0 0 0 0 0 0 0 0 0 0 0 0 0 0 0 0 0 0 0 0 0 0 0 0 0 0 0 0 0 0 0 0 0 0 0 0 0 0 0 0 0 0 0 0 0 0 0 0 0 0 0 0 0 0 0 0 0 0 0 0 0 0 0 0 0 0 0 0 0 0 0 0 0 0 0 0 0 0 0 0 0 0 0 0 0 0 0 0 0 0 0 0 0 0 0 0 0 0 0 0 0 0 0 0 0 0 0 0 0 0 0 0 0 0 0 0 0 0 0 0 0 0 0 0 0 0 0 0 0 0 0 0 0 0 0 0 0 0 0 0 0 0 0 0 0 0 0 0 0 0 0 0 0 0 0 0 0 0 0 0 0 0 0 0 0 0 0 0 0 0 0 0 0 0 0 0 0 0 0 0 0 0 0 0 0 0 0 0 0 0 0 0 0 0 0 0 0 0 0 0 0 0 0 0 0 0 0 0 0 0 0 0 0 0 0 0 0 0 0 0 0 0 0 0 0 0 0 0 0 0 0 0 0 0 0 0 0 0 0 0 0 0 0 0 0 0 0 0 0 0 0 0 0 0 0 0 0 0 0 0 0 0 0 0 0 0 0 0 0 0 0 0 0 0 0 0 0 0 0 0 0 0 0 0 0 0 0 0 0 0 0 0 0 0 0 0 0 0 0 0 0 0 0 0 0 0 0 0 0 0 0 0 0 0 0 0 0 0 0 0 0 0 0 0 0 0 0 0 0 0 0 0 0 0 0 0 0 0 0 0 0 0 0 0 0 0 0 0 0 0 0 0 0 0 0 0 0 0 0 0 0 0 0 0 0 0 0 0 0 0 0 0 0 0 0 0 0 0 0 0 0 0 0 0 0 0 0 0 0 0 0 0 0 0 0 0 0 0 0 0 0 0 0 0 0 0 0 0 0 0 0 0 0 0 0 0 0 0 0 0 0 0 0 0 0 0 0 0 0 0 0 0 0 0 0 0 0 0 0 0 0 0 0 0 0 0 0 0 0 0 0 0 0 0 0 0 0 0 0 0 0 0 0 0 0 0 0 0 0 0 0 0 0 0 0 0 0 0 0 0 0 0 0 0 0 0 0 0 0 0 0 0 0 0 0 0 0 0 0 0 0 0 0 0 0 0 0 0 0 0 0 0 0 0 0 0 0 0 0 0 0 0 0 0 0 0 0 0 0 0 0 0 0 0 0 0 0 0 0 0 0 0 0 0 0 0 0 0 0 0 0 0 0 0 0 0 0 0 0 0 0 0 0 0 0 0 0 0 0 0 0 0 0 0 0 0 0 0 0 0 0 0 0 0 0 0 0 0 0 0 0 0 0 0 0 0 0 0 0 0 0 0 0 0 0 0 0 0 0 0 0 0 0 0 0 0 0 0 0 0 0 0 0 0 0 0 0 0 0 0 0 0 0 0 0 0 0 0 0 0 0 0 0 0 0 0 0 0 0 0 0 0 0 0 0 0 0 0 0 0 0 0 0 0 0 0 0 0 0 0 0 0 0 0 0 0 0 0 0 0 0 0 0 0 0 0 0 0 0 0 0 0 0 0 0 0 0 0 0 0 0 0 0 0 0 0 0 0 0 0 0 0 0 0 0 0 0 0 0 0 0 0 0 0 0 0 0 0 0 0 0 0 0 0 0 0 0 0 0 0 0 0 0 0 0 0 0 0 0 0 0 0 0 0 0 0 0 0 0 0 0 0 0 0 0 0 0 0 0 0 0 0 0 0 0 0 0 0 0 0 0 0 0 0 0 0 0 0 0 0 0 0 0 0 0 0 0 0 0 0 0 0 0 0 0 0 0 0 0 0 0 0 0 0 0 0 0 0 0 0 0 0 0 0 0 0 0 0 0 0 0 0 0 0 0 0 0 0 0 0 0 0 0 0 0 0 0 0 0 0 0 0 0 0 0 0 0 0 0 0 0 0 0 0 0 0 0 0 0 0 0 0 0 0 0 0 0 0 0 0 0 0 0 0 0 0 0 0 0 0 0 0 0 0 0 0 0 0 0 0 0 0 0 0 0 0 0 0 0 0 0 0 0 0 0 0 0 0 0 0 0 0 0 0 0 0 0 0 0 0 0 0
0 0 0 0 0 0 0 0 0 0 0 0 0 0 0 0 0 0 0 0 0 0 0 0 0 0 0 0 0 0 0 0 0 0 0 0 0 0 0 0 0 0 0 0 0 0 0 0 0 0 0 0 0 0 0 0 0 0 0 0 0 0 0 0 0 0 0 0 0 0 0 0 0 0 0 0 0 0 0 0 0 0 0 0 0 0 0 0 0 0 0 0 0 0 0 0 0 0 0 0 0 0 0 0 0 0 0 0 0 0 0 0 0 0 0 0 0 0 0 0 0 0 0 0 0 0 0 0 0 0 0 0 0 0 0 0 0 0 0 0 0 0 0 0 0 0 0 0 0 0 0 0 0 0 0 0 0 0 0 0 0 0 0 0 0 0 0 0 0 0 0 0 0 0 0 0 0 0 0 0 0 0 0 0 0 0 0 0 0 0 0 0 0 0 0 0 0 0 0 0 0 0 0 0 0 0 0 0 0 0 0 0 0 0 0 0 0 0 0 0 0 0 0 0 0 0 0 0 0 0 0 0 0 0 0 0 0 0 0 0 0 0 0 0 0 0 0 0 0 0 0 0 0 0 0 0 0 0 0 0 0 0 0 0 0 0 0 0 0 0 0 0 0 0 0 0 0 0 0 0 0 0 0 0 0 0 0 0 0 0 0 0 0 0 0 0 0 0 0 0 0 0 0 0 0 0 0 0 0 0 0 0 0 0 0 0 0 0 0 0 0 0 0 0 0 0 0 0 0 0 0 0 0 0 0 0 0 0 0 0 0 0 0 0 0 0 0 0 0 0 0 0 0 0 0 0 0 0 0 0 0 0 0 0 0 0 0 0 0 0 0 0 0 0 0 0 0 0 0 0 0 0 0 0 0 0 0 0 0 0 0 0 0 0 0 0 0 0 0 0 0 0 0 0 0 0 0 0 0 0 0 0 0 0 0 0 0 0 0 0 0 0 0 0 0 0 0 0 0 0 0 0 0 0 0 0 0 0 0 0 0 0 0 0 0 0 0 0 0 0 0 0 0 0 0 0 0 0 0 0 0 0 0 0 0 0 0 0 0 0 0 0 0 0 0 0 0 0 0 0 0 0 0 0 0 0 0 0 0 0 0 0 0 0 0 0 0 0 0 0 0 0 0 0 0 0 0 0 0 0 0 0 0 0 0 0 0 0 0 0 0 0 0 0 0 0 0 0 0 0 0 0 0 0 0 0 0 0 0 0 0 0 0 0 0 0 0 0 0 0 0 0 0 0 0 0 0 0 0 0 0 0 0 0 0 0 0 0 0 0 0 0 0 0 0 0 0 0 0 0 0 0 0 0 0 0 0 0 0 0 0 0 0 0 0 0 0 0 0 0 0 0 0 0 0 0 0 0 0 0 0 0 0 0 0 0 0 0 0 0 0 0 0 0 0 0 0 0 0 0 0 0 0 0 0 0 0 0 0 0 0 0 0 0 0 0 0 0 0 0 0 0 0 0 0 0 0 0 0 0 0 0 0 0 0 0 0 0 0 0 0 0 0 0 0 0 0 0 0 0 0 0 0 0 0 0 0 0 0 0 0 0 0 0 0 0 0 0 0 0 0 0 0 0 0 0 0 0 0 0 0 0 0 0 0 0 0 0 0 0 0 0 0 0 0 0 0 0 0 0 0 0 0 0 0 0 0 0 0 0 0 0 0 0 0 0 0 0 0 0 0 0 0 0 0 0 0 0 0 0 0 0 0 0 0 0 0 0 0 0 0 0 0 0 0 0 0 0 0 0 0 0 0 0 0 0 0 0 0 0 0 0 0 0 0 0 0 0 0 0 0 0 0 0 0 0 0 0 0 0 0 0 0 0 0 0 0 0 0 0 0 0 0 0 0 0 0 0 0 0 0 0 0 0 0 0 0 0 0 0 0 0 0 0 0 0 0 0 0 0 0 0 0 0 0 0 0 0 0 0 0 0 0 0 0 0 0 0 0 0 0 0 0 0 0 0 0 0 0 0 0 0 0 0 0 0 0 0 0 0 0 0 0 0 0 0 0 0 0 0 0 0 0 0 0 0 0 0 0 0 0 0 0 0 0 0 0 0 0 0 0 0 0 0 0 0 0 0 0 0 0 0 0 0 0 0 0 0 0 0 0 0 0 0 0 0 0 0 0 0 0 0 0 0 0 0 0 0 0 0
0 0 0 0 0 0 0 0 0 0 0 0 0 0 0 0 0 0 0 0 0 0 0 0 0 0 0 0 0 0 0 0 0 0 0 0 0 0 0 0 0 0 0 0 0 0 0 0 0 0 0 0 0 0 0 0 0 0 0 0 0 0 0 0 0 0 0 0 0 0 0 0 0 0 0 0 0 0 0 0 0 0 0 0 0 0 0 0 0 0 0 0 0 0 0 0 0 0 0 0 0 0 0 0 0 0 0 0 0 0 0 0 0 0 0 0 0 0 0 0 0 0 0 0 0 0 0 0 0 0 0 0 0 0 0 0 0 0 0 0 0 0 0 0 0 0 0 0 0 0 0 0 0 0 0 0 0 0 0 0 0 0 0 0 0 0 0 0 0 0 0 0 0 0 0 0 0 0 0 0 0 0 0 0 0 0 0 0 0 0 0 0 0 0 0 0 0 0 0 0 0 0 0 0 0 0 0 0 0 0 0 0 0 0 0 0 0 0 0 0 0 0 0 0 0 0 0 0 0 0 0 0 0 0 0 0 0 0 0 0 0 0 0 0 0 0 0 0 0 0 0 0 0 0 0 0 0 0 0 0 0 0 0 0 0 0 0 0 0 0 0 0 0 0 0 0 0 0 0 0 0 0 0 0 0 0 0 0 0 0 0 0 0 0 0 0 0 0 0 0 0 0 0 0 0 0 0 0 0 0 0 0 0 0 0 0 0 0 0 0 0 0 0 0 0 0 0 0 0 0 0 0 0 0 0 0 0 0 0 0 0 0 0 0 0 0 0 0 0 0 0 0 0 0 0 0 0 0 0 0 0 0 0 0 0 0 0 0 0 0 0 0 0 0 0 0 0 0 0 0 0 0 0 0 0 0 0 0 0 0 0 0 0 0 0 0 0 0 0 0 0 0 0 0 0 0 0 0 0 0 0 0 0 0 0 0 0 0 0 0 0 0 0 0 0 0 0 0 0 0 0 0 0 0 0 0 0 0 0 0 0 0 0 0 0 0 0 0 0 0 0 0 0 0 0 0 0 0 0 0 0 0 0 0 0 0 0 0 0 0 0 0 0 0 0 0 0 0 0 0 0 0 0 0 0 0 0 0 0 0 0 0 0 0 0 0 0 0 0 0 0 0 0 0 0 0 0 0 0 0 0 0 0 0 0 0 0 0 0 0 0 0 0 0 0 0 0 0 0 0 0 0 0 0 0 0 0 0 0 0 0 0 0 0 0 0 0 0 0 0 0 0 0 0 0 0 0 0 0 0 0 0 0 0 0 0 0 0 0 0 0 0 0 0 0 0 0 0 0 0 0 0 0 0 0 0 0 0 0 0 0 0 0 0 0 0 0 0 0 0 0 0 0 0 0 0 0 0 0 0 0 0 0 0 0 0 0 0 0 0 0 0 0 0 0 0 0 0 0 0 0 0 0 0 0 0 0 0 0 0 0 0 0 0 0 0 0 0 0 0 0 0 0 0 0 0 0 0 0 0 0 0 0 0 0 0 0 0 0 0 0 0 0 0 0 0 0 0 0 0 0 0 0 0 0 0 0 0 0 0 0 0 0 0 0 0 0 0 0 0 0 0 0 0 0 0 0 0 0 0 0 0 0 0 0 0 0 0 0 0 0 0 0 0 0 0 0 0 0 0 0 0 0 0 0 0 0 0 0 0 0 0 0 0 0 0 0 0 0 0 0 0 0 0 0 0 0 0 0 0 0 0 0 0 0 0 0 0 0 0 0 0 0 0 0 0 0 0 0 0 0 0 0 0 0 0 0 0 0 0 0 0 0 0 0 0 0 0 0 0 0 0 0 0 0 0 0 0 0 0 0 0 0 0 0 0 0 0 0 0 0 0 0 0 0 0 0 0 0 0 0 0 0 0 0 0 0 0 0 0 0 0 0 0 0 0 0 0 0 0 0 0 0 0 0 0 0 0 0 0 0 0 0 0 0 0 0 0 0 0 0 0 0 0 0 0 0 0 0 0 0 0 0 0 0 0 0 0 0 0 0 0 0 0 0 0 0 0 0 0 0 0 0 0 0 0 0 0 0 0 0 0 0 0 0 0 0 0 0 0 0 0 0 0 0 0 0 0 0 0 0 0 0 0 0 0 0 0 0 0 0 0 0 0 0 0 0 0 0 0 0 0 0 0 0 0 0 0 0 0
0 0 0 0 0 0 0 0 0 0 0 0 0 0 0 0 0 0 0 0 0 0 0 0 0 0 0 0 0 0 0 0 0 0 0 0 0 0 0 0 0 0 0 0 0 0 0 0 0 0 0 0 0 0 0 0 0 0 0 0 0 0 0 0 0 0 0 0 0 0 0 0 0 0 0 0 0 0 0 0 0 0 0 0 0 0 0 0 0 0 0 0 0 0 0 0 0 0 0 0 0 0 0 0 0 0 0 0 0 0 0 0 0 0 0 0 0 0 0 0 0 0 0 0 0 0 0 0 0 0 0 0 0 0 0 0 0 0 0 0 0 0 0 0 0 0 0 0 0 0 0 0 0 0 0 0 0 0 0 0 0 0 0 0 0 0 0 0 0 0 0 0 0 0 0 0 0 0 0 0 0 0 0 0 0 0 0 0 0 0 0 0 0 0 0 0 0 0 0 0 0 0 0 0 0 0 0 0 0 0 0 0 0 0 0 0 0 0 0 0 0 0 0 0 0 0 0 0 0 0 0 0 0 0 0 0 0 0 0 0 0 0 0 0 0 0 0 0 0 0 0 0 0 0 0 0 0 0 0 0 0 0 0 0 0 0 0 0 0 0 0 0 0 0 0 0 0 0 0 0 0 0 0 0 0 0 0 0 0 0 0 0 0 0 0 0 0 0 0 0 0 0 0 0 0 0 0 0 0 0 0 0 0 0 0 0 0 0 0 0 0 0 0 0 0 0 0 0 0 0 0 0 0 0 0 0 0 0 0 0 0 0 0 0 0 0 0 0 0 0 0 0 0 0 0 0 0 0 0 0 0 0 0 0 0 0 0 0 0 0 0 0 0 0 0 0 0 0 0 0 0 0 0 0 0 0 0 0 0 0 0 0 0 0 0 0 0 0 0 0 0 0 0 0 0 0 0 0 0 0 0 0 0 0 0 0 0 0 0 0 0 0 0 0 0 0 0 0 0 0 0 0 0 0 0 0 0 0 0 0 0 0 0 0 0 0 0 0 0 0 0 0 0 0 0 0 0 0 0 0 0 0 0 0 0 0 0 0 0 0 0 0 0 0 0 0 0 0 0 0 0 0 0 0 0 0 0 0 0 0 0 0 0 0 0 0 0 0 0 0 0 0 0 0 0 0 0 0 0 0 0 0 0 0 0 0 0 0 0 0 0 0 0 0 0 0 0 0 0 0 0 0 0 0 0 0 0 0 0 0 0 0 0 0 0 0 0 0 0 0 0 0 0 0 0 0 0 0 0 0 0 0 0 0 0 0 0 0 0 0 0 0 0 0 0 0 0 0 0 0 0 0 0 0 0 0 0 0 0 0 0 0 0 0 0 0 0 0 0 0 0 0 0 0 0 0 0 0 0 0 0 0 0 0 0 0 0 0 0 0 0 0 0 0 0 0 0 0 0 0 0 0 0 0 0 0 0 0 0 0 0 0 0 0 0 0 0 0 0 0 0 0 0 0 0 0 0 0 0 0 0 0 0 0 0 0 0 0 0 0 0 0 0 0 0 0 0 0 0 0 0 0 0 0 0 0 0 0 0 0 0 0 0 0 0 0 0 0 0 0 0 0 0 0 0 0 0 0 0 0 0 0 0 0 0 0 0 0 0 0 0 0 0 0 0 0 0 0 0 0 0 0 0 0 0 0 0 0 0 0 0 0 0 0 0 0 0 0 0 0 0 0 0 0 0 0 0 0 0 0 0 0 0 0 0 0 0 0 0 0 0 0 0 0 0 0 0 0 0 0 0 0 0 0 0 0 0 0 0 0 0 0 0 0 0 0 0 0 0 0 0 0 0 0 0 0 0 0 0 0 0 0 0 0 0 0 0 0 0 0 0 0 0 0 0 0 0 0 0 0 0 0 0 0 0 0 0 0 0 0 0 0 0 0 0 0 0 0 0 0 0 0 0 0 0 0 0 0 0 0 0 0 0 0 0 0 0 0 0 0 0 0 0 0 0 0 0 0 0 0 0 0 0 0 0 0 0 0 0 0 0 0 0 0 0 0 0 0 0 0 0 0 0 0 0 0 0 0 0 0 0 0 0 0 0 0 0 0 0 0 0 0 0 0 0 0 0 0 0 0 0 0 0 0 0 0 0 0 0 0 0 0 0 0 0 0 0 0 0 0 0 0 0 0 0 0 0 0 0 0
0 0 0 0 0 0 0 0 0 0 0 0 0 0 0 0 0 0 0 0 0 0 0 0 0 0 0 0 0 0 0 0 0 0 0 0 0 0 0 0 0 0 0 0 0 0 0 0 0 0 0 0 0 0 0 0 0 0 0 0 0 0 0 0 0 0 0 0 0 0 0 0 0 0 0 0 0 0 0 0 0 0 0 0 0 0 0 0 0 0 0 0 0 0 0 0 0 0 0 0 0 0 0 0 0 0 0 0 0 0 0 0 0 0 0 0 0 0 0 0 0 0 0 0 0 0 0 0 0 0 0 0 0 0 0 0 0 0 0 0 0 0 0 0 0 0 0 0 0 0 0 0 0 0 0 0 0 0 0 0 0 0 0 0 0 0 0 0 0 0 0 0 0 0 0 0 0 0 0 0 0 0 0 0 0 0 0 0 0 0 0 0 0 0 0 0 0 0 0 0 0 0 0 0 0 0 0 0 0 0 0 0 0 0 0 0 0 0 0 0 0 0 0 0 0 0 0 0 0 0 0 0 0 0 0 0 0 0 0 0 0 0 0 0 0 0 0 0 0 0 0 0 0 0 0 0 0 0 0 0 0 0 0 0 0 0 0 0 0 0 0 0 0 0 0 0 0 0 0 0 0 0 0 0 0 0 0 0 0 0 0 0 0 0 0 0 0 0 0 0 0 0 0 0 0 0 0 0 0 0 0 0 0 0 0 0 0 0 0 0 0 0 0 0 0 0 0 0 0 0 0 0 0 0 0 0 0 0 0 0 0 0 0 0 0 0 0 0 0 0 0 0 0 0 0 0 0 0 0 0 0 0 0 0 0 0 0 0 0 0 0 0 0 0 0 0 0 0 0 0 0 0 0 0 0 0 0 0 0 0 0 0 0 0 0 0 0 0 0 0 0 0 0 0 0 0 0 0 0 0 0 0 0 0 0 0 0 0 0 0 0 0 0 0 0 0 0 0 0 0 0 0 0 0 0 0 0 0 0 0 0 0 0 0 0 0 0 0 0 0 0 0 0 0 0 0 0 0 0 0 0 0 0 0 0 0 0 0 0 0 0 0 0 0 0 0 0 0 0 0 0 0 0 0 0 0 0 0 0 0 0 0 0 0 0 0 0 0 0 0 0 0 0 0 0 0 0 0 0 0 0 0 0 0 0 0 0 0 0 0 0 0 0 0 0 0 0 0 0 0 0 0 0 0 0 0 0 0 0 0 0 0 0 0 0 0 0 0 0 0 0 0 0 0 0 0 0 0 0 0 0 0 0 0 0 0 0 0 0 0 0 0 0 0 0 0 0 0 0 0 0 0 0 0 0 0 0 0 0 0 0 0 0 0 0 0 0 0 0 0 0 0 0 0 0 0 0 0 0 0 0 0 0 0 0 0 0 0 0 0 0 0 0 0 0 0 0 0 0 0 0 0 0 0 0 0 0 0 0 0 0 0 0 0 0 0 0 0 0 0 0 0 0 0 0 0 0 0 0 0 0 0 0 0 0 0 0 0 0 0 0 0 0 0 0 0 0 0 0 0 0 0 0 0 0 0 0 0 0 0 0 0 0 0 0 0 0 0 0 0 0 0 0 0 0 0 0 0 0 0 0 0 0 0 0 0 0 0 0 0 0 0 0 0 0 0 0 0 0 0 0 0 0 0 0 0 0 0 0 0 0 0 0 0 0 0 0 0 0 0 0 0 0 0 0 0 0 0 0 0 0 0 0 0 0 0 0 0 0 0 0 0 0 0 0 0 0 0 0 0 0 0 0 0 0 0 0 0 0 0 0 0 0 0 0 0 0 0 0 0 0 0 0 0 0 0 0 0 0 0 0 0 0 0 0 0 0 0 0 0 0 0 0 0 0 0 0 0 0 0 0 0 0 0 0 0 0 0 0 0 0 0 0 0 0 0 0 0 0 0 0 0 0 0 0 0 0 0 0 0 0 0 0 0 0 0 0 0 0 0 0 0 0 0 0 0 0 0 0 0 0 0 0 0 0 0 0 0 0 0 0 0 0 0 0 0 0 0 0 0 0 0 0 0 0 0 0 0 0 0 0 0 0 0 0 0 0 0 0 0 0 0 0 0 0 0 0 0 0 0 0 0 0 0 0 0 0 0 0 0 0 0 0 0 0 0 0 0 0 0 0 0 0 0 0 0 0 0 0 0
0 0 0 0 0 0 0 0 0 0 0 0 0 0 0 0 0 0 0 0 0 0 0 0 0 0 0 0 0 0 0 0 0 0 0 0 0 0 0 0 0 0 0 0 0 0 0 0 0 0 0 0 0 0 0 0 0 0 0 0 0 0 0 0 0 0 0 0 0 0 0 0 0 0 0 0 0 0 0 0 0 0 0 0 0 0 0 0 0 0 0 0 0 0 0 0 0 0 0 0 0 0 0 0 0 0 0 0 0 0 0 0 0 0 0 0 0 0 0 0 0 0 0 0 0 0 0 0 0 0 0 0 0 0 0 0 0 0 0 0 0 0 0 0 0 0 0 0 0 0 0 0 0 0 0 0 0 0 0 0 0 0 0 0 0 0 0 0 0 0 0 0 0 0 0 0 0 0 0 0 0 0 0 0 0 0 0 0 0 0 0 0 0 0 0 0 0 0 0 0 0 0 0 0 0 0 0 0 0 0 0 0 0 0 0 0 0 0 0 0 0 0 0 0 0 0 0 0 0 0 0 0 0 0 0 0 0 0 0 0 0 0 0 0 0 0 0 0 0 0 0 0 0 0 0 0 0 0 0 0 0 0 0 0 0 0 0 0 0 0 0 0 0 0 0 0 0 0 0 0 0 0 0 0 0 0 0 0 0 0 0 0 0 0 0 0 0 0 0 0 0 0 0 0 0 0 0 0 0 0 0 0 0 0 0 0 0 0 0 0 0 0 0 0 0 0 0 0 0 0 0 0 0 0 0 0 0 0 0 0 0 0 0 0 0 0 0 0 0 0 0 0 0 0 0 0 0 0 0 0 0 0 0 0 0 0 0 0 0 0 0 0 0 0 0 0 0 0 0 0 0 0 0 0 0 0 0 0 0 0 0 0 0 0 0 0 0 0 0 0 0 0 0 0 0 0 0 0 0 0 0 0 0 0 0 0 0 0 0 0 0 0 0 0 0 0 0 0 0 0 0 0 0 0 0 0 0 0 0 0 0 0 0 0 0 0 0 0 0 0 0 0 0 0 0 0 0 0 0 0 0 0 0 0 0 0 0 0 0 0 0 0 0 0 0 0 0 0 0 0 0 0 0 0 0 0 0 0 0 0 0 0 0 0 0 0 0 0 0 0 0 0 0 0 0 0 0 0 0 0 0 0 0 0 0 0 0 0 0 0 0 0 0 0 0 0 0 0 0 0 0 0 0 0 0 0 0 0 0 0 0 0 0 0 0 0 0 0 0 0 0 0 0 0 0 0 0 0 0 0 0 0 0 0 0 0 0 0 0 0 0 0 0 0 0 0 0 0 0 0 0 0 0 0 0 0 0 0 0 0 0 0 0 0 0 0 0 0 0 0 0 0 0 0 0 0 0 0 0 0 0 0 0 0 0 0 0 0 0 0 0 0 0 0 0 0 0 0 0 0 0 0 0 0 0 0 0 0 0 0 0 0 0 0 0 0 0 0 0 0 0 0 0 0 0 0 0 0 0 0 0 0 0 0 0 0 0 0 0 0 0 0 0 0 0 0 0 0 0 0 0 0 0 0 0 0 0 0 0 0 0 0 0 0 0 0 0 0 0 0 0 0 0 0 0 0 0 0 0 0 0 0 0 0 0 0 0 0 0 0 0 0 0 0 0 0 0 0 0 0 0 0 0 0 0 0 0 0 0 0 0 0 0 0 0 0 0 0 0 0 0 0 0 0 0 0 0 0 0 0 0 0 0 0 0 0 0 0 0 0 0 0 0 0 0 0 0 0 0 0 0 0 0 0 0 0 0 0 0 0 0 0 0 0 0 0 0 0 0 0 0 0 0 0 0 0 0 0 0 0 0 0 0 0 0 0 0 0 0 0 0 0 0 0 0 0 0 0 0 0 0 0 0 0 0 0 0 0 0 0 0 0 0 0 0 0 0 0 0 0 0 0 0 0 0 0 0 0 0 0 0 0 0 0 0 0 0 0 0 0 0 0 0 0 0 0 0 0 0 0 0 0 0 0 0 0 0 0 0 0 0 0 0 0 0 0 0 0 0 0 0 0 0 0 0 0 0 0 0 0 0 0 0 0 0 0 0 0 0 0 0 0 0 0 0 0 0 0 0 0 0 0 0 0 0 0 0 0 0 0 0 0 0 0 0 0 0 0 0 0 0 0 0 0 0 0 0 0 0 0
0 0 0 0 0 0 0 0 0 0 0 0 0 0 0 0 0 0 0 0 0 0 0 0 0 0 0 0 0 0 0 0 0 0 0 0 0 0 0 0 0 0 0 0 0 0 0 0 0 0 0 0 0 0 0 0 0 0 0 0 0 0 0 0 0 0 0 0 0 0 0 0 0 0 0 0 0 0 0 0 0 0 0 0 0 0 0 0 0 0 0 0 0 0 0 0 0 0 0 0 0 0 0 0 0 0 0 0 0 0 0 0 0 0 0 0 0 0 0 0 0 0 0 0 0 0 0 0 0 0 0 0 0 0 0 0 0 0 0 0 0 0 0 0 0 0 0 0 0 0 0 0 0 0 0 0 0 0 0 0 0 0 0 0 0 0 0 0 0 0 0 0 0 0 0 0 0 0 0 0 0 0 0 0 0 0 0 0 0 0 0 0 0 0 0 0 0 0 0 0 0 0 0 0 0 0 0 0 0 0 0 0 0 0 0 0 0 0 0 0 0 0 0 0 0 0 0 0 0 0 0 0 0 0 0 0 0 0 0 0 0 0 0 0 0 0 0 0 0 0 0 0 0 0 0 0 0 0 0 0 0 0 0 0 0 0 0 0 0 0 0 0 0 0 0 0 0 0 0 0 0 0 0 0 0 0 0 0 0 0 0 0 0 0 0 0 0 0 0 0 0 0 0 0 0 0 0 0 0 0 0 0 0 0 0 0 0 0 0 0 0 0 0 0 0 0 0 0 0 0 0 0 0 0 0 0 0 0 0 0 0 0 0 0 0 0 0 0 0 0 0 0 0 0 0 0 0 0 0 0 0 0 0 0 0 0 0 0 0 0 0 0 0 0 0 0 0 0 0 0 0 0 0 0 0 0 0 0 0 0 0 0 0 0 0 0 0 0 0 0 0 0 0 0 0 0 0 0 0 0 0 0 0 0 0 0 0 0 0 0 0 0 0 0 0 0 0 0 0 0 0 0 0 0 0 0 0 0 0 0 0 0 0 0 0 0 0 0 0 0 0 0 0 0 0 0 0 0 0 0 0 0 0 0 0 0 0 0 0 0 0 0 0 0 0 0 0 0 0 0 0 0 0 0 0 0 0 0 0 0 0 0 0 0 0 0 0 0 0 0 0 0 0 0 0 0 0 0 0 0 0 0 0 0 0 0 0 0 0 0 0 0 0 0 0 0 0 0 0 0 0 0 0 0 0 0 0 0 0 0 0 0 0 0 0 0 0 0 0 0 0 0 0 0 0 0 0 0 0 0 0 0 0 0 0 0 0 0 0 0 0 0 0 0 0 0 0 0 0 0 0 0 0 0 0 0 0 0 0 0 0 0 0 0 0 0 0 0 0 0 0 0 0 0 0 0 0 0 0 0 0 0 0 0 0 0 0 0 0 0 0 0 0 0 0 0 0 0 0 0 0 0 0 0 0 0 0 0 0 0 0 0 0 0 0 0 0 0 0 0 0 0 0 0 0 0 0 0 0 0 0 0 0 0 0 0 0 0 0 0 0 0 0 0 0 0 0 0 0 0 0 0 0 0 0 0 0 0 0 0 0 0 0 0 0 0 0 0 0 0 0 0 0 0 0 0 0 0 0 0 0 0 0 0 0 0 0 0 0 0 0 0 0 0 0 0 0 0 0 0 0 0 0 0 0 0 0 0 0 0 0 0 0 0 0 0 0 0 0 0 0 0 0 0 0 0 0 0 0 0 0 0 0 0 0 0 0 0 0 0 0 0 0 0 0 0 0 0 0 0 0 0 0 0 0 0 0 0 0 0 0 0 0 0 0 0 0 0 0 0 0 0 0 0 0 0 0 0 0 0 0 0 0 0 0 0 0 0 0 0 0 0 0 0 0 0 0 0 0 0 0 0 0 0 0 0 0 0 0 0 0 0 0 0 0 0 0 0 0 0 0 0 0 0 0 0 0 0 0 0 0 0 0 0 0 0 0 0 0 0 0 0 0 0 0 0 0 0 0 0 0 0 0 0 0 0 0 0 0 0 0 0 0 0 0 0 0 0 0 0 0 0 0 0 0 0 0 0 0 0 0 0 0 0 0 0 0 0 0 0 0 0 0 0 0 0 0 0 0 0 0 0 0 0 0 0 0 0 0 0 0 0 0 0 0 0 0 0 0 0 0 0 0 0 0 0 0 0 0 0
0 0 0 0 0 0 0 0 0 0 0 0 0 0 0 0 0 0 0 0 0 0 0 0 0 0 0 0 0 0 0 0 0 0 0 0 0 0 0 0 0 0 0 0 0 0 0 0 0 0 0 0 0 0 0 0 0 0 0 0 0 0 0 0 0 0 0 0 0 0 0 0 0 0 0 0 0 0 0 0 0 0 0 0 0 0 0 0 0 0 0 0 0 0 0 0 0 0 0 0 0 0 0 0 0 0 0 0 0 0 0 0 0 0 0 0 0 0 0 0 0 0 0 0 0 0 0 0 0 0 0 0 0 0 0 0 0 0 0 0 0 0 0 0 0 0 0 0 0 0 0 0 0 0 0 0 0 0 0 0 0 0 0 0 0 0 0 0 0 0 0 0 0 0 0 0 0 0 0 0 0 0 0 0 0 0 0 0 0 0 0 0 0 0 0 0 0 0 0 0 0 0 0 0 0 0 0 0 0 0 0 0 0 0 0 0 0 0 0 0 0 0 0 0 0 0 0 0 0 0 0 0 0 0 0 0 0 0 0 0 0 0 0 0 0 0 0 0 0 0 0 0 0 0 0 0 0 0 0 0 0 0 0 0 0 0 0 0 0 0 0 0 0 0 0 0 0 0 0 0 0 0 0 0 0 0 0 0 0 0 0 0 0 0 0 0 0 0 0 0 0 0 0 0 0 0 0 0 0 0 0 0 0 0 0 0 0 0 0 0 0 0 0 0 0 0 0 0 0 0 0 0 0 0 0 0 0 0 0 0 0 0 0 0 0 0 0 0 0 0 0 0 0 0 0 0 0 0 0 0 0 0 0 0 0 0 0 0 0 0 0 0 0 0 0 0 0 0 0 0 0 0 0 0 0 0 0 0 0 0 0 0 0 0 0 0 0 0 0 0 0 0 0 0 0 0 0 0 0 0 0 0 0 0 0 0 0 0 0 0 0 0 0 0 0 0 0 0 0 0 0 0 0 0 0 0 0 0 0 0 0 0 0 0 0 0 0 0 0 0 0 0 0 0 0 0 0 0 0 0 0 0 0 0 0 0 0 0 0 0 0 0 0 0 0 0 0 0 0 0 0 0 0 0 0 0 0 0 0 0 0 0 0 0 0 0 0 0 0 0 0 0 0 0 0 0 0 0 0 0 0 0 0 0 0 0 0 0 0 0 0 0 0 0 0 0 0 0 0 0 0 0 0 0 0 0 0 0 0 0 0 0 0 0 0 0 0 0 0 0 0 0 0 0 0 0 0 0 0 0 0 0 0 0 0 0 0 0 0 0 0 0 0 0 0 0 0 0 0 0 0 0 0 0 0 0 0 0 0 0 0 0 0 0 0 0 0 0 0 0 0 0 0 0 0 0 0 0 0 0 0 0 0 0 0 0 0 0 0 0 0 0 0 0 0 0 0 0 0 0 0 0 0 0 0 0 0 0 0 0 0 0 0 0 0 0 0 0 0 0 0 0 0 0 0 0 0 0 0 0 0 0 0 0 0 0 0 0 0 0 0 0 0 0 0 0 0 0 0 0 0 0 0 0 0 0 0 0 0 0 0 0 0 0 0 0 0 0 0 0 0 0 0 0 0 0 0 0 0 0 0 0 0 0 0 0 0 0 0 0 0 0 0 0 0 0 0 0 0 0 0 0 0 0 0 0 0 0 0 0 0 0 0 0 0 0 0 0 0 0 0 0 0 0 0 0 0 0 0 0 0 0 0 0 0 0 0 0 0 0 0 0 0 0 0 0 0 0 0 0 0 0 0 0 0 0 0 0 0 0 0 0 0 0 0 0 0 0 0 0 0 0 0 0 0 0 0 0 0 0 0 0 0 0 0 0 0 0 0 0 0 0 0 0 0 0 0 0 0 0 0 0 0 0 0 0 0 0 0 0 0 0 0 0 0 0 0 0 0 0 0 0 0 0 0 0 0 0 0 0 0 0 0 0 0 0 0 0 0 0 0 0 0 0 0 0 0 0 0 0 0 0 0 0 0 0 0 0 0 0 0 0 0 0 0 0 0 0 0 0 0 0 0 0 0 0 0 0 0 0 0 0 0 0 0 0 0 0 0 0 0 0 0 0 0 0 0 0 0 0 0 0 0 0 0 0 0 0 0 0 0 0 0 0 0 0 0 0 0 0 0 0 0 0 0 0 0 0 0 0
0 0 0 0 0 0 0 0 0 0 0 0 0 0 0 0 0 0 0 0 0 0 0 0 0 0 0 0 0 0 0 0 0 0 0 0 0 0 0 0 0 0 0 0 0 0 0 0 0 0 0 0 0 0 0 0 0 0 0 0 0 0 0 0 0 0 0 0 0 0 0 0 0 0 0 0 0 0 0 0 0 0 0 0 0 0 0 0 0 0 0 0 0 0 0 0 0 0 0 0 0 0 0 0 0 0 0 0 0 0 0 0 0 0 0 0 0 0 0 0 0 0 0 0 0 0 0 0 0 0 0 0 0 0 0 0 0 0 0 0 0 0 0 0 0 0 0 0 0 0 0 0 0 0 0 0 0 0 0 0 0 0 0 0 0 0 0 0 0 0 0 0 0 0 0 0 0 0 0 0 0 0 0 0 0 0 0 0 0 0 0 0 0 0 0 0 0 0 0 0 0 0 0 0 0 0 0 0 0 0 0 0 0 0 0 0 0 0 0 0 0 0 0 0 0 0 0 0 0 0 0 0 0 0 0 0 0 0 0 0 0 0 0 0 0 0 0 0 0 0 0 0 0 0 0 0 0 0 0 0 0 0 0 0 0 0 0 0 0 0 0 0 0 0 0 0 0 0 0 0 0 0 0 0 0 0 0 0 0 0 0 0 0 0 0 0 0 0 0 0 0 0 0 0 0 0 0 0 0 0 0 0 0 0 0 0 0 0 0 0 0 0 0 0 0 0 0 0 0 0 0 0 0 0 0 0 0 0 0 0 0 0 0 0 0 0 0 0 0 0 0 0 0 0 0 0 0 0 0 0 0 0 0 0 0 0 0 0 0 0 0 0 0 0 0 0 0 0 0 0 0 0 0 0 0 0 0 0 0 0 0 0 0 0 0 0 0 0 0 0 0 0 0 0 0 0 0 0 0 0 0 0 0 0 0 0 0 0 0 0 0 0 0 0 0 0 0 0 0 0 0 0 0 0 0 0 0 0 0 0 0 0 0 0 0 0 0 0 0 0 0 0 0 0 0 0 0 0 0 0 0 0 0 0 0 0 0 0 0 0 0 0 0 0 0 0 0 0 0 0 0 0 0 0 0 0 0 0 0 0 0 0 0 0 0 0 0 0 0 0 0 0 0 0 0 0 0 0 0 0 0 0 0 0 0 0 0 0 0 0 0 0 0 0 0 0 0 0 0 0 0 0 0 0 0 0 0 0 0 0 0 0 0 0 0 0 0 0 0 0 0 0 0 0 0 0 0 0 0 0 0 0 0 0 0 0 0 0 0 0 0 0 0 0 0 0 0 0 0 0 0 0 0 0 0 0 0 0 0 0 0 0 0 0 0 0 0 0 0 0 0 0 0 0 0 0 0 0 0 0 0 0 0 0 0 0 0 0 0 0 0 0 0 0 0 0 0 0 0 0 0 0 0 0 0 0 0 0 0 0 0 0 0 0 0 0 0 0 0 0 0 0 0 0 0 0 0 0 0 0 0 0 0 0 0 0 0 0 0 0 0 0 0 0 0 0 0 0 0 0 0 0 0 0 0 0 0 0 0 0 0 0 0 0 0 0 0 0 0 0 0 0 0 0 0 0 0 0 0 0 0 0 0 0 0 0 0 0 0 0 0 0 0 0 0 0 0 0 0 0 0 0 0 0 0 0 0 0 0 0 0 0 0 0 0 0 0 0 0 0 0 0 0 0 0 0 0 0 0 0 0 0 0 0 0 0 0 0 0 0 0 0 0 0 0 0 0 0 0 0 0 0 0 0 0 0 0 0 0 0 0 0 0 0 0 0 0 0 0 0 0 0 0 0 0 0 0 0 0 0 0 0 0 0 0 0 0 0 0 0 0 0 0 0 0 0 0 0 0 0 0 0 0 0 0 0 0 0 0 0 0 0 0 0 0 0 0 0 0 0 0 0 0 0 0 0 0 0 0 0 0 0 0 0 0 0 0 0 0 0 0 0 0 0 0 0 0 0 0 0 0 0 0 0 0 0 0 0 0 0 0 0 0 0 0 0 0 0 0 0 0 0 0 0 0 0 0 0 0 0 0 0 0 0 0 0 0 0 0 0 0 0 0 0 0 0 0 0 0 0 0 0 0 0 0 0 0 0 0 0 0 0 0 0 0 0 0 0 0 0 0 0 0 0 0 0 0 0 0 0
0 0 0 0 0 0 0 0 0 0 0 0 0 0 0 0 0 0 0 0 0 0 0 0 0 0 0 0 0 0 0 0 0 0 0 0 0 0 0 0 0 0 0 0 0 0 0 0 0 0 0 0 0 0 0 0 0 0 0 0 0 0 0 0 0 0 0 0 0 0 0 0 0 0 0 0 0 0 0 0 0 0 0 0 0 0 0 0 0 0 0 0 0 0 0 0 0 0 0 0 0 0 0 0 0 0 0 0 0 0 0 0 0 0 0 0 0 0 0 0 0 0 0 0 0 0 0 0 0 0 0 0 0 0 0 0 0 0 0 0 0 0 0 0 0 0 0 0 0 0 0 0 0 0 0 0 0 0 0 0 0 0 0 0 0 0 0 0 0 0 0 0 0 0 0 0 0 0 0 0 0 0 0 0 0 0 0 0 0 0 0 0 0 0 0 0 0 0 0 0 0 0 0 0 0 0 0 0 0 0 0 0 0 0 0 0 0 0 0 0 0 0 0 0 0 0 0 0 0 0 0 0 0 0 0 0 0 0 0 0 0 0 0 0 0 0 0 0 0 0 0 0 0 0 0 0 0 0 0 0 0 0 0 0 0 0 0 0 0 0 0 0 0 0 0 0 0 0 0 0 0 0 0 0 0 0 0 0 0 0 0 0 0 0 0 0 0 0 0 0 0 0 0 0 0 0 0 0 0 0 0 0 0 0 0 0 0 0 0 0 0 0 0 0 0 0 0 0 0 0 0 0 0 0 0 0 0 0 0 0 0 0 0 0 0 0 0 0 0 0 0 0 0 0 0 0 0 0 0 0 0 0 0 0 0 0 0 0 0 0 0 0 0 0 0 0 0 0 0 0 0 0 0 0 0 0 0 0 0 0 0 0 0 0 0 0 0 0 0 0 0 0 0 0 0 0 0 0 0 0 0 0 0 0 0 0 0 0 0 0 0 0 0 0 0 0 0 0 0 0 0 0 0 0 0 0 0 0 0 0 0 0 0 0 0 0 0 0 0 0 0 0 0 0 0 0 0 0 0 0 0 0 0 0 0 0 0 0 0 0 0 0 0 0 0 0 0 0 0 0 0 0 0 0 0 0 0 0 0 0 0 0 0 0 0 0 0 0 0 0 0 0 0 0 0 0 0 0 0 0 0 0 0 0 0 0 0 0 0 0 0 0 0 0 0 0 0 0 0 0 0 0 0 0 0 0 0 0 0 0 0 0 0 0 0 0 0 0 0 0 0 0 0 0 0 0 0 0 0 0 0 0 0 0 0 0 0 0 0 0 0 0 0 0 0 0 0 0 0 0 0 0 0 0 0 0 0 0 0 0 0 0 0 0 0 0 0 0 0 0 0 0 0 0 0 0 0 0 0 0 0 0 0 0 0 0 0 0 0 0 0 0 0 0 0 0 0 0 0 0 0 0 0 0 0 0 0 0 0 0 0 0 0 0 0 0 0 0 0 0 0 0 0 0 0 0 0 0 0 0 0 0 0 0 0 0 0 0 0 0 0 0 0 0 0 0 0 0 0 0 0 0 0 0 0 0 0 0 0 0 0 0 0 0 0 0 0 0 0 0 0 0 0 0 0 0 0 0 0 0 0 0 0 0 0 0 0 0 0 0 0 0 0 0 0 0 0 0 0 0 0 0 0 0 0 0 0 0 0 0 0 0 0 0 0 0 0 0 0 0 0 0 0 0 0 0 0 0 0 0 0 0 0 0 0 0 0 0 0 0 0 0 0 0 0 0 0 0 0 0 0 0 0 0 0 0 0 0 0 0 0 0 0 0 0 0 0 0 0 0 0 0 0 0 0 0 0 0 0 0 0 0 0 0 0 0 0 0 0 0 0 0 0 0 0 0 0 0 0 0 0 0 0 0 0 0 0 0 0 0 0 0 0 0 0 0 0 0 0 0 0 0 0 0 0 0 0 0 0 0 0 0 0 0 0 0 0 0 0 0 0 0 0 0 0 0 0 0 0 0 0 0 0 0 0 0 0 0 0 0 0 0 0 0 0 0 0 0 0 0 0 0 0 0 0 0 0 0 0 0 0 0 0 0 0 0 0 0 0 0 0 0 0 0 0 0 0 0 0 0 0 0 0 0 0 0 0 0 0 0 0 0 0 0 0 0 0 0 0 0 0 0 0 0 0 0 0 0 0 0
0 0 0 0 0 0 0 0 0 0 0 0 0 0 0 0 0 0 0 0 0 0 0 0 0 0 0 0 0 0 0 0 0 0 0 0 0 0 0 0 0 0 0 0 0 0 0 0 0 0 0 0 0 0 0 0 0 0 0 0 0 0 0 0 0 0 0 0 0 0 0 0 0 0 0 0 0 0 0 0 0 0 0 0 0 0 0 0 0 0 0 0 0 0 0 0 0 0 0 0 0 0 0 0 0 0 0 0 0 0 0 0 0 0 0 0 0 0 0 0 0 0 0 0 0 0 0 0 0 0 0 0 0 0 0 0 0 0 0 0 0 0 0 0 0 0 0 0 0 0 0 0 0 0 0 0 0 0 0 0 0 0 0 0 0 0 0 0 0 0 0 0 0 0 0 0 0 0 0 0 0 0 0 0 0 0 0 0 0 0 0 0 0 0 0 0 0 0 0 0 0 0 0 0 0 0 0 0 0 0 0 0 0 0 0 0 0 0 0 0 0 0 0 0 0 0 0 0 0 0 0 0 0 0 0 0 0 0 0 0 0 0 0 0 0 0 0 0 0 0 0 0 0 0 0 0 0 0 0 0 0 0 0 0 0 0 0 0 0 0 0 0 0 0 0 0 0 0 0 0 0 0 0 0 0 0 0 0 0 0 0 0 0 0 0 0 0 0 0 0 0 0 0 0 0 0 0 0 0 0 0 0 0 0 0 0 0 0 0 0 0 0 0 0 0 0 0 0 0 0 0 0 0 0 0 0 0 0 0 0 0 0 0 0 0 0 0 0 0 0 0 0 0 0 0 0 0 0 0 0 0 0 0 0 0 0 0 0 0 0 0 0 0 0 0 0 0 0 0 0 0 0 0 0 0 0 0 0 0 0 0 0 0 0 0 0 0 0 0 0 0 0 0 0 0 0 0 0 0 0 0 0 0 0 0 0 0 0 0 0 0 0 0 0 0 0 0 0 0 0 0 0 0 0 0 0 0 0 0 0 0 0 0 0 0 0 0 0 0 0 0 0 0 0 0 0 0 0 0 0 0 0 0 0 0 0 0 0 0 0 0 0 0 0 0 0 0 0 0 0 0 0 0 0 0 0 0 0 0 0 0 0 0 0 0 0 0 0 0 0 0 0 0 0 0 0 0 0 0 0 0 0 0 0 0 0 0 0 0 0 0 0 0 0 0 0 0 0 0 0 0 0 0 0 0 0 0 0 0 0 0 0 0 0 0 0 0 0 0 0 0 0 0 0 0 0 0 0 0 0 0 0 0 0 0 0 0 0 0 0 0 0 0 0 0 0 0 0 0 0 0 0 0 0 0 0 0 0 0 0 0 0 0 0 0 0 0 0 0 0 0 0 0 0 0 0 0 0 0 0 0 0 0 0 0 0 0 0 0 0 0 0 0 0 0 0 0 0 0 0 0 0 0 0 0 0 0 0 0 0 0 0 0 0 0 0 0 0 0 0 0 0 0 0 0 0 0 0 0 0 0 0 0 0 0 0 0 0 0 0 0 0 0 0 0 0 0 0 0 0 0 0 0 0 0 0 0 0 0 0 0 0 0 0 0 0 0 0 0 0 0 0 0 0 0 0 0 0 0 0 0 0 0 0 0 0 0 0 0 0 0 0 0 0 0 0 0 0 0 0 0 0 0 0 0 0 0 0 0 0 0 0 0 0 0 0 0 0 0 0 0 0 0 0 0 0 0 0 0 0 0 0 0 0 0 0 0 0 0 0 0 0 0 0 0 0 0 0 0 0 0 0 0 0 0 0 0 0 0 0 0 0 0 0 0 0 0 0 0 0 0 0 0 0 0 0 0 0 0 0 0 0 0 0 0 0 0 0 0 0 0 0 0 0 0 0 0 0 0 0 0 0 0 0 0 0 0 0 0 0 0 0 0 0 0 0 0 0 0 0 0 0 0 0 0 0 0 0 0 0 0 0 0 0 0 0 0 0 0 0 0 0 0 0 0 0 0 0 0 0 0 0 0 0 0 0 0 0 0 0 0 0 0 0 0 0 0 0 0 0 0 0 0 0 0 0 0 0 0 0 0 0 0 0 0 0 0 0 0 0 0 0 0 0 0 0 0 0 0 0 0 0 0 0 0 0 0 0 0 0 0 0 0 0 0 0 0 0 0 0 0 0 0 0 0 0 0 0 0 0
0 0 0 0 0 0 0 0 0 0 0 0 0 0 0 0 0 0 0 0 0 0 0 0 0 0 0 0 0 0 0 0 0 0 0 0 0 0 0 0 0 0 0 0 0 0 0 0 0 0 0 0 0 0 0 0 0 0 0 0 0 0 0 0 0 0 0 0 0 0 0 0 0 0 0 0 0 0 0 0 0 0 0 0 0 0 0 0 0 0 0 0 0 0 0 0 0 0 0 0 0 0 0 0 0 0 0 0 0 0 0 0 0 0 0 0 0 0 0 0 0 0 0 0 0 0 0 0 0 0 0 0 0 0 0 0 0 0 0 0 0 0 0 0 0 0 0 0 0 0 0 0 0 0 0 0 0 0 0 0 0 0 0 0 0 0 0 0 0 0 0 0 0 0 0 0 0 0 0 0 0 0 0 0 0 0 0 0 0 0 0 0 0 0 0 0 0 0 0 0 0 0 0 0 0 0 0 0 0 0 0 0 0 0 0 0 0 0 0 0 0 0 0 0 0 0 0 0 0 0 0 0 0 0 0 0 0 0 0 0 0 0 0 0 0 0 0 0 0 0 0 0 0 0 0 0 0 0 0 0 0 0 0 0 0 0 0 0 0 0 0 0 0 0 0 0 0 0 0 0 0 0 0 0 0 0 0 0 0 0 0 0 0 0 0 0 0 0 0 0 0 0 0 0 0 0 0 0 0 0 0 0 0 0 0 0 0 0 0 0 0 0 0 0 0 0 0 0 0 0 0 0 0 0 0 0 0 0 0 0 0 0 0 0 0 0 0 0 0 0 0 0 0 0 0 0 0 0 0 0 0 0 0 0 0 0 0 0 0 0 0 0 0 0 0 0 0 0 0 0 0 0 0 0 0 0 0 0 0 0 0 0 0 0 0 0 0 0 0 0 0 0 0 0 0 0 0 0 0 0 0 0 0 0 0 0 0 0 0 0 0 0 0 0 0 0 0 0 0 0 0 0 0 0 0 0 0 0 0 0 0 0 0 0 0 0 0 0 0 0 0 0 0 0 0 0 0 0 0 0 0 0 0 0 0 0 0 0 0 0 0 0 0 0 0 0 0 0 0 0 0 0 0 0 0 0 0 0 0 0 0 0 0 0 0 0 0 0 0 0 0 0 0 0 0 0 0 0 0 0 0 0 0 0 0 0 0 0 0 0 0 0 0 0 0 0 0 0 0 0 0 0 0 0 0 0 0 0 0 0 0 0 0 0 0 0 0 0 0 0 0 0 0 0 0 0 0 0 0 0 0 0 0 0 0 0 0 0 0 0 0 0 0 0 0 0 0 0 0 0 0 0 0 0 0 0 0 0 0 0 0 0 0 0 0 0 0 0 0 0 0 0 0 0 0 0 0 0 0 0 0 0 0 0 0 0 0 0 0 0 0 0 0 0 0 0 0 0 0 0 0 0 0 0 0 0 0 0 0 0 0 0 0 0 0 0 0 0 0 0 0 0 0 0 0 0 0 0 0 0 0 0 0 0 0 0 0 0 0 0 0 0 0 0 0 0 0 0 0 0 0 0 0 0 0 0 0 0 0 0 0 0 0 0 0 0 0 0 0 0 0 0 0 0 0 0 0 0 0 0 0 0 0 0 0 0 0 0 0 0 0 0 0 0 0 0 0 0 0 0 0 0 0 0 0 0 0 0 0 0 0 0 0 0 0 0 0 0 0 0 0 0 0 0 0 0 0 0 0 0 0 0 0 0 0 0 0 0 0 0 0 0 0 0 0 0 0 0 0 0 0 0 0 0 0 0 0 0 0 0 0 0 0 0 0 0 0 0 0 0 0 0 0 0 0 0 0 0 0 0 0 0 0 0 0 0 0 0 0 0 0 0 0 0 0 0 0 0 0 0 0 0 0 0 0 0 0 0 0 0 0 0 0 0 0 0 0 0 0 0 0 0 0 0 0 0 0 0 0 0 0 0 0 0 0 0 0 0 0 0 0 0 0 0 0 0 0 0 0 0 0 0 0 0 0 0 0 0 0 0 0 0 0 0 0 0 0 0 0 0 0 0 0 0 0 0 0 0 0 0 0 0 0 0 0 0 0 0 0 0 0 0 0 0 0 0 0 0 0 0 0 0 0 0 0 0 0 0 0 0 0 0 0 0 0 0 0 0 0 0 0 0 0 0 0 0 0 0 0 0
0 0 0 0 0 0 0 0 0 0 0 0 0 0 0 0 0 0 0 0 0 0 0 0 0 0 0 0 0 0 0 0 0 0 0 0 0 0 0 0 0 0 0 0 0 0 0 0 0 0 0 0 0 0 0 0 0 0 0 0 0 0 0 0 0 0 0 0 0 0 0 0 0 0 0 0 0 0 0 0 0 0 0 0 0 0 0 0 0 0 0 0 0 0 0 0 0 0 0 0 0 0 0 0 0 0 0 0 0 0 0 0 0 0 0 0 0 0 0 0 0 0 0 0 0 0 0 0 0 0 0 0 0 0 0 0 0 0 0 0 0 0 0 0 0 0 0 0 0 0 0 0 0 0 0 0 0 0 0 0 0 0 0 0 0 0 0 0 0 0 0 0 0 0 0 0 0 0 0 0 0 0 0 0 0 0 0 0 0 0 0 0 0 0 0 0 0 0 0 0 0 0 0 0 0 0 0 0 0 0 0 0 0 0 0 0 0 0 0 0 0 0 0 0 0 0 0 0 0 0 0 0 0 0 0 0 0 0 0 0 0 0 0 0 0 0 0 0 0 0 0 0 0 0 0 0 0 0 0 0 0 0 0 0 0 0 0 0 0 0 0 0 0 0 0 0 0 0 0 0 0 0 0 0 0 0 0 0 0 0 0 0 0 0 0 0 0 0 0 0 0 0 0 0 0 0 0 0 0 0 0 0 0 0 0 0 0 0 0 0 0 0 0 0 0 0 0 0 0 0 0 0 0 0 0 0 0 0 0 0 0 0 0 0 0 0 0 0 0 0 0 0 0 0 0 0 0 0 0 0 0 0 0 0 0 0 0 0 0 0 0 0 0 0 0 0 0 0 0 0 0 0 0 0 0 0 0 0 0 0 0 0 0 0 0 0 0 0 0 0 0 0 0 0 0 0 0 0 0 0 0 0 0 0 0 0 0 0 0 0 0 0 0 0 0 0 0 0 0 0 0 0 0 0 0 0 0 0 0 0 0 0 0 0 0 0 0 0 0 0 0 0 0 0 0 0 0 0 0 0 0 0 0 0 0 0 0 0 0 0 0 0 0 0 0 0 0 0 0 0 0 0 0 0 0 0 0 0 0 0 0 0 0 0 0 0 0 0 0 0 0 0 0 0 0 0 0 0 0 0 0 0 0 0 0 0 0 0 0 0 0 0 0 0 0 0 0 0 0 0 0 0 0 0 0 0 0 0 0 0 0 0 0 0 0 0 0 0 0 0 0 0 0 0 0 0 0 0 0 0 0 0 0 0 0 0 0 0 0 0 0 0 0 0 0 0 0 0 0 0 0 0 0 0 0 0 0 0 0 0 0 0 0 0 0 0 0 0 0 0 0 0 0 0 0 0 0 0 0 0 0 0 0 0 0 0 0 0 0 0 0 0 0 0 0 0 0 0 0 0 0 0 0 0 0 0 0 0 0 0 0 0 0 0 0 0 0 0 0 0 0 0 0 0 0 0 0 0 0 0 0 0 0 0 0 0 0 0 0 0 0 0 0 0 0 0 0 0 0 0 0 0 0 0 0 0 0 0 0 0 0 0 0 0 0 0 0 0 0 0 0 0 0 0 0 0 0 0 0 0 0 0 0 0 0 0 0 0 0 0 0 0 0 0 0 0 0 0 0 0 0 0 0 0 0 0 0 0 0 0 0 0 0 0 0 0 0 0 0 0 0 0 0 0 0 0 0 0 0 0 0 0 0 0 0 0 0 0 0 0 0 0 0 0 0 0 0 0 0 0 0 0 0 0 0 0 0 0 0 0 0 0 0 0 0 0 0 0 0 0 0 0 0 0 0 0 0 0 0 0 0 0 0 0 0 0 0 0 0 0 0 0 0 0 0 0 0 0 0 0 0 0 0 0 0 0 0 0 0 0 0 0 0 0 0 0 0 0 0 0 0 0 0 0 0 0 0 0 0 0 0 0 0 0 0 0 0 0 0 0 0 0 0 0 0 0 0 0 0 0 0 0 0 0 0 0 0 0 0 0 0 0 0 0 0 0 0 0 0 0 0 0 0 0 0 0 0 0 0 0 0 0 0 0 0 0 0 0 0 0 0 0 0 0 0 0 0 0 0 0 0 0 0 0 0 0 0 0 0 0 0 0 0 0 0 0 0 0 0 0 0 0 0 0 0 0 0 0 0 0
0 0 0 0 0 0 0 0 0 0 0 0 0 0 0 0 0 0 0 0 0 0 0 0 0 0 0 0 0 0 0 0 0 0 0 0 0 0 0 0 0 0 0 0 0 0 0 0 0 0 0 0 0 0 0 0 0 0 0 0 0 0 0 0 0 0 0 0 0 0 0 0 0 0 0 0 0 0 0 0 0 0 0 0 0 0 0 0 0 0 0 0 0 0 0 0 0 0 0 0 0 0 0 0 0 0 0 0 0 0 0 0 0 0 0 0 0 0 0 0 0 0 0 0 0 0 0 0 0 0 0 0 0 0 0 0 0 0 0 0 0 0 0 0 0 0 0 0 0 0 0 0 0 0 0 0 0 0 0 0 0 0 0 0 0 0 0 0 0 0 0 0 0 0 0 0 0 0 0 0 0 0 0 0 0 0 0 0 0 0 0 0 0 0 0 0 0 0 0 0 0 0 0 0 0 0 0 0 0 0 0 0 0 0 0 0 0 0 0 0 0 0 0 0 0 0 0 0 0 0 0 0 0 0 0 0 0 0 0 0 0 0 0 0 0 0 0 0 0 0 0 0 0 0 0 0 0 0 0 0 0 0 0 0 0 0 0 0 0 0 0 0 0 0 0 0 0 0 0 0 0 0 0 0 0 0 0 0 0 0 0 0 0 0 0 0 0 0 0 0 0 0 0 0 0 0 0 0 0 0 0 0 0 0 0 0 0 0 0 0 0 0 0 0 0 0 0 0 0 0 0 0 0 0 0 0 0 0 0 0 0 0 0 0 0 0 0 0 0 0 0 0 0 0 0 0 0 0 0 0 0 0 0 0 0 0 0 0 0 0 0 0 0 0 0 0 0 0 0 0 0 0 0 0 0 0 0 0 0 0 0 0 0 0 0 0 0 0 0 0 0 0 0 0 0 0 0 0 0 0 0 0 0 0 0 0 0 0 0 0 0 0 0 0 0 0 0 0 0 0 0 0 0 0 0 0 0 0 0 0 0 0 0 0 0 0 0 0 0 0 0 0 0 0 0 0 0 0 0 0 0 0 0 0 0 0 0 0 0 0 0 0 0 0 0 0 0 0 0 0 0 0 0 0 0 0 0 0 0 0 0 0 0 0 0 0 0 0 0 0 0 0 0 0 0 0 0 0 0 0 0 0 0 0 0 0 0 0 0 0 0 0 0 0 0 0 0 0 0 0 0 0 0 0 0 0 0 0 0 0 0 0 0 0 0 0 0 0 0 0 0 0 0 0 0 0 0 0 0 0 0 0 0 0 0 0 0 0 0 0 0 0 0 0 0 0 0 0 0 0 0 0 0 0 0 0 0 0 0 0 0 0 0 0 0 0 0 0 0 0 0 0 0 0 0 0 0 0 0 0 0 0 0 0 0 0 0 0 0 0 0 0 0 0 0 0 0 0 0 0 0 0 0 0 0 0 0 0 0 0 0 0 0 0 0 0 0 0 0 0 0 0 0 0 0 0 0 0 0 0 0 0 0 0 0 0 0 0 0 0 0 0 0 0 0 0 0 0 0 0 0 0 0 0 0 0 0 0 0 0 0 0 0 0 0 0 0 0 0 0 0 0 0 0 0 0 0 0 0 0 0 0 0 0 0 0 0 0 0 0 0 0 0 0 0 0 0 0 0 0 0 0 0 0 0 0 0 0 0 0 0 0 0 0 0 0 0 0 0 0 0 0 0 0 0 0 0 0 0 0 0 0 0 0 0 0 0 0 0 0 0 0 0 0 0 0 0 0 0 0 0 0 0 0 0 0 0 0 0 0 0 0 0 0 0 0 0 0 0 0 0 0 0 0 0 0 0 0 0 0 0 0 0 0 0 0 0 0 0 0 0 0 0 0 0 0 0 0 0 0 0 0 0 0 0 0 0 0 0 0 0 0 0 0 0 0 0 0 0 0 0 0 0 0 0 0 0 0 0 0 0 0 0 0 0 0 0 0 0 0 0 0 0 0 0 0 0 0 0 0 0 0 0 0 0 0 0 0 0 0 0 0 0 0 0 0 0 0 0 0 0 0 0 0 0 0 0 0 0 0 0 0 0 0 0 0 0 0 0 0 0 0 0 0 0 0 0 0 0 0 0 0 0 0 0 0 0 0 0 0 0 0 0 0 0 0 0 0 0 0 0 0 0 0 0 0 0 0 0 0
0 0 0 0 0 0 0 0 0 0 0 0 0 0 0 0 0 0 0 0 0 0 0 0 0 0 0 0 0 0 0 0 0 0 0 0 0 0 0 0 0 0 0 0 0 0 0 0 0 0 0 0 0 0 0 0 0 0 0 0 0 0 0 0 0 0 0 0 0 0 0 0 0 0 0 0 0 0 0 0 0 0 0 0 0 0 0 0 0 0 0 0 0 0 0 0 0 0 0 0 0 0 0 0 0 0 0 0 0 0 0 0 0 0 0 0 0 0 0 0 0 0 0 0 0 0 0 0 0 0 0 0 0 0 0 0 0 0 0 0 0 0 0 0 0 0 0 0 0 0 0 0 0 0 0 0 0 0 0 0 0 0 0 0 0 0 0 0 0 0 0 0 0 0 0 0 0 0 0 0 0 0 0 0 0 0 0 0 0 0 0 0 0 0 0 0 0 0 0 0 0 0 0 0 0 0 0 0 0 0 0 0 0 0 0 0 0 0 0 0 0 0 0 0 0 0 0 0 0 0 0 0 0 0 0 0 0 0 0 0 0 0 0 0 0 0 0 0 0 0 0 0 0 0 0 0 0 0 0 0 0 0 0 0 0 0 0 0 0 0 0 0 0 0 0 0 0 0 0 0 0 0 0 0 0 0 0 0 0 0 0 0 0 0 0 0 0 0 0 0 0 0 0 0 0 0 0 0 0 0 0 0 0 0 0 0 0 0 0 0 0 0 0 0 0 0 0 0 0 0 0 0 0 0 0 0 0 0 0 0 0 0 0 0 0 0 0 0 0 0 0 0 0 0 0 0 0 0 0 0 0 0 0 0 0 0 0 0 0 0 0 0 0 0 0 0 0 0 0 0 0 0 0 0 0 0 0 0 0 0 0 0 0 0 0 0 0 0 0 0 0 0 0 0 0 0 0 0 0 0 0 0 0 0 0 0 0 0 0 0 0 0 0 0 0 0 0 0 0 0 0 0 0 0 0 0 0 0 0 0 0 0 0 0 0 0 0 0 0 0 0 0 0 0 0 0 0 0 0 0 0 0 0 0 0 0 0 0 0 0 0 0 0 0 0 0 0 0 0 0 0 0 0 0 0 0 0 0 0 0 0 0 0 0 0 0 0 0 0 0 0 0 0 0 0 0 0 0 0 0 0 0 0 0 0 0 0 0 0 0 0 0 0 0 0 0 0 0 0 0 0 0 0 0 0 0 0 0 0 0 0 0 0 0 0 0 0 0 0 0 0 0 0 0 0 0 0 0 0 0 0 0 0 0 0 0 0 0 0 0 0 0 0 0 0 0 0 0 0 0 0 0 0 0 0 0 0 0 0 0 0 0 0 0 0 0 0 0 0 0 0 0 0 0 0 0 0 0 0 0 0 0 0 0 0 0 0 0 0 0 0 0 0 0 0 0 0 0 0 0 0 0 0 0 0 0 0 0 0 0 0 0 0 0 0 0 0 0 0 0 0 0 0 0 0 0 0 0 0 0 0 0 0 0 0 0 0 0 0 0 0 0 0 0 0 0 0 0 0 0 0 0 0 0 0 0 0 0 0 0 0 0 0 0 0 0 0 0 0 0 0 0 0 0 0 0 0 0 0 0 0 0 0 0 0 0 0 0 0 0 0 0 0 0 0 0 0 0 0 0 0 0 0 0 0 0 0 0 0 0 0 0 0 0 0 0 0 0 0 0 0 0 0 0 0 0 0 0 0 0 0 0 0 0 0 0 0 0 0 0 0 0 0 0 0 0 0 0 0 0 0 0 0 0 0 0 0 0 0 0 0 0 0 0 0 0 0 0 0 0 0 0 0 0 0 0 0 0 0 0 0 0 0 0 0 0 0 0 0 0 0 0 0 0 0 0 0 0 0 0 0 0 0 0 0 0 0 0 0 0 0 0 0 0 0 0 0 0 0 0 0 0 0 0 0 0 0 0 0 0 0 0 0 0 0 0 0 0 0 0 0 0 0 0 0 0 0 0 0 0 0 0 0 0 0 0 0 0 0 0 0 0 0 0 0 0 0 0 0 0 0 0 0 0 0 0 0 0 0 0 0 0 0 0 0 0 0 0 0 0 0 0 0 0 0 0 0 0 0 0 0 0 0 0 0 0 0 0 0 0 0 0 0 0 0 0 0 0 0 0 0 0 0 0 0 0 0 0 0 0
0 0 0 0 0 0 0 0 0 0 0 0 0 0 0 0 0 0 0 0 0 0 0 0 0 0 0 0 0 0 0 0 0 0 0 0 0 0 0 0 0 0 0 0 0 0 0 0 0 0 0 0 0 0 0 0 0 0 0 0 0 0 0 0 0 0 0 0 0 0 0 0 0 0 0 0 0 0 0 0 0 0 0 0 0 0 0 0 0 0 0 0 0 0 0 0 0 0 0 0 0 0 0 0 0 0 0 0 0 0 0 0 0 0 0 0 0 0 0 0 0 0 0 0 0 0 0 0 0 0 0 0 0 0 0 0 0 0 0 0 0 0 0 0 0 0 0 0 0 0 0 0 0 0 0 0 0 0 0 0 0 0 0 0 0 0 0 0 0 0 0 0 0 0 0 0 0 0 0 0 0 0 0 0 0 0 0 0 0 0 0 0 0 0 0 0 0 0 0 0 0 0 0 0 0 0 0 0 0 0 0 0 0 0 0 0 0 0 0 0 0 0 0 0 0 0 0 0 0 0 0 0 0 0 0 0 0 0 0 0 0 0 0 0 0 0 0 0 0 0 0 0 0 0 0 0 0 0 0 0 0 0 0 0 0 0 0 0 0 0 0 0 0 0 0 0 0 0 0 0 0 0 0 0 0 0 0 0 0 0 0 0 0 0 0 0 0 0 0 0 0 0 0 0 0 0 0 0 0 0 0 0 0 0 0 0 0 0 0 0 0 0 0 0 0 0 0 0 0 0 0 0 0 0 0 0 0 0 0 0 0 0 0 0 0 0 0 0 0 0 0 0 0 0 0 0 0 0 0 0 0 0 0 0 0 0 0 0 0 0 0 0 0 0 0 0 0 0 0 0 0 0 0 0 0 0 0 0 0 0 0 0 0 0 0 0 0 0 0 0 0 0 0 0 0 0 0 0 0 0 0 0 0 0 0 0 0 0 0 0 0 0 0 0 0 0 0 0 0 0 0 0 0 0 0 0 0 0 0 0 0 0 0 0 0 0 0 0 0 0 0 0 0 0 0 0 0 0 0 0 0 0 0 0 0 0 0 0 0 0 0 0 0 0 0 0 0 0 0 0 0 0 0 0 0 0 0 0 0 0 0 0 0 0 0 0 0 0 0 0 0 0 0 0 0 0 0 0 0 0 0 0 0 0 0 0 0 0 0 0 0 0 0 0 0 0 0 0 0 0 0 0 0 0 0 0 0 0 0 0 0 0 0 0 0 0 0 0 0 0 0 0 0 0 0 0 0 0 0 0 0 0 0 0 0 0 0 0 0 0 0 0 0 0 0 0 0 0 0 0 0 0 0 0 0 0 0 0 0 0 0 0 0 0 0 0 0 0 0 0 0 0 0 0 0 0 0 0 0 0 0 0 0 0 0 0 0 0 0 0 0 0 0 0 0 0 0 0 0 0 0 0 0 0 0 0 0 0 0 0 0 0 0 0 0 0 0 0 0 0 0 0 0 0 0 0 0 0 0 0 0 0 0 0 0 0 0 0 0 0 0 0 0 0 0 0 0 0 0 0 0 0 0 0 0 0 0 0 0 0 0 0 0 0 0 0 0 0 0 0 0 0 0 0 0 0 0 0 0 0 0 0 0 0 0 0 0 0 0 0 0 0 0 0 0 0 0 0 0 0 0 0 0 0 0 0 0 0 0 0 0 0 0 0 0 0 0 0 0 0 0 0 0 0 0 0 0 0 0 0 0 0 0 0 0 0 0 0 0 0 0 0 0 0 0 0 0 0 0 0 0 0 0 0 0 0 0 0 0 0 0 0 0 0 0 0 0 0 0 0 0 0 0 0 0 0 0 0 0 0 0 0 0 0 0 0 0 0 0 0 0 0 0 0 0 0 0 0 0 0 0 0 0 0 0 0 0 0 0 0 0 0 0 0 0 0 0 0 0 0 0 0 0 0 0 0 0 0 0 0 0 0 0 0 0 0 0 0 0 0 0 0 0 0 0 0 0 0 0 0 0 0 0 0 0 0 0 0 0 0 0 0 0 0 0 0 0 0 0 0 0 0 0 0 0 0 0 0 0 0 0 0 0 0 0 0 0 0 0 0 0 0 0 0 0 0 0 0 0 0 0 0 0 0 0 0 0 0 0 0 0 0 0 0 0 0 0 0 0 0 0 0 0 0 0 0 0 0 0 0
0 0 0 0 0 0 0 0 0 0 0 0 0 0 0 0 0 0 0 0 0 0 0 0 0 0 0 0 0 0 0 0 0 0 0 0 0 0 0 0 0 0 0 0 0 0 0 0 0 0 0 0 0 0 0 0 0 0 0 0 0 0 0 0 0 0 0 0 0 0 0 0 0 0 0 0 0 0 0 0 0 0 0 0 0 0 0 0 0 0 0 0 0 0 0 0 0 0 0 0 0 0 0 0 0 0 0 0 0 0 0 0 0 0 0 0 0 0 0 0 0 0 0 0 0 0 0 0 0 0 0 0 0 0 0 0 0 0 0 0 0 0 0 0 0 0 0 0 0 0 0 0 0 0 0 0 0 0 0 0 0 0 0 0 0 0 0 0 0 0 0 0 0 0 0 0 0 0 0 0 0 0 0 0 0 0 0 0 0 0 0 0 0 0 0 0 0 0 0 0 0 0 0 0 0 0 0 0 0 0 0 0 0 0 0 0 0 0 0 0 0 0 0 0 0 0 0 0 0 0 0 0 0 0 0 0 0 0 0 0 0 0 0 0 0 0 0 0 0 0 0 0 0 0 0 0 0 0 0 0 0 0 0 0 0 0 0 0 0 0 0 0 0 0 0 0 0 0 0 0 0 0 0 0 0 0 0 0 0 0 0 0 0 0 0 0 0 0 0 0 0 0 0 0 0 0 0 0 0 0 0 0 0 0 0 0 0 0 0 0 0 0 0 0 0 0 0 0 0 0 0 0 0 0 0 0 0 0 0 0 0 0 0 0 0 0 0 0 0 0 0 0 0 0 0 0 0 0 0 0 0 0 0 0 0 0 0 0 0 0 0 0 0 0 0 0 0 0 0 0 0 0 0 0 0 0 0 0 0 0 0 0 0 0 0 0 0 0 0 0 0 0 0 0 0 0 0 0 0 0 0 0 0 0 0 0 0 0 0 0 0 0 0 0 0 0 0 0 0 0 0 0 0 0 0 0 0 0 0 0 0 0 0 0 0 0 0 0 0 0 0 0 0 0 0 0 0 0 0 0 0 0 0 0 0 0 0 0 0 0 0 0 0 0 0 0 0 0 0 0 0 0 0 0 0 0 0 0 0 0 0 0 0 0 0 0 0 0 0 0 0 0 0 0 0 0 0 0 0 0 0 0 0 0 0 0 0 0 0 0 0 0 0 0 0 0 0 0 0 0 0 0 0 0 0 0 0 0 0 0 0 0 0 0 0 0 0 0 0 0 0 0 0 0 0 0 0 0 0 0 0 0 0 0 0 0 0 0 0 0 0 0 0 0 0 0 0 0 0 0 0 0 0 0 0 0 0 0 0 0 0 0 0 0 0 0 0 0 0 0 0 0 0 0 0 0 0 0 0 0 0 0 0 0 0 0 0 0 0 0 0 0 0 0 0 0 0 0 0 0 0 0 0 0 0 0 0 0 0 0 0 0 0 0 0 0 0 0 0 0 0 0 0 0 0 0 0 0 0 0 0 0 0 0 0 0 0 0 0 0 0 0 0 0 0 0 0 0 0 0 0 0 0 0 0 0 0 0 0 0 0 0 0 0 0 0 0 0 0 0 0 0 0 0 0 0 0 0 0 0 0 0 0 0 0 0 0 0 0 0 0 0 0 0 0 0 0 0 0 0 0 0 0 0 0 0 0 0 0 0 0 0 0 0 0 0 0 0 0 0 0 0 0 0 0 0 0 0 0 0 0 0 0 0 0 0 0 0 0 0 0 0 0 0 0 0 0 0 0 0 0 0 0 0 0 0 0 0 0 0 0 0 0 0 0 0 0 0 0 0 0 0 0 0 0 0 0 0 0 0 0 0 0 0 0 0 0 0 0 0 0 0 0 0 0 0 0 0 0 0 0 0 0 0 0 0 0 0 0 0 0 0 0 0 0 0 0 0 0 0 0 0 0 0 0 0 0 0 0 0 0 0 0 0 0 0 0 0 0 0 0 0 0 0 0 0 0 0 0 0 0 0 0 0 0 0 0 0 0 0 0 0 0 0 0 0 0 0 0 0 0 0 0 0 0 0 0 0 0 0 0 0 0 0 0 0 0 0 0 0 0 0 0 0 0 0 0 0 0 0 0 0 0 0 0 0 0 0 0 0 0 0 0 0 0 0 0 0 0 0 0 0 0 0 0 0 0 0 0 0
0 0 0 0 0 0 0 0 0 0 0 0 0 0 0 0 0 0 0 0 0 0 0 0 0 0 0 0 0 0 0 0 0 0 0 0 0 0 0 0 0 0 0 0 0 0 0 0 0 0 0 0 0 0 0 0 0 0 0 0 0 0 0 0 0 0 0 0 0 0 0 0 0 0 0 0 0 0 0 0 0 0 0 0 0 0 0 0 0 0 0 0 0 0 0 0 0 0 0 0 0 0 0 0 0 0 0 0 0 0 0 0 0 0 0 0 0 0 0 0 0 0 0 0 0 0 0 0 0 0 0 0 0 0 0 0 0 0 0 0 0 0 0 0 0 0 0 0 0 0 0 0 0 0 0 0 0 0 0 0 0 0 0 0 0 0 0 0 0 0 0 0 0 0 0 0 0 0 0 0 0 0 0 0 0 0 0 0 0 0 0 0 0 0 0 0 0 0 0 0 0 0 0 0 0 0 0 0 0 0 0 0 0 0 0 0 0 0 0 0 0 0 0 0 0 0 0 0 0 0 0 0 0 0 0 0 0 0 0 0 0 0 0 0 0 0 0 0 0 0 0 0 0 0 0 0 0 0 0 0 0 0 0 0 0 0 0 0 0 0 0 0 0 0 0 0 0 0 0 0 0 0 0 0 0 0 0 0 0 0 0 0 0 0 0 0 0 0 0 0 0 0 0 0 0 0 0 0 0 0 0 0 0 0 0 0 0 0 0 0 0 0 0 0 0 0 0 0 0 0 0 0 0 0 0 0 0 0 0 0 0 0 0 0 0 0 0 0 0 0 0 0 0 0 0 0 0 0 0 0 0 0 0 0 0 0 0 0 0 0 0 0 0 0 0 0 0 0 0 0 0 0 0 0 0 0 0 0 0 0 0 0 0 0 0 0 0 0 0 0 0 0 0 0 0 0 0 0 0 0 0 0 0 0 0 0 0 0 0 0 0 0 0 0 0 0 0 0 0 0 0 0 0 0 0 0 0 0 0 0 0 0 0 0 0 0 0 0 0 0 0 0 0 0 0 0 0 0 0 0 0 0 0 0 0 0 0 0 0 0 0 0 0 0 0 0 0 0 0 0 0 0 0 0 0 0 0 0 0 0 0 0 0 0 0 0 0 0 0 0 0 0 0 0 0 0 0 0 0 0 0 0 0 0 0 0 0 0 0 0 0 0 0 0 0 0 0 0 0 0 0 0 0 0 0 0 0 0 0 0 0 0 0 0 0 0 0 0 0 0 0 0 0 0 0 0 0 0 0 0 0 0 0 0 0 0 0 0 0 0 0 0 0 0 0 0 0 0 0 0 0 0 0 0 0 0 0 0 0 0 0 0 0 0 0 0 0 0 0 0 0 0 0 0 0 0 0 0 0 0 0 0 0 0 0 0 0 0 0 0 0 0 0 0 0 0 0 0 0 0 0 0 0 0 0 0 0 0 0 0 0 0 0 0 0 0 0 0 0 0 0 0 0 0 0 0 0 0 0 0 0 0 0 0 0 0 0 0 0 0 0 0 0 0 0 0 0 0 0 0 0 0 0 0 0 0 0 0 0 0 0 0 0 0 0 0 0 0 0 0 0 0 0 0 0 0 0 0 0 0 0 0 0 0 0 0 0 0 0 0 0 0 0 0 0 0 0 0 0 0 0 0 0 0 0 0 0 0 0 0 0 0 0 0 0 0 0 0 0 0 0 0 0 0 0 0 0 0 0 0 0 0 0 0 0 0 0 0 0 0 0 0 0 0 0 0 0 0 0 0 0 0 0 0 0 0 0 0 0 0 0 0 0 0 0 0 0 0 0 0 0 0 0 0 0 0 0 0 0 0 0 0 0 0 0 0 0 0 0 0 0 0 0 0 0 0 0 0 0 0 0 0 0 0 0 0 0 0 0 0 0 0 0 0 0 0 0 0 0 0 0 0 0 0 0 0 0 0 0 0 0 0 0 0 0 0 0 0 0 0 0 0 0 0 0 0 0 0 0 0 0 0 0 0 0 0 0 0 0 0 0 0 0 0 0 0 0 0 0 0 0 0 0 0 0 0 0 0 0 0 0 0 0 0 0 0 0 0 0 0 0 0 0 0 0 0 0 0 0 0 0 0 0 0 0 0 0 0 0 0 0 0 0 0 0 0 0 0 0 0 0 0 0 0 0 0 0 0 0 0
0 0 0 0 0 0 0 0 0 0 0 0 0 0 0 0 0 0 0 0 0 0 0 0 0 0 0 0 0 0 0 0 0 0 0 0 0 0 0 0 0 0 0 0 0 0 0 0 0 0 0 0 0 0 0 0 0 0 0 0 0 0 0 0 0 0 0 0 0 0 0 0 0 0 0 0 0 0 0 0 0 0 0 0 0 0 0 0 0 0 0 0 0 0 0 0 0 0 0 0 0 0 0 0 0 0 0 0 0 0 0 0 0 0 0 0 0 0 0 0 0 0 0 0 0 0 0 0 0 0 0 0 0 0 0 0 0 0 0 0 0 0 0 0 0 0 0 0 0 0 0 0 0 0 0 0 0 0 0 0 0 0 0 0 0 0 0 0 0 0 0 0 0 0 0 0 0 0 0 0 0 0 0 0 0 0 0 0 0 0 0 0 0 0 0 0 0 0 0 0 0 0 0 0 0 0 0 0 0 0 0 0 0 0 0 0 0 0 0 0 0 0 0 0 0 0 0 0 0 0 0 0 0 0 0 0 0 0 0 0 0 0 0 0 0 0 0 0 0 0 0 0 0 0 0 0 0 0 0 0 0 0 0 0 0 0 0 0 0 0 0 0 0 0 0 0 0 0 0 0 0 0 0 0 0 0 0 0 0 0 0 0 0 0 0 0 0 0 0 0 0 0 0 0 0 0 0 0 0 0 0 0 0 0 0 0 0 0 0 0 0 0 0 0 0 0 0 0 0 0 0 0 0 0 0 0 0 0 0 0 0 0 0 0 0 0 0 0 0 0 0 0 0 0 0 0 0 0 0 0 0 0 0 0 0 0 0 0 0 0 0 0 0 0 0 0 0 0 0 0 0 0 0 0 0 0 0 0 0 0 0 0 0 0 0 0 0 0 0 0 0 0 0 0 0 0 0 0 0 0 0 0 0 0 0 0 0 0 0 0 0 0 0 0 0 0 0 0 0 0 0 0 0 0 0 0 0 0 0 0 0 0 0 0 0 0 0 0 0 0 0 0 0 0 0 0 0 0 0 0 0 0 0 0 0 0 0 0 0 0 0 0 0 0 0 0 0 0 0 0 0 0 0 0 0 0 0 0 0 0 0 0 0 0 0 0 0 0 0 0 0 0 0 0 0 0 0 0 0 0 0 0 0 0 0 0 0 0 0 0 0 0 0 0 0 0 0 0 0 0 0 0 0 0 0 0 0 0 0 0 0 0 0 0 0 0 0 0 0 0 0 0 0 0 0 0 0 0 0 0 0 0 0 0 0 0 0 0 0 0 0 0 0 0 0 0 0 0 0 0 0 0 0 0 0 0 0 0 0 0 0 0 0 0 0 0 0 0 0 0 0 0 0 0 0 0 0 0 0 0 0 0 0 0 0 0 0 0 0 0 0 0 0 0 0 0 0 0 0 0 0 0 0 0 0 0 0 0 0 0 0 0 0 0 0 0 0 0 0 0 0 0 0 0 0 0 0 0 0 0 0 0 0 0 0 0 0 0 0 0 0 0 0 0 0 0 0 0 0 0 0 0 0 0 0 0 0 0 0 0 0 0 0 0 0 0 0 0 0 0 0 0 0 0 0 0 0 0 0 0 0 0 0 0 0 0 0 0 0 0 0 0 0 0 0 0 0 0 0 0 0 0 0 0 0 0 0 0 0 0 0 0 0 0 0 0 0 0 0 0 0 0 0 0 0 0 0 0 0 0 0 0 0 0 0 0 0 0 0 0 0 0 0 0 0 0 0 0 0 0 0 0 0 0 0 0 0 0 0 0 0 0 0 0 0 0 0 0 0 0 0 0 0 0 0 0 0 0 0 0 0 0 0 0 0 0 0 0 0 0 0 0 0 0 0 0 0 0 0 0 0 0 0 0 0 0 0 0 0 0 0 0 0 0 0 0 0 0 0 0 0 0 0 0 0 0 0 0 0 0 0 0 0 0 0 0 0 0 0 0 0 0 0 0 0 0 0 0 0 0 0 0 0 0 0 0 0 0 0 0 0 0 0 0 0 0 0 0 0 0 0 0 0 0 0 0 0 0 0 0 0 0 0 0 0 0 0 0 0 0 0 0 0 0 0 0 0 0 0 0 0 0 0 0 0 0 0 0 0 0 0 0 0 0 0 0 0 0 0 0 0 0 0 0 0 0 0 0 0 0
0 0 0 0 0 0 0 0 0 0 0 0 0 0 0 0 0 0 0 0 0 0 0 0 0 0 0 0 0 0 0 0 0 0 0 0 0 0 0 0 0 0 0 0 0 0 0 0 0 0 0 0 0 0 0 0 0 0 0 0 0 0 0 0 0 0 0 0 0 0 0 0 0 0 0 0 0 0 0 0 0 0 0 0 0 0 0 0 0 0 0 0 0 0 0 0 0 0 0 0 0 0 0 0 0 0 0 0 0 0 0 0 0 0 0 0 0 0 0 0 0 0 0 0 0 0 0 0 0 0 0 0 0 0 0 0 0 0 0 0 0 0 0 0 0 0 0 0 0 0 0 0 0 0 0 0 0 0 0 0 0 0 0 0 0 0 0 0 0 0 0 0 0 0 0 0 0 0 0 0 0 0 0 0 0 0 0 0 0 0 0 0 0 0 0 0 0 0 0 0 0 0 0 0 0 0 0 0 0 0 0 0 0 0 0 0 0 0 0 0 0 0 0 0 0 0 0 0 0 0 0 0 0 0 0 0 0 0 0 0 0 0 0 0 0 0 0 0 0 0 0 0 0 0 0 0 0 0 0 0 0 0 0 0 0 0 0 0 0 0 0 0 0 0 0 0 0 0 0 0 0 0 0 0 0 0 0 0 0 0 0 0 0 0 0 0 0 0 0 0 0 0 0 0 0 0 0 0 0 0 0 0 0 0 0 0 0 0 0 0 0 0 0 0 0 0 0 0 0 0 0 0 0 0 0 0 0 0 0 0 0 0 0 0 0 0 0 0 0 0 0 0 0 0 0 0 0 0 0 0 0 0 0 0 0 0 0 0 0 0 0 0 0 0 0 0 0 0 0 0 0 0 0 0 0 0 0 0 0 0 0 0 0 0 0 0 0 0 0 0 0 0 0 0 0 0 0 0 0 0 0 0 0 0 0 0 0 0 0 0 0 0 0 0 0 0 0 0 0 0 0 0 0 0 0 0 0 0 0 0 0 0 0 0 0 0 0 0 0 0 0 0 0 0 0 0 0 0 0 0 0 0 0 0 0 0 0 0 0 0 0 0 0 0 0 0 0 0 0 0 0 0 0 0 0 0 0 0 0 0 0 0 0 0 0 0 0 0 0 0 0 0 0 0 0 0 0 0 0 0 0 0 0 0 0 0 0 0 0 0 0 0 0 0 0 0 0 0 0 0 0 0 0 0 0 0 0 0 0 0 0 0 0 0 0 0 0 0 0 0 0 0 0 0 0 0 0 0 0 0 0 0 0 0 0 0 0 0 0 0 0 0 0 0 0 0 0 0 0 0 0 0 0 0 0 0 0 0 0 0 0 0 0 0 0 0 0 0 0 0 0 0 0 0 0 0 0 0 0 0 0 0 0 0 0 0 0 0 0 0 0 0 0 0 0 0 0 0 0 0 0 0 0 0 0 0 0 0 0 0 0 0 0 0 0 0 0 0 0 0 0 0 0 0 0 0 0 0 0 0 0 0 0 0 0 0 0 0 0 0 0 0 0 0 0 0 0 0 0 0 0 0 0 0 0 0 0 0 0 0 0 0 0 0 0 0 0 0 0 0 0 0 0 0 0 0 0 0 0 0 0 0 0 0 0 0 0 0 0 0 0 0 0 0 0 0 0 0 0 0 0 0 0 0 0 0 0 0 0 0 0 0 0 0 0 0 0 0 0 0 0 0 0 0 0 0 0 0 0 0 0 0 0 0 0 0 0 0 0 0 0 0 0 0 0 0 0 0 0 0 0 0 0 0 0 0 0 0 0 0 0 0 0 0 0 0 0 0 0 0 0 0 0 0 0 0 0 0 0 0 0 0 0 0 0 0 0 0 0 0 0 0 0 0 0 0 0 0 0 0 0 0 0 0 0 0 0 0 0 0 0 0 0 0 0 0 0 0 0 0 0 0 0 0 0 0 0 0 0 0 0 0 0 0 0 0 0 0 0 0 0 0 0 0 0 0 0 0 0 0 0 0 0 0 0 0 0 0 0 0 0 0 0 0 0 0 0 0 0 0 0 0 0 0 0 0 0 0 0 0 0 0 0 0 0 0 0 0 0 0 0 0 0 0 0 0 0 0 0 0 0 0 0 0 0 0 0 0 0 0 0 0 0 0 0 0 0 0 0 0 0 0 0 0 0 0 0 0 0 0
0 0 0 0 0 0 0 0 0 0 0 0 0 0 0 0 0 0 0 0 0 0 0 0 0 0 0 0 0 0 0 0 0 0 0 0 0 0 0 0 0 0 0 0 0 0 0 0 0 0 0 0 0 0 0 0 0 0 0 0 0 0 0 0 0 0 0 0 0 0 0 0 0 0 0 0 0 0 0 0 0 0 0 0 0 0 0 0 0 0 0 0 0 0 0 0 0 0 0 0 0 0 0 0 0 0 0 0 0 0 0 0 0 0 0 0 0 0 0 0 0 0 0 0 0 0 0 0 0 0 0 0 0 0 0 0 0 0 0 0 0 0 0 0 0 0 0 0 0 0 0 0 0 0 0 0 0 0 0 0 0 0 0 0 0 0 0 0 0 0 0 0 0 0 0 0 0 0 0 0 0 0 0 0 0 0 0 0 0 0 0 0 0 0 0 0 0 0 0 0 0 0 0 0 0 0 0 0 0 0 0 0 0 0 0 0 0 0 0 0 0 0 0 0 0 0 0 0 0 0 0 0 0 0 0 0 0 0 0 0 0 0 0 0 0 0 0 0 0 0 0 0 0 0 0 0 0 0 0 0 0 0 0 0 0 0 0 0 0 0 0 0 0 0 0 0 0 0 0 0 0 0 0 0 0 0 0 0 0 0 0 0 0 0 0 0 0 0 0 0 0 0 0 0 0 0 0 0 0 0 0 0 0 0 0 0 0 0 0 0 0 0 0 0 0 0 0 0 0 0 0 0 0 0 0 0 0 0 0 0 0 0 0 0 0 0 0 0 0 0 0 0 0 0 0 0 0 0 0 0 0 0 0 0 0 0 0 0 0 0 0 0 0 0 0 0 0 0 0 0 0 0 0 0 0 0 0 0 0 0 0 0 0 0 0 0 0 0 0 0 0 0 0 0 0 0 0 0 0 0 0 0 0 0 0 0 0 0 0 0 0 0 0 0 0 0 0 0 0 0 0 0 0 0 0 0 0 0 0 0 0 0 0 0 0 0 0 0 0 0 0 0 0 0 0 0 0 0 0 0 0 0 0 0 0 0 0 0 0 0 0 0 0 0 0 0 0 0 0 0 0 0 0 0 0 0 0 0 0 0 0 0 0 0 0 0 0 0 0 0 0 0 0 0 0 0 0 0 0 0 0 0 0 0 0 0 0 0 0 0 0 0 0 0 0 0 0 0 0 0 0 0 0 0 0 0 0 0 0 0 0 0 0 0 0 0 0 0 0 0 0 0 0 0 0 0 0 0 0 0 0 0 0 0 0 0 0 0 0 0 0 0 0 0 0 0 0 0 0 0 0 0 0 0 0 0 0 0 0 0 0 0 0 0 0 0 0 0 0 0 0 0 0 0 0 0 0 0 0 0 0 0 0 0 0 0 0 0 0 0 0 0 0 0 0 0 0 0 0 0 0 0 0 0 0 0 0 0 0 0 0 0 0 0 0 0 0 0 0 0 0 0 0 0 0 0 0 0 0 0 0 0 0 0 0 0 0 0 0 0 0 0 0 0 0 0 0 0 0 0 0 0 0 0 0 0 0 0 0 0 0 0 0 0 0 0 0 0 0 0 0 0 0 0 0 0 0 0 0 0 0 0 0 0 0 0 0 0 0 0 0 0 0 0 0 0 0 0 0 0 0 0 0 0 0 0 0 0 0 0 0 0 0 0 0 0 0 0 0 0 0 0 0 0 0 0 0 0 0 0 0 0 0 0 0 0 0 0 0 0 0 0 0 0 0 0 0 0 0 0 0 0 0 0 0 0 0 0 0 0 0 0 0 0 0 0 0 0 0 0 0 0 0 0 0 0 0 0 0 0 0 0 0 0 0 0 0 0 0 0 0 0 0 0 0 0 0 0 0 0 0 0 0 0 0 0 0 0 0 0 0 0 0 0 0 0 0 0 0 0 0 0 0 0 0 0 0 0 0 0 0 0 0 0 0 0 0 0 0 0 0 0 0 0 0 0 0 0 0 0 0 0 0 0 0 0 0 0 0 0 0 0 0 0 0 0 0 0 0 0 0 0 0 0 0 0 0 0 0 0 0 0 0 0 0 0 0 0 0 0 0 0 0 0 0 0 0 0 0 0 0 0 0 0 0 0 0 0 0 0 0 0 0 0 0 0 0 0 0 0 0 0 0 0 0 0 0 0 0 0
0 0 0 0 0 0 0 0 0 0 0 0 0 0 0 0 0 0 0 0 0 0 0 0 0 0 0 0 0 0 0 0 0 0 0 0 0 0 0 0 0 0 0 0 0 0 0 0 0 0 0 0 0 0 0 0 0 0 0 0 0 0 0 0 0 0 0 0 0 0 0 0 0 0 0 0 0 0 0 0 0 0 0 0 0 0 0 0 0 0 0 0 0 0 0 0 0 0 0 0 0 0 0 0 0 0 0 0 0 0 0 0 0 0 0 0 0 0 0 0 0 0 0 0 0 0 0 0 0 0 0 0 0 0 0 0 0 0 0 0 0 0 0 0 0 0 0 0 0 0 0 0 0 0 0 0 0 0 0 0 0 0 0 0 0 0 0 0 0 0 0 0 0 0 0 0 0 0 0 0 0 0 0 0 0 0 0 0 0 0 0 0 0 0 0 0 0 0 0 0 0 0 0 0 0 0 0 0 0 0 0 0 0 0 0 0 0 0 0 0 0 0 0 0 0 0 0 0 0 0 0 0 0 0 0 0 0 0 0 0 0 0 0 0 0 0 0 0 0 0 0 0 0 0 0 0 0 0 0 0 0 0 0 0 0 0 0 0 0 0 0 0 0 0 0 0 0 0 0 0 0 0 0 0 0 0 0 0 0 0 0 0 0 0 0 0 0 0 0 0 0 0 0 0 0 0 0 0 0 0 0 0 0 0 0 0 0 0 0 0 0 0 0 0 0 0 0 0 0 0 0 0 0 0 0 0 0 0 0 0 0 0 0 0 0 0 0 0 0 0 0 0 0 0 0 0 0 0 0 0 0 0 0 0 0 0 0 0 0 0 0 0 0 0 0 0 0 0 0 0 0 0 0 0 0 0 0 0 0 0 0 0 0 0 0 0 0 0 0 0 0 0 0 0 0 0 0 0 0 0 0 0 0 0 0 0 0 0 0 0 0 0 0 0 0 0 0 0 0 0 0 0 0 0 0 0 0 0 0 0 0 0 0 0 0 0 0 0 0 0 0 0 0 0 0 0 0 0 0 0 0 0 0 0 0 0 0 0 0 0 0 0 0 0 0 0 0 0 0 0 0 0 0 0 0 0 0 0 0 0 0 0 0 0 0 0 0 0 0 0 0 0 0 0 0 0 0 0 0 0 0 0 0 0 0 0 0 0 0 0 0 0 0 0 0 0 0 0 0 0 0 0 0 0 0 0 0 0 0 0 0 0 0 0 0 0 0 0 0 0 0 0 0 0 0 0 0 0 0 0 0 0 0 0 0 0 0 0 0 0 0 0 0 0 0 0 0 0 0 0 0 0 0 0 0 0 0 0 0 0 0 0 0 0 0 0 0 0 0 0 0 0 0 0 0 0 0 0 0 0 0 0 0 0 0 0 0 0 0 0 0 0 0 0 0 0 0 0 0 0 0 0 0 0 0 0 0 0 0 0 0 0 0 0 0 0 0 0 0 0 0 0 0 0 0 0 0 0 0 0 0 0 0 0 0 0 0 0 0 0 0 0 0 0 0 0 0 0 0 0 0 0 0 0 0 0 0 0 0 0 0 0 0 0 0 0 0 0 0 0 0 0 0 0 0 0 0 0 0 0 0 0 0 0 0 0 0 0 0 0 0 0 0 0 0 0 0 0 0 0 0 0 0 0 0 0 0 0 0 0 0 0 0 0 0 0 0 0 0 0 0 0 0 0 0 0 0 0 0 0 0 0 0 0 0 0 0 0 0 0 0 0 0 0 0 0 0 0 0 0 0 0 0 0 0 0 0 0 0 0 0 0 0 0 0 0 0 0 0 0 0 0 0 0 0 0 0 0 0 0 0 0 0 0 0 0 0 0 0 0 0 0 0 0 0 0 0 0 0 0 0 0 0 0 0 0 0 0 0 0 0 0 0 0 0 0 0 0 0 0 0 0 0 0 0 0 0 0 0 0 0 0 0 0 0 0 0 0 0 0 0 0 0 0 0 0 0 0 0 0 0 0 0 0 0 0 0 0 0 0 0 0 0 0 0 0 0 0 0 0 0 0 0 0 0 0 0 0 0 0 0 0 0 0 0 0 0 0 0 0 0 0 0 0 0 0 0 0 0 0 0 0 0 0 0 0 0 0 0 0 0 0 0 0 0 0 0 0 0 0 0 0 0 0 0 0 0 0 0 0
0 0 0 0 0 0 0 0 0 0 0 0 0 0 0 0 0 0 0 0 0 0 0 0 0 0 0 0 0 0 0 0 0 0 0 0 0 0 0 0 0 0 0 0 0 0 0 0 0 0 0 0 0 0 0 0 0 0 0 0 0 0 0 0 0 0 0 0 0 0 0 0 0 0 0 0 0 0 0 0 0 0 0 0 0 0 0 0 0 0 0 0 0 0 0 0 0 0 0 0 0 0 0 0 0 0 0 0 0 0 0 0 0 0 0 0 0 0 0 0 0 0 0 0 0 0 0 0 0 0 0 0 0 0 0 0 0 0 0 0 0 0 0 0 0 0 0 0 0 0 0 0 0 0 0 0 0 0 0 0 0 0 0 0 0 0 0 0 0 0 0 0 0 0 0 0 0 0 0 0 0 0 0 0 0 0 0 0 0 0 0 0 0 0 0 0 0 0 0 0 0 0 0 0 0 0 0 0 0 0 0 0 0 0 0 0 0 0 0 0 0 0 0 0 0 0 0 0 0 0 0 0 0 0 0 0 0 0 0 0 0 0 0 0 0 0 0 0 0 0 0 0 0 0 0 0 0 0 0 0 0 0 0 0 0 0 0 0 0 0 0 0 0 0 0 0 0 0 0 0 0 0 0 0 0 0 0 0 0 0 0 0 0 0 0 0 0 0 0 0 0 0 0 0 0 0 0 0 0 0 0 0 0 0 0 0 0 0 0 0 0 0 0 0 0 0 0 0 0 0 0 0 0 0 0 0 0 0 0 0 0 0 0 0 0 0 0 0 0 0 0 0 0 0 0 0 0 0 0 0 0 0 0 0 0 0 0 0 0 0 0 0 0 0 0 0 0 0 0 0 0 0 0 0 0 0 0 0 0 0 0 0 0 0 0 0 0 0 0 0 0 0 0 0 0 0 0 0 0 0 0 0 0 0 0 0 0 0 0 0 0 0 0 0 0 0 0 0 0 0 0 0 0 0 0 0 0 0 0 0 0 0 0 0 0 0 0 0 0 0 0 0 0 0 0 0 0 0 0 0 0 0 0 0 0 0 0 0 0 0 0 0 0 0 0 0 0 0 0 0 0 0 0 0 0 0 0 0 0 0 0 0 0 0 0 0 0 0 0 0 0 0 0 0 0 0 0 0 0 0 0 0 0 0 0 0 0 0 0 0 0 0 0 0 0 0 0 0 0 0 0 0 0 0 0 0 0 0 0 0 0 0 0 0 0 0 0 0 0 0 0 0 0 0 0 0 0 0 0 0 0 0 0 0 0 0 0 0 0 0 0 0 0 0 0 0 0 0 0 0 0 0 0 0 0 0 0 0 0 0 0 0 0 0 0 0 0 0 0 0 0 0 0 0 0 0 0 0 0 0 0 0 0 0 0 0 0 0 0 0 0 0 0 0 0 0 0 0 0 0 0 0 0 0 0 0 0 0 0 0 0 0 0 0 0 0 0 0 0 0 0 0 0 0 0 0 0 0 0 0 0 0 0 0 0 0 0 0 0 0 0 0 0 0 0 0 0 0 0 0 0 0 0 0 0 0 0 0 0 0 0 0 0 0 0 0 0 0 0 0 0 0 0 0 0 0 0 0 0 0 0 0 0 0 0 0 0 0 0 0 0 0 0 0 0 0 0 0 0 0 0 0 0 0 0 0 0 0 0 0 0 0 0 0 0 0 0 0 0 0 0 0 0 0 0 0 0 0 0 0 0 0 0 0 0 0 0 0 0 0 0 0 0 0 0 0 0 0 0 0 0 0 0 0 0 0 0 0 0 0 0 0 0 0 0 0 0 0 0 0 0 0 0 0 0 0 0 0 0 0 0 0 0 0 0 0 0 0 0 0 0 0 0 0 0 0 0 0 0 0 0 0 0 0 0 0 0 0 0 0 0 0 0 0 0 0 0 0 0 0 0 0 0 0 0 0 0 0 0 0 0 0 0 0 0 0 0 0 0 0 0 0 0 0 0 0 0 0 0 0 0 0 0 0 0 0 0 0 0 0 0 0 0 0 0 0 0 0 0 0 0 0 0 0 0 0 0 0 0 0 0 0 0 0 0 0 0 0 0 0 0 0 0 0 0 0 0 0 0 0 0 0 0 0 0 0 0 0 0 0 0 0 0 0 0 0 0 0 0 0 0 0 0 0 0 0 0 0 0 0
0 0 0 0 0 0 0 0 0 0 0 0 0 0 0 0 0 0 0 0 0 0 0 0 0 0 0 0 0 0 0 0 0 0 0 0 0 0 0 0 0 0 0 0 0 0 0 0 0 0 0 0 0 0 0 0 0 0 0 0 0 0 0 0 0 0 0 0 0 0 0 0 0 0 0 0 0 0 0 0 0 0 0 0 0 0 0 0 0 0 0 0 0 0 0 0 0 0 0 0 0 0 0 0 0 0 0 0 0 0 0 0 0 0 0 0 0 0 0 0 0 0 0 0 0 0 0 0 0 0 0 0 0 0 0 0 0 0 0 0 0 0 0 0 0 0 0 0 0 0 0 0 0 0 0 0 0 0 0 0 0 0 0 0 0 0 0 0 0 0 0 0 0 0 0 0 0 0 0 0 0 0 0 0 0 0 0 0 0 0 0 0 0 0 0 0 0 0 0 0 0 0 0 0 0 0 0 0 0 0 0 0 0 0 0 0 0 0 0 0 0 0 0 0 0 0 0 0 0 0 0 0 0 0 0 0 0 0 0 0 0 0 0 0 0 0 0 0 0 0 0 0 0 0 0 0 0 0 0 0 0 0 0 0 0 0 0 0 0 0 0 0 0 0 0 0 0 0 0 0 0 0 0 0 0 0 0 0 0 0 0 0 0 0 0 0 0 0 0 0 0 0 0 0 0 0 0 0 0 0 0 0 0 0 0 0 0 0 0 0 0 0 0 0 0 0 0 0 0 0 0 0 0 0 0 0 0 0 0 0 0 0 0 0 0 0 0 0 0 0 0 0 0 0 0 0 0 0 0 0 0 0 0 0 0 0 0 0 0 0 0 0 0 0 0 0 0 0 0 0 0 0 0 0 0 0 0 0 0 0 0 0 0 0 0 0 0 0 0 0 0 0 0 0 0 0 0 0 0 0 0 0 0 0 0 0 0 0 0 0 0 0 0 0 0 0 0 0 0 0 0 0 0 0 0 0 0 0 0 0 0 0 0 0 0 0 0 0 0 0 0 0 0 0 0 0 0 0 0 0 0 0 0 0 0 0 0 0 0 0 0 0 0 0 0 0 0 0 0 0 0 0 0 0 0 0 0 0 0 0 0 0 0 0 0 0 0 0 0 0 0 0 0 0 0 0 0 0 0 0 0 0 0 0 0 0 0 0 0 0 0 0 0 0 0 0 0 0 0 0 0 0 0 0 0 0 0 0 0 0 0 0 0 0 0 0 0 0 0 0 0 0 0 0 0 0 0 0 0 0 0 0 0 0 0 0 0 0 0 0 0 0 0 0 0 0 0 0 0 0 0 0 0 0 0 0 0 0 0 0 0 0 0 0 0 0 0 0 0 0 0 0 0 0 0 0 0 0 0 0 0 0 0 0 0 0 0 0 0 0 0 0 0 0 0 0 0 0 0 0 0 0 0 0 0 0 0 0 0 0 0 0 0 0 0 0 0 0 0 0 0 0 0 0 0 0 0 0 0 0 0 0 0 0 0 0 0 0 0 0 0 0 0 0 0 0 0 0 0 0 0 0 0 0 0 0 0 0 0 0 0 0 0 0 0 0 0 0 0 0 0 0 0 0 0 0 0 0 0 0 0 0 0 0 0 0 0 0 0 0 0 0 0 0 0 0 0 0 0 0 0 0 0 0 0 0 0 0 0 0 0 0 0 0 0 0 0 0 0 0 0 0 0 0 0 0 0 0 0 0 0 0 0 0 0 0 0 0 0 0 0 0 0 0 0 0 0 0 0 0 0 0 0 0 0 0 0 0 0 0 0 0 0 0 0 0 0 0 0 0 0 0 0 0 0 0 0 0 0 0 0 0 0 0 0 0 0 0 0 0 0 0 0 0 0 0 0 0 0 0 0 0 0 0 0 0 0 0 0 0 0 0 0 0 0 0 0 0 0 0 0 0 0 0 0 0 0 0 0 0 0 0 0 0 0 0 0 0 0 0 0 0 0 0 0 0 0 0 0 0 0 0 0 0 0 0 0 0 0 0 0 0 0 0 0 0 0 0 0 0 0 0 0 0 0 0 0 0 0 0 0 0 0 0 0 0 0 0 0 0 0 0 0 0 0 0 0 0 0 0 0 0 0 0 0 0 0 0 0 0 0 0 0 0 0 0 0 0 0 0 0 0 0 0 0 0 0 0 0 0
0 0 0 0 0 0 0 0 0 0 0 0 0 0 0 0 0 0 0 0 0 0 0 0 0 0 0 0 0 0 0 0 0 0 0 0 0 0 0 0 0 0 0 0 0 0 0 0 0 0 0 0 0 0 0 0 0 0 0 0 0 0 0 0 0 0 0 0 0 0 0 0 0 0 0 0 0 0 0 0 0 0 0 0 0 0 0 0 0 0 0 0 0 0 0 0 0 0 0 0 0 0 0 0 0 0 0 0 0 0 0 0 0 0 0 0 0 0 0 0 0 0 0 0 0 0 0 0 0 0 0 0 0 0 0 0 0 0 0 0 0 0 0 0 0 0 0 0 0 0 0 0 0 0 0 0 0 0 0 0 0 0 0 0 0 0 0 0 0 0 0 0 0 0 0 0 0 0 0 0 0 0 0 0 0 0 0 0 0 0 0 0 0 0 0 0 0 0 0 0 0 0 0 0 0 0 0 0 0 0 0 0 0 0 0 0 0 0 0 0 0 0 0 0 0 0 0 0 0 0 0 0 0 0 0 0 0 0 0 0 0 0 0 0 0 0 0 0 0 0 0 0 0 0 0 0 0 0 0 0 0 0 0 0 0 0 0 0 0 0 0 0 0 0 0 0 0 0 0 0 0 0 0 0 0 0 0 0 0 0 0 0 0 0 0 0 0 0 0 0 0 0 0 0 0 0 0 0 0 0 0 0 0 0 0 0 0 0 0 0 0 0 0 0 0 0 0 0 0 0 0 0 0 0 0 0 0 0 0 0 0 0 0 0 0 0 0 0 0 0 0 0 0 0 0 0 0 0 0 0 0 0 0 0 0 0 0 0 0 0 0 0 0 0 0 0 0 0 0 0 0 0 0 0 0 0 0 0 0 0 0 0 0 0 0 0 0 0 0 0 0 0 0 0 0 0 0 0 0 0 0 0 0 0 0 0 0 0 0 0 0 0 0 0 0 0 0 0 0 0 0 0 0 0 0 0 0 0 0 0 0 0 0 0 0 0 0 0 0 0 0 0 0 0 0 0 0 0 0 0 0 0 0 0 0 0 0 0 0 0 0 0 0 0 0 0 0 0 0 0 0 0 0 0 0 0 0 0 0 0 0 0 0 0 0 0 0 0 0 0 0 0 0 0 0 0 0 0 0 0 0 0 0 0 0 0 0 0 0 0 0 0 0 0 0 0 0 0 0 0 0 0 0 0 0 0 0 0 0 0 0 0 0 0 0 0 0 0 0 0 0 0 0 0 0 0 0 0 0 0 0 0 0 0 0 0 0 0 0 0 0 0 0 0 0 0 0 0 0 0 0 0 0 0 0 0 0 0 0 0 0 0 0 0 0 0 0 0 0 0 0 0 0 0 0 0 0 0 0 0 0 0 0 0 0 0 0 0 0 0 0 0 0 0 0 0 0 0 0 0 0 0 0 0 0 0 0 0 0 0 0 0 0 0 0 0 0 0 0 0 0 0 0 0 0 0 0 0 0 0 0 0 0 0 0 0 0 0 0 0 0 0 0 0 0 0 0 0 0 0 0 0 0 0 0 0 0 0 0 0 0 0 0 0 0 0 0 0 0 0 0 0 0 0 0 0 0 0 0 0 0 0 0 0 0 0 0 0 0 0 0 0 0 0 0 0 0 0 0 0 0 0 0 0 0 0 0 0 0 0 0 0 0 0 0 0 0 0 0 0 0 0 0 0 0 0 0 0 0 0 0 0 0 0 0 0 0 0 0 0 0 0 0 0 0 0 0 0 0 0 0 0 0 0 0 0 0 0 0 0 0 0 0 0 0 0 0 0 0 0 0 0 0 0 0 0 0 0 0 0 0 0 0 0 0 0 0 0 0 0 0 0 0 0 0 0 0 0 0 0 0 0 0 0 0 0 0 0 0 0 0 0 0 0 0 0 0 0 0 0 0 0 0 0 0 0 0 0 0 0 0 0 0 0 0 0 0 0 0 0 0 0 0 0 0 0 0 0 0 0 0 0 0 0 0 0 0 0 0 0 0 0 0 0 0 0 0 0 0 0 0 0 0 0 0 0 0 0 0 0 0 0 0 0 0 0 0 0 0 0 0 0 0 0 0 0 0 0 0 0 0 0 0 0 0 0 0 0 0 0 0 0 0 0 0 0 0 0 0 0 0 0 0 0 0 0 0 0 0 0
0 0 0 0 0 0 0 0 0 0 0 0 0 0 0 0 0 0 0 0 0 0 0 0 0 0 0 0 0 0 0 0 0 0 0 0 0 0 0 0 0 0 0 0 0 0 0 0 0 0 0 0 0 0 0 0 0 0 0 0 0 0 0 0 0 0 0 0 0 0 0 0 0 0 0 0 0 0 0 0 0 0 0 0 0 0 0 0 0 0 0 0 0 0 0 0 0 0 0 0 0 0 0 0 0 0 0 0 0 0 0 0 0 0 0 0 0 0 0 0 0 0 0 0 0 0 0 0 0 0 0 0 0 0 0 0 0 0 0 0 0 0 0 0 0 0 0 0 0 0 0 0 0 0 0 0 0 0 0 0 0 0 0 0 0 0 0 0 0 0 0 0 0 0 0 0 0 0 0 0 0 0 0 0 0 0 0 0 0 0 0 0 0 0 0 0 0 0 0 0 0 0 0 0 0 0 0 0 0 0 0 0 0 0 0 0 0 0 0 0 0 0 0 0 0 0 0 0 0 0 0 0 0 0 0 0 0 0 0 0 0 0 0 0 0 0 0 0 0 0 0 0 0 0 0 0 0 0 0 0 0 0 0 0 0 0 0 0 0 0 0 0 0 0 0 0 0 0 0 0 0 0 0 0 0 0 0 0 0 0 0 0 0 0 0 0 0 0 0 0 0 0 0 0 0 0 0 0 0 0 0 0 0 0 0 0 0 0 0 0 0 0 0 0 0 0 0 0 0 0 0 0 0 0 0 0 0 0 0 0 0 0 0 0 0 0 0 0 0 0 0 0 0 0 0 0 0 0 0 0 0 0 0 0 0 0 0 0 0 0 0 0 0 0 0 0 0 0 0 0 0 0 0 0 0 0 0 0 0 0 0 0 0 0 0 0 0 0 0 0 0 0 0 0 0 0 0 0 0 0 0 0 0 0 0 0 0 0 0 0 0 0 0 0 0 0 0 0 0 0 0 0 0 0 0 0 0 0 0 0 0 0 0 0 0 0 0 0 0 0 0 0 0 0 0 0 0 0 0 0 0 0 0 0 0 0 0 0 0 0 0 0 0 0 0 0 0 0 0 0 0 0 0 0 0 0 0 0 0 0 0 0 0 0 0 0 0 0 0 0 0 0 0 0 0 0 0 0 0 0 0 0 0 0 0 0 0 0 0 0 0 0 0 0 0 0 0 0 0 0 0 0 0 0 0 0 0 0 0 0 0 0 0 0 0 0 0 0 0 0 0 0 0 0 0 0 0 0 0 0 0 0 0 0 0 0 0 0 0 0 0 0 0 0 0 0 0 0 0 0 0 0 0 0 0 0 0 0 0 0 0 0 0 0 0 0 0 0 0 0 0 0 0 0 0 0 0 0 0 0 0 0 0 0 0 0 0 0 0 0 0 0 0 0 0 0 0 0 0 0 0 0 0 0 0 0 0 0 0 0 0 0 0 0 0 0 0 0 0 0 0 0 0 0 0 0 0 0 0 0 0 0 0 0 0 0 0 0 0 0 0 0 0 0 0 0 0 0 0 0 0 0 0 0 0 0 0 0 0 0 0 0 0 0 0 0 0 0 0 0 0 0 0 0 0 0 0 0 0 0 0 0 0 0 0 0 0 0 0 0 0 0 0 0 0 0 0 0 0 0 0 0 0 0 0 0 0 0 0 0 0 0 0 0 0 0 0 0 0 0 0 0 0 0 0 0 0 0 0 0 0 0 0 0 0 0 0 0 0 0 0 0 0 0 0 0 0 0 0 0 0 0 0 0 0 0 0 0 0 0 0 0 0 0 0 0 0 0 0 0 0 0 0 0 0 0 0 0 0 0 0 0 0 0 0 0 0 0 0 0 0 0 0 0 0 0 0 0 0 0 0 0 0 0 0 0 0 0 0 0 0 0 0 0 0 0 0 0 0 0 0 0 0 0 0 0 0 0 0 0 0 0 0 0 0 0 0 0 0 0 0 0 0 0 0 0 0 0 0 0 0 0 0 0 0 0 0 0 0 0 0 0 0 0 0 0 0 0 0 0 0 0 0 0 0 0 0 0 0 0 0 0 0 0 0 0 0 0 0 0 0 0 0 0 0 0 0 0 0 0 0 0 0 0 0 0 0 0 0 0 0 0 0 0 0 0 0 0 0 0 0 0 0 0 0 0 0 0 0 0
0 0 0 0 0 0 0 0 0 0 0 0 0 0 0 0 0 0 0 0 0 0 0 0 0 0 0 0 0 0 0 0 0 0 0 0 0 0 0 0 0 0 0 0 0 0 0 0 0 0 0 0 0 0 0 0 0 0 0 0 0 0 0 0 0 0 0 0 0 0 0 0 0 0 0 0 0 0 0 0 0 0 0 0 0 0 0 0 0 0 0 0 0 0 0 0 0 0 0 0 0 0 0 0 0 0 0 0 0 0 0 0 0 0 0 0 0 0 0 0 0 0 0 0 0 0 0 0 0 0 0 0 0 0 0 0 0 0 0 0 0 0 0 0 0 0 0 0 0 0 0 0 0 0 0 0 0 0 0 0 0 0 0 0 0 0 0 0 0 0 0 0 0 0 0 0 0 0 0 0 0 0 0 0 0 0 0 0 0 0 0 0 0 0 0 0 0 0 0 0 0 0 0 0 0 0 0 0 0 0 0 0 0 0 0 0 0 0 0 0 0 0 0 0 0 0 0 0 0 0 0 0 0 0 0 0 0 0 0 0 0 0 0 0 0 0 0 0 0 0 0 0 0 0 0 0 0 0 0 0 0 0 0 0 0 0 0 0 0 0 0 0 0 0 0 0 0 0 0 0 0 0 0 0 0 0 0 0 0 0 0 0 0 0 0 0 0 0 0 0 0 0 0 0 0 0 0 0 0 0 0 0 0 0 0 0 0 0 0 0 0 0 0 0 0 0 0 0 0 0 0 0 0 0 0 0 0 0 0 0 0 0 0 0 0 0 0 0 0 0 0 0 0 0 0 0 0 0 0 0 0 0 0 0 0 0 0 0 0 0 0 0 0 0 0 0 0 0 0 0 0 0 0 0 0 0 0 0 0 0 0 0 0 0 0 0 0 0 0 0 0 0 0 0 0 0 0 0 0 0 0 0 0 0 0 0 0 0 0 0 0 0 0 0 0 0 0 0 0 0 0 0 0 0 0 0 0 0 0 0 0 0 0 0 0 0 0 0 0 0 0 0 0 0 0 0 0 0 0 0 0 0 0 0 0 0 0 0 0 0 0 0 0 0 0 0 0 0 0 0 0 0 0 0 0 0 0 0 0 0 0 0 0 0 0 0 0 0 0 0 0 0 0 0 0 0 0 0 0 0 0 0 0 0 0 0 0 0 0 0 0 0 0 0 0 0 0 0 0 0 0 0 0 0 0 0 0 0 0 0 0 0 0 0 0 0 0 0 0 0 0 0 0 0 0 0 0 0 0 0 0 0 0 0 0 0 0 0 0 0 0 0 0 0 0 0 0 0 0 0 0 0 0 0 0 0 0 0 0 0 0 0 0 0 0 0 0 0 0 0 0 0 0 0 0 0 0 0 0 0 0 0 0 0 0 0 0 0 0 0 0 0 0 0 0 0 0 0 0 0 0 0 0 0 0 0 0 0 0 0 0 0 0 0 0 0 0 0 0 0 0 0 0 0 0 0 0 0 0 0 0 0 0 0 0 0 0 0 0 0 0 0 0 0 0 0 0 0 0 0 0 0 0 0 0 0 0 0 0 0 0 0 0 0 0 0 0 0 0 0 0 0 0 0 0 0 0 0 0 0 0 0 0 0 0 0 0 0 0 0 0 0 0 0 0 0 0 0 0 0 0 0 0 0 0 0 0 0 0 0 0 0 0 0 0 0 0 0 0 0 0 0 0 0 0 0 0 0 0 0 0 0 0 0 0 0 0 0 0 0 0 0 0 0 0 0 0 0 0 0 0 0 0 0 0 0 0 0 0 0 0 0 0 0 0 0 0 0 0 0 0 0 0 0 0 0 0 0 0 0 0 0 0 0 0 0 0 0 0 0 0 0 0 0 0 0 0 0 0 0 0 0 0 0 0 0 0 0 0 0 0 0 0 0 0 0 0 0 0 0 0 0 0 0 0 0 0 0 0 0 0 0 0 0 0 0 0 0 0 0 0 0 0 0 0 0 0 0 0 0 0 0 0 0 0 0 0 0 0 0 0 0 0 0 0 0 0 0 0 0 0 0 0 0 0 0 0 0 0 0 0 0 0 0 0 0 0 0 0 0 0 0 0 0 0 0 0 0 0 0 0 0 0 0 0 0 0 0 0 0 0 0 0 0 0 0 0 0 0 0 0 0 0 0 0 0 0 0 0 0
0 0 0 0 0 0 0 0 0 0 0 0 0 0 0 0 0 0 0 0 0 0 0 0 0 0 0 0 0 0 0 0 0 0 0 0 0 0 0 0 0 0 0 0 0 0 0 0 0 0 0 0 0 0 0 0 0 0 0 0 0 0 0 0 0 0 0 0 0 0 0 0 0 0 0 0 0 0 0 0 0 0 0 0 0 0 0 0 0 0 0 0 0 0 0 0 0 0 0 0 0 0 0 0 0 0 0 0 0 0 0 0 0 0 0 0 0 0 0 0 0 0 0 0 0 0 0 0 0 0 0 0 0 0 0 0 0 0 0 0 0 0 0 0 0 0 0 0 0 0 0 0 0 0 0 0 0 0 0 0 0 0 0 0 0 0 0 0 0 0 0 0 0 0 0 0 0 0 0 0 0 0 0 0 0 0 0 0 0 0 0 0 0 0 0 0 0 0 0 0 0 0 0 0 0 0 0 0 0 0 0 0 0 0 0 0 0 0 0 0 0 0 0 0 0 0 0 0 0 0 0 0 0 0 0 0 0 0 0 0 0 0 0 0 0 0 0 0 0 0 0 0 0 0 0 0 0 0 0 0 0 0 0 0 0 0 0 0 0 0 0 0 0 0 0 0 0 0 0 0 0 0 0 0 0 0 0 0 0 0 0 0 0 0 0 0 0 0 0 0 0 0 0 0 0 0 0 0 0 0 0 0 0 0 0 0 0 0 0 0 0 0 0 0 0 0 0 0 0 0 0 0 0 0 0 0 0 0 0 0 0 0 0 0 0 0 0 0 0 0 0 0 0 0 0 0 0 0 0 0 0 0 0 0 0 0 0 0 0 0 0 0 0 0 0 0 0 0 0 0 0 0 0 0 0 0 0 0 0 0 0 0 0 0 0 0 0 0 0 0 0 0 0 0 0 0 0 0 0 0 0 0 0 0 0 0 0 0 0 0 0 0 0 0 0 0 0 0 0 0 0 0 0 0 0 0 0 0 0 0 0 0 0 0 0 0 0 0 0 0 0 0 0 0 0 0 0 0 0 0 0 0 0 0 0 0 0 0 0 0 0 0 0 0 0 0 0 0 0 0 0 0 0 0 0 0 0 0 0 0 0 0 0 0 0 0 0 0 0 0 0 0 0 0 0 0 0 0 0 0 0 0 0 0 0 0 0 0 0 0 0 0 0 0 0 0 0 0 0 0 0 0 0 0 0 0 0 0 0 0 0 0 0 0 0 0 0 0 0 0 0 0 0 0 0 0 0 0 0 0 0 0 0 0 0 0 0 0 0 0 0 0 0 0 0 0 0 0 0 0 0 0 0 0 0 0 0 0 0 0 0 0 0 0 0 0 0 0 0 0 0 0 0 0 0 0 0 0 0 0 0 0 0 0 0 0 0 0 0 0 0 0 0 0 0 0 0 0 0 0 0 0 0 0 0 0 0 0 0 0 0 0 0 0 0 0 0 0 0 0 0 0 0 0 0 0 0 0 0 0 0 0 0 0 0 0 0 0 0 0 0 0 0 0 0 0 0 0 0 0 0 0 0 0 0 0 0 0 0 0 0 0 0 0 0 0 0 0 0 0 0 0 0 0 0 0 0 0 0 0 0 0 0 0 0 0 0 0 0 0 0 0 0 0 0 0 0 0 0 0 0 0 0 0 0 0 0 0 0 0 0 0 0 0 0 0 0 0 0 0 0 0 0 0 0 0 0 0 0 0 0 0 0 0 0 0 0 0 0 0 0 0 0 0 0 0 0 0 0 0 0 0 0 0 0 0 0 0 0 0 0 0 0 0 0 0 0 0 0 0 0 0 0 0 0 0 0 0 0 0 0 0 0 0 0 0 0 0 0 0 0 0 0 0 0 0 0 0 0 0 0 0 0 0 0 0 0 0 0 0 0 0 0 0 0 0 0 0 0 0 0 0 0 0 0 0 0 0 0 0 0 0 0 0 0 0 0 0 0 0 0 0 0 0 0 0 0 0 0 0 0 0 0 0 0 0 0 0 0 0 0 0 0 0 0 0 0 0 0 0 0 0 0 0 0 0 0 0 0 0 0 0 0 0 0 0 0 0 0 0 0 0 0 0 0 0 0 0 0 0 0 0 0 0 0 0 0 0 0 0 0 0 0 0 0 0 0 0 0 0 0 0 0 0 0 0 0 0 0 0
0 0 0 0 0 0 0 0 0 0 0 0 0 0 0 0 0 0 0 0 0 0 0 0 0 0 0 0 0 0 0 0 0 0 0 0 0 0 0 0 0 0 0 0 0 0 0 0 0 0 0 0 0 0 0 0 0 0 0 0 0 0 0 0 0 0 0 0 0 0 0 0 0 0 0 0 0 0 0 0 0 0 0 0 0 0 0 0 0 0 0 0 0 0 0 0 0 0 0 0 0 0 0 0 0 0 0 0 0 0 0 0 0 0 0 0 0 0 0 0 0 0 0 0 0 0 0 0 0 0 0 0 0 0 0 0 0 0 0 0 0 0 0 0 0 0 0 0 0 0 0 0 0 0 0 0 0 0 0 0 0 0 0 0 0 0 0 0 0 0 0 0 0 0 0 0 0 0 0 0 0 0 0 0 0 0 0 0 0 0 0 0 0 0 0 0 0 0 0 0 0 0 0 0 0 0 0 0 0 0 0 0 0 0 0 0 0 0 0 0 0 0 0 0 0 0 0 0 0 0 0 0 0 0 0 0 0 0 0 0 0 0 0 0 0 0 0 0 0 0 0 0 0 0 0 0 0 0 0 0 0 0 0 0 0 0 0 0 0 0 0 0 0 0 0 0 0 0 0 0 0 0 0 0 0 0 0 0 0 0 0 0 0 0 0 0 0 0 0 0 0 0 0 0 0 0 0 0 0 0 0 0 0 0 0 0 0 0 0 0 0 0 0 0 0 0 0 0 0 0 0 0 0 0 0 0 0 0 0 0 0 0 0 0 0 0 0 0 0 0 0 0 0 0 0 0 0 0 0 0 0 0 0 0 0 0 0 0 0 0 0 0 0 0 0 0 0 0 0 0 0 0 0 0 0 0 0 0 0 0 0 0 0 0 0 0 0 0 0 0 0 0 0 0 0 0 0 0 0 0 0 0 0 0 0 0 0 0 0 0 0 0 0 0 0 0 0 0 0 0 0 0 0 0 0 0 0 0 0 0 0 0 0 0 0 0 0 0 0 0 0 0 0 0 0 0 0 0 0 0 0 0 0 0 0 0 0 0 0 0 0 0 0 0 0 0 0 0 0 0 0 0 0 0 0 0 0 0 0 0 0 0 0 0 0 0 0 0 0 0 0 0 0 0 0 0 0 0 0 0 0 0 0 0 0 0 0 0 0 0 0 0 0 0 0 0 0 0 0 0 0 0 0 0 0 0 0 0 0 0 0 0 0 0 0 0 0 0 0 0 0 0 0 0 0 0 0 0 0 0 0 0 0 0 0 0 0 0 0 0 0 0 0 0 0 0 0 0 0 0 0 0 0 0 0 0 0 0 0 0 0 0 0 0 0 0 0 0 0 0 0 0 0 0 0 0 0 0 0 0 0 0 0 0 0 0 0 0 0 0 0 0 0 0 0 0 0 0 0 0 0 0 0 0 0 0 0 0 0 0 0 0 0 0 0 0 0 0 0 0 0 0 0 0 0 0 0 0 0 0 0 0 0 0 0 0 0 0 0 0 0 0 0 0 0 0 0 0 0 0 0 0 0 0 0 0 0 0 0 0 0 0 0 0 0 0 0 0 0 0 0 0 0 0 0 0 0 0 0 0 0 0 0 0 0 0 0 0 0 0 0 0 0 0 0 0 0 0 0 0 0 0 0 0 0 0 0 0 0 0 0 0 0 0 0 0 0 0 0 0 0 0 0 0 0 0 0 0 0 0 0 0 0 0 0 0 0 0 0 0 0 0 0 0 0 0 0 0 0 0 0 0 0 0 0 0 0 0 0 0 0 0 0 0 0 0 0 0 0 0 0 0 0 0 0 0 0 0 0 0 0 0 0 0 0 0 0 0 0 0 0 0 0 0 0 0 0 0 0 0 0 0 0 0 0 0 0 0 0 0 0 0 0 0 0 0 0 0 0 0 0 0 0 0 0 0 0 0 0 0 0 0 0 0 0 0 0 0 0 0 0 0 0 0 0 0 0 0 0 0 0 0 0 0 0 0 0 0 0 0 0 0 0 0 0 0 0 0 0 0 0 0 0 0 0 0 0 0 0 0 0 0 0 0 0 0 0 0 0 0 0 0 0 0 0 0 0 0 0 0 0 0 0 0 0 0 0 0 0 0 0 0 0 0 0 0 0 0 0 0 0 0 0 0 0 0 0 0 0 0
0 0 0 0 0 0 0 0 0 0 0 0 0 0 0 0 0 0 0 0 0 0 0 0 0 0 0 0 0 0 0 0 0 0 0 0 0 0 0 0 0 0 0 0 0 0 0 0 0 0 0 0 0 0 0 0 0 0 0 0 0 0 0 0 0 0 0 0 0 0 0 0 0 0 0 0 0 0 0 0 0 0 0 0 0 0 0 0 0 0 0 0 0 0 0 0 0 0 0 0 0 0 0 0 0 0 0 0 0 0 0 0 0 0 0 0 0 0 0 0 0 0 0 0 0 0 0 0 0 0 0 0 0 0 0 0 0 0 0 0 0 0 0 0 0 0 0 0 0 0 0 0 0 0 0 0 0 0 0 0 0 0 0 0 0 0 0 0 0 0 0 0 0 0 0 0 0 0 0 0 0 0 0 0 0 0 0 0 0 0 0 0 0 0 0 0 0 0 0 0 0 0 0 0 0 0 0 0 0 0 0 0 0 0 0 0 0 0 0 0 0 0 0 0 0 0 0 0 0 0 0 0 0 0 0 0 0 0 0 0 0 0 0 0 0 0 0 0 0 0 0 0 0 0 0 0 0 0 0 0 0 0 0 0 0 0 0 0 0 0 0 0 0 0 0 0 0 0 0 0 0 0 0 0 0 0 0 0 0 0 0 0 0 0 0 0 0 0 0 0 0 0 0 0 0 0 0 0 0 0 0 0 0 0 0 0 0 0 0 0 0 0 0 0 0 0 0 0 0 0 0 0 0 0 0 0 0 0 0 0 0 0 0 0 0 0 0 0 0 0 0 0 0 0 0 0 0 0 0 0 0 0 0 0 0 0 0 0 0 0 0 0 0 0 0 0 0 0 0 0 0 0 0 0 0 0 0 0 0 0 0 0 0 0 0 0 0 0 0 0 0 0 0 0 0 0 0 0 0 0 0 0 0 0 0 0 0 0 0 0 0 0 0 0 0 0 0 0 0 0 0 0 0 0 0 0 0 0 0 0 0 0 0 0 0 0 0 0 0 0 0 0 0 0 0 0 0 0 0 0 0 0 0 0 0 0 0 0 0 0 0 0 0 0 0 0 0 0 0 0 0 0 0 0 0 0 0 0 0 0 0 0 0 0 0 0 0 0 0 0 0 0 0 0 0 0 0 0 0 0 0 0 0 0 0 0 0 0 0 0 0 0 0 0 0 0 0 0 0 0 0 0 0 0 0 0 0 0 0 0 0 0 0 0 0 0 0 0 0 0 0 0 0 0 0 0 0 0 0 0 0 0 0 0 0 0 0 0 0 0 0 0 0 0 0 0 0 0 0 0 0 0 0 0 0 0 0 0 0 0 0 0 0 0 0 0 0 0 0 0 0 0 0 0 0 0 0 0 0 0 0 0 0 0 0 0 0 0 0 0 0 0 0 0 0 0 0 0 0 0 0 0 0 0 0 0 0 0 0 0 0 0 0 0 0 0 0 0 0 0 0 0 0 0 0 0 0 0 0 0 0 0 0 0 0 0 0 0 0 0 0 0 0 0 0 0 0 0 0 0 0 0 0 0 0 0 0 0 0 0 0 0 0 0 0 0 0 0 0 0 0 0 0 0 0 0 0 0 0 0 0 0 0 0 0 0 0 0 0 0 0 0 0 0 0 0 0 0 0 0 0 0 0 0 0 0 0 0 0 0 0 0 0 0 0 0 0 0 0 0 0 0 0 0 0 0 0 0 0 0 0 0 0 0 0 0 0 0 0 0 0 0 0 0 0 0 0 0 0 0 0 0 0 0 0 0 0 0 0 0 0 0 0 0 0 0 0 0 0 0 0 0 0 0 0 0 0 0 0 0 0 0 0 0 0 0 0 0 0 0 0 0 0 0 0 0 0 0 0 0 0 0 0 0 0 0 0 0 0 0 0 0 0 0 0 0 0 0 0 0 0 0 0 0 0 0 0 0 0 0 0 0 0 0 0 0 0 0 0 0 0 0 0 0 0 0 0 0 0 0 0 0 0 0 0 0 0 0 0 0 0 0 0 0 0 0 0 0 0 0 0 0 0 0 0 0 0 0 0 0 0 0 0 0 0 0 0 0 0 0 0 0 0 0 0 0 0 0 0 0 0 0 0 0 0 0 0 0 0 0 0 0 0 0 0 0 0 0 0 0 0 0 0 0 0 0 0 0 0 0
0 0 0 0 0 0 0 0 0 0 0 0 0 0 0 0 0 0 0 0 0 0 0 0 0 0 0 0 0 0 0 0 0 0 0 0 0 0 0 0 0 0 0 0 0 0 0 0 0 0 0 0 0 0 0 0 0 0 0 0 0 0 0 0 0 0 0 0 0 0 0 0 0 0 0 0 0 0 0 0 0 0 0 0 0 0 0 0 0 0 0 0 0 0 0 0 0 0 0 0 0 0 0 0 0 0 0 0 0 0 0 0 0 0 0 0 0 0 0 0 0 0 0 0 0 0 0 0 0 0 0 0 0 0 0 0 0 0 0 0 0 0 0 0 0 0 0 0 0 0 0 0 0 0 0 0 0 0 0 0 0 0 0 0 0 0 0 0 0 0 0 0 0 0 0 0 0 0 0 0 0 0 0 0 0 0 0 0 0 0 0 0 0 0 0 0 0 0 0 0 0 0 0 0 0 0 0 0 0 0 0 0 0 0 0 0 0 0 0 0 0 0 0 0 0 0 0 0 0 0 0 0 0 0 0 0 0 0 0 0 0 0 0 0 0 0 0 0 0 0 0 0 0 0 0 0 0 0 0 0 0 0 0 0 0 0 0 0 0 0 0 0 0 0 0 0 0 0 0 0 0 0 0 0 0 0 0 0 0 0 0 0 0 0 0 0 0 0 0 0 0 0 0 0 0 0 0 0 0 0 0 0 0 0 0 0 0 0 0 0 0 0 0 0 0 0 0 0 0 0 0 0 0 0 0 0 0 0 0 0 0 0 0 0 0 0 0 0 0 0 0 0 0 0 0 0 0 0 0 0 0 0 0 0 0 0 0 0 0 0 0 0 0 0 0 0 0 0 0 0 0 0 0 0 0 0 0 0 0 0 0 0 0 0 0 0 0 0 0 0 0 0 0 0 0 0 0 0 0 0 0 0 0 0 0 0 0 0 0 0 0 0 0 0 0 0 0 0 0 0 0 0 0 0 0 0 0 0 0 0 0 0 0 0 0 0 0 0 0 0 0 0 0 0 0 0 0 0 0 0 0 0 0 0 0 0 0 0 0 0 0 0 0 0 0 0 0 0 0 0 0 0 0 0 0 0 0 0 0 0 0 0 0 0 0 0 0 0 0 0 0 0 0 0 0 0 0 0 0 0 0 0 0 0 0 0 0 0 0 0 0 0 0 0 0 0 0 0 0 0 0 0 0 0 0 0 0 0 0 0 0 0 0 0 0 0 0 0 0 0 0 0 0 0 0 0 0 0 0 0 0 0 0 0 0 0 0 0 0 0 0 0 0 0 0 0 0 0 0 0 0 0 0 0 0 0 0 0 0 0 0 0 0 0 0 0 0 0 0 0 0 0 0 0 0 0 0 0 0 0 0 0 0 0 0 0 0 0 0 0 0 0 0 0 0 0 0 0 0 0 0 0 0 0 0 0 0 0 0 0 0 0 0 0 0 0 0 0 0 0 0 0 0 0 0 0 0 0 0 0 0 0 0 0 0 0 0 0 0 0 0 0 0 0 0 0 0 0 0 0 0 0 0 0 0 0 0 0 0 0 0 0 0 0 0 0 0 0 0 0 0 0 0 0 0 0 0 0 0 0 0 0 0 0 0 0 0 0 0 0 0 0 0 0 0 0 0 0 0 0 0 0 0 0 0 0 0 0 0 0 0 0 0 0 0 0 0 0 0 0 0 0 0 0 0 0 0 0 0 0 0 0 0 0 0 0 0 0 0 0 0 0 0 0 0 0 0 0 0 0 0 0 0 0 0 0 0 0 0 0 0 0 0 0 0 0 0 0 0 0 0 0 0 0 0 0 0 0 0 0 0 0 0 0 0 0 0 0 0 0 0 0 0 0 0 0 0 0 0 0 0 0 0 0 0 0 0 0 0 0 0 0 0 0 0 0 0 0 0 0 0 0 0 0 0 0 0 0 0 0 0 0 0 0 0 0 0 0 0 0 0 0 0 0 0 0 0 0 0 0 0 0 0 0 0 0 0 0 0 0 0 0 0 0 0 0 0 0 0 0 0 0 0 0 0 0 0 0 0 0 0 0 0 0 0 0 0 0 0 0 0 0 0 0 0 0 0 0 0 0 0 0 0 0 0 0 0 0 0 0 0 0 0 0 0 0 0 0 0 0 0 0 0 0 0 0 0 0 0 0
0 0 0 0 0 0 0 0 0 0 0 0 0 0 0 0 0 0 0 0 0 0 0 0 0 0 0 0 0 0 0 0 0 0 0 0 0 0 0 0 0 0 0 0 0 0 0 0 0 0 0 0 0 0 0 0 0 0 0 0 0 0 0 0 0 0 0 0 0 0 0 0 0 0 0 0 0 0 0 0 0 0 0 0 0 0 0 0 0 0 0 0 0 0 0 0 0 0 0 0 0 0 0 0 0 0 0 0 0 0 0 0 0 0 0 0 0 0 0 0 0 0 0 0 0 0 0 0 0 0 0 0 0 0 0 0 0 0 0 0 0 0 0 0 0 0 0 0 0 0 0 0 0 0 0 0 0 0 0 0 0 0 0 0 0 0 0 0 0 0 0 0 0 0 0 0 0 0 0 0 0 0 0 0 0 0 0 0 0 0 0 0 0 0 0 0 0 0 0 0 0 0 0 0 0 0 0 0 0 0 0 0 0 0 0 0 0 0 0 0 0 0 0 0 0 0 0 0 0 0 0 0 0 0 0 0 0 0 0 0 0 0 0 0 0 0 0 0 0 0 0 0 0 0 0 0 0 0 0 0 0 0 0 0 0 0 0 0 0 0 0 0 0 0 0 0 0 0 0 0 0 0 0 0 0 0 0 0 0 0 0 0 0 0 0 0 0 0 0 0 0 0 0 0 0 0 0 0 0 0 0 0 0 0 0 0 0 0 0 0 0 0 0 0 0 0 0 0 0 0 0 0 0 0 0 0 0 0 0 0 0 0 0 0 0 0 0 0 0 0 0 0 0 0 0 0 0 0 0 0 0 0 0 0 0 0 0 0 0 0 0 0 0 0 0 0 0 0 0 0 0 0 0 0 0 0 0 0 0 0 0 0 0 0 0 0 0 0 0 0 0 0 0 0 0 0 0 0 0 0 0 0 0 0 0 0 0 0 0 0 0 0 0 0 0 0 0 0 0 0 0 0 0 0 0 0 0 0 0 0 0 0 0 0 0 0 0 0 0 0 0 0 0 0 0 0 0 0 0 0 0 0 0 0 0 0 0 0 0 0 0 0 0 0 0 0 0 0 0 0 0 0 0 0 0 0 0 0 0 0 0 0 0 0 0 0 0 0 0 0 0 0 0 0 0 0 0 0 0 0 0 0 0 0 0 0 0 0 0 0 0 0 0 0 0 0 0 0 0 0 0 0 0 0 0 0 0 0 0 0 0 0 0 0 0 0 0 0 0 0 0 0 0 0 0 0 0 0 0 0 0 0 0 0 0 0 0 0 0 0 0 0 0 0 0 0 0 0 0 0 0 0 0 0 0 0 0 0 0 0 0 0 0 0 0 0 0 0 0 0 0 0 0 0 0 0 0 0 0 0 0 0 0 0 0 0 0 0 0 0 0 0 0 0 0 0 0 0 0 0 0 0 0 0 0 0 0 0 0 0 0 0 0 0 0 0 0 0 0 0 0 0 0 0 0 0 0 0 0 0 0 0 0 0 0 0 0 0 0 0 0 0 0 0 0 0 0 0 0 0 0 0 0 0 0 0 0 0 0 0 0 0 0 0 0 0 0 0 0 0 0 0 0 0 0 0 0 0 0 0 0 0 0 0 0 0 0 0 0 0 0 0 0 0 0 0 0 0 0 0 0 0 0 0 0 0 0 0 0 0 0 0 0 0 0 0 0 0 0 0 0 0 0 0 0 0 0 0 0 0 0 0 0 0 0 0 0 0 0 0 0 0 0 0 0 0 0 0 0 0 0 0 0 0 0 0 0 0 0 0 0 0 0 0 0 0 0 0 0 0 0 0 0 0 0 0 0 0 0 0 0 0 0 0 0 0 0 0 0 0 0 0 0 0 0 0 0 0 0 0 0 0 0 0 0 0 0 0 0 0 0 0 0 0 0 0 0 0 0 0 0 0 0 0 0 0 0 0 0 0 0 0 0 0 0 0 0 0 0 0 0 0 0 0 0 0 0 0 0 0 0 0 0 0 0 0 0 0 0 0 0 0 0 0 0 0 0 0 0 0 0 0 0 0 0 0 0 0 0 0 0 0 0 0 0 0 0 0 0 0 0 0 0 0 0 0 0 0 0 0 0 0 0 0 0 0 0 0 0 0 0 0 0 0 0 0 0 0 0 0 0 0 0 0 0 0 0 0 0 0
0 0 0 0 0 0 0 0 0 0 0 0 0 0 0 0 0 0 0 0 0 0 0 0 0 0 0 0 0 0 0 0 0 0 0 0 0 0 0 0 0 0 0 0 0 0 0 0 0 0 0 0 0 0 0 0 0 0 0 0 0 0 0 0 0 0 0 0 0 0 0 0 0 0 0 0 0 0 0 0 0 0 0 0 0 0 0 0 0 0 0 0 0 0 0 0 0 0 0 0 0 0 0 0 0 0 0 0 0 0 0 0 0 0 0 0 0 0 0 0 0 0 0 0 0 0 0 0 0 0 0 0 0 0 0 0 0 0 0 0 0 0 0 0 0 0 0 0 0 0 0 0 0 0 0 0 0 0 0 0 0 0 0 0 0 0 0 0 0 0 0 0 0 0 0 0 0 0 0 0 0 0 0 0 0 0 0 0 0 0 0 0 0 0 0 0 0 0 0 0 0 0 0 0 0 0 0 0 0 0 0 0 0 0 0 0 0 0 0 0 0 0 0 0 0 0 0 0 0 0 0 0 0 0 0 0 0 0 0 0 0 0 0 0 0 0 0 0 0 0 0 0 0 0 0 0 0 0 0 0 0 0 0 0 0 0 0 0 0 0 0 0 0 0 0 0 0 0 0 0 0 0 0 0 0 0 0 0 0 0 0 0 0 0 0 0 0 0 0 0 0 0 0 0 0 0 0 0 0 0 0 0 0 0 0 0 0 0 0 0 0 0 0 0 0 0 0 0 0 0 0 0 0 0 0 0 0 0 0 0 0 0 0 0 0 0 0 0 0 0 0 0 0 0 0 0 0 0 0 0 0 0 0 0 0 0 0 0 0 0 0 0 0 0 0 0 0 0 0 0 0 0 0 0 0 0 0 0 0 0 0 0 0 0 0 0 0 0 0 0 0 0 0 0 0 0 0 0 0 0 0 0 0 0 0 0 0 0 0 0 0 0 0 0 0 0 0 0 0 0 0 0 0 0 0 0 0 0 0 0 0 0 0 0 0 0 0 0 0 0 0 0 0 0 0 0 0 0 0 0 0 0 0 0 0 0 0 0 0 0 0 0 0 0 0 0 0 0 0 0 0 0 0 0 0 0 0 0 0 0 0 0 0 0 0 0 0 0 0 0 0 0 0 0 0 0 0 0 0 0 0 0 0 0 0 0 0 0 0 0 0 0 0 0 0 0 0 0 0 0 0 0 0 0 0 0 0 0 0 0 0 0 0 0 0 0 0 0 0 0 0 0 0 0 0 0 0 0 0 0 0 0 0 0 0 0 0 0 0 0 0 0 0 0 0 0 0 0 0 0 0 0 0 0 0 0 0 0 0 0 0 0 0 0 0 0 0 0 0 0 0 0 0 0 0 0 0 0 0 0 0 0 0 0 0 0 0 0 0 0 0 0 0 0 0 0 0 0 0 0 0 0 0 0 0 0 0 0 0 0 0 0 0 0 0 0 0 0 0 0 0 0 0 0 0 0 0 0 0 0 0 0 0 0 0 0 0 0 0 0 0 0 0 0 0 0 0 0 0 0 0 0 0 0 0 0 0 0 0 0 0 0 0 0 0 0 0 0 0 0 0 0 0 0 0 0 0 0 0 0 0 0 0 0 0 0 0 0 0 0 0 0 0 0 0 0 0 0 0 0 0 0 0 0 0 0 0 0 0 0 0 0 0 0 0 0 0 0 0 0 0 0 0 0 0 0 0 0 0 0 0 0 0 0 0 0 0 0 0 0 0 0 0 0 0 0 0 0 0 0 0 0 0 0 0 0 0 0 0 0 0 0 0 0 0 0 0 0 0 0 0 0 0 0 0 0 0 0 0 0 0 0 0 0 0 0 0 0 0 0 0 0 0 0 0 0 0 0 0 0 0 0 0 0 0 0 0 0 0 0 0 0 0 0 0 0 0 0 0 0 0 0 0 0 0 0 0 0 0 0 0 0 0 0 0 0 0 0 0 0 0 0 0 0 0 0 0 0 0 0 0 0 0 0 0 0 0 0 0 0 0 0 0 0 0 0 0 0 0 0 0 0 0 0 0 0 0 0 0 0 0 0 0 0 0 0 0 0 0 0 0 0 0 0 0 0 0 0 0 0 0 0 0 0 0 0 0 0 0 0 0 0 0 0 0 0 0 0 0 0 0 0 0 0 0 0 0 0 0 0
0 0 0 0 0 0 0 0 0 0 0 0 0 0 0 0 0 0 0 0 0 0 0 0 0 0 0 0 0 0 0 0 0 0 0 0 0 0 0 0 0 0 0 0 0 0 0 0 0 0 0 0 0 0 0 0 0 0 0 0 0 0 0 0 0 0 0 0 0 0 0 0 0 0 0 0 0 0 0 0 0 0 0 0 0 0 0 0 0 0 0 0 0 0 0 0 0 0 0 0 0 0 0 0 0 0 0 0 0 0 0 0 0 0 0 0 0 0 0 0 0 0 0 0 0 0 0 0 0 0 0 0 0 0 0 0 0 0 0 0 0 0 0 0 0 0 0 0 0 0 0 0 0 0 0 0 0 0 0 0 0 0 0 0 0 0 0 0 0 0 0 0 0 0 0 0 0 0 0 0 0 0 0 0 0 0 0 0 0 0 0 0 0 0 0 0 0 0 0 0 0 0 0 0 0 0 0 0 0 0 0 0 0 0 0 0 0 0 0 0 0 0 0 0 0 0 0 0 0 0 0 0 0 0 0 0 0 0 0 0 0 0 0 0 0 0 0 0 0 0 0 0 0 0 0 0 0 0 0 0 0 0 0 0 0 0 0 0 0 0 0 0 0 0 0 0 0 0 0 0 0 0 0 0 0 0 0 0 0 0 0 0 0 0 0 0 0 0 0 0 0 0 0 0 0 0 0 0 0 0 0 0 0 0 0 0 0 0 0 0 0 0 0 0 0 0 0 0 0 0 0 0 0 0 0 0 0 0 0 0 0 0 0 0 0 0 0 0 0 0 0 0 0 0 0 0 0 0 0 0 0 0 0 0 0 0 0 0 0 0 0 0 0 0 0 0 0 0 0 0 0 0 0 0 0 0 0 0 0 0 0 0 0 0 0 0 0 0 0 0 0 0 0 0 0 0 0 0 0 0 0 0 0 0 0 0 0 0 0 0 0 0 0 0 0 0 0 0 0 0 0 0 0 0 0 0 0 0 0 0 0 0 0 0 0 0 0 0 0 0 0 0 0 0 0 0 0 0 0 0 0 0 0 0 0 0 0 0 0 0 0 0 0 0 0 0 0 0 0 0 0 0 0 0 0 0 0 0 0 0 0 0 0 0 0 0 0 0 0 0 0 0 0 0 0 0 0 0 0 0 0 0 0 0 0 0 0 0 0 0 0 0 0 0 0 0 0 0 0 0 0 0 0 0 0 0 0 0 0 0 0 0 0 0 0 0 0 0 0 0 0 0 0 0 0 0 0 0 0 0 0 0 0 0 0 0 0 0 0 0 0 0 0 0 0 0 0 0 0 0 0 0 0 0 0 0 0 0 0 0 0 0 0 0 0 0 0 0 0 0 0 0 0 0 0 0 0 0 0 0 0 0 0 0 0 0 0 0 0 0 0 0 0 0 0 0 0 0 0 0 0 0 0 0 0 0 0 0 0 0 0 0 0 0 0 0 0 0 0 0 0 0 0 0 0 0 0 0 0 0 0 0 0 0 0 0 0 0 0 0 0 0 0 0 0 0 0 0 0 0 0 0 0 0 0 0 0 0 0 0 0 0 0 0 0 0 0 0 0 0 0 0 0 0 0 0 0 0 0 0 0 0 0 0 0 0 0 0 0 0 0 0 0 0 0 0 0 0 0 0 0 0 0 0 0 0 0 0 0 0 0 0 0 0 0 0 0 0 0 0 0 0 0 0 0 0 0 0 0 0 0 0 0 0 0 0 0 0 0 0 0 0 0 0 0 0 0 0 0 0 0 0 0 0 0 0 0 0 0 0 0 0 0 0 0 0 0 0 0 0 0 0 0 0 0 0 0 0 0 0 0 0 0 0 0 0 0 0 0 0 0 0 0 0 0 0 0 0 0 0 0 0 0 0 0 0 0 0 0 0 0 0 0 0 0 0 0 0 0 0 0 0 0 0 0 0 0 0 0 0 0 0 0 0 0 0 0 0 0 0 0 0 0 0 0 0 0 0 0 0 0 0 0 0 0 0 0 0 0 0 0 0 0 0 0 0 0 0 0 0 0 0 0 0 0 0 0 0 0 0 0 0 0 0 0 0 0 0 0 0 0 0 0 0 0 0 0 0 0 0 0 0 0 0 0 0 0 0 0 0 0 0 0 0 0 0 0 0 0 0 0 0 0 0 0 0 0 0 0 0
0 0 0 0 0 0 0 0 0 0 0 0 0 0 0 0 0 0 0 0 0 0 0 0 0 0 0 0 0 0 0 0 0 0 0 0 0 0 0 0 0 0 0 0 0 0 0 0 0 0 0 0 0 0 0 0 0 0 0 0 0 0 0 0 0 0 0 0 0 0 0 0 0 0 0 0 0 0 0 0 0 0 0 0 0 0 0 0 0 0 0 0 0 0 0 0 0 0 0 0 0 0 0 0 0 0 0 0 0 0 0 0 0 0 0 0 0 0 0 0 0 0 0 0 0 0 0 0 0 0 0 0 0 0 0 0 0 0 0 0 0 0 0 0 0 0 0 0 0 0 0 0 0 0 0 0 0 0 0 0 0 0 0 0 0 0 0 0 0 0 0 0 0 0 0 0 0 0 0 0 0 0 0 0 0 0 0 0 0 0 0 0 0 0 0 0 0 0 0 0 0 0 0 0 0 0 0 0 0 0 0 0 0 0 0 0 0 0 0 0 0 0 0 0 0 0 0 0 0 0 0 0 0 0 0 0 0 0 0 0 0 0 0 0 0 0 0 0 0 0 0 0 0 0 0 0 0 0 0 0 0 0 0 0 0 0 0 0 0 0 0 0 0 0 0 0 0 0 0 0 0 0 0 0 0 0 0 0 0 0 0 0 0 0 0 0 0 0 0 0 0 0 0 0 0 0 0 0 0 0 0 0 0 0 0 0 0 0 0 0 0 0 0 0 0 0 0 0 0 0 0 0 0 0 0 0 0 0 0 0 0 0 0 0 0 0 0 0 0 0 0 0 0 0 0 0 0 0 0 0 0 0 0 0 0 0 0 0 0 0 0 0 0 0 0 0 0 0 0 0 0 0 0 0 0 0 0 0 0 0 0 0 0 0 0 0 0 0 0 0 0 0 0 0 0 0 0 0 0 0 0 0 0 0 0 0 0 0 0 0 0 0 0 0 0 0 0 0 0 0 0 0 0 0 0 0 0 0 0 0 0 0 0 0 0 0 0 0 0 0 0 0 0 0 0 0 0 0 0 0 0 0 0 0 0 0 0 0 0 0 0 0 0 0 0 0 0 0 0 0 0 0 0 0 0 0 0 0 0 0 0 0 0 0 0 0 0 0 0 0 0 0 0 0 0 0 0 0 0 0 0 0 0 0 0 0 0 0 0 0 0 0 0 0 0 0 0 0 0 0 0 0 0 0 0 0 0 0 0 0 0 0 0 0 0 0 0 0 0 0 0 0 0 0 0 0 0 0 0 0 0 0 0 0 0 0 0 0 0 0 0 0 0 0 0 0 0 0 0 0 0 0 0 0 0 0 0 0 0 0 0 0 0 0 0 0 0 0 0 0 0 0 0 0 0 0 0 0 0 0 0 0 0 0 0 0 0 0 0 0 0 0 0 0 0 0 0 0 0 0 0 0 0 0 0 0 0 0 0 0 0 0 0 0 0 0 0 0 0 0 0 0 0 0 0 0 0 0 0 0 0 0 0 0 0 0 0 0 0 0 0 0 0 0 0 0 0 0 0 0 0 0 0 0 0 0 0 0 0 0 0 0 0 0 0 0 0 0 0 0 0 0 0 0 0 0 0 0 0 0 0 0 0 0 0 0 0 0 0 0 0 0 0 0 0 0 0 0 0 0 0 0 0 0 0 0 0 0 0 0 0 0 0 0 0 0 0 0 0 0 0 0 0 0 0 0 0 0 0 0 0 0 0 0 0 0 0 0 0 0 0 0 0 0 0 0 0 0 0 0 0 0 0 0 0 0 0 0 0 0 0 0 0 0 0 0 0 0 0 0 0 0 0 0 0 0 0 0 0 0 0 0 0 0 0 0 0 0 0 0 0 0 0 0 0 0 0 0 0 0 0 0 0 0 0 0 0 0 0 0 0 0 0 0 0 0 0 0 0 0 0 0 0 0 0 0 0 0 0 0 0 0 0 0 0 0 0 0 0 0 0 0 0 0 0 0 0 0 0 0 0 0 0 0 0 0 0 0 0 0 0 0 0 0 0 0 0 0 0 0 0 0 0 0 0 0 0 0 0 0 0 0 0 0 0 0 0 0 0 0 0 0 0 0 0 0 0 0 0 0 0 0 0 0 0 0 0 0 0 0 0 0 0 0 0 0 0 0 0 0 0 0 0 0 0 0 0 0 0 0
0 0 0 0 0 0 0 0 0 0 0 0 0 0 0 0 0 0 0 0 0 0 0 0 0 0 0 0 0 0 0 0 0 0 0 0 0 0 0 0 0 0 0 0 0 0 0 0 0 0 0 0 0 0 0 0 0 0 0 0 0 0 0 0 0 0 0 0 0 0 0 0 0 0 0 0 0 0 0 0 0 0 0 0 0 0 0 0 0 0 0 0 0 0 0 0 0 0 0 0 0 0 0 0 0 0 0 0 0 0 0 0 0 0 0 0 0 0 0 0 0 0 0 0 0 0 0 0 0 0 0 0 0 0 0 0 0 0 0 0 0 0 0 0 0 0 0 0 0 0 0 0 0 0 0 0 0 0 0 0 0 0 0 0 0 0 0 0 0 0 0 0 0 0 0 0 0 0 0 0 0 0 0 0 0 0 0 0 0 0 0 0 0 0 0 0 0 0 0 0 0 0 0 0 0 0 0 0 0 0 0 0 0 0 0 0 0 0 0 0 0 0 0 0 0 0 0 0 0 0 0 0 0 0 0 0 0 0 0 0 0 0 0 0 0 0 0 0 0 0 0 0 0 0 0 0 0 0 0 0 0 0 0 0 0 0 0 0 0 0 0 0 0 0 0 0 0 0 0 0 0 0 0 0 0 0 0 0 0 0 0 0 0 0 0 0 0 0 0 0 0 0 0 0 0 0 0 0 0 0 0 0 0 0 0 0 0 0 0 0 0 0 0 0 0 0 0 0 0 0 0 0 0 0 0 0 0 0 0 0 0 0 0 0 0 0 0 0 0 0 0 0 0 0 0 0 0 0 0 0 0 0 0 0 0 0 0 0 0 0 0 0 0 0 0 0 0 0 0 0 0 0 0 0 0 0 0 0 0 0 0 0 0 0 0 0 0 0 0 0 0 0 0 0 0 0 0 0 0 0 0 0 0 0 0 0 0 0 0 0 0 0 0 0 0 0 0 0 0 0 0 0 0 0 0 0 0 0 0 0 0 0 0 0 0 0 0 0 0 0 0 0 0 0 0 0 0 0 0 0 0 0 0 0 0 0 0 0 0 0 0 0 0 0 0 0 0 0 0 0 0 0 0 0 0 0 0 0 0 0 0 0 0 0 0 0 0 0 0 0 0 0 0 0 0 0 0 0 0 0 0 0 0 0 0 0 0 0 0 0 0 0 0 0 0 0 0 0 0 0 0 0 0 0 0 0 0 0 0 0 0 0 0 0 0 0 0 0 0 0 0 0 0 0 0 0 0 0 0 0 0 0 0 0 0 0 0 0 0 0 0 0 0 0 0 0 0 0 0 0 0 0 0 0 0 0 0 0 0 0 0 0 0 0 0 0 0 0 0 0 0 0 0 0 0 0 0 0 0 0 0 0 0 0 0 0 0 0 0 0 0 0 0 0 0 0 0 0 0 0 0 0 0 0 0 0 0 0 0 0 0 0 0 0 0 0 0 0 0 0 0 0 0 0 0 0 0 0 0 0 0 0 0 0 0 0 0 0 0 0 0 0 0 0 0 0 0 0 0 0 0 0 0 0 0 0 0 0 0 0 0 0 0 0 0 0 0 0 0 0 0 0 0 0 0 0 0 0 0 0 0 0 0 0 0 0 0 0 0 0 0 0 0 0 0 0 0 0 0 0 0 0 0 0 0 0 0 0 0 0 0 0 0 0 0 0 0 0 0 0 0 0 0 0 0 0 0 0 0 0 0 0 0 0 0 0 0 0 0 0 0 0 0 0 0 0 0 0 0 0 0 0 0 0 0 0 0 0 0 0 0 0 0 0 0 0 0 0 0 0 0 0 0 0 0 0 0 0 0 0 0 0 0 0 0 0 0 0 0 0 0 0 0 0 0 0 0 0 0 0 0 0 0 0 0 0 0 0 0 0 0 0 0 0 0 0 0 0 0 0 0 0 0 0 0 0 0 0 0 0 0 0 0 0 0 0 0 0 0 0 0 0 0 0 0 0 0 0 0 0 0 0 0 0 0 0 0 0 0 0 0 0 0 0 0 0 0 0 0 0 0 0 0 0 0 0 0 0 0 0 0 0 0 0 0 0 0 0 0 0 0 0 0 0 0 0 0 0 0 0 0 0 0 0 0 0 0 0 0 0 0 0 0 0 0 0 0 0 0 0 0 0 0 0 0 0 0 0 0 0
0 0 0 0 0 0 0 0 0 0 0 0 0 0 0 0 0 0 0 0 0 0 0 0 0 0 0 0 0 0 0 0 0 0 0 0 0 0 0 0 0 0 0 0 0 0 0 0 0 0 0 0 0 0 0 0 0 0 0 0 0 0 0 0 0 0 0 0 0 0 0 0 0 0 0 0 0 0 0 0 0 0 0 0 0 0 0 0 0 0 0 0 0 0 0 0 0 0 0 0 0 0 0 0 0 0 0 0 0 0 0 0 0 0 0 0 0 0 0 0 0 0 0 0 0 0 0 0 0 0 0 0 0 0 0 0 0 0 0 0 0 0 0 0 0 0 0 0 0 0 0 0 0 0 0 0 0 0 0 0 0 0 0 0 0 0 0 0 0 0 0 0 0 0 0 0 0 0 0 0 0 0 0 0 0 0 0 0 0 0 0 0 0 0 0 0 0 0 0 0 0 0 0 0 0 0 0 0 0 0 0 0 0 0 0 0 0 0 0 0 0 0 0 0 0 0 0 0 0 0 0 0 0 0 0 0 0 0 0 0 0 0 0 0 0 0 0 0 0 0 0 0 0 0 0 0 0 0 0 0 0 0 0 0 0 0 0 0 0 0 0 0 0 0 0 0 0 0 0 0 0 0 0 0 0 0 0 0 0 0 0 0 0 0 0 0 0 0 0 0 0 0 0 0 0 0 0 0 0 0 0 0 0 0 0 0 0 0 0 0 0 0 0 0 0 0 0 0 0 0 0 0 0 0 0 0 0 0 0 0 0 0 0 0 0 0 0 0 0 0 0 0 0 0 0 0 0 0 0 0 0 0 0 0 0 0 0 0 0 0 0 0 0 0 0 0 0 0 0 0 0 0 0 0 0 0 0 0 0 0 0 0 0 0 0 0 0 0 0 0 0 0 0 0 0 0 0 0 0 0 0 0 0 0 0 0 0 0 0 0 0 0 0 0 0 0 0 0 0 0 0 0 0 0 0 0 0 0 0 0 0 0 0 0 0 0 0 0 0 0 0 0 0 0 0 0 0 0 0 0 0 0 0 0 0 0 0 0 0 0 0 0 0 0 0 0 0 0 0 0 0 0 0 0 0 0 0 0 0 0 0 0 0 0 0 0 0 0 0 0 0 0 0 0 0 0 0 0 0 0 0 0 0 0 0 0 0 0 0 0 0 0 0 0 0 0 0 0 0 0 0 0 0 0 0 0 0 0 0 0 0 0 0 0 0 0 0 0 0 0 0 0 0 0 0 0 0 0 0 0 0 0 0 0 0 0 0 0 0 0 0 0 0 0 0 0 0 0 0 0 0 0 0 0 0 0 0 0 0 0 0 0 0 0 0 0 0 0 0 0 0 0 0 0 0 0 0 0 0 0 0 0 0 0 0 0 0 0 0 0 0 0 0 0 0 0 0 0 0 0 0 0 0 0 0 0 0 0 0 0 0 0 0 0 0 0 0 0 0 0 0 0 0 0 0 0 0 0 0 0 0 0 0 0 0 0 0 0 0 0 0 0 0 0 0 0 0 0 0 0 0 0 0 0 0 0 0 0 0 0 0 0 0 0 0 0 0 0 0 0 0 0 0 0 0 0 0 0 0 0 0 0 0 0 0 0 0 0 0 0 0 0 0 0 0 0 0 0 0 0 0 0 0 0 0 0 0 0 0 0 0 0 0 0 0 0 0 0 0 0 0 0 0 0 0 0 0 0 0 0 0 0 0 0 0 0 0 0 0 0 0 0 0 0 0 0 0 0 0 0 0 0 0 0 0 0 0 0 0 0 0 0 0 0 0 0 0 0 0 0 0 0 0 0 0 0 0 0 0 0 0 0 0 0 0 0 0 0 0 0 0 0 0 0 0 0 0 0 0 0 0 0 0 0 0 0 0 0 0 0 0 0 0 0 0 0 0 0 0 0 0 0 0 0 0 0 0 0 0 0 0 0 0 0 0 0 0 0 0 0 0 0 0 0 0 0 0 0 0 0 0 0 0 0 0 0 0 0 0 0 0 0 0 0 0 0 0 0 0 0 0 0 0 0 0 0 0 0 0 0 0 0 0 0 0 0 0 0 0 0 0 0 0 0 0 0 0 0 0 0 0 0 0 0 0 0 0 0 0 0 0 0 0 0 0 0 0 0 0 0 0 0 0 0 0 0 0 0 0 0
0 0 0 0 0 0 0 0 0 0 0 0 0 0 0 0 0 0 0 0 0 0 0 0 0 0 0 0 0 0 0 0 0 0 0 0 0 0 0 0 0 0 0 0 0 0 0 0 0 0 0 0 0 0 0 0 0 0 0 0 0 0 0 0 0 0 0 0 0 0 0 0 0 0 0 0 0 0 0 0 0 0 0 0 0 0 0 0 0 0 0 0 0 0 0 0 0 0 0 0 0 0 0 0 0 0 0 0 0 0 0 0 0 0 0 0 0 0 0 0 0 0 0 0 0 0 0 0 0 0 0 0 0 0 0 0 0 0 0 0 0 0 0 0 0 0 0 0 0 0 0 0 0 0 0 0 0 0 0 0 0 0 0 0 0 0 0 0 0 0 0 0 0 0 0 0 0 0 0 0 0 0 0 0 0 0 0 0 0 0 0 0 0 0 0 0 0 0 0 0 0 0 0 0 0 0 0 0 0 0 0 0 0 0 0 0 0 0 0 0 0 0 0 0 0 0 0 0 0 0 0 0 0 0 0 0 0 0 0 0 0 0 0 0 0 0 0 0 0 0 0 0 0 0 0 0 0 0 0 0 0 0 0 0 0 0 0 0 0 0 0 0 0 0 0 0 0 0 0 0 0 0 0 0 0 0 0 0 0 0 0 0 0 0 0 0 0 0 0 0 0 0 0 0 0 0 0 0 0 0 0 0 0 0 0 0 0 0 0 0 0 0 0 0 0 0 0 0 0 0 0 0 0 0 0 0 0 0 0 0 0 0 0 0 0 0 0 0 0 0 0 0 0 0 0 0 0 0 0 0 0 0 0 0 0 0 0 0 0 0 0 0 0 0 0 0 0 0 0 0 0 0 0 0 0 0 0 0 0 0 0 0 0 0 0 0 0 0 0 0 0 0 0 0 0 0 0 0 0 0 0 0 0 0 0 0 0 0 0 0 0 0 0 0 0 0 0 0 0 0 0 0 0 0 0 0 0 0 0 0 0 0 0 0 0 0 0 0 0 0 0 0 0 0 0 0 0 0 0 0 0 0 0 0 0 0 0 0 0 0 0 0 0 0 0 0 0 0 0 0 0 0 0 0 0 0 0 0 0 0 0 0 0 0 0 0 0 0 0 0 0 0 0 0 0 0 0 0 0 0 0 0 0 0 0 0 0 0 0 0 0 0 0 0 0 0 0 0 0 0 0 0 0 0 0 0 0 0 0 0 0 0 0 0 0 0 0 0 0 0 0 0 0 0 0 0 0 0 0 0 0 0 0 0 0 0 0 0 0 0 0 0 0 0 0 0 0 0 0 0 0 0 0 0 0 0 0 0 0 0 0 0 0 0 0 0 0 0 0 0 0 0 0 0 0 0 0 0 0 0 0 0 0 0 0 0 0 0 0 0 0 0 0 0 0 0 0 0 0 0 0 0 0 0 0 0 0 0 0 0 0 0 0 0 0 0 0 0 0 0 0 0 0 0 0 0 0 0 0 0 0 0 0 0 0 0 0 0 0 0 0 0 0 0 0 0 0 0 0 0 0 0 0 0 0 0 0 0 0 0 0 0 0 0 0 0 0 0 0 0 0 0 0 0 0 0 0 0 0 0 0 0 0 0 0 0 0 0 0 0 0 0 0 0 0 0 0 0 0 0 0 0 0 0 0 0 0 0 0 0 0 0 0 0 0 0 0 0 0 0 0 0 0 0 0 0 0 0 0 0 0 0 0 0 0 0 0 0 0 0 0 0 0 0 0 0 0 0 0 0 0 0 0 0 0 0 0 0 0 0 0 0 0 0 0 0 0 0 0 0 0 0 0 0 0 0 0 0 0 0 0 0 0 0 0 0 0 0 0 0 0 0 0 0 0 0 0 0 0 0 0 0 0 0 0 0 0 0 0 0 0 0 0 0 0 0 0 0 0 0 0 0 0 0 0 0 0 0 0 0 0 0 0 0 0 0 0 0 0 0 0 0 0 0 0 0 0 0 0 0 0 0 0 0 0 0 0 0 0 0 0 0 0 0 0 0 0 0 0 0 0 0 0 0 0 0 0 0 0 0 0 0 0 0 0 0 0 0 0 0 0 0 0 0 0 0 0 0 0 0 0 0 0 0 0 0 0 0 0 0 0 0 0 0 0 0 0 0 0 0 0 0 0 0 0 0 0 0 0 0
0 0 0 0 0 0 0 0 0 0 0 0 0 0 0 0 0 0 0 0 0 0 0 0 0 0 0 0 0 0 0 0 0 0 0 0 0 0 0 0 0 0 0 0 0 0 0 0 0 0 0 0 0 0 0 0 0 0 0 0 0 0 0 0 0 0 0 0 0 0 0 0 0 0 0 0 0 0 0 0 0 0 0 0 0 0 0 0 0 0 0 0 0 0 0 0 0 0 0 0 0 0 0 0 0 0 0 0 0 0 0 0 0 0 0 0 0 0 0 0 0 0 0 0 0 0 0 0 0 0 0 0 0 0 0 0 0 0 0 0 0 0 0 0 0 0 0 0 0 0 0 0 0 0 0 0 0 0 0 0 0 0 0 0 0 0 0 0 0 0 0 0 0 0 0 0 0 0 0 0 0 0 0 0 0 0 0 0 0 0 0 0 0 0 0 0 0 0 0 0 0 0 0 0 0 0 0 0 0 0 0 0 0 0 0 0 0 0 0 0 0 0 0 0 0 0 0 0 0 0 0 0 0 0 0 0 0 0 0 0 0 0 0 0 0 0 0 0 0 0 0 0 0 0 0 0 0 0 0 0 0 0 0 0 0 0 0 0 0 0 0 0 0 0 0 0 0 0 0 0 0 0 0 0 0 0 0 0 0 0 0 0 0 0 0 0 0 0 0 0 0 0 0 0 0 0 0 0 0 0 0 0 0 0 0 0 0 0 0 0 0 0 0 0 0 0 0 0 0 0 0 0 0 0 0 0 0 0 0 0 0 0 0 0 0 0 0 0 0 0 0 0 0 0 0 0 0 0 0 0 0 0 0 0 0 0 0 0 0 0 0 0 0 0 0 0 0 0 0 0 0 0 0 0 0 0 0 0 0 0 0 0 0 0 0 0 0 0 0 0 0 0 0 0 0 0 0 0 0 0 0 0 0 0 0 0 0 0 0 0 0 0 0 0 0 0 0 0 0 0 0 0 0 0 0 0 0 0 0 0 0 0 0 0 0 0 0 0 0 0 0 0 0 0 0 0 0 0 0 0 0 0 0 0 0 0 0 0 0 0 0 0 0 0 0 0 0 0 0 0 0 0 0 0 0 0 0 0 0 0 0 0 0 0 0 0 0 0 0 0 0 0 0 0 0 0 0 0 0 0 0 0 0 0 0 0 0 0 0 0 0 0 0 0 0 0 0 0 0 0 0 0 0 0 0 0 0 0 0 0 0 0 0 0 0 0 0 0 0 0 0 0 0 0 0 0 0 0 0 0 0 0 0 0 0 0 0 0 0 0 0 0 0 0 0 0 0 0 0 0 0 0 0 0 0 0 0 0 0 0 0 0 0 0 0 0 0 0 0 0 0 0 0 0 0 0 0 0 0 0 0 0 0 0 0 0 0 0 0 0 0 0 0 0 0 0 0 0 0 0 0 0 0 0 0 0 0 0 0 0 0 0 0 0 0 0 0 0 0 0 0 0 0 0 0 0 0 0 0 0 0 0 0 0 0 0 0 0 0 0 0 0 0 0 0 0 0 0 0 0 0 0 0 0 0 0 0 0 0 0 0 0 0 0 0 0 0 0 0 0 0 0 0 0 0 0 0 0 0 0 0 0 0 0 0 0 0 0 0 0 0 0 0 0 0 0 0 0 0 0 0 0 0 0 0 0 0 0 0 0 0 0 0 0 0 0 0 0 0 0 0 0 0 0 0 0 0 0 0 0 0 0 0 0 0 0 0 0 0 0 0 0 0 0 0 0 0 0 0 0 0 0 0 0 0 0 0 0 0 0 0 0 0 0 0 0 0 0 0 0 0 0 0 0 0 0 0 0 0 0 0 0 0 0 0 0 0 0 0 0 0 0 0 0 0 0 0 0 0 0 0 0 0 0 0 0 0 0 0 0 0 0 0 0 0 0 0 0 0 0 0 0 0 0 0 0 0 0 0 0 0 0 0 0 0 0 0 0 0 0 0 0 0 0 0 0 0 0 0 0 0 0 0 0 0 0 0 0 0 0 0 0 0 0 0 0 0 0 0 0 0 0 0 0 0 0 0 0 0 0 0 0 0 0 0 0 0 0 0 0 0 0 0 0 0 0 0 0 0 0 0 0 0 0 0 0 0 0 0 0 0 0 0 0 0 0 0 0 0 0 0 0 0 0 0 0 0 0 0 0
0 0 0 0 0 0 0 0 0 0 0 0 0 0 0 0 0 0 0 0 0 0 0 0 0 0 0 0 0 0 0 0 0 0 0 0 0 0 0 0 0 0 0 0 0 0 0 0 0 0 0 0 0 0 0 0 0 0 0 0 0 0 0 0 0 0 0 0 0 0 0 0 0 0 0 0 0 0 0 0 0 0 0 0 0 0 0 0 0 0 0 0 0 0 0 0 0 0 0 0 0 0 0 0 0 0 0 0 0 0 0 0 0 0 0 0 0 0 0 0 0 0 0 0 0 0 0 0 0 0 0 0 0 0 0 0 0 0 0 0 0 0 0 0 0 0 0 0 0 0 0 0 0 0 0 0 0 0 0 0 0 0 0 0 0 0 0 0 0 0 0 0 0 0 0 0 0 0 0 0 0 0 0 0 0 0 0 0 0 0 0 0 0 0 0 0 0 0 0 0 0 0 0 0 0 0 0 0 0 0 0 0 0 0 0 0 0 0 0 0 0 0 0 0 0 0 0 0 0 0 0 0 0 0 0 0 0 0 0 0 0 0 0 0 0 0 0 0 0 0 0 0 0 0 0 0 0 0 0 0 0 0 0 0 0 0 0 0 0 0 0 0 0 0 0 0 0 0 0 0 0 0 0 0 0 0 0 0 0 0 0 0 0 0 0 0 0 0 0 0 0 0 0 0 0 0 0 0 0 0 0 0 0 0 0 0 0 0 0 0 0 0 0 0 0 0 0 0 0 0 0 0 0 0 0 0 0 0 0 0 0 0 0 0 0 0 0 0 0 0 0 0 0 0 0 0 0 0 0 0 0 0 0 0 0 0 0 0 0 0 0 0 0 0 0 0 0 0 0 0 0 0 0 0 0 0 0 0 0 0 0 0 0 0 0 0 0 0 0 0 0 0 0 0 0 0 0 0 0 0 0 0 0 0 0 0 0 0 0 0 0 0 0 0 0 0 0 0 0 0 0 0 0 0 0 0 0 0 0 0 0 0 0 0 0 0 0 0 0 0 0 0 0 0 0 0 0 0 0 0 0 0 0 0 0 0 0 0 0 0 0 0 0 0 0 0 0 0 0 0 0 0 0 0 0 0 0 0 0 0 0 0 0 0 0 0 0 0 0 0 0 0 0 0 0 0 0 0 0 0 0 0 0 0 0 0 0 0 0 0 0 0 0 0 0 0 0 0 0 0 0 0 0 0 0 0 0 0 0 0 0 0 0 0 0 0 0 0 0 0 0 0 0 0 0 0 0 0 0 0 0 0 0 0 0 0 0 0 0 0 0 0 0 0 0 0 0 0 0 0 0 0 0 0 0 0 0 0 0 0 0 0 0 0 0 0 0 0 0 0 0 0 0 0 0 0 0 0 0 0 0 0 0 0 0 0 0 0 0 0 0 0 0 0 0 0 0 0 0 0 0 0 0 0 0 0 0 0 0 0 0 0 0 0 0 0 0 0 0 0 0 0 0 0 0 0 0 0 0 0 0 0 0 0 0 0 0 0 0 0 0 0 0 0 0 0 0 0 0 0 0 0 0 0 0 0 0 0 0 0 0 0 0 0 0 0 0 0 0 0 0 0 0 0 0 0 0 0 0 0 0 0 0 0 0 0 0 0 0 0 0 0 0 0 0 0 0 0 0 0 0 0 0 0 0 0 0 0 0 0 0 0 0 0 0 0 0 0 0 0 0 0 0 0 0 0 0 0 0 0 0 0 0 0 0 0 0 0 0 0 0 0 0 0 0 0 0 0 0 0 0 0 0 0 0 0 0 0 0 0 0 0 0 0 0 0 0 0 0 0 0 0 0 0 0 0 0 0 0 0 0 0 0 0 0 0 0 0 0 0 0 0 0 0 0 0 0 0 0 0 0 0 0 0 0 0 0 0 0 0 0 0 0 0 0 0 0 0 0 0 0 0 0 0 0 0 0 0 0 0 0 0 0 0 0 0 0 0 0 0 0 0 0 0 0 0 0 0 0 0 0 0 0 0 0 0 0 0 0 0 0 0 0 0 0 0 0 0 0 0 0 0 0 0 0 0 0 0 0 0 0 0 0 0 0 0 0 0 0 0 0 0 0 0 0 0 0 0 0 0 0 0 0 0 0 0 0 0 0 0 0 0 0 0 0 0 0 0 0 0 0 0 0 0 0 0 0 0 0 0
0 0 0 0 0 0 0 0 0 0 0 0 0 0 0 0 0 0 0 0 0 0 0 0 0 0 0 0 0 0 0 0 0 0 0 0 0 0 0 0 0 0 0 0 0 0 0 0 0 0 0 0 0 0 0 0 0 0 0 0 0 0 0 0 0 0 0 0 0 0 0 0 0 0 0 0 0 0 0 0 0 0 0 0 0 0 0 0 0 0 0 0 0 0 0 0 0 0 0 0 0 0 0 0 0 0 0 0 0 0 0 0 0 0 0 0 0 0 0 0 0 0 0 0 0 0 0 0 0 0 0 0 0 0 0 0 0 0 0 0 0 0 0 0 0 0 0 0 0 0 0 0 0 0 0 0 0 0 0 0 0 0 0 0 0 0 0 0 0 0 0 0 0 0 0 0 0 0 0 0 0 0 0 0 0 0 0 0 0 0 0 0 0 0 0 0 0 0 0 0 0 0 0 0 0 0 0 0 0 0 0 0 0 0 0 0 0 0 0 0 0 0 0 0 0 0 0 0 0 0 0 0 0 0 0 0 0 0 0 0 0 0 0 0 0 0 0 0 0 0 0 0 0 0 0 0 0 0 0 0 0 0 0 0 0 0 0 0 0 0 0 0 0 0 0 0 0 0 0 0 0 0 0 0 0 0 0 0 0 0 0 0 0 0 0 0 0 0 0 0 0 0 0 0 0 0 0 0 0 0 0 0 0 0 0 0 0 0 0 0 0 0 0 0 0 0 0 0 0 0 0 0 0 0 0 0 0 0 0 0 0 0 0 0 0 0 0 0 0 0 0 0 0 0 0 0 0 0 0 0 0 0 0 0 0 0 0 0 0 0 0 0 0 0 0 0 0 0 0 0 0 0 0 0 0 0 0 0 0 0 0 0 0 0 0 0 0 0 0 0 0 0 0 0 0 0 0 0 0 0 0 0 0 0 0 0 0 0 0 0 0 0 0 0 0 0 0 0 0 0 0 0 0 0 0 0 0 0 0 0 0 0 0 0 0 0 0 0 0 0 0 0 0 0 0 0 0 0 0 0 0 0 0 0 0 0 0 0 0 0 0 0 0 0 0 0 0 0 0 0 0 0 0 0 0 0 0 0 0 0 0 0 0 0 0 0 0 0 0 0 0 0 0 0 0 0 0 0 0 0 0 0 0 0 0 0 0 0 0 0 0 0 0 0 0 0 0 0 0 0 0 0 0 0 0 0 0 0 0 0 0 0 0 0 0 0 0 0 0 0 0 0 0 0 0 0 0 0 0 0 0 0 0 0 0 0 0 0 0 0 0 0 0 0 0 0 0 0 0 0 0 0 0 0 0 0 0 0 0 0 0 0 0 0 0 0 0 0 0 0 0 0 0 0 0 0 0 0 0 0 0 0 0 0 0 0 0 0 0 0 0 0 0 0 0 0 0 0 0 0 0 0 0 0 0 0 0 0 0 0 0 0 0 0 0 0 0 0 0 0 0 0 0 0 0 0 0 0 0 0 0 0 0 0 0 0 0 0 0 0 0 0 0 0 0 0 0 0 0 0 0 0 0 0 0 0 0 0 0 0 0 0 0 0 0 0 0 0 0 0 0 0 0 0 0 0 0 0 0 0 0 0 0 0 0 0 0 0 0 0 0 0 0 0 0 0 0 0 0 0 0 0 0 0 0 0 0 0 0 0 0 0 0 0 0 0 0 0 0 0 0 0 0 0 0 0 0 0 0 0 0 0 0 0 0 0 0 0 0 0 0 0 0 0 0 0 0 0 0 0 0 0 0 0 0 0 0 0 0 0 0 0 0 0 0 0 0 0 0 0 0 0 0 0 0 0 0 0 0 0 0 0 0 0 0 0 0 0 0 0 0 0 0 0 0 0 0 0 0 0 0 0 0 0 0 0 0 0 0 0 0 0 0 0 0 0 0 0 0 0 0 0 0 0 0 0 0 0 0 0 0 0 0 0 0 0 0 0 0 0 0 0 0 0 0 0 0 0 0 0 0 0 0 0 0 0 0 0 0 0 0 0 0 0 0 0 0 0 0 0 0 0 0 0 0 0 0 0 0 0 0 0 0 0 0 0 0 0 0 0 0 0 0 0 0 0 0 0 0 0 0 0 0 0 0 0 0 0 0 0 0 0 0 0 0 0 0 0 0 0 0 0 0 0 0 0 0 0 0 0
0 0 0 0 0 0 0 0 0 0 0 0 0 0 0 0 0 0 0 0 0 0 0 0 0 0 0 0 0 0 0 0 0 0 0 0 0 0 0 0 0 0 0 0 0 0 0 0 0 0 0 0 0 0 0 0 0 0 0 0 0 0 0 0 0 0 0 0 0 0 0 0 0 0 0 0 0 0 0 0 0 0 0 0 0 0 0 0 0 0 0 0 0 0 0 0 0 0 0 0 0 0 0 0 0 0 0 0 0 0 0 0 0 0 0 0 0 0 0 0 0 0 0 0 0 0 0 0 0 0 0 0 0 0 0 0 0 0 0 0 0 0 0 0 0 0 0 0 0 0 0 0 0 0 0 0 0 0 0 0 0 0 0 0 0 0 0 0 0 0 0 0 0 0 0 0 0 0 0 0 0 0 0 0 0 0 0 0 0 0 0 0 0 0 0 0 0 0 0 0 0 0 0 0 0 0 0 0 0 0 0 0 0 0 0 0 0 0 0 0 0 0 0 0 0 0 0 0 0 0 0 0 0 0 0 0 0 0 0 0 0 0 0 0 0 0 0 0 0 0 0 0 0 0 0 0 0 0 0 0 0 0 0 0 0 0 0 0 0 0 0 0 0 0 0 0 0 0 0 0 0 0 0 0 0 0 0 0 0 0 0 0 0 0 0 0 0 0 0 0 0 0 0 0 0 0 0 0 0 0 0 0 0 0 0 0 0 0 0 0 0 0 0 0 0 0 0 0 0 0 0 0 0 0 0 0 0 0 0 0 0 0 0 0 0 0 0 0 0 0 0 0 0 0 0 0 0 0 0 0 0 0 0 0 0 0 0 0 0 0 0 0 0 0 0 0 0 0 0 0 0 0 0 0 0 0 0 0 0 0 0 0 0 0 0 0 0 0 0 0 0 0 0 0 0 0 0 0 0 0 0 0 0 0 0 0 0 0 0 0 0 0 0 0 0 0 0 0 0 0 0 0 0 0 0 0 0 0 0 0 0 0 0 0 0 0 0 0 0 0 0 0 0 0 0 0 0 0 0 0 0 0 0 0 0 0 0 0 0 0 0 0 0 0 0 0 0 0 0 0 0 0 0 0 0 0 0 0 0 0 0 0 0 0 0 0 0 0 0 0 0 0 0 0 0 0 0 0 0 0 0 0 0 0 0 0 0 0 0 0 0 0 0 0 0 0 0 0 0 0 0 0 0 0 0 0 0 0 0 0 0 0 0 0 0 0 0 0 0 0 0 0 0 0 0 0 0 0 0 0 0 0 0 0 0 0 0 0 0 0 0 0 0 0 0 0 0 0 0 0 0 0 0 0 0 0 0 0 0 0 0 0 0 0 0 0 0 0 0 0 0 0 0 0 0 0 0 0 0 0 0 0 0 0 0 0 0 0 0 0 0 0 0 0 0 0 0 0 0 0 0 0 0 0 0 0 0 0 0 0 0 0 0 0 0 0 0 0 0 0 0 0 0 0 0 0 0 0 0 0 0 0 0 0 0 0 0 0 0 0 0 0 0 0 0 0 0 0 0 0 0 0 0 0 0 0 0 0 0 0 0 0 0 0 0 0 0 0 0 0 0 0 0 0 0 0 0 0 0 0 0 0 0 0 0 0 0 0 0 0 0 0 0 0 0 0 0 0 0 0 0 0 0 0 0 0 0 0 0 0 0 0 0 0 0 0 0 0 0 0 0 0 0 0 0 0 0 0 0 0 0 0 0 0 0 0 0 0 0 0 0 0 0 0 0 0 0 0 0 0 0 0 0 0 0 0 0 0 0 0 0 0 0 0 0 0 0 0 0 0 0 0 0 0 0 0 0 0 0 0 0 0 0 0 0 0 0 0 0 0 0 0 0 0 0 0 0 0 0 0 0 0 0 0 0 0 0 0 0 0 0 0 0 0 0 0 0 0 0 0 0 0 0 0 0 0 0 0 0 0 0 0 0 0 0 0 0 0 0 0 0 0 0 0 0 0 0 0 0 0 0 0 0 0 0 0 0 0 0 0 0 0 0 0 0 0 0 0 0 0 0 0 0 0 0 0 0 0 0 0 0 0 0 0 0 0 0 0 0 0 0 0 0 0 0 0 0 0 0 0 0 0 0 0 0 0 0 0 0 0 0 0 0 0 0 0 0 0 0 0 0 0 0 0 0 0 0 0 0 0
0 0 0 0 0 0 0 0 0 0 0 0 0 0 0 0 0 0 0 0 0 0 0 0 0 0 0 0 0 0 0 0 0 0 0 0 0 0 0 0 0 0 0 0 0 0 0 0 0 0 0 0 0 0 0 0 0 0 0 0 0 0 0 0 0 0 0 0 0 0 0 0 0 0 0 0 0 0 0 0 0 0 0 0 0 0 0 0 0 0 0 0 0 0 0 0 0 0 0 0 0 0 0 0 0 0 0 0 0 0 0 0 0 0 0 0 0 0 0 0 0 0 0 0 0 0 0 0 0 0 0 0 0 0 0 0 0 0 0 0 0 0 0 0 0 0 0 0 0 0 0 0 0 0 0 0 0 0 0 0 0 0 0 0 0 0 0 0 0 0 0 0 0 0 0 0 0 0 0 0 0 0 0 0 0 0 0 0 0 0 0 0 0 0 0 0 0 0 0 0 0 0 0 0 0 0 0 0 0 0 0 0 0 0 0 0 0 0 0 0 0 0 0 0 0 0 0 0 0 0 0 0 0 0 0 0 0 0 0 0 0 0 0 0 0 0 0 0 0 0 0 0 0 0 0 0 0 0 0 0 0 0 0 0 0 0 0 0 0 0 0 0 0 0 0 0 0 0 0 0 0 0 0 0 0 0 0 0 0 0 0 0 0 0 0 0 0 0 0 0 0 0 0 0 0 0 0 0 0 0 0 0 0 0 0 0 0 0 0 0 0 0 0 0 0 0 0 0 0 0 0 0 0 0 0 0 0 0 0 0 0 0 0 0 0 0 0 0 0 0 0 0 0 0 0 0 0 0 0 0 0 0 0 0 0 0 0 0 0 0 0 0 0 0 0 0 0 0 0 0 0 0 0 0 0 0 0 0 0 0 0 0 0 0 0 0 0 0 0 0 0 0 0 0 0 0 0 0 0 0 0 0 0 0 0 0 0 0 0 0 0 0 0 0 0 0 0 0 0 0 0 0 0 0 0 0 0 0 0 0 0 0 0 0 0 0 0 0 0 0 0 0 0 0 0 0 0 0 0 0 0 0 0 0 0 0 0 0 0 0 0 0 0 0 0 0 0 0 0 0 0 0 0 0 0 0 0 0 0 0 0 0 0 0 0 0 0 0 0 0 0 0 0 0 0 0 0 0 0 0 0 0 0 0 0 0 0 0 0 0 0 0 0 0 0 0 0 0 0 0 0 0 0 0 0 0 0 0 0 0 0 0 0 0 0 0 0 0 0 0 0 0 0 0 0 0 0 0 0 0 0 0 0 0 0 0 0 0 0 0 0 0 0 0 0 0 0 0 0 0 0 0 0 0 0 0 0 0 0 0 0 0 0 0 0 0 0 0 0 0 0 0 0 0 0 0 0 0 0 0 0 0 0 0 0 0 0 0 0 0 0 0 0 0 0 0 0 0 0 0 0 0 0 0 0 0 0 0 0 0 0 0 0 0 0 0 0 0 0 0 0 0 0 0 0 0 0 0 0 0 0 0 0 0 0 0 0 0 0 0 0 0 0 0 0 0 0 0 0 0 0 0 0 0 0 0 0 0 0 0 0 0 0 0 0 0 0 0 0 0 0 0 0 0 0 0 0 0 0 0 0 0 0 0 0 0 0 0 0 0 0 0 0 0 0 0 0 0 0 0 0 0 0 0 0 0 0 0 0 0 0 0 0 0 0 0 0 0 0 0 0 0 0 0 0 0 0 0 0 0 0 0 0 0 0 0 0 0 0 0 0 0 0 0 0 0 0 0 0 0 0 0 0 0 0 0 0 0 0 0 0 0 0 0 0 0 0 0 0 0 0 0 0 0 0 0 0 0 0 0 0 0 0 0 0 0 0 0 0 0 0 0 0 0 0 0 0 0 0 0 0 0 0 0 0 0 0 0 0 0 0 0 0 0 0 0 0 0 0 0 0 0 0 0 0 0 0 0 0 0 0 0 0 0 0 0 0 0 0 0 0 0 0 0 0 0 0 0 0 0 0 0 0 0 0 0 0 0 0 0 0 0 0 0 0 0 0 0 0 0 0 0 0 0 0 0 0 0 0 0 0 0 0 0 0 0 0 0 0 0 0 0 0 0 0 0 0 0 0 0 0 0 0 0 0 0 0 0 0 0 0 0 0 0 0 0 0 0 0 0 0 0 0 0 0 0 0 0 0 0
0 0 0 0 0 0 0 0 0 0 0 0 0 0 0 0 0 0 0 0 0 0 0 0 0 0 0 0 0 0 0 0 0 0 0 0 0 0 0 0 0 0 0 0 0 0 0 0 0 0 0 0 0 0 0 0 0 0 0 0 0 0 0 0 0 0 0 0 0 0 0 0 0 0 0 0 0 0 0 0 0 0 0 0 0 0 0 0 0 0 0 0 0 0 0 0 0 0 0 0 0 0 0 0 0 0 0 0 0 0 0 0 0 0 0 0 0 0 0 0 0 0 0 0 0 0 0 0 0 0 0 0 0 0 0 0 0 0 0 0 0 0 0 0 0 0 0 0 0 0 0 0 0 0 0 0 0 0 0 0 0 0 0 0 0 0 0 0 0 0 0 0 0 0 0 0 0 0 0 0 0 0 0 0 0 0 0 0 0 0 0 0 0 0 0 0 0 0 0 0 0 0 0 0 0 0 0 0 0 0 0 0 0 0 0 0 0 0 0 0 0 0 0 0 0 0 0 0 0 0 0 0 0 0 0 0 0 0 0 0 0 0 0 0 0 0 0 0 0 0 0 0 0 0 0 0 0 0 0 0 0 0 0 0 0 0 0 0 0 0 0 0 0 0 0 0 0 0 0 0 0 0 0 0 0 0 0 0 0 0 0 0 0 0 0 0 0 0 0 0 0 0 0 0 0 0 0 0 0 0 0 0 0 0 0 0 0 0 0 0 0 0 0 0 0 0 0 0 0 0 0 0 0 0 0 0 0 0 0 0 0 0 0 0 0 0 0 0 0 0 0 0 0 0 0 0 0 0 0 0 0 0 0 0 0 0 0 0 0 0 0 0 0 0 0 0 0 0 0 0 0 0 0 0 0 0 0 0 0 0 0 0 0 0 0 0 0 0 0 0 0 0 0 0 0 0 0 0 0 0 0 0 0 0 0 0 0 0 0 0 0 0 0 0 0 0 0 0 0 0 0 0 0 0 0 0 0 0 0 0 0 0 0 0 0 0 0 0 0 0 0 0 0 0 0 0 0 0 0 0 0 0 0 0 0 0 0 0 0 0 0 0 0 0 0 0 0 0 0 0 0 0 0 0 0 0 0 0 0 0 0 0 0 0 0 0 0 0 0 0 0 0 0 0 0 0 0 0 0 0 0 0 0 0 0 0 0 0 0 0 0 0 0 0 0 0 0 0 0 0 0 0 0 0 0 0 0 0 0 0 0 0 0 0 0 0 0 0 0 0 0 0 0 0 0 0 0 0 0 0 0 0 0 0 0 0 0 0 0 0 0 0 0 0 0 0 0 0 0 0 0 0 0 0 0 0 0 0 0 0 0 0 0 0 0 0 0 0 0 0 0 0 0 0 0 0 0 0 0 0 0 0 0 0 0 0 0 0 0 0 0 0 0 0 0 0 0 0 0 0 0 0 0 0 0 0 0 0 0 0 0 0 0 0 0 0 0 0 0 0 0 0 0 0 0 0 0 0 0 0 0 0 0 0 0 0 0 0 0 0 0 0 0 0 0 0 0 0 0 0 0 0 0 0 0 0 0 0 0 0 0 0 0 0 0 0 0 0 0 0 0 0 0 0 0 0 0 0 0 0 0 0 0 0 0 0 0 0 0 0 0 0 0 0 0 0 0 0 0 0 0 0 0 0 0 0 0 0 0 0 0 0 0 0 0 0 0 0 0 0 0 0 0 0 0 0 0 0 0 0 0 0 0 0 0 0 0 0 0 0 0 0 0 0 0 0 0 0 0 0 0 0 0 0 0 0 0 0 0 0 0 0 0 0 0 0 0 0 0 0 0 0 0 0 0 0 0 0 0 0 0 0 0 0 0 0 0 0 0 0 0 0 0 0 0 0 0 0 0 0 0 0 0 0 0 0 0 0 0 0 0 0 0 0 0 0 0 0 0 0 0 0 0 0 0 0 0 0 0 0 0 0 0 0 0 0 0 0 0 0 0 0 0 0 0 0 0 0 0 0 0 0 0 0 0 0 0 0 0 0 0 0 0 0 0 0 0 0 0 0 0 0 0 0 0 0 0 0 0 0 0 0 0 0 0 0 0 0 0 0 0 0 0 0 0 0 0 0 0 0 0 0 0 0 0 0 0 0 0 0 0 0 0 0 0 0 0 0 0 0 0 0 0 0 0 0 0 0 0 0
0 0 0 0 0 0 0 0 0 0 0 0 0 0 0 0 0 0 0 0 0 0 0 0 0 0 0 0 0 0 0 0 0 0 0 0 0 0 0 0 0 0 0 0 0 0 0 0 0 0 0 0 0 0 0 0 0 0 0 0 0 0 0 0 0 0 0 0 0 0 0 0 0 0 0 0 0 0 0 0 0 0 0 0 0 0 0 0 0 0 0 0 0 0 0 0 0 0 0 0 0 0 0 0 0 0 0 0 0 0 0 0 0 0 0 0 0 0 0 0 0 0 0 0 0 0 0 0 0 0 0 0 0 0 0 0 0 0 0 0 0 0 0 0 0 0 0 0 0 0 0 0 0 0 0 0 0 0 0 0 0 0 0 0 0 0 0 0 0 0 0 0 0 0 0 0 0 0 0 0 0 0 0 0 0 0 0 0 0 0 0 0 0 0 0 0 0 0 0 0 0 0 0 0 0 0 0 0 0 0 0 0 0 0 0 0 0 0 0 0 0 0 0 0 0 0 0 0 0 0 0 0 0 0 0 0 0 0 0 0 0 0 0 0 0 0 0 0 0 0 0 0 0 0 0 0 0 0 0 0 0 0 0 0 0 0 0 0 0 0 0 0 0 0 0 0 0 0 0 0 0 0 0 0 0 0 0 0 0 0 0 0 0 0 0 0 0 0 0 0 0 0 0 0 0 0 0 0 0 0 0 0 0 0 0 0 0 0 0 0 0 0 0 0 0 0 0 0 0 0 0 0 0 0 0 0 0 0 0 0 0 0 0 0 0 0 0 0 0 0 0 0 0 0 0 0 0 0 0 0 0 0 0 0 0 0 0 0 0 0 0 0 0 0 0 0 0 0 0 0 0 0 0 0 0 0 0 0 0 0 0 0 0 0 0 0 0 0 0 0 0 0 0 0 0 0 0 0 0 0 0 0 0 0 0 0 0 0 0 0 0 0 0 0 0 0 0 0 0 0 0 0 0 0 0 0 0 0 0 0 0 0 0 0 0 0 0 0 0 0 0 0 0 0 0 0 0 0 0 0 0 0 0 0 0 0 0 0 0 0 0 0 0 0 0 0 0 0 0 0 0 0 0 0 0 0 0 0 0 0 0 0 0 0 0 0 0 0 0 0 0 0 0 0 0 0 0 0 0 0 0 0 0 0 0 0 0 0 0 0 0 0 0 0 0 0 0 0 0 0 0 0 0 0 0 0 0 0 0 0 0 0 0 0 0 0 0 0 0 0 0 0 0 0 0 0 0 0 0 0 0 0 0 0 0 0 0 0 0 0 0 0 0 0 0 0 0 0 0 0 0 0 0 0 0 0 0 0 0 0 0 0 0 0 0 0 0 0 0 0 0 0 0 0 0 0 0 0 0 0 0 0 0 0 0 0 0 0 0 0 0 0 0 0 0 0 0 0 0 0 0 0 0 0 0 0 0 0 0 0 0 0 0 0 0 0 0 0 0 0 0 0 0 0 0 0 0 0 0 0 0 0 0 0 0 0 0 0 0 0 0 0 0 0 0 0 0 0 0 0 0 0 0 0 0 0 0 0 0 0 0 0 0 0 0 0 0 0 0 0 0 0 0 0 0 0 0 0 0 0 0 0 0 0 0 0 0 0 0 0 0 0 0 0 0 0 0 0 0 0 0 0 0 0 0 0 0 0 0 0 0 0 0 0 0 0 0 0 0 0 0 0 0 0 0 0 0 0 0 0 0 0 0 0 0 0 0 0 0 0 0 0 0 0 0 0 0 0 0 0 0 0 0 0 0 0 0 0 0 0 0 0 0 0 0 0 0 0 0 0 0 0 0 0 0 0 0 0 0 0 0 0 0 0 0 0 0 0 0 0 0 0 0 0 0 0 0 0 0 0 0 0 0 0 0 0 0 0 0 0 0 0 0 0 0 0 0 0 0 0 0 0 0 0 0 0 0 0 0 0 0 0 0 0 0 0 0 0 0 0 0 0 0 0 0 0 0 0 0 0 0 0 0 0 0 0 0 0 0 0 0 0 0 0 0 0 0 0 0 0 0 0 0 0 0 0 0 0 0 0 0 0 0 0 0 0 0 0 0 0 0 0 0 0 0 0 0 0 0 0 0 0 0 0 0 0 0 0 0 0 0 0 0 0 0 0 0 0 0 0 0 0 0 0 0 0 0 0 0 0
0 0 0 0 0 0 0 0 0 0 0 0 0 0 0 0 0 0 0 0 0 0 0 0 0 0 0 0 0 0 0 0 0 0 0 0 0 0 0 0 0 0 0 0 0 0 0 0 0 0 0 0 0 0 0 0 0 0 0 0 0 0 0 0 0 0 0 0 0 0 0 0 0 0 0 0 0 0 0 0 0 0 0 0 0 0 0 0 0 0 0 0 0 0 0 0 0 0 0 0 0 0 0 0 0 0 0 0 0 0 0 0 0 0 0 0 0 0 0 0 0 0 0 0 0 0 0 0 0 0 0 0 0 0 0 0 0 0 0 0 0 0 0 0 0 0 0 0 0 0 0 0 0 0 0 0 0 0 0 0 0 0 0 0 0 0 0 0 0 0 0 0 0 0 0 0 0 0 0 0 0 0 0 0 0 0 0 0 0 0 0 0 0 0 0 0 0 0 0 0 0 0 0 0 0 0 0 0 0 0 0 0 0 0 0 0 0 0 0 0 0 0 0 0 0 0 0 0 0 0 0 0 0 0 0 0 0 0 0 0 0 0 0 0 0 0 0 0 0 0 0 0 0 0 0 0 0 0 0 0 0 0 0 0 0 0 0 0 0 0 0 0 0 0 0 0 0 0 0 0 0 0 0 0 0 0 0 0 0 0 0 0 0 0 0 0 0 0 0 0 0 0 0 0 0 0 0 0 0 0 0 0 0 0 0 0 0 0 0 0 0 0 0 0 0 0 0 0 0 0 0 0 0 0 0 0 0 0 0 0 0 0 0 0 0 0 0 0 0 0 0 0 0 0 0 0 0 0 0 0 0 0 0 0 0 0 0 0 0 0 0 0 0 0 0 0 0 0 0 0 0 0 0 0 0 0 0 0 0 0 0 0 0 0 0 0 0 0 0 0 0 0 0 0 0 0 0 0 0 0 0 0 0 0 0 0 0 0 0 0 0 0 0 0 0 0 0 0 0 0 0 0 0 0 0 0 0 0 0 0 0 0 0 0 0 0 0 0 0 0 0 0 0 0 0 0 0 0 0 0 0 0 0 0 0 0 0 0 0 0 0 0 0 0 0 0 0 0 0 0 0 0 0 0 0 0 0 0 0 0 0 0 0 0 0 0 0 0 0 0 0 0 0 0 0 0 0 0 0 0 0 0 0 0 0 0 0 0 0 0 0 0 0 0 0 0 0 0 0 0 0 0 0 0 0 0 0 0 0 0 0 0 0 0 0 0 0 0 0 0 0 0 0 0 0 0 0 0 0 0 0 0 0 0 0 0 0 0 0 0 0 0 0 0 0 0 0 0 0 0 0 0 0 0 0 0 0 0 0 0 0 0 0 0 0 0 0 0 0 0 0 0 0 0 0 0 0 0 0 0 0 0 0 0 0 0 0 0 0 0 0 0 0 0 0 0 0 0 0 0 0 0 0 0 0 0 0 0 0 0 0 0 0 0 0 0 0 0 0 0 0 0 0 0 0 0 0 0 0 0 0 0 0 0 0 0 0 0 0 0 0 0 0 0 0 0 0 0 0 0 0 0 0 0 0 0 0 0 0 0 0 0 0 0 0 0 0 0 0 0 0 0 0 0 0 0 0 0 0 0 0 0 0 0 0 0 0 0 0 0 0 0 0 0 0 0 0 0 0 0 0 0 0 0 0 0 0 0 0 0 0 0 0 0 0 0 0 0 0 0 0 0 0 0 0 0 0 0 0 0 0 0 0 0 0 0 0 0 0 0 0 0 0 0 0 0 0 0 0 0 0 0 0 0 0 0 0 0 0 0 0 0 0 0 0 0 0 0 0 0 0 0 0 0 0 0 0 0 0 0 0 0 0 0 0 0 0 0 0 0 0 0 0 0 0 0 0 0 0 0 0 0 0 0 0 0 0 0 0 0 0 0 0 0 0 0 0 0 0 0 0 0 0 0 0 0 0 0 0 0 0 0 0 0 0 0 0 0 0 0 0 0 0 0 0 0 0 0 0 0 0 0 0 0 0 0 0 0 0 0 0 0 0 0 0 0 0 0 0 0 0 0 0 0 0 0 0 0 0 0 0 0 0 0 0 0 0 0 0 0 0 0 0 0 0 0 0 0 0 0 0 0 0 0 0 0 0 0 0 0 0 0 0 0 0 0 0 0 0 0 0 0 0 0 0 0 0 0 0 0
0 0 0 0 0 0 0 0 0 0 0 0 0 0 0 0 0 0 0 0 0 0 0 0 0 0 0 0 0 0 0 0 0 0 0 0 0 0 0 0 0 0 0 0 0 0 0 0 0 0 0 0 0 0 0 0 0 0 0 0 0 0 0 0 0 0 0 0 0 0 0 0 0 0 0 0 0 0 0 0 0 0 0 0 0 0 0 0 0 0 0 0 0 0 0 0 0 0 0 0 0 0 0 0 0 0 0 0 0 0 0 0 0 0 0 0 0 0 0 0 0 0 0 0 0 0 0 0 0 0 0 0 0 0 0 0 0 0 0 0 0 0 0 0 0 0 0 0 0 0 0 0 0 0 0 0 0 0 0 0 0 0 0 0 0 0 0 0 0 0 0 0 0 0 0 0 0 0 0 0 0 0 0 0 0 0 0 0 0 0 0 0 0 0 0 0 0 0 0 0 0 0 0 0 0 0 0 0 0 0 0 0 0 0 0 0 0 0 0 0 0 0 0 0 0 0 0 0 0 0 0 0 0 0 0 0 0 0 0 0 0 0 0 0 0 0 0 0 0 0 0 0 0 0 0 0 0 0 0 0 0 0 0 0 0 0 0 0 0 0 0 0 0 0 0 0 0 0 0 0 0 0 0 0 0 0 0 0 0 0 0 0 0 0 0 0 0 0 0 0 0 0 0 0 0 0 0 0 0 0 0 0 0 0 0 0 0 0 0 0 0 0 0 0 0 0 0 0 0 0 0 0 0 0 0 0 0 0 0 0 0 0 0 0 0 0 0 0 0 0 0 0 0 0 0 0 0 0 0 0 0 0 0 0 0 0 0 0 0 0 0 0 0 0 0 0 0 0 0 0 0 0 0 0 0 0 0 0 0 0 0 0 0 0 0 0 0 0 0 0 0 0 0 0 0 0 0 0 0 0 0 0 0 0 0 0 0 0 0 0 0 0 0 0 0 0 0 0 0 0 0 0 0 0 0 0 0 0 0 0 0 0 0 0 0 0 0 0 0 0 0 0 0 0 0 0 0 0 0 0 0 0 0 0 0 0 0 0 0 0 0 0 0 0 0 0 0 0 0 0 0 0 0 0 0 0 0 0 0 0 0 0 0 0 0 0 0 0 0 0 0 0 0 0 0 0 0 0 0 0 0 0 0 0 0 0 0 0 0 0 0 0 0 0 0 0 0 0 0 0 0 0 0 0 0 0 0 0 0 0 0 0 0 0 0 0 0 0 0 0 0 0 0 0 0 0 0 0 0 0 0 0 0 0 0 0 0 0 0 0 0 0 0 0 0 0 0 0 0 0 0 0 0 0 0 0 0 0 0 0 0 0 0 0 0 0 0 0 0 0 0 0 0 0 0 0 0 0 0 0 0 0 0 0 0 0 0 0 0 0 0 0 0 0 0 0 0 0 0 0 0 0 0 0 0 0 0 0 0 0 0 0 0 0 0 0 0 0 0 0 0 0 0 0 0 0 0 0 0 0 0 0 0 0 0 0 0 0 0 0 0 0 0 0 0 0 0 0 0 0 0 0 0 0 0 0 0 0 0 0 0 0 0 0 0 0 0 0 0 0 0 0 0 0 0 0 0 0 0 0 0 0 0 0 0 0 0 0 0 0 0 0 0 0 0 0 0 0 0 0 0 0 0 0 0 0 0 0 0 0 0 0 0 0 0 0 0 0 0 0 0 0 0 0 0 0 0 0 0 0 0 0 0 0 0 0 0 0 0 0 0 0 0 0 0 0 0 0 0 0 0 0 0 0 0 0 0 0 0 0 0 0 0 0 0 0 0 0 0 0 0 0 0 0 0 0 0 0 0 0 0 0 0 0 0 0 0 0 0 0 0 0 0 0 0 0 0 0 0 0 0 0 0 0 0 0 0 0 0 0 0 0 0 0 0 0 0 0 0 0 0 0 0 0 0 0 0 0 0 0 0 0 0 0 0 0 0 0 0 0 0 0 0 0 0 0 0 0 0 0 0 0 0 0 0 0 0 0 0 0 0 0 0 0 0 0 0 0 0 0 0 0 0 0 0 0 0 0 0 0 0 0 0 0 0 0 0 0 0 0 0 0 0 0 0 0 0 0 0 0 0 0 0 0 0 0 0 0 0 0 0 0 0 0 0 0 0 0 0 0 0 0 0 0 0 0 0 0 0 0
0 0 0 0 0 0 0 0 0 0 0 0 0 0 0 0 0 0 0 0 0 0 0 0 0 0 0 0 0 0 0 0 0 0 0 0 0 0 0 0 0 0 0 0 0 0 0 0 0 0 0 0 0 0 0 0 0 0 0 0 0 0 0 0 0 0 0 0 0 0 0 0 0 0 0 0 0 0 0 0 0 0 0 0 0 0 0 0 0 0 0 0 0 0 0 0 0 0 0 0 0 0 0 0 0 0 0 0 0 0 0 0 0 0 0 0 0 0 0 0 0 0 0 0 0 0 0 0 0 0 0 0 0 0 0 0 0 0 0 0 0 0 0 0 0 0 0 0 0 0 0 0 0 0 0 0 0 0 0 0 0 0 0 0 0 0 0 0 0 0 0 0 0 0 0 0 0 0 0 0 0 0 0 0 0 0 0 0 0 0 0 0 0 0 0 0 0 0 0 0 0 0 0 0 0 0 0 0 0 0 0 0 0 0 0 0 0 0 0 0 0 0 0 0 0 0 0 0 0 0 0 0 0 0 0 0 0 0 0 0 0 0 0 0 0 0 0 0 0 0 0 0 0 0 0 0 0 0 0 0 0 0 0 0 0 0 0 0 0 0 0 0 0 0 0 0 0 0 0 0 0 0 0 0 0 0 0 0 0 0 0 0 0 0 0 0 0 0 0 0 0 0 0 0 0 0 0 0 0 0 0 0 0 0 0 0 0 0 0 0 0 0 0 0 0 0 0 0 0 0 0 0 0 0 0 0 0 0 0 0 0 0 0 0 0 0 0 0 0 0 0 0 0 0 0 0 0 0 0 0 0 0 0 0 0 0 0 0 0 0 0 0 0 0 0 0 0 0 0 0 0 0 0 0 0 0 0 0 0 0 0 0 0 0 0 0 0 0 0 0 0 0 0 0 0 0 0 0 0 0 0 0 0 0 0 0 0 0 0 0 0 0 0 0 0 0 0 0 0 0 0 0 0 0 0 0 0 0 0 0 0 0 0 0 0 0 0 0 0 0 0 0 0 0 0 0 0 0 0 0 0 0 0 0 0 0 0 0 0 0 0 0 0 0 0 0 0 0 0 0 0 0 0 0 0 0 0 0 0 0 0 0 0 0 0 0 0 0 0 0 0 0 0 0 0 0 0 0 0 0 0 0 0 0 0 0 0 0 0 0 0 0 0 0 0 0 0 0 0 0 0 0 0 0 0 0 0 0 0 0 0 0 0 0 0 0 0 0 0 0 0 0 0 0 0 0 0 0 0 0 0 0 0 0 0 0 0 0 0 0 0 0 0 0 0 0 0 0 0 0 0 0 0 0 0 0 0 0 0 0 0 0 0 0 0 0 0 0 0 0 0 0 0 0 0 0 0 0 0 0 0 0 0 0 0 0 0 0 0 0 0 0 0 0 0 0 0 0 0 0 0 0 0 0 0 0 0 0 0 0 0 0 0 0 0 0 0 0 0 0 0 0 0 0 0 0 0 0 0 0 0 0 0 0 0 0 0 0 0 0 0 0 0 0 0 0 0 0 0 0 0 0 0 0 0 0 0 0 0 0 0 0 0 0 0 0 0 0 0 0 0 0 0 0 0 0 0 0 0 0 0 0 0 0 0 0 0 0 0 0 0 0 0 0 0 0 0 0 0 0 0 0 0 0 0 0 0 0 0 0 0 0 0 0 0 0 0 0 0 0 0 0 0 0 0 0 0 0 0 0 0 0 0 0 0 0 0 0 0 0 0 0 0 0 0 0 0 0 0 0 0 0 0 0 0 0 0 0 0 0 0 0 0 0 0 0 0 0 0 0 0 0 0 0 0 0 0 0 0 0 0 0 0 0 0 0 0 0 0 0 0 0 0 0 0 0 0 0 0 0 0 0 0 0 0 0 0 0 0 0 0 0 0 0 0 0 0 0 0 0 0 0 0 0 0 0 0 0 0 0 0 0 0 0 0 0 0 0 0 0 0 0 0 0 0 0 0 0 0 0 0 0 0 0 0 0 0 0 0 0 0 0 0 0 0 0 0 0 0 0 0 0 0 0 0 0 0 0 0 0 0 0 0 0 0 0 0 0 0 0 0 0 0 0 0 0 0 0 0 0 0 0 0 0 0 0 0 0 0 0 0 0 0 0 0 0 0 0 0 0 0 0 0 0 0 0 0 0 0 0
0 0 0 0 0 0 0 0 0 0 0 0 0 0 0 0 0 0 0 0 0 0 0 0 0 0 0 0 0 0 0 0 0 0 0 0 0 0 0 0 0 0 0 0 0 0 0 0 0 0 0 0 0 0 0 0 0 0 0 0 0 0 0 0 0 0 0 0 0 0 0 0 0 0 0 0 0 0 0 0 0 0 0 0 0 0 0 0 0 0 0 0 0 0 0 0 0 0 0 0 0 0 0 0 0 0 0 0 0 0 0 0 0 0 0 0 0 0 0 0 0 0 0 0 0 0 0 0 0 0 0 0 0 0 0 0 0 0 0 0 0 0 0 0 0 0 0 0 0 0 0 0 0 0 0 0 0 0 0 0 0 0 0 0 0 0 0 0 0 0 0 0 0 0 0 0 0 0 0 0 0 0 0 0 0 0 0 0 0 0 0 0 0 0 0 0 0 0 0 0 0 0 0 0 0 0 0 0 0 0 0 0 0 0 0 0 0 0 0 0 0 0 0 0 0 0 0 0 0 0 0 0 0 0 0 0 0 0 0 0 0 0 0 0 0 0 0 0 0 0 0 0 0 0 0 0 0 0 0 0 0 0 0 0 0 0 0 0 0 0 0 0 0 0 0 0 0 0 0 0 0 0 0 0 0 0 0 0 0 0 0 0 0 0 0 0 0 0 0 0 0 0 0 0 0 0 0 0 0 0 0 0 0 0 0 0 0 0 0 0 0 0 0 0 0 0 0 0 0 0 0 0 0 0 0 0 0 0 0 0 0 0 0 0 0 0 0 0 0 0 0 0 0 0 0 0 0 0 0 0 0 0 0 0 0 0 0 0 0 0 0 0 0 0 0 0 0 0 0 0 0 0 0 0 0 0 0 0 0 0 0 0 0 0 0 0 0 0 0 0 0 0 0 0 0 0 0 0 0 0 0 0 0 0 0 0 0 0 0 0 0 0 0 0 0 0 0 0 0 0 0 0 0 0 0 0 0 0 0 0 0 0 0 0 0 0 0 0 0 0 0 0 0 0 0 0 0 0 0 0 0 0 0 0 0 0 0 0 0 0 0 0 0 0 0 0 0 0 0 0 0 0 0 0 0 0 0 0 0 0 0 0 0 0 0 0 0 0 0 0 0 0 0 0 0 0 0 0 0 0 0 0 0 0 0 0 0 0 0 0 0 0 0 0 0 0 0 0 0 0 0 0 0 0 0 0 0 0 0 0 0 0 0 0 0 0 0 0 0 0 0 0 0 0 0 0 0 0 0 0 0 0 0 0 0 0 0 0 0 0 0 0 0 0 0 0 0 0 0 0 0 0 0 0 0 0 0 0 0 0 0 0 0 0 0 0 0 0 0 0 0 0 0 0 0 0 0 0 0 0 0 0 0 0 0 0 0 0 0 0 0 0 0 0 0 0 0 0 0 0 0 0 0 0 0 0 0 0 0 0 0 0 0 0 0 0 0 0 0 0 0 0 0 0 0 0 0 0 0 0 0 0 0 0 0 0 0 0 0 0 0 0 0 0 0 0 0 0 0 0 0 0 0 0 0 0 0 0 0 0 0 0 0 0 0 0 0 0 0 0 0 0 0 0 0 0 0 0 0 0 0 0 0 0 0 0 0 0 0 0 0 0 0 0 0 0 0 0 0 0 0 0 0 0 0 0 0 0 0 0 0 0 0 0 0 0 0 0 0 0 0 0 0 0 0 0 0 0 0 0 0 0 0 0 0 0 0 0 0 0 0 0 0 0 0 0 0 0 0 0 0 0 0 0 0 0 0 0 0 0 0 0 0 0 0 0 0 0 0 0 0 0 0 0 0 0 0 0 0 0 0 0 0 0 0 0 0 0 0 0 0 0 0 0 0 0 0 0 0 0 0 0 0 0 0 0 0 0 0 0 0 0 0 0 0 0 0 0 0 0 0 0 0 0 0 0 0 0 0 0 0 0 0 0 0 0 0 0 0 0 0 0 0 0 0 0 0 0 0 0 0 0 0 0 0 0 0 0 0 0 0 0 0 0 0 0 0 0 0 0 0 0 0 0 0 0 0 0 0 0 0 0 0 0 0 0 0 0 0 0 0 0 0 0 0 0 0 0 0 0 0 0 0 0 0 0 0 0 0 0 0 0 0 0 0 0 0 0 0 0 0 0 0 0 0 0 0 0 0 0
0 0 0 0 0 0 0 0 0 0 0 0 0 0 0 0 0 0 0 0 0 0 0 0 0 0 0 0 0 0 0 0 0 0 0 0 0 0 0 0 0 0 0 0 0 0 0 0 0 0 0 0 0 0 0 0 0 0 0 0 0 0 0 0 0 0 0 0 0 0 0 0 0 0 0 0 0 0 0 0 0 0 0 0 0 0 0 0 0 0 0 0 0 0 0 0 0 0 0 0 0 0 0 0 0 0 0 0 0 0 0 0 0 0 0 0 0 0 0 0 0 0 0 0 0 0 0 0 0 0 0 0 0 0 0 0 0 0 0 0 0 0 0 0 0 0 0 0 0 0 0 0 0 0 0 0 0 0 0 0 0 0 0 0 0 0 0 0 0 0 0 0 0 0 0 0 0 0 0 0 0 0 0 0 0 0 0 0 0 0 0 0 0 0 0 0 0 0 0 0 0 0 0 0 0 0 0 0 0 0 0 0 0 0 0 0 0 0 0 0 0 0 0 0 0 0 0 0 0 0 0 0 0 0 0 0 0 0 0 0 0 0 0 0 0 0 0 0 0 0 0 0 0 0 0 0 0 0 0 0 0 0 0 0 0 0 0 0 0 0 0 0 0 0 0 0 0 0 0 0 0 0 0 0 0 0 0 0 0 0 0 0 0 0 0 0 0 0 0 0 0 0 0 0 0 0 0 0 0 0 0 0 0 0 0 0 0 0 0 0 0 0 0 0 0 0 0 0 0 0 0 0 0 0 0 0 0 0 0 0 0 0 0 0 0 0 0 0 0 0 0 0 0 0 0 0 0 0 0 0 0 0 0 0 0 0 0 0 0 0 0 0 0 0 0 0 0 0 0 0 0 0 0 0 0 0 0 0 0 0 0 0 0 0 0 0 0 0 0 0 0 0 0 0 0 0 0 0 0 0 0 0 0 0 0 0 0 0 0 0 0 0 0 0 0 0 0 0 0 0 0 0 0 0 0 0 0 0 0 0 0 0 0 0 0 0 0 0 0 0 0 0 0 0 0 0 0 0 0 0 0 0 0 0 0 0 0 0 0 0 0 0 0 0 0 0 0 0 0 0 0 0 0 0 0 0 0 0 0 0 0 0 0 0 0 0 0 0 0 0 0 0 0 0 0 0 0 0 0 0 0 0 0 0 0 0 0 0 0 0 0 0 0 0 0 0 0 0 0 0 0 0 0 0 0 0 0 0 0 0 0 0 0 0 0 0 0 0 0 0 0 0 0 0 0 0 0 0 0 0 0 0 0 0 0 0 0 0 0 0 0 0 0 0 0 0 0 0 0 0 0 0 0 0 0 0 0 0 0 0 0 0 0 0 0 0 0 0 0 0 0 0 0 0 0 0 0 0 0 0 0 0 0 0 0 0 0 0 0 0 0 0 0 0 0 0 0 0 0 0 0 0 0 0 0 0 0 0 0 0 0 0 0 0 0 0 0 0 0 0 0 0 0 0 0 0 0 0 0 0 0 0 0 0 0 0 0 0 0 0 0 0 0 0 0 0 0 0 0 0 0 0 0 0 0 0 0 0 0 0 0 0 0 0 0 0 0 0 0 0 0 0 0 0 0 0 0 0 0 0 0 0 0 0 0 0 0 0 0 0 0 0 0 0 0 0 0 0 0 0 0 0 0 0 0 0 0 0 0 0 0 0 0 0 0 0 0 0 0 0 0 0 0 0 0 0 0 0 0 0 0 0 0 0 0 0 0 0 0 0 0 0 0 0 0 0 0 0 0 0 0 0 0 0 0 0 0 0 0 0 0 0 0 0 0 0 0 0 0 0 0 0 0 0 0 0 0 0 0 0 0 0 0 0 0 0 0 0 0 0 0 0 0 0 0 0 0 0 0 0 0 0 0 0 0 0 0 0 0 0 0 0 0 0 0 0 0 0 0 0 0 0 0 0 0 0 0 0 0 0 0 0 0 0 0 0 0 0 0 0 0 0 0 0 0 0 0 0 0 0 0 0 0 0 0 0 0 0 0 0 0 0 0 0 0 0 0 0 0 0 0 0 0 0 0 0 0 0 0 0 0 0 0 0 0 0 0 0 0 0 0 0 0 0 0 0 0 0 0 0 0 0 0 0 0 0 0 0 0 0 0 0 0 0 0 0 0 0 0 0 0 0 0 0 0 0 0 0 0 0
0 0 0 0 0 0 0 0 0 0 0 0 0 0 0 0 0 0 0 0 0 0 0 0 0 0 0 0 0 0 0 0 0 0 0 0 0 0 0 0 0 0 0 0 0 0 0 0 0 0 0 0 0 0 0 0 0 0 0 0 0 0 0 0 0 0 0 0 0 0 0 0 0 0 0 0 0 0 0 0 0 0 0 0 0 0 0 0 0 0 0 0 0 0 0 0 0 0 0 0 0 0 0 0 0 0 0 0 0 0 0 0 0 0 0 0 0 0 0 0 0 0 0 0 0 0 0 0 0 0 0 0 0 0 0 0 0 0 0 0 0 0 0 0 0 0 0 0 0 0 0 0 0 0 0 0 0 0 0 0 0 0 0 0 0 0 0 0 0 0 0 0 0 0 0 0 0 0 0 0 0 0 0 0 0 0 0 0 0 0 0 0 0 0 0 0 0 0 0 0 0 0 0 0 0 0 0 0 0 0 0 0 0 0 0 0 0 0 0 0 0 0 0 0 0 0 0 0 0 0 0 0 0 0 0 0 0 0 0 0 0 0 0 0 0 0 0 0 0 0 0 0 0 0 0 0 0 0 0 0 0 0 0 0 0 0 0 0 0 0 0 0 0 0 0 0 0 0 0 0 0 0 0 0 0 0 0 0 0 0 0 0 0 0 0 0 0 0 0 0 0 0 0 0 0 0 0 0 0 0 0 0 0 0 0 0 0 0 0 0 0 0 0 0 0 0 0 0 0 0 0 0 0 0 0 0 0 0 0 0 0 0 0 0 0 0 0 0 0 0 0 0 0 0 0 0 0 0 0 0 0 0 0 0 0 0 0 0 0 0 0 0 0 0 0 0 0 0 0 0 0 0 0 0 0 0 0 0 0 0 0 0 0 0 0 0 0 0 0 0 0 0 0 0 0 0 0 0 0 0 0 0 0 0 0 0 0 0 0 0 0 0 0 0 0 0 0 0 0 0 0 0 0 0 0 0 0 0 0 0 0 0 0 0 0 0 0 0 0 0 0 0 0 0 0 0 0 0 0 0 0 0 0 0 0 0 0 0 0 0 0 0 0 0 0 0 0 0 0 0 0 0 0 0 0 0 0 0 0 0 0 0 0 0 0 0 0 0 0 0 0 0 0 0 0 0 0 0 0 0 0 0 0 0 0 0 0 0 0 0 0 0 0 0 0 0 0 0 0 0 0 0 0 0 0 0 0 0 0 0 0 0 0 0 0 0 0 0 0 0 0 0 0 0 0 0 0 0 0 0 0 0 0 0 0 0 0 0 0 0 0 0 0 0 0 0 0 0 0 0 0 0 0 0 0 0 0 0 0 0 0 0 0 0 0 0 0 0 0 0 0 0 0 0 0 0 0 0 0 0 0 0 0 0 0 0 0 0 0 0 0 0 0 0 0 0 0 0 0 0 0 0 0 0 0 0 0 0 0 0 0 0 0 0 0 0 0 0 0 0 0 0 0 0 0 0 0 0 0 0 0 0 0 0 0 0 0 0 0 0 0 0 0 0 0 0 0 0 0 0 0 0 0 0 0 0 0 0 0 0 0 0 0 0 0 0 0 0 0 0 0 0 0 0 0 0 0 0 0 0 0 0 0 0 0 0 0 0 0 0 0 0 0 0 0 0 0 0 0 0 0 0 0 0 0 0 0 0 0 0 0 0 0 0 0 0 0 0 0 0 0 0 0 0 0 0 0 0 0 0 0 0 0 0 0 0 0 0 0 0 0 0 0 0 0 0 0 0 0 0 0 0 0 0 0 0 0 0 0 0 0 0 0 0 0 0 0 0 0 0 0 0 0 0 0 0 0 0 0 0 0 0 0 0 0 0 0 0 0 0 0 0 0 0 0 0 0 0 0 0 0 0 0 0 0 0 0 0 0 0 0 0 0 0 0 0 0 0 0 0 0 0 0 0 0 0 0 0 0 0 0 0 0 0 0 0 0 0 0 0 0 0 0 0 0 0 0 0 0 0 0 0 0 0 0 0 0 0 0 0 0 0 0 0 0 0 0 0 0 0 0 0 0 0 0 0 0 0 0 0 0 0 0 0 0 0 0 0 0 0 0 0 0 0 0 0 0 0 0 0 0 0 0 0 0 0 0 0 0 0 0 0 0 0 0 0 0 0 0 0 0 0 0 0 0 0 0 0 0 0
0 0 0 0 0 0 0 0 0 0 0 0 0 0 0 0 0 0 0 0 0 0 0 0 0 0 0 0 0 0 0 0 0 0 0 0 0 0 0 0 0 0 0 0 0 0 0 0 0 0 0 0 0 0 0 0 0 0 0 0 0 0 0 0 0 0 0 0 0 0 0 0 0 0 0 0 0 0 0 0 0 0 0 0 0 0 0 0 0 0 0 0 0 0 0 0 0 0 0 0 0 0 0 0 0 0 0 0 0 0 0 0 0 0 0 0 0 0 0 0 0 0 0 0 0 0 0 0 0 0 0 0 0 0 0 0 0 0 0 0 0 0 0 0 0 0 0 0 0 0 0 0 0 0 0 0 0 0 0 0 0 0 0 0 0 0 0 0 0 0 0 0 0 0 0 0 0 0 0 0 0 0 0 0 0 0 0 0 0 0 0 0 0 0 0 0 0 0 0 0 0 0 0 0 0 0 0 0 0 0 0 0 0 0 0 0 0 0 0 0 0 0 0 0 0 0 0 0 0 0 0 0 0 0 0 0 0 0 0 0 0 0 0 0 0 0 0 0 0 0 0 0 0 0 0 0 0 0 0 0 0 0 0 0 0 0 0 0 0 0 0 0 0 0 0 0 0 0 0 0 0 0 0 0 0 0 0 0 0 0 0 0 0 0 0 0 0 0 0 0 0 0 0 0 0 0 0 0 0 0 0 0 0 0 0 0 0 0 0 0 0 0 0 0 0 0 0 0 0 0 0 0 0 0 0 0 0 0 0 0 0 0 0 0 0 0 0 0 0 0 0 0 0 0 0 0 0 0 0 0 0 0 0 0 0 0 0 0 0 0 0 0 0 0 0 0 0 0 0 0 0 0 0 0 0 0 0 0 0 0 0 0 0 0 0 0 0 0 0 0 0 0 0 0 0 0 0 0 0 0 0 0 0 0 0 0 0 0 0 0 0 0 0 0 0 0 0 0 0 0 0 0 0 0 0 0 0 0 0 0 0 0 0 0 0 0 0 0 0 0 0 0 0 0 0 0 0 0 0 0 0 0 0 0 0 0 0 0 0 0 0 0 0 0 0 0 0 0 0 0 0 0 0 0 0 0 0 0 0 0 0 0 0 0 0 0 0 0 0 0 0 0 0 0 0 0 0 0 0 0 0 0 0 0 0 0 0 0 0 0 0 0 0 0 0 0 0 0 0 0 0 0 0 0 0 0 0 0 0 0 0 0 0 0 0 0 0 0 0 0 0 0 0 0 0 0 0 0 0 0 0 0 0 0 0 0 0 0 0 0 0 0 0 0 0 0 0 0 0 0 0 0 0 0 0 0 0 0 0 0 0 0 0 0 0 0 0 0 0 0 0 0 0 0 0 0 0 0 0 0 0 0 0 0 0 0 0 0 0 0 0 0 0 0 0 0 0 0 0 0 0 0 0 0 0 0 0 0 0 0 0 0 0 0 0 0 0 0 0 0 0 0 0 0 0 0 0 0 0 0 0 0 0 0 0 0 0 0 0 0 0 0 0 0 0 0 0 0 0 0 0 0 0 0 0 0 0 0 0 0 0 0 0 0 0 0 0 0 0 0 0 0 0 0 0 0 0 0 0 0 0 0 0 0 0 0 0 0 0 0 0 0 0 0 0 0 0 0 0 0 0 0 0 0 0 0 0 0 0 0 0 0 0 0 0 0 0 0 0 0 0 0 0 0 0 0 0 0 0 0 0 0 0 0 0 0 0 0 0 0 0 0 0 0 0 0 0 0 0 0 0 0 0 0 0 0 0 0 0 0 0 0 0 0 0 0 0 0 0 0 0 0 0 0 0 0 0 0 0 0 0 0 0 0 0 0 0 0 0 0 0 0 0 0 0 0 0 0 0 0 0 0 0 0 0 0 0 0 0 0 0 0 0 0 0 0 0 0 0 0 0 0 0 0 0 0 0 0 0 0 0 0 0 0 0 0 0 0 0 0 0 0 0 0 0 0 0 0 0 0 0 0 0 0 0 0 0 0 0 0 0 0 0 0 0 0 0 0 0 0 0 0 0 0 0 0 0 0 0 0 0 0 0 0 0 0 0 0 0 0 0 0 0 0 0 0 0 0 0 0 0 0 0 0 0 0 0 0 0 0 0 0 0 0 0 0 0 0 0 0 0 0 0 0 0 0 0 0 0 0
0 0 0 0 0 0 0 0 0 0 0 0 0 0 0 0 0 0 0 0 0 0 0 0 0 0 0 0 0 0 0 0 0 0 0 0 0 0 0 0 0 0 0 0 0 0 0 0 0 0 0 0 0 0 0 0 0 0 0 0 0 0 0 0 0 0 0 0 0 0 0 0 0 0 0 0 0 0 0 0 0 0 0 0 0 0 0 0 0 0 0 0 0 0 0 0 0 0 0 0 0 0 0 0 0 0 0 0 0 0 0 0 0 0 0 0 0 0 0 0 0 0 0 0 0 0 0 0 0 0 0 0 0 0 0 0 0 0 0 0 0 0 0 0 0 0 0 0 0 0 0 0 0 0 0 0 0 0 0 0 0 0 0 0 0 0 0 0 0 0 0 0 0 0 0 0 0 0 0 0 0 0 0 0 0 0 0 0 0 0 0 0 0 0 0 0 0 0 0 0 0 0 0 0 0 0 0 0 0 0 0 0 0 0 0 0 0 0 0 0 0 0 0 0 0 0 0 0 0 0 0 0 0 0 0 0 0 0 0 0 0 0 0 0 0 0 0 0 0 0 0 0 0 0 0 0 0 0 0 0 0 0 0 0 0 0 0 0 0 0 0 0 0 0 0 0 0 0 0 0 0 0 0 0 0 0 0 0 0 0 0 0 0 0 0 0 0 0 0 0 0 0 0 0 0 0 0 0 0 0 0 0 0 0 0 0 0 0 0 0 0 0 0 0 0 0 0 0 0 0 0 0 0 0 0 0 0 0 0 0 0 0 0 0 0 0 0 0 0 0 0 0 0 0 0 0 0 0 0 0 0 0 0 0 0 0 0 0 0 0 0 0 0 0 0 0 0 0 0 0 0 0 0 0 0 0 0 0 0 0 0 0 0 0 0 0 0 0 0 0 0 0 0 0 0 0 0 0 0 0 0 0 0 0 0 0 0 0 0 0 0 0 0 0 0 0 0 0 0 0 0 0 0 0 0 0 0 0 0 0 0 0 0 0 0 0 0 0 0 0 0 0 0 0 0 0 0 0 0 0 0 0 0 0 0 0 0 0 0 0 0 0 0 0 0 0 0 0 0 0 0 0 0 0 0 0 0 0 0 0 0 0 0 0 0 0 0 0 0 0 0 0 0 0 0 0 0 0 0 0 0 0 0 0 0 0 0 0 0 0 0 0 0 0 0 0 0 0 0 0 0 0 0 0 0 0 0 0 0 0 0 0 0 0 0 0 0 0 0 0 0 0 0 0 0 0 0 0 0 0 0 0 0 0 0 0 0 0 0 0 0 0 0 0 0 0 0 0 0 0 0 0 0 0 0 0 0 0 0 0 0 0 0 0 0 0 0 0 0 0 0 0 0 0 0 0 0 0 0 0 0 0 0 0 0 0 0 0 0 0 0 0 0 0 0 0 0 0 0 0 0 0 0 0 0 0 0 0 0 0 0 0 0 0 0 0 0 0 0 0 0 0 0 0 0 0 0 0 0 0 0 0 0 0 0 0 0 0 0 0 0 0 0 0 0 0 0 0 0 0 0 0 0 0 0 0 0 0 0 0 0 0 0 0 0 0 0 0 0 0 0 0 0 0 0 0 0 0 0 0 0 0 0 0 0 0 0 0 0 0 0 0 0 0 0 0 0 0 0 0 0 0 0 0 0 0 0 0 0 0 0 0 0 0 0 0 0 0 0 0 0 0 0 0 0 0 0 0 0 0 0 0 0 0 0 0 0 0 0 0 0 0 0 0 0 0 0 0 0 0 0 0 0 0 0 0 0 0 0 0 0 0 0 0 0 0 0 0 0 0 0 0 0 0 0 0 0 0 0 0 0 0 0 0 0 0 0 0 0 0 0 0 0 0 0 0 0 0 0 0 0 0 0 0 0 0 0 0 0 0 0 0 0 0 0 0 0 0 0 0 0 0 0 0 0 0 0 0 0 0 0 0 0 0 0 0 0 0 0 0 0 0 0 0 0 0 0 0 0 0 0 0 0 0 0 0 0 0 0 0 0 0 0 0 0 0 0 0 0 0 0 0 0 0 0 0 0 0 0 0 0 0 0 0 0 0 0 0 0 0 0 0 0 0 0 0 0 0 0 0 0 0 0 0 0 0 0 0 0 0 0 0 0 0 0 0 0 0 0 0 0 0 0 0 0 0 0 0 0 0
0 0 0 0 0 0 0 0 0 0 0 0 0 0 0 0 0 0 0 0 0 0 0 0 0 0 0 0 0 0 0 0 0 0 0 0 0 0 0 0 0 0 0 0 0 0 0 0 0 0 0 0 0 0 0 0 0 0 0 0 0 0 0 0 0 0 0 0 0 0 0 0 0 0 0 0 0 0 0 0 0 0 0 0 0 0 0 0 0 0 0 0 0 0 0 0 0 0 0 0 0 0 0 0 0 0 0 0 0 0 0 0 0 0 0 0 0 0 0 0 0 0 0 0 0 0 0 0 0 0 0 0 0 0 0 0 0 0 0 0 0 0 0 0 0 0 0 0 0 0 0 0 0 0 0 0 0 0 0 0 0 0 0 0 0 0 0 0 0 0 0 0 0 0 0 0 0 0 0 0 0 0 0 0 0 0 0 0 0 0 0 0 0 0 0 0 0 0 0 0 0 0 0 0 0 0 0 0 0 0 0 0 0 0 0 0 0 0 0 0 0 0 0 0 0 0 0 0 0 0 0 0 0 0 0 0 0 0 0 0 0 0 0 0 0 0 0 0 0 0 0 0 0 0 0 0 0 0 0 0 0 0 0 0 0 0 0 0 0 0 0 0 0 0 0 0 0 0 0 0 0 0 0 0 0 0 0 0 0 0 0 0 0 0 0 0 0 0 0 0 0 0 0 0 0 0 0 0 0 0 0 0 0 0 0 0 0 0 0 0 0 0 0 0 0 0 0 0 0 0 0 0 0 0 0 0 0 0 0 0 0 0 0 0 0 0 0 0 0 0 0 0 0 0 0 0 0 0 0 0 0 0 0 0 0 0 0 0 0 0 0 0 0 0 0 0 0 0 0 0 0 0 0 0 0 0 0 0 0 0 0 0 0 0 0 0 0 0 0 0 0 0 0 0 0 0 0 0 0 0 0 0 0 0 0 0 0 0 0 0 0 0 0 0 0 0 0 0 0 0 0 0 0 0 0 0 0 0 0 0 0 0 0 0 0 0 0 0 0 0 0 0 0 0 0 0 0 0 0 0 0 0 0 0 0 0 0 0 0 0 0 0 0 0 0 0 0 0 0 0 0 0 0 0 0 0 0 0 0 0 0 0 0 0 0 0 0 0 0 0 0 0 0 0 0 0 0 0 0 0 0 0 0 0 0 0 0 0 0 0 0 0 0 0 0 0 0 0 0 0 0 0 0 0 0 0 0 0 0 0 0 0 0 0 0 0 0 0 0 0 0 0 0 0 0 0 0 0 0 0 0 0 0 0 0 0 0 0 0 0 0 0 0 0 0 0 0 0 0 0 0 0 0 0 0 0 0 0 0 0 0 0 0 0 0 0 0 0 0 0 0 0 0 0 0 0 0 0 0 0 0 0 0 0 0 0 0 0 0 0 0 0 0 0 0 0 0 0 0 0 0 0 0 0 0 0 0 0 0 0 0 0 0 0 0 0 0 0 0 0 0 0 0 0 0 0 0 0 0 0 0 0 0 0 0 0 0 0 0 0 0 0 0 0 0 0 0 0 0 0 0 0 0 0 0 0 0 0 0 0 0 0 0 0 0 0 0 0 0 0 0 0 0 0 0 0 0 0 0 0 0 0 0 0 0 0 0 0 0 0 0 0 0 0 0 0 0 0 0 0 0 0 0 0 0 0 0 0 0 0 0 0 0 0 0 0 0 0 0 0 0 0 0 0 0 0 0 0 0 0 0 0 0 0 0 0 0 0 0 0 0 0 0 0 0 0 0 0 0 0 0 0 0 0 0 0 0 0 0 0 0 0 0 0 0 0 0 0 0 0 0 0 0 0 0 0 0 0 0 0 0 0 0 0 0 0 0 0 0 0 0 0 0 0 0 0 0 0 0 0 0 0 0 0 0 0 0 0 0 0 0 0 0 0 0 0 0 0 0 0 0 0 0 0 0 0 0 0 0 0 0 0 0 0 0 0 0 0 0 0 0 0 0 0 0 0 0 0 0 0 0 0 0 0 0 0 0 0 0 0 0 0 0 0 0 0 0 0 0 0 0 0 0 0 0 0 0 0 0 0 0 0 0 0 0 0 0 0 0 0 0 0 0 0 0 0 0 0 0 0 0 0 0 0 0 0 0 0 0 0 0 0 0 0 0 0 0 0 0 0 0 0 0 0 0 0 0 0 0 0
0 0 0 0 0 0 0 0 0 0 0 0 0 0 0 0 0 0 0 0 0 0 0 0 0 0 0 0 0 0 0 0 0 0 0 0 0 0 0 0 0 0 0 0 0 0 0 0 0 0 0 0 0 0 0 0 0 0 0 0 0 0 0 0 0 0 0 0 0 0 0 0 0 0 0 0 0 0 0 0 0 0 0 0 0 0 0 0 0 0 0 0 0 0 0 0 0 0 0 0 0 0 0 0 0 0 0 0 0 0 0 0 0 0 0 0 0 0 0 0 0 0 0 0 0 0 0 0 0 0 0 0 0 0 0 0 0 0 0 0 0 0 0 0 0 0 0 0 0 0 0 0 0 0 0 0 0 0 0 0 0 0 0 0 0 0 0 0 0 0 0 0 0 0 0 0 0 0 0 0 0 0 0 0 0 0 0 0 0 0 0 0 0 0 0 0 0 0 0 0 0 0 0 0 0 0 0 0 0 0 0 0 0 0 0 0 0 0 0 0 0 0 0 0 0 0 0 0 0 0 0 0 0 0 0 0 0 0 0 0 0 0 0 0 0 0 0 0 0 0 0 0 0 0 0 0 0 0 0 0 0 0 0 0 0 0 0 0 0 0 0 0 0 0 0 0 0 0 0 0 0 0 0 0 0 0 0 0 0 0 0 0 0 0 0 0 0 0 0 0 0 0 0 0 0 0 0 0 0 0 0 0 0 0 0 0 0 0 0 0 0 0 0 0 0 0 0 0 0 0 0 0 0 0 0 0 0 0 0 0 0 0 0 0 0 0 0 0 0 0 0 0 0 0 0 0 0 0 0 0 0 0 0 0 0 0 0 0 0 0 0 0 0 0 0 0 0 0 0 0 0 0 0 0 0 0 0 0 0 0 0 0 0 0 0 0 0 0 0 0 0 0 0 0 0 0 0 0 0 0 0 0 0 0 0 0 0 0 0 0 0 0 0 0 0 0 0 0 0 0 0 0 0 0 0 0 0 0 0 0 0 0 0 0 0 0 0 0 0 0 0 0 0 0 0 0 0 0 0 0 0 0 0 0 0 0 0 0 0 0 0 0 0 0 0 0 0 0 0 0 0 0 0 0 0 0 0 0 0 0 0 0 0 0 0 0 0 0 0 0 0 0 0 0 0 0 0 0 0 0 0 0 0 0 0 0 0 0 0 0 0 0 0 0 0 0 0 0 0 0 0 0 0 0 0 0 0 0 0 0 0 0 0 0 0 0 0 0 0 0 0 0 0 0 0 0 0 0 0 0 0 0 0 0 0 0 0 0 0 0 0 0 0 0 0 0 0 0 0 0 0 0 0 0 0 0 0 0 0 0 0 0 0 0 0 0 0 0 0 0 0 0 0 0 0 0 0 0 0 0 0 0 0 0 0 0 0 0 0 0 0 0 0 0 0 0 0 0 0 0 0 0 0 0 0 0 0 0 0 0 0 0 0 0 0 0 0 0 0 0 0 0 0 0 0 0 0 0 0 0 0 0 0 0 0 0 0 0 0 0 0 0 0 0 0 0 0 0 0 0 0 0 0 0 0 0 0 0 0 0 0 0 0 0 0 0 0 0 0 0 0 0 0 0 0 0 0 0 0 0 0 0 0 0 0 0 0 0 0 0 0 0 0 0 0 0 0 0 0 0 0 0 0 0 0 0 0 0 0 0 0 0 0 0 0 0 0 0 0 0 0 0 0 0 0 0 0 0 0 0 0 0 0 0 0 0 0 0 0 0 0 0 0 0 0 0 0 0 0 0 0 0 0 0 0 0 0 0 0 0 0 0 0 0 0 0 0 0 0 0 0 0 0 0 0 0 0 0 0 0 0 0 0 0 0 0 0 0 0 0 0 0 0 0 0 0 0 0 0 0 0 0 0 0 0 0 0 0 0 0 0 0 0 0 0 0 0 0 0 0 0 0 0 0 0 0 0 0 0 0 0 0 0 0 0 0 0 0 0 0 0 0 0 0 0 0 0 0 0 0 0 0 0 0 0 0 0 0 0 0 0 0 0 0 0 0 0 0 0 0 0 0 0 0 0 0 0 0 0 0 0 0 0 0 0 0 0 0 0 0 0 0 0 0 0 0 0 0 0 0 0 0 0 0 0 0 0 0 0 0 0 0 0 0 0 0 0 0 0 0 0 0 0 0 0 0 0 0 0 0
0 0 0 0 0 0 0 0 0 0 0 0 0 0 0 0 0 0 0 0 0 0 0 0 0 0 0 0 0 0 0 0 0 0 0 0 0 0 0 0 0 0 0 0 0 0 0 0 0 0 0 0 0 0 0 0 0 0 0 0 0 0 0 0 0 0 0 0 0 0 0 0 0 0 0 0 0 0 0 0 0 0 0 0 0 0 0 0 0 0 0 0 0 0 0 0 0 0 0 0 0 0 0 0 0 0 0 0 0 0 0 0 0 0 0 0 0 0 0 0 0 0 0 0 0 0 0 0 0 0 0 0 0 0 0 0 0 0 0 0 0 0 0 0 0 0 0 0 0 0 0 0 0 0 0 0 0 0 0 0 0 0 0 0 0 0 0 0 0 0 0 0 0 0 0 0 0 0 0 0 0 0 0 0 0 0 0 0 0 0 0 0 0 0 0 0 0 0 0 0 0 0 0 0 0 0 0 0 0 0 0 0 0 0 0 0 0 0 0 0 0 0 0 0 0 0 0 0 0 0 0 0 0 0 0 0 0 0 0 0 0 0 0 0 0 0 0 0 0 0 0 0 0 0 0 0 0 0 0 0 0 0 0 0 0 0 0 0 0 0 0 0 0 0 0 0 0 0 0 0 0 0 0 0 0 0 0 0 0 0 0 0 0 0 0 0 0 0 0 0 0 0 0 0 0 0 0 0 0 0 0 0 0 0 0 0 0 0 0 0 0 0 0 0 0 0 0 0 0 0 0 0 0 0 0 0 0 0 0 0 0 0 0 0 0 0 0 0 0 0 0 0 0 0 0 0 0 0 0 0 0 0 0 0 0 0 0 0 0 0 0 0 0 0 0 0 0 0 0 0 0 0 0 0 0 0 0 0 0 0 0 0 0 0 0 0 0 0 0 0 0 0 0 0 0 0 0 0 0 0 0 0 0 0 0 0 0 0 0 0 0 0 0 0 0 0 0 0 0 0 0 0 0 0 0 0 0 0 0 0 0 0 0 0 0 0 0 0 0 0 0 0 0 0 0 0 0 0 0 0 0 0 0 0 0 0 0 0 0 0 0 0 0 0 0 0 0 0 0 0 0 0 0 0 0 0 0 0 0 0 0 0 0 0 0 0 0 0 0 0 0 0 0 0 0 0 0 0 0 0 0 0 0 0 0 0 0 0 0 0 0 0 0 0 0 0 0 0 0 0 0 0 0 0 0 0 0 0 0 0 0 0 0 0 0 0 0 0 0 0 0 0 0 0 0 0 0 0 0 0 0 0 0 0 0 0 0 0 0 0 0 0 0 0 0 0 0 0 0 0 0 0 0 0 0 0 0 0 0 0 0 0 0 0 0 0 0 0 0 0 0 0 0 0 0 0 0 0 0 0 0 0 0 0 0 0 0 0 0 0 0 0 0 0 0 0 0 0 0 0 0 0 0 0 0 0 0 0 0 0 0 0 0 0 0 0 0 0 0 0 0 0 0 0 0 0 0 0 0 0 0 0 0 0 0 0 0 0 0 0 0 0 0 0 0 0 0 0 0 0 0 0 0 0 0 0 0 0 0 0 0 0 0 0 0 0 0 0 0 0 0 0 0 0 0 0 0 0 0 0 0 0 0 0 0 0 0 0 0 0 0 0 0 0 0 0 0 0 0 0 0 0 0 0 0 0 0 0 0 0 0 0 0 0 0 0 0 0 0 0 0 0 0 0 0 0 0 0 0 0 0 0 0 0 0 0 0 0 0 0 0 0 0 0 0 0 0 0 0 0 0 0 0 0 0 0 0 0 0 0 0 0 0 0 0 0 0 0 0 0 0 0 0 0 0 0 0 0 0 0 0 0 0 0 0 0 0 0 0 0 0 0 0 0 0 0 0 0 0 0 0 0 0 0 0 0 0 0 0 0 0 0 0 0 0 0 0 0 0 0 0 0 0 0 0 0 0 0 0 0 0 0 0 0 0 0 0 0 0 0 0 0 0 0 0 0 0 0 0 0 0 0 0 0 0 0 0 0 0 0 0 0 0 0 0 0 0 0 0 0 0 0 0 0 0 0 0 0 0 0 0 0 0 0 0 0 0 0 0 0 0 0 0 0 0 0 0 0 0 0 0 0 0 0 0 0 0 0 0 0 0 0 0 0 0 0 0 0 0 0 0 0 0 0 0 0 0 0 0 0
0 0 0 0 0 0 0 0 0 0 0 0 0 0 0 0 0 0 0 0 0 0 0 0 0 0 0 0 0 0 0 0 0 0 0 0 0 0 0 0 0 0 0 0 0 0 0 0 0 0 0 0 0 0 0 0 0 0 0 0 0 0 0 0 0 0 0 0 0 0 0 0 0 0 0 0 0 0 0 0 0 0 0 0 0 0 0 0 0 0 0 0 0 0 0 0 0 0 0 0 0 0 0 0 0 0 0 0 0 0 0 0 0 0 0 0 0 0 0 0 0 0 0 0 0 0 0 0 0 0 0 0 0 0 0 0 0 0 0 0 0 0 0 0 0 0 0 0 0 0 0 0 0 0 0 0 0 0 0 0 0 0 0 0 0 0 0 0 0 0 0 0 0 0 0 0 0 0 0 0 0 0 0 0 0 0 0 0 0 0 0 0 0 0 0 0 0 0 0 0 0 0 0 0 0 0 0 0 0 0 0 0 0 0 0 0 0 0 0 0 0 0 0 0 0 0 0 0 0 0 0 0 0 0 0 0 0 0 0 0 0 0 0 0 0 0 0 0 0 0 0 0 0 0 0 0 0 0 0 0 0 0 0 0 0 0 0 0 0 0 0 0 0 0 0 0 0 0 0 0 0 0 0 0 0 0 0 0 0 0 0 0 0 0 0 0 0 0 0 0 0 0 0 0 0 0 0 0 0 0 0 0 0 0 0 0 0 0 0 0 0 0 0 0 0 0 0 0 0 0 0 0 0 0 0 0 0 0 0 0 0 0 0 0 0 0 0 0 0 0 0 0 0 0 0 0 0 0 0 0 0 0 0 0 0 0 0 0 0 0 0 0 0 0 0 0 0 0 0 0 0 0 0 0 0 0 0 0 0 0 0 0 0 0 0 0 0 0 0 0 0 0 0 0 0 0 0 0 0 0 0 0 0 0 0 0 0 0 0 0 0 0 0 0 0 0 0 0 0 0 0 0 0 0 0 0 0 0 0 0 0 0 0 0 0 0 0 0 0 0 0 0 0 0 0 0 0 0 0 0 0 0 0 0 0 0 0 0 0 0 0 0 0 0 0 0 0 0 0 0 0 0 0 0 0 0 0 0 0 0 0 0 0 0 0 0 0 0 0 0 0 0 0 0 0 0 0 0 0 0 0 0 0 0 0 0 0 0 0 0 0 0 0 0 0 0 0 0 0 0 0 0 0 0 0 0 0 0 0 0 0 0 0 0 0 0 0 0 0 0 0 0 0 0 0 0 0 0 0 0 0 0 0 0 0 0 0 0 0 0 0 0 0 0 0 0 0 0 0 0 0 0 0 0 0 0 0 0 0 0 0 0 0 0 0 0 0 0 0 0 0 0 0 0 0 0 0 0 0 0 0 0 0 0 0 0 0 0 0 0 0 0 0 0 0 0 0 0 0 0 0 0 0 0 0 0 0 0 0 0 0 0 0 0 0 0 0 0 0 0 0 0 0 0 0 0 0 0 0 0 0 0 0 0 0 0 0 0 0 0 0 0 0 0 0 0 0 0 0 0 0 0 0 0 0 0 0 0 0 0 0 0 0 0 0 0 0 0 0 0 0 0 0 0 0 0 0 0 0 0 0 0 0 0 0 0 0 0 0 0 0 0 0 0 0 0 0 0 0 0 0 0 0 0 0 0 0 0 0 0 0 0 0 0 0 0 0 0 0 0 0 0 0 0 0 0 0 0 0 0 0 0 0 0 0 0 0 0 0 0 0 0 0 0 0 0 0 0 0 0 0 0 0 0 0 0 0 0 0 0 0 0 0 0 0 0 0 0 0 0 0 0 0 0 0 0 0 0 0 0 0 0 0 0 0 0 0 0 0 0 0 0 0 0 0 0 0 0 0 0 0 0 0 0 0 0 0 0 0 0 0 0 0 0 0 0 0 0 0 0 0 0 0 0 0 0 0 0 0 0 0 0 0 0 0 0 0 0 0 0 0 0 0 0 0 0 0 0 0 0 0 0 0 0 0 0 0 0 0 0 0 0 0 0 0 0 0 0 0 0 0 0 0 0 0 0 0 0 0 0 0 0 0 0 0 0 0 0 0 0 0 0 0 0 0 0 0 0 0 0 0 0 0 0 0 0 0 0 0 0 0 0 0 0 0 0 0 0 0 0 0 0 0 0 0 0 0 0 0 0
0 0 0 0 0 0 0 0 0 0 0 0 0 0 0 0 0 0 0 0 0 0 0 0 0 0 0 0 0 0 0 0 0 0 0 0 0 0 0 0 0 0 0 0 0 0 0 0 0 0 0 0 0 0 0 0 0 0 0 0 0 0 0 0 0 0 0 0 0 0 0 0 0 0 0 0 0 0 0 0 0 0 0 0 0 0 0 0 0 0 0 0 0 0 0 0 0 0 0 0 0 0 0 0 0 0 0 0 0 0 0 0 0 0 0 0 0 0 0 0 0 0 0 0 0 0 0 0 0 0 0 0 0 0 0 0 0 0 0 0 0 0 0 0 0 0 0 0 0 0 0 0 0 0 0 0 0 0 0 0 0 0 0 0 0 0 0 0 0 0 0 0 0 0 0 0 0 0 0 0 0 0 0 0 0 0 0 0 0 0 0 0 0 0 0 0 0 0 0 0 0 0 0 0 0 0 0 0 0 0 0 0 0 0 0 0 0 0 0 0 0 0 0 0 0 0 0 0 0 0 0 0 0 0 0 0 0 0 0 0 0 0 0 0 0 0 0 0 0 0 0 0 0 0 0 0 0 0 0 0 0 0 0 0 0 0 0 0 0 0 0 0 0 0 0 0 0 0 0 0 0 0 0 0 0 0 0 0 0 0 0 0 0 0 0 0 0 0 0 0 0 0 0 0 0 0 0 0 0 0 0 0 0 0 0 0 0 0 0 0 0 0 0 0 0 0 0 0 0 0 0 0 0 0 0 0 0 0 0 0 0 0 0 0 0 0 0 0 0 0 0 0 0 0 84 139 123 86 142 125 87 143 127 87 143 128 87 143 129 87 143 129 87 142 129 87 141 129 87 140 129 86 139 129 86 138 129 85 136 129 84 134 128 84 132 127 83 130 126 82 128 125 80 125 124 79 121 122 76 117 119 0 0 0 0 0 0 0 0 0 0 0 0 0 0 0 0 0 0 0 0 0 0 0 0 0 0 0 0 0 0 0 0 0 0 0 0 0 0 0 0 0 0 0 0 0 0 0 0 0 0 0 0 0 0 0 0 0 0 0 0 0 0 0 0 0 0 0 0 0 0 0 0 0 0 0 0 0 0 0 0 0 0 0 0 0 0 0 0 0 0 0 0 0 0 0 0 0 0 0 0 0 0 0 0 0 0 0 0 0 0 0 0 0 0 0 0 0 0 0 0 0 0 0 0 0 0 0 0 0 0 0 0 0 0 0 0 0 0 0 0 0 0 0 0 0 0 0 0 0 0 0 0 0 0 0 0 0 0 0 0 0 0 0 0 0 0 0 0 0 0 0 0 0 0 0 0 0 0 0 0 0 0 0 0 0 0 0 0 0 0 0 0 0 0 0 0 0 0 0 0 0 0 0 0 0 0 0 0 0 0 0 0 0 0 0 0 0 0 0 0 0 0 0 0 0 0 0 0 0 0 0 0 0 0 0 0 0 0 0 0 0 0 0 0 0 0 0 0 0 0 0 0 0 0 0 0 0 0 0 0 0 0 0 0 0 0 0 0 0 0 0 0 0 0 0 0 0 0 0 0 0 0 0 0 0 0 0 0 0 0 0 0 0 0 0 0 0 0 0 0 0 0 0 0 0 0 0 0 0 0 0 0 0 0 0 0 0 0 0 0 0 0 0 0 0 0 0 0 0 0 0 0 0 0 0 0 0 0 0 0 0 0 0 0 0 0 0 0 0 0 0 0 0 0 0 0 0 0 0 0 0 0 0 0 0 0 0 0 0 0 0 0 0 0 0 0 0 0 0 0 0 0 0 0 0 0 0 0 0 0 0 0 0 0 0 0 0 0 0 0 0 0 0 0 0 0 0 0 0 0 0 0 0 0 0 0 0 0 0 0 0 0 0 0 0 0 0 0 0 0 0 0 0 0 0 0 0 0 0 0 0 0 0 0 0 0 0 0 0 0 0 0 0 0 0 0 0 0 0 0 0 0 0 0 0 0 0 0 0 0 0 0 0 0 0 0 0 0 0 0 0 0 0 0 0 0 0 0 0 0 0 0 0 0 0 0 0 0 0 0 0 0 0 0 0 0 0 0 0 0 0 0 0 0 0 0 0 0 0 0 0 0 0 0 0 0 0 0 0 0 0 0 0 0 0 0 0 0 0 0 0 0 0 0 0 0 0 0 0
0 0 0 0 0 0 0 0 0 0 0 0 0 0 0 0 0 0 0 0 0 0 0 0 0 0 0 0 0 0 0 0 0 0 0 0 0 0 0 0 0 0 0 0 0 0 0 0 0 0 0 0 0 0 0 0 0 0 0 0 0 0 0 0 0 0 0 0 0 0 0 0 0 0 0 0 0 0 0 0 0 0 0 0 0 0 0 0 0 0 0 0 0 0 0 0 0 0 0 0 0 0 0 0 0 0 0 0 0 0 0 0 0 0 0 0 0 0 0 0 0 0 0 0 0 0 0 0 0 0 0 0 0 0 0 0 0 0 0 0 0 0 0 0 0 0 0 0 0 0 0 0 0 0 0 0 0 0 0 0 0 0 0 0 0 0 0 0 0 0 0 0 0 0 0 0 0 0 0 0 0 0 0 0 0 0 0 0 0 0 0 0 0 0 0 0 0 0 0 0 0 0 0 0 0 0 0 0 0 0 0 0 0 0 0 0 0 0 0 0 0 0 0 0 0 0 0 0 0 0 0 0 0 0 0 0 0 0 0 0 0 0 0 0 0 0 0 0 0 0 0 0 0 0 0 0 0 0 0 0 0 0 0 0 0 0 0 0 0 0 0 0 0 0 0 0 0 0 0 0 0 0 0 0 0 0 0 0 0 0 0 0 0 0 0 0 0 0 0 0 0 0 0 0 0 0 0 0 0 0 0 0 0 0 0 0 0 0 0 0 0 0 0 0 0 0 0 0 0 0 0 0 0 0 0 0 0 0 0 0 0 0 87 146 125 88 148 127 89 150 129 90 150 130 90 150 131 90 150 131 91 150 132 91 149 132 90 149 133 90 148 133 90 147 133 90 146 133 89 145 133 89 144 133 89 143 132 88 141 132 87 140 132 87 138 131 86 136 130 85 134 130 84 132 129 83 130 128 82 127 127 81 124 125 79 121 124 77 118 122 75 113 119 71 105 114 0 0 0 0 0 0 0 0 0 0 0 0 0 0 0 0 0 0 0 0 0 0 0 0 0 0 0 0 0 0 0 0 0 0 0 0 0 0 0 0 0 0 0 0 0 0 0 0 0 0 0 0 0 0 0 0 0 0 0 0 0 0 0 0 0 0 0 0 0 0 0 0 0 0 0 0 0 0 0 0 0 0 0 0 0 0 0 0 0 0 0 0 0 0 0 0 0 0 0 0 0 0 0 0 0 0 0 0 0 0 0 0 0 0 0 0 0 0 0 0 0 0 0 0 0 0 0 0 0 0 0 0 0 0 0 0 0 0 0 0 0 0 0 0 0 0 0 0 0 0 0 0 0 0 0 0 0 0 0 0 0 0 0 0 0 0 0 0 0 0 0 0 0 0 0 0 0 0 0 0 0 0 0 0 0 0 0 0 0 0 0 0 0 0 0 0 0 0 0 0 0 0 0 0 0 0 0 0 0 0 0 0 0 0 0 0 0 0 0 0 0 0 0 0 0 0 0 0 0 0 0 0 0 0 0 0 0 0 0 0 0 0 0 0 0 0 0 0 0 0 0 0 0 0 0 0 0 0 0 0 0 0 0 0 0 0 0 0 0 0 0 0 0 0 0 0 0 0 0 0 0 0 0 0 0 0 0 0 0 0 0 0 0 0 0 0 0 0 0 0 0 0 0 0 0 0 0 0 0 0 0 0 0 0 0 0 0 0 0 0 0 0 0 0 0 0 0 0 0 0 0 0 0 0 0 0 0 0 0 0 0 0 0 0 0 0 0 0 0 0 0 0 0 0 0 0 0 0 0 0 0 0 0 0 0 0 0 0 0 0 0 0 0 0 0 0 0 0 0 0 0 0 0 0 0 0 0 0 0 0 0 0 0 0 0 0 0 0 0 0 0 0 0 0 0 0 0 0 0 0 0 0 0 0 0 0 0 0 0 0 0 0 0 0 0 0 0 0 0 0 0 0 0 0 0 0 0 0 0 0 0 0 0 0 0 0 0 0 0 0 0 0 0 0 0 0 0 0 0 0 0 0 0 0 0 0 0 0 0 0 0 0 0 0 0 0 0 0 0 0 0 0 0 0 0 0 0 0 0 0 0 0 0 0 0 0 0 0 0 0 0 0 0 0 0 0 0 0 0 0 0 0 0 0 0 0 0 0 0 0 0 0 0 0 0 0 0 0 0 0 0 0 0 0
0 0 0 0 0 0 0 0 0 0 0 0 0 0 0 0 0 0 0 0 0 0 0 0 0 0 0 0 0 0 0 0 0 0 0 0 0 0 0 0 0 0 0 0 0 0 0 0 0 0 0 0 0 0 0 0 0 0 0 0 0 0 0 0 0 0 0 0 0 0 0 0 0 0 0 0 0 0 0 0 0 0 0 0 0 0 0 0 0 0 0 0 0 0 0 0 0 0 0 0 0 0 0 0 0 0 0 0 0 0 0 0 0 0 0 0 0 0 0 0 0 0 0 0 0 0 0 0 0 0 0 0 0 0 0 0 0 0 0 0 0 0 0 0 0 0 0 0 0 0 0 0 0 0 0 0 0 0 0 0 0 0 0 0 0 0 0 0 0 0 0 0 0 0 0 0 0 0 0 0 0 0 0 0 0 0 0 0 0 0 0 0 0 0 0 0 0 0 0 0 0 0 0 0 0 0 0 0 0 0 0 0 0 0 0 0 0 0 0 0 0 0 0 0 0 0 0 0 0 0 0 0 0 0 0 0 0 0 0 0 0 0 0 0 0 0 0 0 0 0 0 0 0 0 0 0 0 0 0 0 0 0 0 0 0 0 0 0 0 0 0 0 0 0 0 0 0 0 0 0 0 0 0 0 0 0 0 0 0 0 0 0 0 0 0 0 0 0 0 0 0 0 0 0 0 0 0 0 0 0 0 0 0 0 0 0 0 0 0 0 0 0 0 0 0 0 0 0 0 0 85 146 121 88 151 125 90 153 127 91 154 129 91 154 130 92 155 131 92 155 132 92 155 133 92 155 134 92 154 134 92 154 134 92 153 135 92 152 135 92 151 135 92 150 135 91 149 135 91 148 135 91 147 135 90 146 134 90 144 134 89 143 134 88 141 133 88 140 133 87 138 132 86 136 131 85 134 130 84 132 129 83 129 128 82 127 127 81 124 126 79 121 124 78 118 123 76 114 121 74 110 118 70 103 114 0 0 0 0 0 0 0 0 0 0 0 0 0 0 0 0 0 0 0 0 0 0 0 0 0 0 0 0 0 0 0 0 0 0 0 0 0 0 0 0 0 0 0 0 0 0 0 0 0 0 0 0 0 0 0 0 0 0 0 0 0 0 0 0 0 0 0 0 0 0 0 0 0 0 0 0 0 0 0 0 0 0 0 0 0 0 0 0 0 0 0 0 0 0 0 0 0 0 0 0 0 0 0 0 0 0 0 0 0 0 0 0 0 0 0 0 0 0 0 0 0 0 0 0 0 0 0 0 0 0 0 0 0 0 0 0 0 0 0 0 0 0 0 0 0 0 0 0 0 0 0 0 0 0 0 0 0 0 0 0 0 0 0 0 0 0 0 0 0 0 0 0 0 0 0 0 0 0 0 0 0 0 0 0 0 0 0 0 0 0 0 0 0 0 0 0 0 0 0 0 0 0 0 0 0 0 0 0 0 0 0 0 0 0 0 0 0 0 0 0 0 0 0 0 0 0 0 0 0 0 0 0 0 0 0 0 0 0 0 0 0 0 0 0 0 0 0 0 0 0 0 0 0 0 0 0 0 0 0 0 0 0 0 0 0 0 0 0 0 0 0 0 0 0 0 0 0 0 0 0 0 0 0 0 0 0 0 0 0 0 0 0 0 0 0 0 0 0 0 0 0 0 0 0 0 0 0 0 0 0 0 0 0 0 0 0 0 0 0 0 0 0 0 0 0 0 0 0 0 0 0 0 0 0 0 0 0 0 0 0 0 0 0 0 0 0 0 0 0 0 0 0 0 0 0 0 0 0 0 0 0 0 0 0 0 0 0 0 0 0 0 0 0 0 0 0 0 0 0 0 0 0 0 0 0 0 0 0 0 0 0 0 0 0 0 0 0 0 0 0 0 0 0 0 0 0 0 0 0 0 0 0 0 0 0 0 0 0 0 0 0 0 0 0 0 0 0 0 0 0 0 0 0 0 0 0 0 0 0 0 0 0 0 0 0 0 0 0 0 0 0 0 0 0 0 0 0 0 0 0 0 0 0 0 0 0 0 0 0 0 0 0 0 0 0 0 0 0 0 0 0 0 0 0 0 0 0 0 0 0 0 0 0 0 0 0 0 0 0 0 0 0 0 0 0 0 0 0 0 0 0 0 0 0 0 0 0 0 0 0 0 0 0 0 0
0 0 0 0 0 0 0 0 0 0 0 0 0 0 0 0 0 0 0 0 0 0 0 0 0 0 0 0 0 0 0 0 0 0 0 0 0 0 0 0 0 0 0 0 0 0 0 0 0 0 0 0 0 0 0 0 0 0 0 0 0 0 0 0 0 0 0 0 0 0 0 0 0 0 0 0 0 0 0 0 0 0 0 0 0 0 0 0 0 0 0 0 0 0 0 0 0 0 0 0 0 0 0 0 0 0 0 0 0 0 0 0 0 0 0 0 0 0 0 0 0 0 0 0 0 0 0 0 0 0 0 0 0 0 0 0 0 0 0 0 0 0 0 0 0 0 0 0 0 0 0 0 0 0 0 0 0 0 0 0 0 0 0 0 0 0 0 0 0 0 0 0 0 0 0 0 0 0 0 0 0 0 0 0 0 0 0 0 0 0 0 0 0 0 0 0 0 0 0 0 0 0 0 0 0 0 0 0 0 0 0 0 0 0 0 0 0 0 0 0 0 0 0 0 0 0 0 0 0 0 0 0 0 0 0 0 0 0 0 0 0 0 0 0 0 0 0 0 0 0 0 0 0 0 0 0 0 0 0 0 0 0 0 0 0 0 0 0 0 0 0 0 0 0 0 0 0 0 0 0 0 0 0 0 0 0 0 0 0 0 0 0 0 0 0 0 0 0 0 0 0 0 0 0 0 0 0 0 0 0 0 0 0 0 0 0 0 0 0 0 0 0 0 0 88 152 123 90 155 126 91 156 128 92 157 130 92 158 131 93 158 132 93 158 133 94 158 134 94 158 134 94 158 135 94 157 135 94 157 136 94 156 136 94 155 136 93 155 136 93 154 136 93 153 136 92 152 136 92 150 136 92 149 136 91 148 135 91 147 135 90 145 135 89 144 134 89 142 134 88 140 133 87 138 133 86 136 132 86 134 131 85 132 130 84 130 129 83 128 128 81 125 127 80 122 126 79 119 124 77 116 122 75 113 120 73 108 118 71 103 115 66 95 109 0 0 0 0 0 0 0 0 0 0 0 0 0 0 0 0 0 0 0 0 0 0 0 0 0 0 0 0 0 0 0 0 0 0 0 0 0 0 0 0 0 0 0 0 0 0 0 0 0 0 0 0 0 0 0 0 0 0 0 0 0 0 0 0 0 0 0 0 0 0 0 0 0 0 0 0 0 0 0 0 0 0 0 0 0 0 0 0 0 0 0 0 0 0 0 0 0 0 0 0 0 0 0 0 0 0 0 0 0 0 0 0 0 0 0 0 0 0 0 0 0 0 0 0 0 0 0 0 0 0 0 0 0 0 0 0 0 0 0 0 0 0 0 0 0 0 0 0 0 0 0 0 0 0 0 0 0 0 0 0 0 0 0 0 0 0 0 0 0 0 0 0 0 0 0 0 0 0 0 0 0 0 0 0 0 0 0 0 0 0 0 0 0 0 0 0 0 0 0 0 0 0 0 0 0 0 0 0 0 0 0 0 0 0 0 0 0 0 0 0 0 0 0 0 0 0 0 0 0 0 0 0 0 0 0 0 0 0 0 0 0 0 0 0 0 0 0 0 0 0 0 0 0 0 0 0 0 0 0 0 0 0 0 0 0 0 0 0 0 0 0 0 0 0 0 0 0 0 0 0 0 0 0 0 0 0 0 0 0 0 0 0 0 0 0 0 0 0 0 0 0 0 0 0 0 0 0 0 0 0 0 0 0 0 0 0 0 0 0 0 0 0 0 0 0 0 0 0 0 0 0 0 0 0 0 0 0 0 0 0 0 0 0 0 0 0 0 0 0 0 0 0 0 0 0 0 0 0 0 0 0 0 0 0 0 0 0 0 0 0 0 0 0 0 0 0 0 0 0 0 0 0 0 0 0 0 0 0 0 0 0 0 0 0 0 0 0 0 0 0 0 0 0 0 0 0 0 0 0 0 0 0 0 0 0 0 0 0 0 0 0 0 0 0 0 0 0 0 0 0 0 0 0 0 0 0 0 0 0 0 0 0 0 0 0 0 0 0 0 0 0 0 0 0 0 0 0 0 0 0 0 0 0 0 0 0 0 0 0 0 0 0 0 0 0 0 0 0 0 0 0 0 0 0 0 0 0 0 0 0 0 0 0 0 0 0 0 0 0 0 0 0 0 0 0 0 0 0 0 0 0 0 0 0 0 0
0 0 0 0 0 0 0 0 0 0 0 0 0 0 0 0 0 0 0 0 0 0 0 0 0 0 0 0 0 0 0 0 0 0 0 0 0 0 0 0 0 0 0 0 0 0 0 0 0 0 0 0 0 0 0 0 0 0 0 0 0 0 0 0 0 0 0 0 0 0 0 0 0 0 0 0 0 0 0 0 0 0 0 0 0 0 0 0 0 0 0 0 0 0 0 0 0 0 0 0 0 0 0 0 0 0 0 0 0 0 0 0 0 0 0 0 0 0 0 0 0 0 0 0 0 0 0 0 0 0 0 0 0 0 0 0 0 0 0 0 0 0 0 0 0 0 0 0 0 0 0 0 0 0 0 0 0 0 0 0 0 0 0 0 0 0 0 0 0 0 0 0 0 0 0 0 0 0 0 0 0 0 0 0 0 0 0 0 0 0 0 0 0 0 0 0 0 0 0 0 0 0 0 0 0 0 0 0 0 0 0 0 0 0 0 0 0 0 0 0 0 0 0 0 0 0 0 0 0 0 0 0 0 0 0 0 0 0 0 0 0 0 0 0 0 0 0 0 0 0 0 0 0 0 0 0 0 0 0 0 0 0 0 0 0 0 0 0 0 0 0 0 0 0 0 0 0 0 0 0 0 0 0 0 0 0 0 0 0 0 0 0 0 0 0 0 0 0 0 0 0 0 0 0 0 0 0 0 0 0 0 0 0 0 0 86 150 119 89 155 123 90 157 126 92 159 128 92 160 130 93 160 131 94 161 132 94 161 133 94 161 134 95 161 134 95 161 135 95 160 135 95 160 136 95 159 136 95 159 136 94 158 137 94 157 137 94 156 137 94 155 137 93 154 137 93 153 137 93 152 137 92 151 136 92 149 136 91 148 136 91 147 135 90 145 135 90 144 135 89 142 134 88 140 133 87 138 133 87 136 132 86 134 131 85 132 130 84 130 129 83 128 128 82 125 127 80 123 126 79 120 125 78 117 123 76 114 121 74 110 119 72 106 117 70 101 114 66 94 110 0 0 0 0 0 0 0 0 0 0 0 0 0 0 0 0 0 0 0 0 0 0 0 0 0 0 0 0 0 0 0 0 0 0 0 0 0 0 0 0 0 0 0 0 0 0 0 0 0 0 0 0 0 0 0 0 0 0 0 0 0 0 0 0 0 0 0 0 0 0 0 0 0 0 0 0 0 0 0 0 0 0 0 0 0 0 0 0 0 0 0 0 0 0 0 0 0 0 0 0 0 0 0 0 0 0 0 0 0 0 0 0 0 0 0 0 0 0 0 0 0 0 0 0 0 0 0 0 0 0 0 0 0 0 0 0 0 0 0 0 0 0 0 0 0 0 0 0 0 0 0 0 0 0 0 0 0 0 0 0 0 0 0 0 0 0 0 0 0 0 0 0 0 0 0 0 0 0 0 0 0 0 0 0 0 0 0 0 0 0 0 0 0 0 0 0 0 0 0 0 0 0 0 0 0 0 0 0 0 0 0 0 0 0 0 0 0 0 0 0 0 0 0 0 0 0 0 0 0 0 0 0 0 0 0 0 0 0 0 0 0 0 0 0 0 0 0 0 0 0 0 0 0 0 0 0 0 0 0 0 0 0 0 0 0 0 0 0 0 0 0 0 0 0 0 0 0 0 0 0 0 0 0 0 0 0 0 0 0 0 0 0 0 0 0 0 0 0 0 0 0 0 0 0 0 0 0 0 0 0 0 0 0 0 0 0 0 0 0 0 0 0 0 0 0 0 0 0 0 0 0 0 0 0 0 0 0 0 0 0 0 0 0 0 0 0 0 0 0 0 0 0 0 0 0 0 0 0 0 0 0 0 0 0 0 0 0 0 0 0 0 0 0 0 0 0 0 0 0 0 0 0 0 0 0 0 0 0 0 0 0 0 0 0 0 0 0 0 0 0 0 0 0 0 0 0 0 0 0 0 0 0 0 0 0 0 0 0 0 0 0 0 0 0 0 0 0 0 0 0 0 0 0 0 0 0 0 0 0 0 0 0 0 0 0 0 0 0 0 0 0 0 0 0 0 0 0 0 0 0 0 0 0 0 0 0 0 0 0 0 0 0 0 0 0 0 0 0 0 0 0 0 0 0 0 0 0 0 0 0 0 0 0 0 0 0 0 0 0 0 0 0 0 0 0 0 0 0 0 0
0 0 0 0 0 0 0 0 0 0 0 0 0 0 0 0 0 0 0 0 0 0 0 0 0 0 0 0 0 0 0 0 0 0 0 0 0 0 0 0 0 0 0 0 0 0 0 0 0 0 0 0 0 0 0 0 0 0 0 0 0 0 0 0 0 0 0 0 0 0 0 0 0 0 0 0 0 0 0 0 0 0 0 0 0 0 0 0 0 0 0 0 0 0 0 0 0 0 0 0 0 0 0 0 0 0 0 0 0 0 0 0 0 0 0 0 0 0 0 0 0 0 0 0 0 0 0 0 0 0 0 0 0 0 0 0 0 0 0 0 0 0 0 0 0 0 0 0 0 0 0 0 0 0 0 0 0 0 0 0 0 0 0 0 0 0 0 0 0 0 0 0 0 0 0 0 0 0 0 0 0 0 0 0 0 0 0 0 0 0 0 0 0 0 0 0 0 0 0 0 0 0 0 0 0 0 0 0 0 0 0 0 0 0 0 0 0 0 0 0 0 0 0 0 0 0 0 0 0 0 0 0 0 0 0 0 0 0 0 0 0 0 0 0 0 0 0 0 0 0 0 0 0 0 0 0 0 0 0 0 0 0 0 0 0 0 0 0 0 0 0 0 0 0 0 0 0 0 0 0 0 0 0 0 0 0 0 0 0 0 0 0 0 0 0 0 0 0 0 0 0 0 0 0 0 0 0 0 0 86 152 118 89 156 122 91 159 125 92 160 127 93 161 129 93 162 130 94 162 131 94 163 132 95 163 133 95 163 134 95 163 135 95 163 135 95 162 136 95 162 136 95 161 136 95 161 137 95 160 137 95 159 137 95 158 137 95 157 137 94 156 137 94 155 137 94 154 137 93 153 137 93 152 137 92 151 136 92 149 136 91 148 136 91 146 135 90 145 135 89 143 134 89 141 134 88 140 133 87 138 133 86 136 132 85 134 131 85 132 130 84 130 129 83 127 128 81 125 127 80 122 126 79 120 125 78 117 123 76 114 121 74 110 120 73 106 117 70 102 115 68 97 112 64 90 108 0 0 0 0 0 0 0 0 0 0 0 0 0 0 0 0 0 0 0 0 0 0 0 0 0 0 0 0 0 0 0 0 0 0 0 0 0 0 0 0 0 0 0 0 0 0 0 0 0 0 0 0 0 0 0 0 0 0 0 0 0 0 0 0 0 0 0 0 0 0 0 0 0 0 0 0 0 0 0 0 0 0 0 0 0 0 0 0 0 0 0 0 0 0 0 0 0 0 0 0 0 0 0 0 0 0 0 0 0 0 0 0 0 0 0 0 0 0 0 0 0 0 0 0 0 0 0 0 0 0 0 0 0 0 0 0 0 0 0 0 0 0 0 0 0 0 0 0 0 0 0 0 0 0 0 0 0 0 0 0 0 0 0 0 0 0 0 0 0 0 0 0 0 0 0 0 0 0 0 0 0 0 0 0 0 0 0 0 0 0 0 0 0 0 0 0 0 0 0 0 0 0 0 0 0 0 0 0 0 0 0 0 0 0 0 0 0 0 0 0 0 0 0 0 0 0 0 0 0 0 0 0 0 0 0 0 0 0 0 0 0 0 0 0 0 0 0 0 0 0 0 0 0 0 0 0 0 0 0 0 0 0 0 0 0 0 0 0 0 0 0 0 0 0 0 0 0 0 0 0 0 0 0 0 0 0 0 0 0 0 0 0 0 0 0 0 0 0 0 0 0 0 0 0 0 0 0 0 0 0 0 0 0 0 0 0 0 0 0 0 0 0 0 0 0 0 0 0 0 0 0 0 0 0 0 0 0 0 0 0 0 0 0 0 0 0 0 0 0 0 0 0 0 0 0 0 0 0 0 0 0 0 0 0 0 0 0 0 0 0 0 0 0 0 0 0 0 0 0 0 0 0 0 0 0 0 0 0 0 0 0 0 0 0 0 0 0 0 0 0 0 0 0 0 0 0 0 0 0 0 0 0 0 0 0 0 0 0 0 0 0 0 0 0 0 0 0 0 0 0 0 0 0 0 0 0 0 0 0 0 0 0 0 0 0 0 0 0 0 0 0 0 0 0 0 0 0 0 0 0 0 0 0 0 0 0 0 0 0 0 0 0 0 0 0 0 0 0 0 0 0 0 0 0 0 0 0 0 0 0 0 0 0 0 0 0 0 0 0 0 0 0 0 0
0 0 0 0 0 0 0 0 0 0 0 0 0 0 0 0 0 0 0 0 0 0 0 0 0 0 0 0 0 0 0 0 0 0 0 0 0 0 0 0 0 0 0 0 0 0 0 0 0 0 0 0 0 0 0 0 0 0 0 0 0 0 0 0 0 0 0 0 0 0 0 0 0 0 0 0 0 0 0 0 0 0 0 0 0 0 0 0 0 0 0 0 0 0 0 0 0 0 0 0 0 0 0 0 0 0 0 0 0 0 0 0 0 0 0 0 0 0 0 0 0 0 0 0 0 0 0 0 0 0 0 0 0 0 0 0 0 0 0 0 0 0 0 0 0 0 0 0 0 0 0 0 0 0 0 0 0 0 0 0 0 0 0 0 0 0 0 0 0 0 0 0 0 0 0 0 0 0 0 0 0 0 0 0 0 0 0 0 0 0 0 0 0 0 0 0 0 0 0 0 0 0 0 0 0 0 0 0 0 0 0 0 0 0 0 0 0 0 0 0 0 0 0 0 0 0 0 0 0 0 0 0 0 0 0 0 0 0 0 0 0 0 0 0 0 0 0 0 0 0 0 0 0 0 0 0 0 0 0 0 0 0 0 0 0 0 0 0 0 0 0 0 0 0 0 0 0 0 0 0 0 0 0 0 0 0 0 0 0 0 0 0 0 0 0 0 0 0 0 0 0 0 0 85 152 116 89 157 121 90 159 124 92 161 126 93 162 128 93 163 129 94 164 130 95 164 132 95 164 132 95 165 133 96 165 134 96 164 135 96 164 135 96 164 136 96 163 136 96 163 136 96 162 137 96 162 137 96 161 137 95 160 137 95 159 137 95 158 137 95 157 137 94 156 137 94 155 137 93 154 137 93 153 137 93 151 137 92 150 136 91 149 136 91 147 136 90 146 135 90 144 135 89 142 134 88 141 133 88 139 133 87 137 132 86 135 131 85 133 131 84 131 130 83 129 129 82 126 128 81 124 127 80 121 125 79 119 124 77 116 123 76 113 121 74 110 119 72 106 117 71 102 115 68 98 113 66 92 109 62 85 105 0 0 0 0 0 0 0 0 0 0 0 0 0 0 0 0 0 0 0 0 0 0 0 0 0 0 0 0 0 0 0 0 0 0 0 0 0 0 0 0 0 0 0 0 0 0 0 0 0 0 0 0 0 0 0 0 0 0 0 0 0 0 0 0 0 0 0 0 0 0 0 0 0 0 0 0 0 0 0 0 0 0 0 0 0 0 0 0 0 0 0 0 0 0 0 0 0 0 0 0 0 0 0 0 0 0 0 0 0 0 0 0 0 0 0 0 0 0 0 0 0 0 0 0 0 0 0 0 0 0 0 0 0 0 0 0 0 0 0 0 0 0 0 0 0 0 0 0 0 0 0 0 0 0 0 0 0 0 0 0 0 0 0 0 0 0 0 0 0 0 0 0 0 0 0 0 0 0 0 0 0 0 0 0 0 0 0 0 0 0 0 0 0 0 0 0 0 0 0 0 0 0 0 0 0 0 0 0 0 0 0 0 0 0 0 0 0 0 0 0 0 0 0 0 0 0 0 0 0 0 0 0 0 0 0 0 0 0 0 0 0 0 0 0 0 0 0 0 0 0 0 0 0 0 0 0 0 0 0 0 0 0 0 0 0 0 0 0 0 0 0 0 0 0 0 0 0 0 0 0 0 0 0 0 0 0 0 0 0 0 0 0 0 0 0 0 0 0 0 0 0 0 0 0 0 0 0 0 0 0 0 0 0 0 0 0 0 0 0 0 0 0 0 0 0 0 0 0 0 0 0 0 0 0 0 0 0 0 0 0 0 0 0 0 0 0 0 0 0 0 0 0 0 0 0 0 0 0 0 0 0 0 0 0 0 0 0 0 0 0 0 0 0 0 0 0 0 0 0 0 0 0 0 0 0 0 0 0 0 0 0 0 0 0 0 0 0 0 0 0 0 0 0 0 0 0 0 0 0 0 0 0 0 0 0 0 0 0 0 0 0 0 0 0 0 0 0 0 0 0 0 0 0 0 0 0 0 0 0 0 0 0 0 0 0 0 0 0 0 0 0 0 0 0 0 0 0 0 0 0 0 0 0 0 0 0 0 0 0 0 0 0 0 0 0 0 0 0 0 0 0 0 0 0 0 0 0 0 0 0 0 0 0 0 0 0 0 0
0 0 0 0 0 0 0 0 0 0 0 0 0 0 0 0 0 0 0 0 0 0 0 0 0 0 0 0 0 0 0 0 0 0 0 0 0 0 0 0 0 0 0 0 0 0 0 0 0 0 0 0 0 0 0 0 0 0 0 0 0 0 0 0 0 0 0 0 0 0 0 0 0 0 0 0 0 0 0 0 0 0 0 0 0 0 0 0 0 0 0 0 0 0 0 0 0 0 0 0 0 0 0 0 0 0 0 0 0 0 0 0 0 0 0 0 0 0 0 0 0 0 0 0 0 0 0 0 0 0 0 0 0 0 0 0 0 0 0 0 0 0 0 0 0 0 0 0 0 0 0 0 0 0 0 0 0 0 0 0 0 0 0 0 0 0 0 0 0 0 0 0 0 0 0 0 0 0 0 0 0 0 0 0 0 0 0 0 0 0 0 0 0 0 0 0 0 0 0 0 0 0 0 0 0 0 0 0 0 0 0 0 0 0 0 0 0 0 0 0 0 0 0 0 0 0 0 0 0 0 0 0 0 0 0 0 0 0 0 0 0 0 0 0 0 0 0 0 0 0 0 0 0 0 0 0 0 0 0 0 0 0 0 0 0 0 0 0 0 0 0 0 0 0 0 0 0 0 0 0 0 0 0 0 0 0 0 0 0 0 0 0 0 0 0 0 0 83 149 112 88 156 118 90 159 122 91 161 124 92 163 126 93 164 128 94 165 129 94 165 130 95 166 131 95 166 132 96 166 133 96 166 134 96 166 134 96 165 135 96 165 135 96 165 136 96 164 136 96 164 137 96 163 137 96 162 137 96 161 137 96 161 137 95 160 137 95 159 137 95 158 137 94 157 137 94 156 137 94 154 137 93 153 137 93 152 136 92 151 136 92 149 136 91 148 135 90 146 135 90 145 135 89 143 134 89 141 133 88 140 133 87 138 132 86 136 132 85 134 131 84 132 130 84 130 129 83 128 128 81 125 127 80 123 126 79 120 125 78 118 123 77 115 122 75 112 121 74 109 119 72 105 117 70 102 115 68 97 113 66 93 110 63 87 106 58 78 100 0 0 0 0 0 0 0 0 0 0 0 0 0 0 0 0 0 0 0 0 0 0 0 0 0 0 0 0 0 0 0 0 0 0 0 0 0 0 0 0 0 0 0 0 0 0 0 0 0 0 0 0 0 0 0 0 0 0 0 0 0 0 0 0 0 0 0 0 0 0 0 0 0 0 0 0 0 0 0 0 0 0 0 0 0 0 0 0 0 0 0 0 0 0 0 0 0 0 0 0 0 0 0 0 0 0 0 0 0 0 0 0 0 0 0 0 0 0 0 0 0 0 0 0 0 0 0 0 0 0 0 0 0 0 0 0 0 0 0 0 0 0 0 0 0 0 0 0 0 0 0 0 0 0 0 0 0 0 0 0 0 0 0 0 0 0 0 0 0 0 0 0 0 0 0 0 0 0 0 0 0 0 0 0 0 0 0 0 0 0 0 0 0 0 0 0 0 0 0 0 0 0 0 0 0 0 0 0 0 0 0 0 0 0 0 0 0 0 0 0 0 0 0 0 0 0 0 0 0 0 0 0 0 0 0 0 0 0 0 0 0 0 0 0 0 0 0 0 0 0 0 0 0 0 0 0 0 0 0 0 0 0 0 0 0 0 0 0 0 0 0 0 0 0 0 0 0 0 0 0 0 0 0 0 0 0 0 0 0 0 0 0 0 0 0 0 0 0 0 0 0 0 0 0 0 0 0 0 0 0 0 0 0 0 0 0 0 0 0 0 0 0 0 0 0 0 0 0 0 0 0 0 0 0 0 0 0 0 0 0 0 0 0 0 0 0 0 0 0 0 0 0 0 0 0 0 0 0 0 0 0 0 0 0 0 0 0 0 0 0 0 0 0 0 0 0 0 0 0 0 0 0 0 0 0 0 0 0 0 0 0 0 0 0 0 0 0 0 0 0 0 0 0 0 0 0 0 0 0 0 0 0 0 0 0 0 0 0 0 0 0 0 0 0 0 0 0 0 0 0 0 0 0 0 0 0 0 0 0 0 0 0 0 0 0 0 0 0 0 0 0 0 0 0 0 0 0 0 0 0 0 0 0 0 0 0 0 0 0 0 0 0 0 0 0 0 0 0 0 0 0 0 0 0 0 0 0 0 0 0 0 0
0 0 0 0 0 0 0 0 0 0 0 0 0 0 0 0 0 0 0 0 0 0 0 0 0 0 0 0 0 0 0 0 0 0 0 0 0 0 0 0 0 0 0 0 0 0 0 0 0 0 0 0 0 0 0 0 0 0 0 0 0 0 0 0 0 0 0 0 0 0 0 0 0 0 0 0 0 0 0 0 0 0 0 0 0 0 0 0 0 0 0 0 0 0 0 0 0 0 0 0 0 0 0 0 0 0 0 0 0 0 0 0 0 0 0 0 0 0 0 0 0 0 0 0 0 0 0 0 0 0 0 0 0 0 0 0 0 0 0 0 0 0 0 0 0 0 0 0 0 0 0 0 0 0 0 0 0 0 0 0 0 0 0 0 0 0 0 0 0 0 0 0 0 0 0 0 0 0 0 0 0 0 0 0 0 0 0 0 0 0 0 0 0 0 0 0 0 0 0 0 0 0 0 0 0 0 0 0 0 0 0 0 0 0 0 0 0 0 0 0 0 0 0 0 0 0 0 0 0 0 0 0 0 0 0 0 0 0 0 0 0 0 0 0 0 0 0 0 0 0 0 0 0 0 0 0 0 0 0 0 0 0 0 0 0 0 0 0 0 0 0 0 0 0 0 0 0 0 0 0 0 0 0 0 0 0 0 0 0 0 0 0 0 0 86 154 115 88 159 119 90 161 122 92 163 124 93 164 126 93 165 127 94 166 129 95 166 130 95 167 131 95 167 132 96 167 133 96 167 133 96 167 134 96 166 135 96 166 135 96 166 136 96 165 136 96 165 136 96 164 136 96 163 137 96 163 137 96 162 137 96 161 137 95 160 137 95 159 137 95 158 137 94 157 137 94 156 137 94 155 137 93 153 136 93 152 136 92 151 136 92 149 136 91 148 135 91 147 135 90 145 134 89 143 134 89 142 133 88 140 133 87 138 132 86 136 131 86 135 131 85 133 130 84 130 129 83 128 128 82 126 127 81 124 126 80 121 125 79 119 124 77 116 123 76 113 121 75 111 120 73 107 118 71 104 116 70 100 114 68 96 112 65 92 109 63 87 106 59 80 102 0 0 0 0 0 0 0 0 0 0 0 0 0 0 0 0 0 0 0 0 0 0 0 0 0 0 0 0 0 0 0 0 0 0 0 0 0 0 0 0 0 0 0 0 0 0 0 0 0 0 0 0 0 0 0 0 0 0 0 0 0 0 0 0 0 0 0 0 0 0 0 0 0 0 0 0 0 0 0 0 0 0 0 0 0 0 0 0 0 0 0 0 0 0 0 0 0 0 0 0 0 0 0 0 0 0 0 0 0 0 0 0 0 0 0 0 0 0 0 0 0 0 0 0 0 0 0 0 0 0 0 0 0 0 0 0 0 0 0 0 0 0 0 0 0 0 0 0 0 0 0 0 0 0 0 0 0 0 0 0 0 0 0 0 0 0 0 0 0 0 0 0 0 0 0 0 0 0 0 0 0 0 0 0 0 0 0 0 0 0 0 0 0 0 0 0 0 0 0 0 0 0 0 0 0 0 0 0 0 0 0 0 0 0 0 0 0 0 0 0 0 0 0 0 0 0 0 0 0 0 0 0 0 0 0 0 0 0 0 0 0 0 0 0 0 0 0 0 0 0 0 0 0 0 0 0 0 0 0 0 0 0 0 0 0 0 0 0 0 0 0 0 0 0 0 0 0 0 0 0 0 0 0 0 0 0 0 0 0 0 0 0 0 0 0 0 0 0 0 0 0 0 0 0 0 0 0 0 0 0 0 0 0 0 0 0 0 0 0 0 0 0 0 0 0 0 0 0 0 0 0 0 0 0 0 0 0 0 0 0 0 0 0 0 0 0 0 0 0 0 0 0 0 0 0 0 0 0 0 0 0 0 0 0 0 0 0 0 0 0 0 0 0 0 0 0 0 0 0 0 0 0 0 0 0 0 0 0 0 0 0 0 0 0 0 0 0 0 0 0 0 0 0 0 0 0 0 0 0 0 0 0 0 0 0 0 0 0 0 0 0 0 0 0 0 0 0 0 0 0 0 0 0 0 0 0 0 0 0 0 0 0 0 0 0 0 0 0 0 0 0 0 0 0 0 0 0 0 0 0 0 0 0 0 0 0 0 0 0 0 0 0 0 0 0 0 0 0 0 0 0 0 0 0 0 0 0 0 0
0 0 0 0 0 0 0 0 0 0 0 0 0 0 0 0 0 0 0 0 0 0 0 0 0 0 0 0 0 0 0 0 0 0 0 0 0 0 0 0 0 0 0 0 0 0 0 0 0 0 0 0 0 0 0 0 0 0 0 0 0 0 0 0 0 0 0 0 0 0 0 0 0 0 0 0 0 0 0 0 0 0 0 0 0 0 0 0 0 0 0 0 0 0 0 0 0 0 0 0 0 0 0 0 0 0 0 0 0 0 0 0 0 0 0 0 0 0 0 0 0 0 0 0 0 0 0 0 0 0 0 0 0 0 0 0 0 0 0 0 0 0 0 0 0 0 0 0 0 0 0 0 0 0 0 0 0 0 0 0 0 0 0 0 0 0 0 0 0 0 0 0 0 0 0 0 0 0 0 0 0 0 0 0 0 0 0 0 0 0 0 0 0 0 0 0 0 0 0 0 0 0 0 0 0 0 0 0 0 0 0 0 0 0 0 0 0 0 0 0 0 0 0 0 0 0 0 0 0 0 0 0 0 0 0 0 0 0 0 0 0 0 0 0 0 0 0 0 0 0 0 0 0 0 0 0 0 0 0 0 0 0 0 0 0 0 0 0 0 0 0 0 0 0 0 0 0 0 0 0 0 0 0 0 0 0 0 0 83 150 110 87 157 116 89 160 119 90 162 122 92 164 124 93 165 125 93 166 127 94 167 128 95 167 129 95 167 130 95 168 131 96 168 132 96 168 133 96 167 133 96 167 134 96 167 135 96 167 135 96 166 135 96 166 136 96 165 136 96 164 136 96 164 136 96 163 137 96 162 137 95 161 137 95 160 137 95 159 137 95 158 137 94 157 137 94 156 136 93 155 136 93 154 136 93 152 136 92 151 136 92 150 135 91 148 135 90 147 134 90 145 134 89 144 134 89 142 133 88 140 132 87 139 132 86 137 131 86 135 130 85 133 130 84 131 129 83 129 128 82 127 127 81 125 126 80 122 125 79 120 124 78 117 123 76 115 121 75 112 120 74 109 119 72 106 117 71 102 115 69 99 113 67 95 111 65 91 109 62 86 106 59 80 102 55 71 96 0 0 0 0 0 0 0 0 0 0 0 0 0 0 0 0 0 0 0 0 0 0 0 0 0 0 0 0 0 0 0 0 0 0 0 0 0 0 0 0 0 0 0 0 0 0 0 0 0 0 0 0 0 0 0 0 0 0 0 0 0 0 0 0 0 0 0 0 0 0 0 0 0 0 0 0 0 0 0 0 0 0 0 0 0 0 0 0 0 0 0 0 0 0 0 0 0 0 0 0 0 0 0 0 0 0 0 0 0 0 0 0 0 0 0 0 0 0 0 0 0 0 0 0 0 0 0 0 0 0 0 0 0 0 0 0 0 0 0 0 0 0 0 0 0 0 0 0 0 0 0 0 0 0 0 0 0 0 0 0 0 0 0 0 0 0 0 0 0 0 0 0 0 0 0 0 0 0 0 0 0 0 0 0 0 0 0 0 0 0 0 0 0 0 0 0 0 0 0 0 0 0 0 0 0 0 0 0 0 0 0 0 0 0 0 0 0 0 0 0 0 0 0 0 0 0 0 0 0 0 0 0 0 0 0 0 0 0 0 0 0 0 0 0 0 0 0 0 0 0 0 0 0 0 0 0 0 0 0 0 0 0 0 0 0 0 0 0 0 0 0 0 0 0 0 0 0 0 0 0 0 0 0 0 0 0 0 0 0 0 0 0 0 0 0 0 0 0 0 0 0 0 0 0 0 0 0 0 0 0 0 0 0 0 0 0 0 0 0 0 0 0 0 0 0 0 0 0 0 0 0 0 0 0 0 0 0 0 0 0 0 0 0 0 0 0 0 0 0 0 0 0 0 0 0 0 0 0 0 0 0 0 0 0 0 0 0 0 0 0 0 0 0 0 0 0 0 0 0 0 0 0 0 0 0 0 0 0 0 0 0 0 0 0 0 0 0 0 0 0 0 0 0 0 0 0 0 0 0 0 0 0 0 0 0 0 0 0 0 0 0 0 0 0 0 0 0 0 0 0 0 0 0 0 0 0 0 0 0 0 0 0 0 0 0 0 0 0 0 0 0 0 0 0 0 0 0 0 0 0 0 0 0 0 0 0 0 0 0 0 0 0 0 0 0 0 0 0 0 0 0 0 0
0 0 0 0 0 0 0 0 0 0 0 0 0 0 0 0 0 0 0 0 0 0 0 0 0 0 0 0 0 0 0 0 0 0 0 0 0 0 0 0 0 0 0 0 0 0 0 0 0 0 0 0 0 0 0 0 0 0 0 0 0 0 0 0 0 0 0 0 0 0 0 0 0 0 0 0 0 0 0 0 0 0 0 0 0 0 0 0 0 0 0 0 0 0 0 0 0 0 0 0 0 0 0 0 0 0 0 0 0 0 0 0 0 0 0 0 0 0 0 0 0 0 0 0 0 0 0 0 0 0 0 0 0 0 0 0 0 0 0 0 0 0 0 0 0 0 0 0 0 0 0 0 0 0 0 0 0 0 0 0 0 0 0 0 0 0 0 0 0 0 0 0 0 0 0 0 0 0 0 0 0 0 0 0 0 0 0 0 0 0 0 0 0 0 0 0 0 0 0 0 0 0 0 0 0 0 0 0 0 0 0 0 0 0 0 0 0 0 0 0 0 0 0 0 0 0 0 0 0 0 0 0 0 0 0 0 0 0 0 0 0 0 0 0 0 0 0 0 0 0 0 0 0 0 0 0 0 0 0 0 0 0 0 0 0 0 0 0 0 0 0 0 0 0 0 0 0 0 0 0 0 0 0 0 0 84 154 111 87 158 116 89 161 119 91 163 121 92 165 123 93 166 125 93 167 126 94 167 127 95 168 129 95 168 130 95 168 130 96 168 131 96 168 132 96 168 133 96 168 133 96 168 134 96 167 134 96 167 135 96 166 135 96 166 135 96 165 136 96 164 136 96 164 136 96 163 136 96 162 136 95 161 136 95 160 136 95 159 136 94 158 136 94 157 136 94 156 136 93 155 136 93 154 136 92 152 135 92 151 135 91 150 135 91 148 134 90 147 134 90 145 134 89 144 133 88 142 133 88 140 132 87 139 131 86 137 131 85 135 130 85 133 129 84 131 129 83 129 128 82 127 127 81 125 126 80 123 125 79 120 124 78 118 123 77 115 122 75 113 120 74 110 119 73 107 117 71 104 116 70 101 114 68 97 112 66 93 110 64 89 108 62 84 105 59 79 101 55 71 97 0 0 0 0 0 0 0 0 0 0 0 0 0 0 0 0 0 0 0 0 0 0 0 0 0 0 0 0 0 0 0 0 0 0 0 0 0 0 0 0 0 0 0 0 0 0 0 0 0 0 0 0 0 0 0 0 0 0 0 0 0 0 0 0 0 0 0 0 0 0 0 0 0 0 0 0 0 0 0 0 0 0 0 0 0 0 0 0 0 0 0 0 0 0 0 0 0 0 0 0 0 0 0 0 0 0 0 0 0 0 0 0 0 0 0 0 0 0 0 0 0 0 0 0 0 0 0 0 0 0 0 0 0 0 0 0 0 0 0 0 0 0 0 0 0 0 0 0 0 0 0 0 0 0 0 0 0 0 0 0 0 0 0 0 0 0 0 0 0 0 0 0 0 0 0 0 0 0 0 0 0 0 0 0 0 0 0 0 0 0 0 0 0 0 0 0 0 0 0 0 0 0 0 0 0 0 0 0 0 0 0 0 0 0 0 0 0 0 0 0 0 0 0 0 0 0 0 0 0 0 0 0 0 0 0 0 0 0 0 0 0 0 0 0 0 0 0 0 0 0 0 0 0 0 0 0 0 0 0 0 0 0 0 0 0 0 0 0 0 0 0 0 0 0 0 0 0 0 0 0 0 0 0 0 0 0 0 0 0 0 0 0 0 0 0 0 0 0 0 0 0 0 0 0 0 0 0 0 0 0 0 0 0 0 0 0 0 0 0 0 0 0 0 0 0 0 0 0 0 0 0 0 0 0 0 0 0 0 0 0 0 0 0 0 0 0 0 0 0 0 0 0 0 0 0 0 0 0 0 0 0 0 0 0 0 0 0 0 0 0 0 0 0 0 0 0 0 0 0 0 0 0 0 0 0 0 0 0 0 0 0 0 0 0 0 0 0 0 0 0 0 0 0 0 0 0 0 0 0 0 0 0 0 0 0 0 0 0 0 0 0 0 0 0 0 0 0 0 0 0 0 0 0 0 0 0 0 0 0 0 0 0 0 0 0 0 0 0 0 0 0 0 0 0 0 0 0 0 0 0 0 0 0 0 0 0 0 0 0 0 0 0 0 0 0 0 0 0 0 0
0 0 0 0 0 0 0 0 0 0 0 0 0 0 0 0 0 0 0 0 0 0 0 0 0 0 0 0 0 0 0 0 0 0 0 0 0 0 0 0 0 0 0 0 0 0 0 0 0 0 0 0 0 0 0 0 0 0 0 0 0 0 0 0 0 0 0 0 0 0 0 0 0 0 0 0 0 0 0 0 0 0 0 0 0 0 0 0 0 0 0 0 0 0 0 0 0 0 0 0 0 0 0 0 0 0 0 0 0 0 0 0 0 0 0 0 0 0 0 0 0 0 0 0 0 0 0 0 0 0 0 0 0 0 0 0 0 0 0 0 0 0 0 0 0 0 0 0 0 0 0 0 0 0 0 0 0 0 0 0 0 0 0 0 0 0 0 0 0 0 0 0 0 0 0 0 0 0 0 0 0 0 0 0 0 0 0 0 0 0 0 0 0 0 0 0 0 0 0 0 0 0 0 0 0 0 0 0 0 0 0 0 0 0 0 0 0 0 0 0 0 0 0 0 0 0 0 0 0 0 0 0 0 0 0 0 0 0 0 0 0 0 0 0 0 0 0 0 0 0 0 0 0 0 0 0 0 0 0 0 0 0 0 0 0 0 0 0 0 0 0 0 0 0 0 0 0 0 0 0 0 0 85 155 111 87 159 115 89 162 118 90 164 120 91 165 122 92 166 124 93 167 125 94 168 126 94 168 128 95 168 129 95 169 130 95 169 130 96 169 131 96 169 132 96 168 132 96 168 133 96 168 133 96 167 134 96 167 134 96 166 135 96 166 135 96 165 135 96 164 135 96 164 135 96 163 136 95 162 136 95 161 136 95 160 136 95 159 136 94 158 136 94 157 135 93 156 135 93 155 135 93 153 135 92 152 135 92 151 134 91 150 134 91 148 134 90 147 133 89 145 133 89 144 132 88 142 132 88 140 131 87 139 131 86 137 130 85 135 130 85 133 129 84 131 128 83 129 127 82 127 127 81 125 126 80 123 125 79 121 124 78 118 123 77 116 121 76 113 120 74 111 119 73 108 118 72 105 116 70 102 114 69 99 113 67 95 111 65 91 109 63 87 106 61 82 103 58 77 100 54 70 96 48 59 88 0 0 0 0 0 0 0 0 0 0 0 0 0 0 0 0 0 0 0 0 0 0 0 0 0 0 0 0 0 0 0 0 0 0 0 0 0 0 0 0 0 0 0 0 0 0 0 0 0 0 0 0 0 0 0 0 0 0 0 0 0 0 0 0 0 0 0 0 0 0 0 0 0 0 0 0 0 0 0 0 0 0 0 0 0 0 0 0 0 0 0 0 0 0 0 0 0 0 0 0 0 0 0 0 0 0 0 0 0 0 0 0 0 0 0 0 0 0 0 0 0 0 0 0 0 0 0 0 0 0 0 0 0 0 0 0 0 0 0 0 0 0 0 0 0 0 0 0 0 0 0 0 0 0 0 0 0 0 0 0 0 0 0 0 0 0 0 0 0 0 0 0 0 0 0 0 0 0 0 0 0 0 0 0 0 0 0 0 0 0 0 0 0 0 0 0 0 0 0 0 0 0 0 0 0 0 0 0 0 0 0 0 0 0 0 0 0 0 0 0 0 0 0 0 0 0 0 0 0 0 0 0 0 0 0 0 0 0 0 0 0 0 0 0 0 0 0 0 0 0 0 0 0 0 0 0 0 0 0 0 0 0 0 0 0 0 0 0 0 0 0 0 0 0 0 0 0 0 0 0 0 0 0 0 0 0 0 0 0 0 0 0 0 0 0 0 0 0 0 0 0 0 0 0 0 0 0 0 0 0 0 0 0 0 0 0 0 0 0 0 0 0 0 0 0 0 0 0 0 0 0 0 0 0 0 0 0 0 0 0 0 0 0 0 0 0 0 0 0 0 0 0 0 0 0 0 0 0 0 0 0 0 0 0 0 0 0 0 0 0 0 0 0 0 0 0 0 0 0 0 0 0 0 0 0 0 0 0 0 0 0 0 0 0 0 0 0 0 0 0 0 0 0 0 0 0 0 0 0 0 0 0 0 0 0 0 0 0 0 0 0 0 0 0 0 0 0 0 0 0 0 0 0 0 0 0 0 0 0 0 0 0 0 0 0 0 0 0 0 0 0 0 0 0 0 0 0 0 0 0 0 0 0 0 0 0 0 0 0 0 0 0 0 0
0 0 0 0 0 0 0 0 0 0 0 0 0 0 0 0 0 0 0 0 0 0 0 0 0 0 0 0 0 0 0 0 0 0 0 0 0 0 0 0 0 0 0 0 0 0 0 0 0 0 0 0 0 0 0 0 0 0 0 0 0 0 0 0 0 0 0 0 0 0 0 0 0 0 0 0 0 0 0 0 0 0 0 0 0 0 0 0 0 0 0 0 0 0 0 0 0 0 0 0 0 0 0 0 0 0 0 0 0 0 0 0 0 0 0 0 0 0 0 0 0 0 0 0 0 0 0 0 0 0 0 0 0 0 0 0 0 0 0 0 0 0 0 0 0 0 0 0 0 0 0 0 0 0 0 0 0 0 0 0 0 0 0 0 0 0 0 0 0 0 0 0 0 0 0 0 0 0 0 0 0 0 0 0 0 0 0 0 0 0 0 0 0 0 0 0 0 0 0 0 0 0 0 0 0 0 0 0 0 0 0 0 0 0 0 0 0 0 0 0 0 0 0 0 0 0 0 0 0 0 0 0 0 0 0 0 0 0 0 0 0 0 0 0 0 0 0 0 0 0 0 0 0 0 0 0 0 0 0 0 0 0 0 0 0 0 0 0 0 0 0 0 0 0 0 0 80 148 104 85 156 110 87 160 114 89 162 117 90 164 119 91 165 121 92 166 123 93 167 124 93 168 125 94 168 127 94 169 128 95 169 129 95 169 129 95 169 130 96 169 131 96 169 131 96 168 132 96 168 133 96 168 133 96 167 133 96 167 134 96 166 134 96 166 134 96 165 135 96 164 135 95 163 135 95 163 135 95 162 135 95 161 135 95 160 135 94 159 135 94 158 135 93 157 135 93 156 135 93 154 134 92 153 134 92 152 134 91 151 134 91 149 133 90 148 133 90 146 133 89 145 132 89 143 132 88 142 131 87 140 131 87 139 130 86 137 130 85 135 129 84 133 128 83 131 128 83 129 127 82 127 126 81 125 125 80 123 124 79 121 123 78 119 122 77 116 121 76 114 120 74 111 119 73 108 117 72 106 116 70 103 115 69 100 113 67 96 111 66 93 109 64 89 107 62 85 105 59 80 102 57 75 99 53 69 95 48 59 88 0 0 0 0 0 0 0 0 0 0 0 0 0 0 0 0 0 0 0 0 0 0 0 0 0 0 0 0 0 0 0 0 0 0 0 0 0 0 0 0 0 0 0 0 0 0 0 0 0 0 0 0 0 0 0 0 0 0 0 0 0 0 0 0 0 0 0 0 0 0 0 0 0 0 0 0 0 0 0 0 0 0 0 0 0 0 0 0 0 0 0 0 0 0 0 0 0 0 0 0 0 0 0 0 0 0 0 0 0 0 0 0 0 0 0 0 0 0 0 0 0 0 0 0 0 0 0 0 0 0 0 0 0 0 0 0 0 0 0 0 0 0 0 0 0 0 0 0 0 0 0 0 0 0 0 0 0 0 0 0 0 0 0 0 0 0 0 0 0 0 0 0 0 0 0 0 0 0 0 0 0 0 0 0 0 0 0 0 0 0 0 0 0 0 0 0 0 0 0 0 0 0 0 0 0 0 0 0 0 0 0 0 0 0 0 0 0 0 0 0 0 0 0 0 0 0 0 0 0 0 0 0 0 0 0 0 0 0 0 0 0 0 0 0 0 0 0 0 0 0 0 0 0 0 0 0 0 0 0 0 0 0 0 0 0 0 0 0 0 0 0 0 0 0 0 0 0 0 0 0 0 0 0 0 0 0 0 0 0 0 0 0 0 0 0 0 0 0 0 0 0 0 0 0 0 0 0 0 0 0 0 0 0 0 0 0 0 0 0 0 0 0 0 0 0 0 0 0 0 0 0 0 0 0 0 0 0 0 0 0 0 0 0 0 0 0 0 0 0 0 0 0 0 0 0 0 0 0 0 0 0 0 0 0 0 0 0 0 0 0 0 0 0 0 0 0 0 0 0 0 0 0 0 0 0 0 0 0 0 0 0 0 0 0 0 0 0 0 0 0 0 0 0 0 0 0 0 0 0 0 0 0 0 0 0 0 0 0 0 0 0 0 0 0 0 0 0 0 0 0 0 0 0 0 0 0 0 0 0 0 0 0 0 0 0 0 0 0 0 0 0 0 0 0 0 0 0 0 0 0 0 0 0 0 0 0 0 0 0 0 0
0 0 0 0 0 0 0 0 0 0 0 0 0 0 0 0 0 0 0 0 0 0 0 0 0 0 0 0 0 0 0 0 0 0 0 0 0 0 0 0 0 0 0 0 0 0 0 0 0 0 0 0 0 0 0 0 0 0 0 0 0 0 0 0 0 0 0 0 0 0 0 0 0 0 0 0 0 0 0 0 0 0 0 0 0 0 0 0 0 0 0 0 0 0 0 0 0 0 0 0 0 0 0 0 0 0 0 0 0 0 0 0 0 0 0 0 0 0 0 0 0 0 0 0 0 0 0 0 0 0 0 0 0 0 0 0 0 0 0 0 0 0 0 0 0 0 0 0 0 0 0 0 0 0 0 0 0 0 0 0 0 0 0 0 0 0 0 0 0 0 0 0 0 0 0 0 0 0 0 0 0 0 0 0 0 0 0 0 0 0 0 0 0 0 0 0 0 0 0 0 0 0 0 0 0 0 0 0 0 0 0 0 0 0 0 0 0 0 0 0 0 0 0 0 0 0 0 0 0 0 0 0 0 0 0 0 0 0 0 0 0 0 0 0 0 0 0 0 0 0 0 0 0 0 0 0 0 0 0 0 0 0 0 0 0 0 0 0 0 0 0 0 0 80 150 104 84 156 109 87 160 113 88 162 116 90 164 118 91 165 120 92 166 121 92 167 123 93 168 124 94 168 125 94 169 126 94 169 127 95 169 128 95 169 129 95 169 130 96 169 130 96 169 131 96 168 132 96 168 132 96 168 132 96 167 133 96 167 133 96 166 133 96 165 134 95 165 134 95 164 134 95 163 134 95 162 134 95 161 134 94 160 134 94 160 134 94 159 134 93 157 134 93 156 134 93 155 134 92 154 134 92 153 133 91 152 133 91 150 133 90 149 133 90 148 132 89 146 132 89 145 132 88 143 131 88 142 131 87 140 130 86 138 130 86 137 129 85 135 128 84 133 128 83 131 127 82 129 126 82 127 125 81 125 125 80 123 124 79 121 123 78 119 122 77 116 121 76 114 120 74 111 118 73 109 117 72 106 116 71 103 114 69 100 113 68 97 111 66 94 109 64 90 108 62 87 105 60 82 103 58 78 100 55 73 97 52 66 93 48 57 87 0 0 0 0 0 0 0 0 0 0 0 0 0 0 0 0 0 0 0 0 0 0 0 0 0 0 0 0 0 0 0 0 0 0 0 0 0 0 0 0 0 0 0 0 0 0 0 0 0 0 0 0 0 0 0 0 0 0 0 0 0 0 0 0 0 0 0 0 0 0 0 0 0 0 0 0 0 0 0 0 0 0 0 0 0 0 0 0 0 0 0 0 0 0 0 0 0 0 0 0 0 0 0 0 0 0 0 0 0 0 0 0 0 0 0 0 0 0 0 0 0 0 0 0 0 0 0 0 0 0 0 0 0 0 0 0 0 0 0 0 0 0 0 0 0 0 0 0 0 0 0 0 0 0 0 0 0 0 0 0 0 0 0 0 0 0 0 0 0 0 0 0 0 0 0 0 0 0 0 0 0 0 0 0 0 0 0 0 0 0 0 0 0 0 0 0 0 0 0 0 0 0 0 0 0 0 0 0 0 0 0 0 0 0 0 0 0 0 0 0 0 0 0 0 0 0 0 0 0 0 0 0 0 0 0 0 0 0 0 0 0 0 0 0 0 0 0 0 0 0 0 0 0 0 0 0 0 0 0 0 0 0 0 0 0 0 0 0 0 0 0 0 0 0 0 0 0 0 0 0 0 0 0 0 0 0 0 0 0 0 0 0 0 0 0 0 0 0 0 0 0 0 0 0 0 0 0 0 0 0 0 0 0 0 0 0 0 0 0 0 0 0 0 0 0 0 0 0 0 0 0 0 0 0 0 0 0 0 0 0 0 0 0 0 0 0 0 0 0 0 0 0 0 0 0 0 0 0 0 0 0 0 0 0 0 0 0 0 0 0 0 0 0 0 0 0 0 0 0 0 0 0 0 0 0 0 0 0 0 0 0 0 0 0 0 0 0 0 0 0 0 0 0 0 0 0 0 0 0 0 0 0 0 0 0 0 0 0 0 0 0 0 0 0 0 0 0 0 0 0 0 0 0 0 0 0 0 0 0 0 0 0 0 0 0 0 0 0 0 0 0 0 0 0 0 0 0 0 0 0 0 0 0 0 0 0 0 0
0 0 0 0 0 0 0 0 0 0 0 0 0 0 0 0 0 0 0 0 0 0 0 0 0 0 0 0 0 0 0 0 0 0 0 0 0 0 0 0 0 0 0 0 0 0 0 0 0 0 0 0 0 0 0 0 0 0 0 0 0 0 0 0 0 0 0 0 0 0 0 0 0 0 0 0 0 0 0 0 0 0 0 0 0 0 0 0 0 0 0 0 0 0 0 0 0 0 0 0 0 0 0 0 0 0 0 0 0 0 0 0 0 0 0 0 0 0 0 0 0 0 0 0 0 0 0 0 0 0 0 0 0 0 0 0 0 0 0 0 0 0 0 0 0 0 0 0 0 0 0 0 0 0 0 0 0 0 0 0 0 0 0 0 0 0 0 0 0 0 0 0 0 0 0 0 0 0 0 0 0 0 0 0 0 0 0 0 0 0 0 0 0 0 0 0 0 0 0 0 0 0 0 0 0 0 0 0 0 0 0 0 0 0 0 0 0 0 0 0 0 0 0 0 0 0 0 0 0 0 0 0 0 0 0 0 0 0 0 0 0 0 0 0 0 0 0 0 0 0 0 0 0 0 0 0 0 0 0 0 0 0 0 0 0 0 0 0 0 0 80 150 103 84 156 108 86 160 112 88 162 114 89 164 117 90 165 118 91 166 120 92 167 122 93 168 123 93 168 124 94 169 125 94 169 126 94 169 127 95 169 128 95 169 129 95 169 129 95 169 130 95 169 130 95 168 131 96 168 131 96 167 132 96 167 132 95 166 132 95 166 133 95 165 133 95 164 133 95 164 133 95 163 133 95 162 133 94 161 133 94 160 133 94 159 133 93 158 133 93 157 133 93 156 133 92 155 133 92 154 133 91 152 133 91 151 132 91 150 132 90 149 132 90 147 131 89 146 131 88 144 131 88 143 130 87 141 130 87 140 129 86 138 129 85 136 128 84 135 128 84 133 127 83 131 126 82 129 126 81 127 125 80 125 124 79 123 123 78 121 122 77 119 121 76 116 120 75 114 119 74 112 118 73 109 117 72 106 115 71 104 114 69 101 113 68 98 111 66 95 109 65 91 108 63 88 106 61 84 104 59 80 101 57 75 98 54 70 95 51 64 91 46 55 86 0 0 0 0 0 0 0 0 0 0 0 0 0 0 0 0 0 0 0 0 0 0 0 0 0 0 0 0 0 0 0 0 0 0 0 0 0 0 0 0 0 0 0 0 0 0 0 0 0 0 0 0 0 0 0 0 0 0 0 0 0 0 0 0 0 0 0 0 0 0 0 0 0 0 0 0 0 0 0 0 0 0 0 0 0 0 0 0 0 0 0 0 0 0 0 0 0 0 0 0 0 0 0 0 0 0 0 0 0 0 0 0 0 0 0 0 0 0 0 0 0 0 0 0 0 0 0 0 0 0 0 0 0 0 0 0 0 0 0 0 0 0 0 0 0 0 0 0 0 0 0 0 0 0 0 0 0 0 0 0 0 0 0 0 0 0 0 0 0 0 0 0 0 0 0 0 0 0 0 0 0 0 0 0 0 0 0 0 0 0 0 0 0 0 0 0 0 0 0 0 0 0 0 0 0 0 0 0 0 0 0 0 0 0 0 0 0 0 0 0 0 0 0 0 0 0 0 0 0 0 0 0 0 0 0 0 0 0 0 0 0 0 0 0 0 0 0 0 0 0 0 0 0 0 0 0 0 0 0 0 0 0 0 0 0 0 0 0 0 0 0 0 0 0 0 0 0 0 0 0 0 0 0 0 0 0 0 0 0 0 0 0 0 0 0 0 0 0 0 0 0 0 0 0 0 0 0 0 0 0 0 0 0 0 0 0 0 0 0 0 0 0 0 0 0 0 0 0 0 0 0 0 0 0 0 0 0 0 0 0 0 0 0 0 0 0 0 0 0 0 0 0 0 0 0 0 0 0 0 0 0 0 0 0 0 0 0 0 0 0 0 0 0 0 0 0 0 0 0 0 0 0 0 0 0 0 0 0 0 0 0 0 0 0 0 0 0 0 0 0 0 0 0 0 0 0 0 0 0 0 0 0 0 0 0 0 0 0 0 0 0 0 0 0 0 0 0 0 0 0 0 0 0 0 0 0 0 0 0 0 0 0 0 0 0 0 0 0 0 0 0 0 0 0 0 0 0 0 0 0 0 0 0 0 0
0 0 0 0 0 0 0 0 0 0 0 0 0 0 0 0 0 0 0 0 0 0 0 0 0 0 0 0 0 0 0 0 0 0 0 0 0 0 0 0 0 0 0 0 0 0 0 0 0 0 0 0 0 0 0 0 0 0 0 0 0 0 0 0 0 0 0 0 0 0 0 0 0 0 0 0 0 0 0 0 0 0 0 0 0 0 0 0 0 0 0 0 0 0 0 0 0 0 0 0 0 0 0 0 0 0 0 0 0 0 0 0 0 0 0 0 0 0 0 0 0 0 0 0 0 0 0 0 0 0 0 0 0 0 0 0 0 0 0 0 0 0 0 0 0 0 0 0 0 0 0 0 0 0 0 0 0 0 0 0 0 0 0 0 0 0 0 0 0 0 0 0 0 0 0 0 0 0 0 0 0 0 0 0 0 0 0 0 0 0 0 0 0 0 0 0 0 0 0 0 0 0 0 0 0 0 0 0 0 0 0 0 0 0 0 0 0 0 0 0 0 0 0 0 0 0 0 0 0 0 0 0 0 0 0 0 0 0 0 0 0 0 0 0 0 0 0 0 0 0 0 0 0 0 0 0 0 0 0 0 0 0 0 0 0 0 0 80 150 101 83 156 107 85 159 110 87 162 113 88 163 115 90 165 117 91 166 119 91 167 120 92 168 122 93 168 123 93 169 124 94 169 125 94 169 126 94 169 127 94 169 127 95 169 128 95 169 129 95 169 129 95 168 130 95 168 130 95 167 131 95 167 131 95 166 131 95 166 132 95 165 132 95 165 132 95 164 132 94 163 132 94 162 132 94 161 133 94 160 133 94 160 133 93 159 133 93 158 132 93 156 132 92 155 132 92 154 132 91 153 132 91 152 132 91 151 131 90 149 131 90 148 131 89 147 131 88 145 130 88 144 130 87 142 129 87 141 129 86 139 128 85 137 128 85 136 127 84 134 127 83 132 126 82 131 125 82 129 125 81 127 124 80 125 123 79 123 122 78 121 121 77 118 121 76 116 120 75 114 118 74 111 117 73 109 116 72 106 115 70 104 114 69 101 112 68 98 111 66 95 109 65 92 108 63 88 106 61 85 104 60 81 102 57 77 99 55 72 96 52 67 93 49 61 89 45 52 84 0 0 0 0 0 0 0 0 0 0 0 0 0 0 0 0 0 0 0 0 0 0 0 0 0 0 0 0 0 0 0 0 0 0 0 0 0 0 0 0 0 0 0 0 0 0 0 0 0 0 0 0 0 0 0 0 0 0 0 0 0 0 0 0 0 0 0 0 0 0 0 0 0 0 0 0 0 0 0 0 0 0 0 0 0 0 0 0 0 0 0 0 0 0 0 0 0 0 0 0 0 0 0 0 0 0 0 0 0 0 0 0 0 0 0 0 0 0 0 0 0 0 0 0 0 0 0 0 0 0 0 0 0 0 0 0 0 0 0 0 0 0 0 0 0 0 0 0 0 0 0 0 0 0 0 0 0 0 0 0 0 0 0 0 0 0 0 0 0 0 0 0 0 0 0 0 0 0 0 0 0 0 0 0 0 0 0 0 0 0 0 0 0 0 0 0 0 0 0 0 0 0 0 0 0 0 0 0 0 0 0 0 0 0 0 0 0 0 0 0 0 0 0 0 0 0 0 0 0 0 0 0 0 0 0 0 0 0 0 0 0 0 0 0 0 0 0 0 0 0 0 0 0 0 0 0 0 0 0 0 0 0 0 0 0 0 0 0 0 0 0 0 0 0 0 0 0 0 0 0 0 0 0 0 0 0 0 0 0 0 0 0 0 0 0 0 0 0 0 0 0 0 0 0 0 0 0 0 0 0 0 0 0 0 0 0 0 0 0 0 0 0 0 0 0 0 0 0 0 0 0 0 0 0 0 0 0 0 0 0 0 0 0 0 0 0 0 0 0 0 0 0 0 0 0 0 0 0 0 0 0 0 0 0 0 0 0 0 0 0 0 0 0 0 0 0 0 0 0 0 0 0 0 0 0 0 0 0 0 0 0 0 0 0 0 0 0 0 0 0 0 0 0 0 0 0 0 0 0 0 0 0 0 0 0 0 0 0 0 0 0 0 0 0 0 0 0 0 0 0 0 0 0 0 0 0 0 0 0 0 0 0 0 0 0 0 0 0 0 0 0 0 0 0 0 0 0 0 0 0 0 0
0 0 0 0 0 0 0 0 0 0 0 0 0 0 0 0 0 0 0 0 0 0 0 0 0 0 0 0 0 0 0 0 0 0 0 0 0 0 0 0 0 0 0 0 0 0 0 0 0 0 0 0 0 0 0 0 0 0 0 0 0 0 0 0 0 0 0 0 0 0 0 0 0 0 0 0 0 0 0 0 0 0 0 0 0 0 0 0 0 0 0 0 0 0 0 0 0 0 0 0 0 0 0 0 0 0 0 0 0 0 0 0 0 0 0 0 0 0 0 0 0 0 0 0 0 0 0 0 0 0 0 0 0 0 0 0 0 0 0 0 0 0 0 0 0 0 0 0 0 0 0 0 0 0 0 0 0 0 0 0 0 0 0 0 0 0 0 0 0 0 0 0 0 0 0 0 0 0 0 0 0 0 0 0 0 0 0 0 0 0 0 0 0 0 0 0 0 0 0 0 0 0 0 0 0 0 0 0 0 0 0 0 0 0 0 0 0 0 0 0 0 0 0 0 0 0 0 0 0 0 0 0 0 0 0 0 0 0 0 0 0 0 0 0 0 0 0 0 0 0 0 0 0 0 0 0 0 0 0 0 0 0 0 0 79 149 99 82 155 105 85 158 108 86 161 111 88 163 113 89 164 115 90 166 117 91 166 119 91 167 120 92 168 121 92 168 122 93 169 123 93 169 124 94 169 125 94 169 126 94 169 127 94 169 127 95 168 128 95 168 128 95 168 129 95 167 129 95 167 130 95 166 130 95 166 130 95 165 131 94 165 131 94 164 131 94 163 131 94 162 131 94 162 132 94 161 132 93 160 132 93 159 132 93 158 132 92 157 132 92 156 131 92 155 131 91 154 131 91 152 131 90 151 131 90 150 131 90 149 130 89 147 130 89 146 130 88 145 129 87 143 129 87 142 128 86 140 128 86 139 127 85 137 127 84 135 126 84 134 126 83 132 125 82 130 125 81 128 124 80 126 123 80 124 122 79 122 122 78 120 121 77 118 120 76 116 119 75 114 118 74 111 117 73 109 116 71 106 114 70 104 113 69 101 112 68 98 110 66 95 109 65 92 107 63 89 106 62 86 104 60 82 102 58 78 100 56 74 97 53 69 94 51 64 91 47 57 87 43 49 81 0 0 0 0 0 0 0 0 0 0 0 0 0 0 0 0 0 0 0 0 0 0 0 0 0 0 0 0 0 0 0 0 0 0 0 0 0 0 0 0 0 0 0 0 0 0 0 0 0 0 0 0 0 0 0 0 0 0 0 0 0 0 0 0 0 0 0 0 0 0 0 0 0 0 0 0 0 0 0 0 0 0 0 0 0 0 0 0 0 0 0 0 0 0 0 0 0 0 0 0 0 0 0 0 0 0 0 0 0 0 0 0 0 0 0 0 0 0 0 0 0 0 0 0 0 0 0 0 0 0 0 0 0 0 0 0 0 0 0 0 0 0 0 0 0 0 0 0 0 0 0 0 0 0 0 0 0 0 0 0 0 0 0 0 0 0 0 0 0 0 0 0 0 0 0 0 0 0 0 0 0 0 0 0 0 0 0 0 0 0 0 0 0 0 0 0 0 0 0 0 0 0 0 0 0 0 0 0 0 0 0 0 0 0 0 0 0 0 0 0 0 0 0 0 0 0 0 0 0 0 0 0 0 0 0 0 0 0 0 0 0 0 0 0 0 0 0 0 0 0 0 0 0 0 0 0 0 0 0 0 0 0 0 0 0 0 0 0 0 0 0 0 0 0 0 0 0 0 0 0 0 0 0 0 0 0 0 0 0 0 0 0 0 0 0 0 0 0 0 0 0 0 0 0 0 0 0 0 0 0 0 0 0 0 0 0 0 0 0 0 0 0 0 0 0 0 0 0 0 0 0 0 0 0 0 0 0 0 0 0 0 0 0 0 0 0 0 0 0 0 0 0 0 0 0 0 0 0 0 0 0 0 0 0 0 0 0 0 0 0 0 0 0 0 0 0 0 0 0 0 0 0 0 0 0 0 0 0 0 0 0 0 0 0 0 0 0 0 0 0 0 0 0 0 0 0 0 0 0 0 0 0 0 0 0 0 0 0 0 0 0 0 0 0 0 0 0 0 0 0 0 0 0 0 0 0 0 0 0 0 0 0 0 0 0 0 0 0 0 0 0 0 0 0 0 0 0 0 0
0 0 0 0 0 0 0 0 0 0 0 0 0 0 0 0 0 0 0 0 0 0 0 0 0 0 0 0 0 0 0 0 0 0 0 0 0 0 0 0 0 0 0 0 0 0 0 0 0 0 0 0 0 0 0 0 0 0 0 0 0 0 0 0 0 0 0 0 0 0 0 0 0 0 0 0 0 0 0 0 0 0 0 0 0 0 0 0 0 0 0 0 0 0 0 0 0 0 0 0 0 0 0 0 0 0 0 0 0 0 0 0 0 0 0 0 0 0 0 0 0 0 0 0 0 0 0 0 0 0 0 0 0 0 0 0 0 0 0 0 0 0 0 0 0 0 0 0 0 0 0 0 0 0 0 0 0 0 0 0 0 0 0 0 0 0 0 0 0 0 0 0 0 0 0 0 0 0 0 0 0 0 0 0 0 0 0 0 0 0 0 0 0 0 0 0 0 0 0 0 0 0 0 0 0 0 0 0 0 0 0 0 0 0 0 0 0 0 0 0 0 0 0 0 0 0 0 0 0 0 0 0 0 0 0 0 0 0 0 0 0 0 0 0 0 0 0 0 0 0 0 0 0 0 0 0 0 0 0 0 0 77 148 97 81 154 103 84 158 106 85 160 109 87 162 112 88 164 114 89 165 115 90 166 117 91 167 118 91 167 120 92 168 121 92 168 122 93 168 123 93 169 124 93 169 125 94 169 125 94 168 126 94 168 127 94 168 127 94 168 128 94 167 128 94 167 129 94 166 129 94 166 129 94 165 130 94 165 130 94 164 130 94 163 130 94 163 130 93 162 130 93 161 131 93 160 131 93 159 131 92 158 131 92 157 131 92 156 131 92 155 130 91 154 130 91 153 130 90 152 130 90 151 130 89 149 130 89 148 129 88 147 129 88 145 129 87 144 128 87 142 128 86 141 127 86 139 127 85 138 127 84 136 126 84 135 125 83 133 125 82 131 124 82 129 124 81 128 123 80 126 122 79 124 121 78 122 121 77 120 120 76 118 119 75 116 118 74 113 117 73 111 116 72 109 115 71 106 114 70 104 113 69 101 111 67 98 110 66 95 108 65 92 107 63 89 105 62 86 104 60 82 102 58 79 100 56 75 97 54 70 95 52 66 92 49 60 89 45 54 84 41 45 78 0 0 0 0 0 0 0 0 0 0 0 0 0 0 0 0 0 0 0 0 0 0 0 0 0 0 0 0 0 0 0 0 0 0 0 0 0 0 0 0 0 0 0 0 0 0 0 0 0 0 0 0 0 0 0 0 0 0 0 0 0 0 0 0 0 0 0 0 0 0 0 0 0 0 0 0 0 0 0 0 0 0 0 0 0 0 0 0 0 0 0 0 0 0 0 0 0 0 0 0 0 0 0 0 0 0 0 0 0 0 0 0 0 0 0 0 0 0 0 0 0 0 0 0 0 0 0 0 0 0 0 0 0 0 0 0 0 0 0 0 0 0 0 0 0 0 0 0 0 0 0 0 0 0 0 0 0 0 0 0 0 0 0 0 0 0 0 0 0 0 0 0 0 0 0 0 0 0 0 0 0 0 0 0 0 0 0 0 0 0 0 0 0 0 0 0 0 0 0 0 0 0 0 0 0 0 0 0 0 0 0 0 0 0 0 0 0 0 0 0 0 0 0 0 0 0 0 0 0 0 0 0 0 0 0 0 0 0 0 0 0 0 0 0 0 0 0 0 0 0 0 0 0 0 0 0 0 0 0 0 0 0 0 0 0 0 0 0 0 0 0 0 0 0 0 0 0 0 0 0 0 0 0 0 0 0 0 0 0 0 0 0 0 0 0 0 0 0 0 0 0 0 0 0 0 0 0 0 0 0 0 0 0 0 0 0 0 0 0 0 0 0 0 0 0 0 0 0 0 0 0 0 0 0 0 0 0 0 0 0 0 0 0 0 0 0 0 0 0 0 0 0 0 0 0 0 0 0 0 0 0 0 0 0 0 0 0 0 0 0 0 0 0 0 0 0 0 0 0 0 0 0 0 0 0 0 0 0 0 0 0 0 0 0 0 0 0 0 0 0 0 0 0 0 0 0 0 0 0 0 0 0 0 0 0 0 0 0 0 0 0 0 0 0 0 0 0 0 0 0 0 0 0 0 0 0 0 0 0 0 0 0 0 0 0 0 0 0 0 0 0 0 0 0 0 0
0 0 0 0 0 0 0 0 0 0 0 0 0 0 0 0 0 0 0 0 0 0 0 0 0 0 0 0 0 0 0 0 0 0 0 0 0 0 0 0 0 0 0 0 0 0 0 0 0 0 0 0 0 0 0 0 0 0 0 0 0 0 0 0 0 0 0 0 0 0 0 0 0 0 0 0 0 0 0 0 0 0 0 0 0 0 0 0 0 0 0 0 0 0 0 0 0 0 0 0 0 0 0 0 0 0 0 0 0 0 0 0 0 0 0 0 0 0 0 0 0 0 0 0 0 0 0 0 0 0 0 0 0 0 0 0 0 0 0 0 0 0 0 0 0 0 0 0 0 0 0 0 0 0 0 0 0 0 0 0 0 0 0 0 0 0 0 0 0 0 0 0 0 0 0 0 0 0 0 0 0 0 0 0 0 0 0 0 0 0 0 0 0 0 0 0 0 0 0 0 0 0 0 0 0 0 0 0 0 0 0 0 0 0 0 0 0 0 0 0 0 0 0 0 0 0 0 0 0 0 0 0 0 0 0 0 0 0 0 0 0 0 0 0 0 0 0 0 0 0 0 0 0 0 0 0 0 0 76 146 94 80 153 100 83 157 104 85 159 107 86 161 110 87 163 112 88 164 114 89 165 115 90 166 117 91 167 118 91 167 119 92 168 120 92 168 121 92 168 122 93 168 123 93 168 124 93 168 124 93 168 125 94 168 126 94 167 126 94 167 127 94 167 127 94 166 128 94 166 128 94 165 128 94 165 129 94 164 129 93 163 129 93 163 129 93 162 129 93 161 129 93 160 130 92 159 130 92 158 130 92 158 130 92 157 130 91 156 129 91 154 129 91 153 129 90 152 129 90 151 129 89 150 129 89 149 128 88 147 128 88 146 128 87 145 128 87 143 127 86 142 127 86 140 126 85 139 126 84 137 125 84 136 125 83 134 124 82 132 124 82 131 123 81 129 123 80 127 122 79 125 121 79 123 120 78 121 120 77 119 119 76 117 118 75 115 117 74 113 116 73 111 115 72 108 114 71 106 113 70 103 112 68 101 111 67 98 109 66 95 108 65 92 106 63 89 105 62 86 103 60 83 101 58 79 99 56 76 97 54 71 95 52 67 92 50 62 89 47 57 86 43 50 82 38 40 75 0 0 0 0 0 0 0 0 0 0 0 0 0 0 0 0 0 0 0 0 0 0 0 0 0 0 0 0 0 0 0 0 0 0 0 0 0 0 0 0 0 0 0 0 0 0 0 0 0 0 0 0 0 0 0 0 0 0 0 0 0 0 0 0 0 0 0 0 0 0 0 0 0 0 0 0 0 0 0 0 0 0 0 0 0 0 0 0 0 0 0 0 0 0 0 0 0 0 0 0 0 0 0 0 0 0 0 0 0 0 0 0 0 0 0 0 0 0 0 0 0 0 0 0 0 0 0 0 0 0 0 0 0 0 0 0 0 0 0 0 0 0 0 0 0 0 0 0 0 0 0 0 0 0 0 0 0 0 0 0 0 0 0 0 0 0 0 0 0 0 0 0 0 0 0 0 0 0 0 0 0 0 0 0 0 0 0 0 0 0 0 0 0 0 0 0 0 0 0 0 0 0 0 0 0 0 0 0 0 0 0 0 0 0 0 0 0 0 0 0 0 0 0 0 0 0 0 0 0 0 0 0 0 0 0 0 0 0 0 0 0 0 0 0 0 0 0 0 0 0 0 0 0 0 0 0 0 0 0 0 0 0 0 0 0 0 0 0 0 0 0 0 0 0 0 0 0 0 0 0 0 0 0 0 0 0 0 0 0 0 0 0 0 0 0 0 0 0 0 0 0 0 0 0 0 0 0 0 0 0 0 0 0 0 0 0 0 0 0 0 0 0 0 0 0 0 0 0 0 0 0 0 0 0 0 0 0 0 0 0 0 0 0 0 0 0 0 0 0 0 0 0 0 0 0 0 0 0 0 0 0 0 0 0 0 0 0 0 0 0 0 0 0 0 0 0 0 0 0 0 0 0 0 0 0 0 0 0 0 0 0 0 0 0 0 0 0 0 0 0 0 0 0 0 0 0 0 0 0 0 0 0 0 0 0 0 0 0 0 0 0 0 0 0 0 0 0 0 0 0 0 0 0 0 0 0 0 0 0 0 0 0 0 0 0 0 0 0 0 0 0 0 0
0 0 0 0 0 0 0 0 0 0 0 0 0 0 0 0 0 0 0 0 0 0 0 0 0 0 0 0 0 0 0 0 0 0 0 0 0 0 0 0 0 0 0 0 0 0 0 0 0 0 0 0 0 0 0 0 0 0 0 0 0 0 0 0 0 0 0 0 0 0 0 0 0 0 0 0 0 0 0 0 0 0 0 0 0 0 0 0 0 0 0 0 0 0 0 0 0 0 0 0 0 0 0 0 0 0 0 0 0 0 0 0 0 0 0 0 0 0 0 0 0 0 0 0 0 0 0 0 0 0 0 0 0 0 0 0 0 0 0 0 0 0 0 0 0 0 0 0 0 0 0 0 0 0 0 0 0 0 0 0 0 0 0 0 0 0 0 0 0 0 0 0 0 0 0 0 0 0 0 0 0 0 0 0 0 0 0 0 0 0 0 0 0 0 0 0 0 0 0 0 0 0 0 0 0 0 0 0 0 0 0 0 0 0 0 0 0 0 0 0 0 0 0 0 0 0 0 0 0 0 0 0 0 0 0 0 0 0 0 0 0 0 0 0 0 0 0 0 0 0 0 0 0 0 0 74 142 90 79 151 98 81 155 102 83 158 105 85 160 108 86 162 110 87 163 112 88 164 113 89 165 115 90 166 116 90 167 117 91 167 119 91 167 120 92 168 121 92 168 121 92 168 122 93 168 123 93 168 124 93 167 124 93 167 125 93 167 125 93 167 126 93 166 126 93 166 127 93 165 127 93 165 127 93 164 128 93 163 128 93 163 128 93 162 128 92 161 128 92 160 128 92 159 128 92 159 128 92 158 128 91 157 128 91 156 128 91 155 128 90 154 128 90 153 128 90 151 128 89 150 128 89 149 128 88 148 127 88 146 127 87 145 127 87 144 126 86 142 126 86 141 126 85 140 125 84 138 125 84 136 124 83 135 124 83 133 123 82 132 123 81 130 122 80 128 122 80 126 121 79 124 120 78 123 119 77 121 119 76 119 118 75 117 117 74 114 116 74 112 115 73 110 114 71 108 113 70 105 112 69 103 111 68 100 110 67 98 108 66 95 107 64 92 106 63 89 104 61 86 103 60 83 101 58 80 99 56 76 97 55 72 95 52 68 93 50 63 90 48 58 87 45 53 83 41 46 79 35 35 71 0 0 0 0 0 0 0 0 0 0 0 0 0 0 0 0 0 0 0 0 0 0 0 0 0 0 0 0 0 0 0 0 0 0 0 0 0 0 0 0 0 0 0 0 0 0 0 0 0 0 0 0 0 0 0 0 0 0 0 0 0 0 0 0 0 0 0 0 0 0 0 0 0 0 0 0 0 0 0 0 0 0 0 0 0 0 0 0 0 0 0 0 0 0 0 0 0 0 0 0 0 0 0 0 0 0 0 0 0 0 0 0 0 0 0 0 0 0 0 0 0 0 0 0 0 0 0 0 0 0 0 0 0 0 0 0 0 0 0 0 0 0 0 0 0 0 0 0 0 0 0 0 0 0 0 0 0 0 0 0 0 0 0 0 0 0 0 0 0 0 0 0 0 0 0 0 0 0 0 0 0 0 0 0 0 0 0 0 0 0 0 0 0 0 0 0 0 0 0 0 0 0 0 0 0 0 0 0 0 0 0 0 0 0 0 0 0 0 0 0 0 0 0 0 0 0 0 0 0 0 0 0 0 0 0 0 0 0 0 0 0 0 0 0 0 0 0 0 0 0 0 0 0 0 0 0 0 0 0 0 0 0 0 0 0 0 0 0 0 0 0 0 0 0 0 0 0 0 0 0 0 0 0 0 0 0 0 0 0 0 0 0 0 0 0 0 0 0 0 0 0 0 0 0 0 0 0 0 0 0 0 0 0 0 0 0 0 0 0 0 0 0 0 0 0 0 0 0 0 0 0 0 0 0 0 0 0 0 0 0 0 0 0 0 0 0 0 0 0 0 0 0 0 0 0 0 0 0 0 0 0 0 0 0 0 0 0 0 0 0 0 0 0 0 0 0 0 0 0 0 0 0 0 0 0 0 0 0 0 0 0 0 0 0 0 0 0 0 0 0 0 0 0 0 0 0 0 0 0 0 0 0 0 0 0 0 0 0 0 0 0 0 0 0 0 0 0 0 0 0 0 0 0 0 0 0 0 0 0 0 0 0 0 0 0 0 0 0 0 0
0 0 0 0 0 0 0 0 0 0 0 0 0 0 0 0 0 0 0 0 0 0 0 0 0 0 0 0 0 0 0 0 0 0 0 0 0 0 0 0 0 0 0 0 0 0 0 0 0 0 0 0 0 0 0 0 0 0 0 0 0 0 0 0 0 0 0 0 0 0 0 0 0 0 0 0 0 0 0 0 0 0 0 0 0 0 0 0 0 0 0 0 0 0 0 0 0 0 0 0 0 0 0 0 0 0 0 0 0 0 0 0 0 0 0 0 0 0 0 0 0 0 0 0 0 0 0 0 0 0 0 0 0 0 0 0 0 0 0 0 0 0 0 0 0 0 0 0 0 0 0 0 0 0 0 0 0 0 0 0 0 0 0 0 0 0 0 0 0 0 0 0 0 0 0 0 0 0 0 0 0 0 0 0 0 0 0 0 0 0 0 0 0 0 0 0 0 0 0 0 0 0 0 0 0 0 0 0 0 0 0 0 0 0 0 0 0 0 0 0 0 0 0 0 0 0 0 0 0 0 0 0 0 0 0 0 0 0 0 0 0 0 0 0 0 0 0 0 0 0 0 0 0 0 0 77 149 95 80 154 100 82 157 103 84 159 105 85 161 108 86 162 110 87 163 111 88 164 113 89 165 114 89 166 116 90 166 117 90 167 118 91 167 119 91 167 120 92 167 121 92 167 121 92 167 122 92 167 123 92 167 123 92 166 124 93 166 124 93 166 125 93 165 125 93 165 126 93 164 126 93 164 126 92 163 126 92 163 127 92 162 127 92 161 127 92 160 127 92 159 127 91 159 127 91 158 127 91 157 127 91 156 127 90 155 127 90 154 127 90 153 127 89 152 127 89 151 127 88 149 127 88 148 126 88 147 126 87 146 126 87 144 126 86 143 125 86 142 125 85 140 125 84 139 124 84 137 124 83 136 123 83 134 123 82 132 122 81 131 122 81 129 121 80 127 120 79 126 120 78 124 119 77 122 118 77 120 118 76 118 117 75 116 116 74 114 115 73 112 114 72 109 113 71 107 112 70 105 111 69 102 110 68 100 109 66 97 108 65 95 106 64 92 105 63 89 104 61 86 102 60 83 100 58 80 99 56 76 97 55 72 95 53 69 92 50 64 90 48 60 87 46 54 84 42 48 80 38 41 75 31 27 66 0 0 0 0 0 0 0 0 0 0 0 0 0 0 0 0 0 0 0 0 0 0 0 0 0 0 0 0 0 0 0 0 0 0 0 0 0 0 0 0 0 0 0 0 0 0 0 0 0 0 0 0 0 0 0 0 0 0 0 0 0 0 0 0 0 0 0 0 0 0 0 0 0 0 0 0 0 0 0 0 0 0 0 0 0 0 0 0 0 0 0 0 0 0 0 0 0 0 0 0 0 0 0 0 0 0 0 0 0 0 0 0 0 0 0 0 0 0 0 0 0 0 0 0 0 0 0 0 0 0 0 0 0 0 0 0 0 0 0 0 0 0 0 0 0 0 0 0 0 0 0 0 0 0 0 0 0 0 0 0 0 0 0 0 0 0 0 0 0 0 0 0 0 0 0 0 0 0 0 0 0 0 0 0 0 0 0 0 0 0 0 0 0 0 0 0 0 0 0 0 0 0 0 0 0 0 0 0 0 0 0 0 0 0 0 0 0 0 0 0 0 0 0 0 0 0 0 0 0 0 0 0 0 0 0 0 0 0 0 0 0 0 0 0 0 0 0 0 0 0 0 0 0 0 0 0 0 0 0 0 0 0 0 0 0 0 0 0 0 0 0 0 0 0 0 0 0 0 0 0 0 0 0 0 0 0 0 0 0 0 0 0 0 0 0 0 0 0 0 0 0 0 0 0 0 0 0 0 0 0 0 0 0 0 0 0 0 0 0 0 0 0 0 0 0 0 0 0 0 0 0 0 0 0 0 0 0 0 0 0 0 0 0 0 0 0 0 0 0 0 0 0 0 0 0 0 0 0 0 0 0 0 0 0 0 0 0 0 0 0 0 0 0 0 0 0 0 0 0 0 0 0 0 0 0 0 0 0 0 0 0 0 0 0 0 0 0 0 0 0 0 0 0 0 0 0 0 0 0 0 0 0 0 0 0 0 0 0 0 0 0 0 0 0 0 0 0 0 0 0 0 0 0 0 0 0 0 0 0 0 0 0 0 0 0 0 0
0 0 0 0 0 0 0 0 0 0 0 0 0 0 0 0 0 0 0 0 0 0 0 0 0 0 0 0 0 0 0 0 0 0 0 0 0 0 0 0 0 0 0 0 0 0 0 0 0 0 0 0 0 0 0 0 0 0 0 0 0 0 0 0 0 0 0 0 0 0 0 0 0 0 0 0 0 0 0 0 0 0 0 0 0 0 0 0 0 0 0 0 0 0 0 0 0 0 0 0 0 0 0 0 0 0 0 0 0 0 0 0 0 0 0 0 0 0 0 0 0 0 0 0 0 0 0 0 0 0 0 0 0 0 0 0 0 0 0 0 0 0 0 0 0 0 0 0 0 0 0 0 0 0 0 0 0 0 0 0 0 0 0 0 0 0 0 0 0 0 0 0 0 0 0 0 0 0 0 0 0 0 0 0 0 0 0 0 0 0 0 0 0 0 0 0 0 0 0 0 0 0 0 0 0 0 0 0 0 0 0 0 0 0 0 0 0 0 0 0 0 0 0 0 0 0 0 0 0 0 0 0 0 0 0 0 0 0 0 0 0 0 0 0 0 0 0 0 0 0 0 0 75 146 92 79 152 97 81 155 100 83 158 103 84 160 106 85 161 108 86 162 109 87 163 111 88 164 112 88 165 114 89 166 115 90 166 116 90 166 117 90 166 118 91 167 119 91 167 120 91 167 120 92 166 121 92 166 122 92 166 122 92 166 123 92 165 123 92 165 124 92 165 124 92 164 124 92 164 125 92 163 125 92 162 125 92 162 126 92 161 126 91 160 126 91 159 126 91 159 126 91 158 126 90 157 126 90 156 126 90 155 126 90 154 126 89 153 126 89 152 126 89 151 126 88 150 126 88 148 125 87 147 125 87 146 125 86 145 125 86 143 124 85 142 124 85 141 124 84 139 123 84 138 123 83 136 123 83 135 122 82 133 122 81 132 121 81 130 121 80 128 120 79 127 119 78 125 119 78 123 118 77 121 117 76 119 117 75 117 116 74 115 115 73 113 114 72 111 113 71 109 112 70 107 111 69 104 110 68 102 109 67 99 108 66 97 107 65 94 105 64 92 104 62 89 103 61 86 101 59 83 100 58 80 98 56 76 96 54 73 94 53 69 92 51 65 90 48 60 87 46 56 84 43 50 81 40 44 77 36 36 72 0 0 0 0 0 0 0 0 0 0 0 0 0 0 0 0 0 0 0 0 0 0 0 0 0 0 0 0 0 0 0 0 0 0 0 0 0 0 0 0 0 0 0 0 0 0 0 0 0 0 0 0 0 0 0 0 0 0 0 0 0 0 0 0 0 0 0 0 0 0 0 0 0 0 0 0 0 0 0 0 0 0 0 0 0 0 0 0 0 0 0 0 0 0 0 0 0 0 0 0 0 0 0 0 0 0 0 0 0 0 0 0 0 0 0 0 0 0 0 0 0 0 0 0 0 0 0 0 0 0 0 0 0 0 0 0 0 0 0 0 0 0 0 0 0 0 0 0 0 0 0 0 0 0 0 0 0 0 0 0 0 0 0 0 0 0 0 0 0 0 0 0 0 0 0 0 0 0 0 0 0 0 0 0 0 0 0 0 0 0 0 0 0 0 0 0 0 0 0 0 0 0 0 0 0 0 0 0 0 0 0 0 0 0 0 0 0 0 0 0 0 0 0 0 0 0 0 0 0 0 0 0 0 0 0 0 0 0 0 0 0 0 0 0 0 0 0 0 0 0 0 0 0 0 0 0 0 0 0 0 0 0 0 0 0 0 0 0 0 0 0 0 0 0 0 0 0 0 0 0 0 0 0 0 0 0 0 0 0 0 0 0 0 0 0 0 0 0 0 0 0 0 0 0 0 0 0 0 0 0 0 0 0 0 0 0 0 0 0 0 0 0 0 0 0 0 0 0 0 0 0 0 0 0 0 0 0 0 0 0 0 0 0 0 0 0 0 0 0 0 0 0 0 0 0 0 0 0 0 0 0 0 0 0 0 0 0 0 0 0 0 0 0 0 0 0 0 0 0 0 0 0 0 0 0 0 0 0 0 0 0 0 0 0 0 0 0 0 0 0 0 0 0 0 0 0 0 0 0 0 0 0 0 0 0 0 0 0 0 0 0 0 0 0 0 0 0 0 0 0 0 0 0 0 0 0 0 0 0 0 0 0 0 0 0 0 0
0 0 0 0 0 0 0 0 0 0 0 0 0 0 0 0 0 0 0 0 0 0 0 0 0 0 0 0 0 0 0 0 0 0 0 0 0 0 0 0 0 0 0 0 0 0 0 0 0 0 0 0 0 0 0 0 0 0 0 0 0 0 0 0 0 0 0 0 0 0 0 0 0 0 0 0 0 0 0 0 0 0 0 0 0 0 0 0 0 0 0 0 0 0 0 0 0 0 0 0 0 0 0 0 0 0 0 0 0 0 0 0 0 0 0 0 0 0 0 0 0 0 0 0 0 0 0 0 0 0 0 0 0 0 0 0 0 0 0 0 0 0 0 0 0 0 0 0 0 0 0 0 0 0 0 0 0 0 0 0 0 0 0 0 0 0 0 0 0 0 0 0 0 0 0 0 0 0 0 0 0 0 0 0 0 0 0 0 0 0 0 0 0 0 0 0 0 0 0 0 0 0 0 0 0 0 0 0 0 0 0 0 0 0 0 0 0 0 0 0 0 0 0 0 0 0 0 0 0 0 0 0 0 0 0 0 0 0 0 0 0 0 0 0 0 0 0 0 0 73 143 88 77 150 94 79 153 98 81 156 101 83 158 103 84 160 105 85 161 107 86 162 109 87 163 110 88 164 112 88 165 113 89 165 114 89 165 115 90 166 116 90 166 117 90 166 118 91 166 119 91 166 119 91 166 120 91 166 121 91 165 121 91 165 122 91 165 122 91 164 123 91 164 123 91 163 123 91 163 124 91 162 124 91 161 124 91 161 124 91 160 125 91 159 125 90 158 125 90 158 125 90 157 125 90 156 125 89 155 125 89 154 125 89 153 125 89 152 125 88 151 125 88 150 125 87 149 124 87 147 124 87 146 124 86 145 124 86 144 123 85 142 123 85 141 123 84 140 123 84 138 122 83 137 122 82 135 121 82 134 121 81 132 120 81 131 120 80 129 119 79 127 119 78 126 118 78 124 118 77 122 117 76 120 116 75 118 115 75 116 115 74 114 114 73 112 113 72 110 112 71 108 111 70 106 110 69 104 109 68 101 108 67 99 107 65 96 106 64 94 105 63 91 103 62 88 102 60 85 100 59 82 99 57 79 97 56 76 96 54 73 94 52 69 92 51 65 89 48 61 87 46 56 84 44 51 81 41 46 78 37 39 74 32 30 68 0 0 0 0 0 0 0 0 0 0 0 0 0 0 0 0 0 0 0 0 0 0 0 0 0 0 0 0 0 0 0 0 0 0 0 0 0 0 0 0 0 0 0 0 0 0 0 0 0 0 0 0 0 0 0 0 0 0 0 0 0 0 0 0 0 0 0 0 0 0 0 0 0 0 0 0 0 0 0 0 0 0 0 0 0 0 0 0 0 0 0 0 0 0 0 0 0 0 0 0 0 0 0 0 0 0 0 0 0 0 0 0 0 0 0 0 0 0 0 0 0 0 0 0 0 0 0 0 0 0 0 0 0 0 0 0 0 0 0 0 0 0 0 0 0 0 0 0 0 0 0 0 0 0 0 0 0 0 0 0 0 0 0 0 0 0 0 0 0 0 0 0 0 0 0 0 0 0 0 0 0 0 0 0 0 0 0 0 0 0 0 0 0 0 0 0 0 0 0 0 0 0 0 0 0 0 0 0 0 0 0 0 0 0 0 0 0 0 0 0 0 0 0 0 0 0 0 0 0 0 0 0 0 0 0 0 0 0 0 0 0 0 0 0 0 0 0 0 0 0 0 0 0 0 0 0 0 0 0 0 0 0 0 0 0 0 0 0 0 0 0 0 0 0 0 0 0 0 0 0 0 0 0 0 0 0 0 0 0 0 0 0 0 0 0 0 0 0 0 0 0 0 0 0 0 0 0 0 0 0 0 0 0 0 0 0 0 0 0 0 0 0 0 0 0 0 0 0 0 0 0 0 0 0 0 0 0 0 0 0 0 0 0 0 0 0 0 0 0 0 0 0 0 0 0 0 0 0 0 0 0 0 0 0 0 0 0 0 0 0 0 0 0 0 0 0 0 0 0 0 0 0 0 0 0 0 0 0 0 0 0 0 0 0 0 0 0 0 0 0 0 0 0 0 0 0 0 0 0 0 0 0 0 0 0 0 0 0 0 0 0 0 0 0 0 0 0 0 0 0 0 0 0 0 0 0 0 0 0 0 0 0 0 0
0 0 0 0 0 0 0 0 0 0 0 0 0 0 0 0 0 0 0 0 0 0 0 0 0 0 0 0 0 0 0 0 0 0 0 0 0 0 0 0 0 0 0 0 0 0 0 0 0 0 0 0 0 0 0 0 0 0 0 0 0 0 0 0 0 0 0 0 0 0 0 0 0 0 0 0 0 0 0 0 0 0 0 0 0 0 0 0 0 0 0 0 0 0 0 0 0 0 0 0 0 0 0 0 0 0 0 0 0 0 0 0 0 0 0 0 0 0 0 0 0 0 0 0 0 0 0 0 0 0 0 0 0 0 0 0 0 0 0 0 0 0 0 0 0 0 0 0 0 0 0 0 0 0 0 0 0 0 0 0 0 0 0 0 0 0 0 0 0 0 0 0 0 0 0 0 0 0 0 0 0 0 0 0 0 0 0 0 0 0 0 0 0 0 0 0 0 0 0 0 0 0 0 0 0 0 0 0 0 0 0 0 0 0 0 0 0 0 0 0 0 0 0 0 0 0 0 0 0 0 0 0 0 0 0 0 0 0 0 0 0 0 0 0 0 0 70 138 83 75 147 91 78 151 95 80 154 98 81 157 101 83 158 103 84 160 105 85 161 107 86 162 108 86 163 110 87 164 111 88 164 112 88 165 113 89 165 114 89 165 115 89 165 116 90 165 117 90 165 118 90 165 118 90 165 119 90 165 120 91 164 120 91 164 121 91 164 121 91 163 121 91 163 122 91 162 122 91 162 122 91 161 123 90 160 123 90 160 123 90 159 123 90 158 123 90 157 124 90 157 124 89 156 124 89 155 124 89 154 124 88 153 124 88 152 124 88 151 124 87 150 123 87 149 123 87 148 123 86 146 123 86 145 123 85 144 122 85 143 122 84 141 122 84 140 122 83 139 121 83 137 121 82 136 120 82 134 120 81 133 120 80 131 119 80 130 119 79 128 118 78 126 118 78 125 117 77 123 116 76 121 116 75 119 115 75 117 114 74 116 113 73 114 113 72 111 112 71 109 111 70 107 110 69 105 109 68 103 108 67 101 107 66 98 106 65 96 105 64 93 104 63 90 102 61 88 101 60 85 100 59 82 98 57 79 96 56 76 95 54 72 93 52 69 91 50 65 89 48 61 87 46 57 84 44 52 81 41 47 78 38 41 75 34 34 70 28 23 62 0 0 0 0 0 0 0 0 0 0 0 0 0 0 0 0 0 0 0 0 0 0 0 0 0 0 0 0 0 0 0 0 0 0 0 0 0 0 0 0 0 0 0 0 0 0 0 0 0 0 0 0 0 0 0 0 0 0 0 0 0 0 0 0 0 0 0 0 0 0 0 0 0 0 0 0 0 0 0 0 0 0 0 0 0 0 0 0 0 0 0 0 0 0 0 0 0 0 0 0 0 0 0 0 0 0 0 0 0 0 0 0 0 0 0 0 0 0 0 0 0 0 0 0 0 0 0 0 0 0 0 0 0 0 0 0 0 0 0 0 0 0 0 0 0 0 0 0 0 0 0 0 0 0 0 0 0 0 0 0 0 0 0 0 0 0 0 0 0 0 0 0 0 0 0 0 0 0 0 0 0 0 0 0 0 0 0 0 0 0 0 0 0 0 0 0 0 0 0 0 0 0 0 0 0 0 0 0 0 0 0 0 0 0 0 0 0 0 0 0 0 0 0 0 0 0 0 0 0 0 0 0 0 0 0 0 0 0 0 0 0 0 0 0 0 0 0 0 0 0 0 0 0 0 0 0 0 0 0 0 0 0 0 0 0 0 0 0 0 0 0 0 0 0 0 0 0 0 0 0 0 0 0 0 0 0 0 0 0 0 0 0 0 0 0 0 0 0 0 0 0 0 0 0 0 0 0 0 0 0 0 0 0 0 0 0 0 0 0 0 0 0 0 0 0 0 0 0 0 0 0 0 0 0 0 0 0 0 0 0 0 0 0 0 0 0 0 0 0 0 0 0 0 0 0 0 0 0 0 0 0 0 0 0 0 0 0 0 0 0 0 0 0 0 0 0 0 0 0 0 0 0 0 0 0 0 0 0 0 0 0 0 0 0 0 0 0 0 0 0 0 0 0 0 0 0 0 0 0 0 0 0 0 0 0 0 0 0 0 0 0 0 0 0 0 0 0 0 0 0 0 0 0 0 0 0 0 0 0 0 0
0 0 0 0 0 0 0 0 0 0 0 0 0 0 0 0 0 0 0 0 0 0 0 0 0 0 0 0 0 0 0 0 0 0 0 0 0 0 0 0 0 0 0 0 0 0 0 0 0 0 0 0 0 0 0 0 0 0 0 0 0 0 0 0 0 0 0 0 0 0 0 0 0 0 0 0 0 0 0 0 0 0 0 0 0 0 0 0 0 0 0 0 0 0 0 0 0 0 0 0 0 0 0 0 0 0 0 0 0 0 0 0 0 0 0 0 0 0 0 0 0 0 0 0 0 0 0 0 0 0 0 0 0 0 0 0 0 0 0 0 0 0 0 0 0 0 0 0 0 0 0 0 0 0 0 0 0 0 0 0 0 0 0 0 0 0 0 0 0 0 0 0 0 0 0 0 0 0 0 0 0 0 0 0 0 0 0 0 0 0 0 0 0 0 0 0 0 0 0 0 0 0 0 0 0 0 0 0 0 0 0 0 0 0 0 0 0 0 0 0 0 0 0 0 0 0 0 0 0 0 0 0 0 0 0 0 0 0 0 0 0 0 0 0 0 0 73 144 87 76 149 92 78 152 95 80 155 98 81 157 100 83 158 103 84 160 104 85 161 106 85 162 108 86 162 109 87 163 110 87 164 111 88 164 112 88 164 113 88 164 114 89 164 115 89 164 116 89 164 117 89 164 117 90 164 118 90 164 118 90 163 119 90 163 119 90 163 120 90 162 120 90 162 121 90 161 121 90 161 121 90 160 121 90 159 122 90 159 122 89 158 122 89 157 122 89 156 122 89 156 122 89 155 122 88 154 122 88 153 122 88 152 122 87 151 122 87 150 122 87 149 122 86 148 122 86 147 122 86 145 122 85 144 121 85 143 121 84 142 121 84 140 121 83 139 120 83 138 120 82 136 120 82 135 119 81 133 119 80 132 118 80 130 118 79 129 117 78 127 117 78 125 116 77 124 116 76 122 115 76 120 114 75 118 114 74 116 113 73 115 112 72 113 111 71 111 111 70 109 110 70 106 109 69 104 108 68 102 107 67 100 106 65 97 105 64 95 104 63 92 102 62 90 101 61 87 100 59 84 99 58 81 97 57 78 96 55 75 94 54 72 92 52 69 90 50 65 88 48 61 86 46 57 84 44 53 81 42 48 78 39 42 75 35 36 71 31 28 66 0 0 0 0 0 0 0 0 0 0 0 0 0 0 0 0 0 0 0 0 0 0 0 0 0 0 0 0 0 0 0 0 0 0 0 0 0 0 0 0 0 0 0 0 0 0 0 0 0 0 0 0 0 0 0 0 0 0 0 0 0 0 0 0 0 0 0 0 0 0 0 0 0 0 0 0 0 0 0 0 0 0 0 0 0 0 0 0 0 0 0 0 0 0 0 0 0 0 0 0 0 0 0 0 0 0 0 0 0 0 0 0 0 0 0 0 0 0 0 0 0 0 0 0 0 0 0 0 0 0 0 0 0 0 0 0 0 0 0 0 0 0 0 0 0 0 0 0 0 0 0 0 0 0 0 0 0 0 0 0 0 0 0 0 0 0 0 0 0 0 0 0 0 0 0 0 0 0 0 0 0 0 0 0 0 0 0 0 0 0 0 0 0 0 0 0 0 0 0 0 0 0 0 0 0 0 0 0 0 0 0 0 0 0 0 0 0 0 0 0 0 0 0 0 0 0 0 0 0 0 0 0 0 0 0 0 0 0 0 0 0 0 0 0 0 0 0 0 0 0 0 0 0 0 0 0 0 0 0 0 0 0 0 0 0 0 0 0 0 0 0 0 0 0 0 0 0 0 0 0 0 0 0 0 0 0 0 0 0 0 0 0 0 0 0 0 0 0 0 0 0 0 0 0 0 0 0 0 0 0 0 0 0 0 0 0 0 0 0 0 0 0 0 0 0 0 0 0 0 0 0 0 0 0 0 0 0 0 0 0 0 0 0 0 0 0 0 0 0 0 0 0 0 0 0 0 0 0 0 0 0 0 0 0 0 0 0 0 0 0 0 0 0 0 0 0 0 0 0 0 0 0 0 0 0 0 0 0 0 0 0 0 0 0 0 0 0 0 0 0 0 0 0 0 0 0 0 0 0 0 0 0 0 0 0 0 0 0 0 0 0 0 0 0 0 0 0 0 0 0 0 0 0 0 0 0 0 0 0 0 0
0 0 0 0 0 0 0 0 0 0 0 0 0 0 0 0 0 0 0 0 0 0 0 0 0 0 0 0 0 0 0 0 0 0 0 0 0 0 0 0 0 0 0 0 0 0 0 0 0 0 0 0 0 0 0 0 0 0 0 0 0 0 0 0 0 0 0 0 0 0 0 0 0 0 0 0 0 0 0 0 0 0 0 0 0 0 0 0 0 0 0 0 0 0 0 0 0 0 0 0 0 0 0 0 0 0 0 0 0 0 0 0 0 0 0 0 0 0 0 0 0 0 0 0 0 0 0 0 0 0 0 0 0 0 0 0 0 0 0 0 0 0 0 0 0 0 0 0 0 0 0 0 0 0 0 0 0 0 0 0 0 0 0 0 0 0 0 0 0 0 0 0 0 0 0 0 0 0 0 0 0 0 0 0 0 0 0 0 0 0 0 0 0 0 0 0 0 0 0 0 0 0 0 0 0 0 0 0 0 0 0 0 0 0 0 0 0 0 0 0 0 0 0 0 0 0 0 0 0 0 0 0 0 0 0 0 0 0 0 0 0 0 0 70 140 82 74 146 88 77 150 92 78 153 95 80 155 98 81 157 100 82 158 102 83 159 104 84 160 105 85 161 107 86 162 108 86 162 109 87 163 110 87 163 111 87 163 112 88 163 113 88 164 114 88 164 115 89 163 115 89 163 116 89 163 117 89 163 117 89 163 118 89 162 118 89 162 119 89 161 119 89 161 119 89 160 120 89 160 120 89 159 120 89 158 120 89 158 121 89 157 121 88 156 121 88 155 121 88 154 121 88 154 121 87 153 121 87 152 121 87 151 121 87 150 121 86 149 121 86 148 121 86 147 121 85 145 120 85 144 120 84 143 120 84 142 120 83 141 120 83 139 119 82 138 119 82 137 119 81 135 118 81 134 118 80 132 117 80 131 117 79 129 117 78 128 116 78 126 116 77 124 115 76 123 114 76 121 114 75 119 113 74 117 112 73 115 112 72 114 111 72 112 110 71 110 109 70 108 109 69 105 108 68 103 107 67 101 106 66 99 105 65 96 104 64 94 103 63 92 101 61 89 100 60 86 99 59 84 98 58 81 96 56 78 95 55 75 93 53 72 91 52 68 90 50 65 88 48 61 86 46 57 83 44 53 81 42 48 78 39 43 75 36 37 72 32 30 67 27 21 61 0 0 0 0 0 0 0 0 0 0 0 0 0 0 0 0 0 0 0 0 0 0 0 0 0 0 0 0 0 0 0 0 0 0 0 0 0 0 0 0 0 0 0 0 0 0 0 0 0 0 0 0 0 0 0 0 0 0 0 0 0 0 0 0 0 0 0 0 0 0 0 0 0 0 0 0 0 0 0 0 0 0 0 0 0 0 0 0 0 0 0 0 0 0 0 0 0 0 0 0 0 0 0 0 0 0 0 0 0 0 0 0 0 0 0 0 0 0 0 0 0 0 0 0 0 0 0 0 0 0 0 0 0 0 0 0 0 0 0 0 0 0 0 0 0 0 0 0 0 0 0 0 0 0 0 0 0 0 0 0 0 0 0 0 0 0 0 0 0 0 0 0 0 0 0 0 0 0 0 0 0 0 0 0 0 0 0 0 0 0 0 0 0 0 0 0 0 0 0 0 0 0 0 0 0 0 0 0 0 0 0 0 0 0 0 0 0 0 0 0 0 0 0 0 0 0 0 0 0 0 0 0 0 0 0 0 0 0 0 0 0 0 0 0 0 0 0 0 0 0 0 0 0 0 0 0 0 0 0 0 0 0 0 0 0 0 0 0 0 0 0 0 0 0 0 0 0 0 0 0 0 0 0 0 0 0 0 0 0 0 0 0 0 0 0 0 0 0 0 0 0 0 0 0 0 0 0 0 0 0 0 0 0 0 0 0 0 0 0 0 0 0 0 0 0 0 0 0 0 0 0 0 0 0 0 0 0 0 0 0 0 0 0 0 0 0 0 0 0 0 0 0 0 0 0 0 0 0 0 0 0 0 0 0 0 0 0 0 0 0 0 0 0 0 0 0 0 0 0 0 0 0 0 0 0 0 0 0 0 0 0 0 0 0 0 0 0 0 0 0 0 0 0 0 0 0 0 0 0 0 0 0 0 0 0 0 0 0 0 0 0 0 0 0 0 0 0 0 0 0 0 0 0 0 0 0 0 0
0 0 0 0 0 0 0 0 0 0 0 0 0 0 0 0 0 0 0 0 0 0 0 0 0 0 0 0 0 0 0 0 0 0 0 0 0 0 0 0 0 0 0 0 0 0 0 0 0 0 0 0 0 0 0 0 0 0 0 0 0 0 0 0 0 0 0 0 0 0 0 0 0 0 0 0 0 0 0 0 0 0 0 0 0 0 0 0 0 0 0 0 0 0 0 0 0 0 0 0 0 0 0 0 0 0 0 0 0 0 0 0 0 0 0 0 0 0 0 0 0 0 0 0 0 0 0 0 0 0 0 0 0 0 0 0 0 0 0 0 0 0 0 0 0 0 0 0 0 0 0 0 0 0 0 0 0 0 0 0 0 0 0 0 0 0 0 0 0 0 0 0 0 0 0 0 0 0 0 0 0 0 0 0 0 0 0 0 0 0 0 0 0 0 0 0 0 0 0 0 0 0 0 0 0 0 0 0 0 0 0 0 0 0 0 0 0 0 0 0 0 0 0 0 0 0 0 0 0 0 0 0 0 0 0 0 0 0 0 0 66 133 76 72 143 84 75 148 89 77 151 92 78 153 95 80 155 97 81 157 100 82 158 101 83 159 103 84 160 104 84 161 106 85 161 107 86 162 108 86 162 109 86 162 110 87 162 111 87 163 112 87 163 113 88 163 114 88 162 114 88 162 115 88 162 115 88 162 116 88 161 116 88 161 117 88 161 117 88 160 118 88 160 118 88 159 118 88 159 119 88 158 119 88 157 119 88 157 119 88 156 119 88 155 120 87 154 120 87 153 120 87 152 120 87 152 120 86 151 120 86 150 120 86 149 120 85 148 120 85 147 119 85 145 119 84 144 119 84 143 119 83 142 119 83 141 118 83 139 118 82 138 118 82 137 118 81 135 117 80 134 117 80 133 117 79 131 116 79 130 116 78 128 115 78 126 115 77 125 114 76 123 114 75 122 113 75 120 112 74 118 112 73 116 111 72 114 110 72 113 110 71 111 109 70 109 108 69 107 107 68 104 106 67 102 105 66 100 105 65 98 104 64 96 102 63 93 101 62 91 100 61 88 99 60 86 98 58 83 96 57 80 95 56 77 94 54 74 92 53 71 90 51 68 89 49 64 87 48 61 85 46 57 83 44 53 80 42 48 78 39 44 75 36 38 72 33 32 68 29 24 63 23 12 54 0 0 0 0 0 0 0 0 0 0 0 0 0 0 0 0 0 0 0 0 0 0 0 0 0 0 0 0 0 0 0 0 0 0 0 0 0 0 0 0 0 0 0 0 0 0 0 0 0 0 0 0 0 0 0 0 0 0 0 0 0 0 0 0 0 0 0 0 0 0 0 0 0 0 0 0 0 0 0 0 0 0 0 0 0 0 0 0 0 0 0 0 0 0 0 0 0 0 0 0 0 0 0 0 0 0 0 0 0 0 0 0 0 0 0 0 0 0 0 0 0 0 0 0 0 0 0 0 0 0 0 0 0 0 0 0 0 0 0 0 0 0 0 0 0 0 0 0 0 0 0 0 0 0 0 0 0 0 0 0 0 0 0 0 0 0 0 0 0 0 0 0 0 0 0 0 0 0 0 0 0 0 0 0 0 0 0 0 0 0 0 0 0 0 0 0 0 0 0 0 0 0 0 0 0 0 0 0 0 0 0 0 0 0 0 0 0 0 0 0 0 0 0 0 0 0 0 0 0 0 0 0 0 0 0 0 0 0 0 0 0 0 0 0 0 0 0 0 0 0 0 0 0 0 0 0 0 0 0 0 0 0 0 0 0 0 0 0 0 0 0 0 0 0 0 0 0 0 0 0 0 0 0 0 0 0 0 0 0 0 0 0 0 0 0 0 0 0 0 0 0 0 0 0 0 0 0 0 0 0 0 0 0 0 0 0 0 0 0 0 0 0 0 0 0 0 0 0 0 0 0 0 0 0 0 0 0 0 0 0 0 0 0 0 0 0 0 0 0 0 0 0 0 0 0 0 0 0 0 0 0 0 0 0 0 0 0 0 0 0 0 0 0 0 0 0 0 0 0 0 0 0 0 0 0 0 0 0 0 0 0 0 0 0 0 0 0 0 0 0 0 0 0 0 0 0 0 0 0 0 0 0 0 0 0 0 0 0 0 0 0 0 0 0 0 0 0 0 0 0 0 0 0 0 0
0 0 0 0 0 0 0 0 0 0 0 0 0 0 0 0 0 0 0 0 0 0 0 0 0 0 0 0 0 0 0 0 0 0 0 0 0 0 0 0 0 0 0 0 0 0 0 0 0 0 0 0 0 0 0 0 0 0 0 0 0 0 0 0 0 0 0 0 0 0 0 0 0 0 0 0 0 0 0 0 0 0 0 0 0 0 0 0 0 0 0 0 0 0 0 0 0 0 0 0 0 0 0 0 0 0 0 0 0 0 0 0 0 0 0 0 0 0 0 0 0 0 0 0 0 0 0 0 0 0 0 0 0 0 0 0 0 0 0 0 0 0 0 0 0 0 0 0 0 0 0 0 0 0 0 0 0 0 0 0 0 0 0 0 0 0 0 0 0 0 0 0 0 0 0 0 0 0 0 0 0 0 0 0 0 0 0 0 0 0 0 0 0 0 0 0 0 0 0 0 0 0 0 0 0 0 0 0 0 0 0 0 0 0 0 0 0 0 0 0 0 0 0 0 0 0 0 0 0 0 0 0 0 0 0 0 0 0 0 0 69 139 80 72 145 85 75 148 89 77 151 92 78 153 95 80 155 97 81 156 99 82 157 101 82 158 102 83 159 104 84 160 105 84 160 106 85 161 107 85 161 108 86 161 109 86 162 110 86 162 111 87 162 112 87 162 112 87 161 113 87 161 114 87 161 114 88 161 115 88 160 115 88 160 116 88 160 116 88 159 116 88 159 117 88 158 117 88 157 117 87 157 117 87 156 118 87 155 118 87 155 118 87 154 118 87 153 118 86 152 118 86 151 118 86 150 118 86 149 118 85 148 118 85 147 118 85 146 118 84 145 118 84 144 118 83 143 118 83 142 118 83 141 117 82 139 117 82 138 117 81 137 117 81 136 116 80 134 116 80 133 116 79 131 115 79 130 115 78 128 114 77 127 114 77 125 113 76 124 113 75 122 112 75 120 112 74 119 111 73 117 110 72 115 110 72 113 109 71 111 108 70 110 108 69 108 107 68 106 106 67 103 105 66 101 104 65 99 103 64 97 102 63 95 101 62 92 100 61 90 99 60 87 98 59 85 97 58 82 95 56 79 94 55 76 92 54 74 91 52 70 89 51 67 88 49 64 86 47 60 84 45 57 82 43 53 80 41 48 77 39 44 74 36 39 71 34 33 68 30 26 64 25 17 58 0 0 0 0 0 0 0 0 0 0 0 0 0 0 0 0 0 0 0 0 0 0 0 0 0 0 0 0 0 0 0 0 0 0 0 0 0 0 0 0 0 0 0 0 0 0 0 0 0 0 0 0 0 0 0 0 0 0 0 0 0 0 0 0 0 0 0 0 0 0 0 0 0 0 0 0 0 0 0 0 0 0 0 0 0 0 0 0 0 0 0 0 0 0 0 0 0 0 0 0 0 0 0 0 0 0 0 0 0 0 0 0 0 0 0 0 0 0 0 0 0 0 0 0 0 0 0 0 0 0 0 0 0 0 0 0 0 0 0 0 0 0 0 0 0 0 0 0 0 0 0 0 0 0 0 0 0 0 0 0 0 0 0 0 0 0 0 0 0 0 0 0 0 0 0 0 0 0 0 0 0 0 0 0 0 0 0 0 0 0 0 0 0 0 0 0 0 0 0 0 0 0 0 0 0 0 0 0 0 0 0 0 0 0 0 0 0 0 0 0 0 0 0 0 0 0 0 0 0 0 0 0 0 0 0 0 0 0 0 0 0 0 0 0 0 0 0 0 0 0 0 0 0 0 0 0 0 0 0 0 0 0 0 0 0 0 0 0 0 0 0 0 0 0 0 0 0 0 0 0 0 0 0 0 0 0 0 0 0 0 0 0 0 0 0 0 0 0 0 0 0 0 0 0 0 0 0 0 0 0 0 0 0 0 0 0 0 0 0 0 0 0 0 0 0 0 0 0 0 0 0 0 0 0 0 0 0 0 0 0 0 0 0 0 0 0 0 0 0 0 0 0 0 0 0 0 0 0 0 0 0 0 0 0 0 0 0 0 0 0 0 0 0 0 0 0 0 0 0 0 0 0 0 0 0 0 0 0 0 0 0 0 0 0 0 0 0 0 0 0 0 0 0 0 0 0 0 0 0 0 0 0 0 0 0 0 0 0 0 0 0 0 0 0 0 0 0 0 0 0 0 0 0 0 0
0 0 0 0 0 0 0 0 0 0 0 0 0 0 0 0 0 0 0 0 0 0 0 0 0 0 0 0 0 0 0 0 0 0 0 0 0 0 0 0 0 0 0 0 0 0 0 0 0 0 0 0 0 0 0 0 0 0 0 0 0 0 0 0 0 0 0 0 0 0 0 0 0 0 0 0 0 0 0 0 0 0 0 0 0 0 0 0 0 0 0 0 0 0 0 0 0 0 0 0 0 0 0 0 0 0 0 0 0 0 0 0 0 0 0 0 0 0 0 0 0 0 0 0 0 0 0 0 0 0 0 0 0 0 0 0 0 0 0 0 0 0 0 0 0 0 0 0 0 0 0 0 0 0 0 0 0 0 0 0 0 0 0 0 0 0 0 0 0 0 0 0 0 0 0 0 0 0 0 0 0 0 0 0 0 0 0 0 0 0 0 0 0 0 0 0 0 0 0 0 0 0 0 0 0 0 0 0 0 0 0 0 0 0 0 0 0 0 0 0 0 0 0 0 0 0 0 0 0 0 0 0 0 0 0 0 0 65 133 74 70 141 81 73 145 86 75 149 89 77 151 92 78 153 94 79 154 96 80 156 98 81 157 100 82 158 101 83 159 103 83 159 104 84 160 105 84 160 106 85 160 107 85 160 108 85 161 109 86 161 110 86 161 110 86 161 111 86 160 112 87 160 112 87 160 113 87 160 113 87 159 114 87 159 114 87 158 115 87 158 115 87 157 115 87 157 116 87 156 116 87 156 116 86 155 116 86 154 116 86 153 117 86 153 117 86 152 117 85 151 117 85 150 117 85 149 117 85 148 117 84 147 117 84 146 117 84 145 117 83 144 117 83 143 116 83 142 116 82 141 116 82 139 116 81 138 116 81 137 115 80 136 115 80 134 115 79 133 114 79 132 114 78 130 114 78 129 113 77 127 113 76 126 112 76 124 112 75 123 111 75 121 111 74 119 110 73 118 110 72 116 109 72 114 108 71 112 108 70 110 107 69 108 106 68 106 105 67 104 105 67 102 104 66 100 103 65 98 102 64 96 101 63 94 100 62 91 99 60 89 98 59 86 97 58 84 95 57 81 94 56 78 93 54 76 91 53 73 90 51 70 88 50 67 87 48 63 85 47 60 83 45 56 81 43 52 79 41 48 76 39 44 74 36 39 71 34 34 68 30 27 64 27 20 59 21 9 52 0 0 0 0 0 0 0 0 0 0 0 0 0 0 0 0 0 0 0 0 0 0 0 0 0 0 0 0 0 0 0 0 0 0 0 0 0 0 0 0 0 0 0 0 0 0 0 0 0 0 0 0 0 0 0 0 0 0 0 0 0 0 0 0 0 0 0 0 0 0 0 0 0 0 0 0 0 0 0 0 0 0 0 0 0 0 0 0 0 0 0 0 0 0 0 0 0 0 0 0 0 0 0 0 0 0 0 0 0 0 0 0 0 0 0 0 0 0 0 0 0 0 0 0 0 0 0 0 0 0 0 0 0 0 0 0 0 0 0 0 0 0 0 0 0 0 0 0 0 0 0 0 0 0 0 0 0 0 0 0 0 0 0 0 0 0 0 0 0 0 0 0 0 0 0 0 0 0 0 0 0 0 0 0 0 0 0 0 0 0 0 0 0 0 0 0 0 0 0 0 0 0 0 0 0 0 0 0 0 0 0 0 0 0 0 0 0 0 0 0 0 0 0 0 0 0 0 0 0 0 0 0 0 0 0 0 0 0 0 0 0 0 0 0 0 0 0 0 0 0 0 0 0 0 0 0 0 0 0 0 0 0 0 0 0 0 0 0 0 0 0 0 0 0 0 0 0 0 0 0 0 0 0 0 0 0 0 0 0 0 0 0 0 0 0 0 0 0 0 0 0 0 0 0 0 0 0 0 0 0 0 0 0 0 0 0 0 0 0 0 0 0 0 0 0 0 0 0 0 0 0 0 0 0 0 0 0 0 0 0 0 0 0 0 0 0 0 0 0 0 0 0 0 0 0 0 0 0 0 0 0 0 0 0 0 0 0 0 0 0 0 0 0 0 0 0 0 0 0 0 0 0 0 0 0 0 0 0 0 0 0 0 0 0 0 0 0 0 0 0 0 0 0 0 0 0 0 0 0 0 0 0 0 0 0 0 0 0 0 0 0 0 0 0 0 0 0 0 0 0 0 0
0 0 0 0 0 0 0 0 0 0 0 0 0 0 0 0 0 0 0 0 0 0 0 0 0 0 0 0 0 0 0 0 0 0 0 0 0 0 0 0 0 0 0 0 0 0 0 0 0 0 0 0 0 0 0 0 0 0 0 0 0 0 0 0 0 0 0 0 0 0 0 0 0 0 0 0 0 0 0 0 0 0 0 0 0 0 0 0 0 0 0 0 0 0 0 0 0 0 0 0 0 0 0 0 0 0 0 0 0 0 0 0 0 0 0 0 0 0 0 0 0 0 0 0 0 0 0 0 0 0 0 0 0 0 0 0 0 0 0 0 0 0 0 0 0 0 0 0 0 0 0 0 0 0 0 0 0 0 0 0 0 0 0 0 0 0 0 0 0 0 0 0 0 0 0 0 0 0 0 0 0 0 0 0 0 0 0 0 0 0 0 0 0 0 0 0 0 0 0 0 0 0 0 0 0 0 0 0 0 0 0 0 0 0 0 0 0 0 0 0 0 0 0 0 0 0 0 0 0 0 0 0 0 0 0 0 0 67 137 77 71 142 82 73 146 86 75 149 89 76 151 91 78 153 93 79 154 95 80 155 97 81 156 99 81 157 100 82 158 101 83 158 103 83 159 104 84 159 105 84 159 106 84 159 107 85 160 108 85 160 108 85 160 109 85 159 110 86 159 110 86 159 111 86 159 111 86 158 112 86 158 112 86 158 113 86 157 113 86 157 114 86 156 114 86 156 114 86 155 114 86 154 115 86 154 115 85 153 115 85 152 115 85 151 115 85 151 115 85 150 115 84 149 115 84 148 115 84 147 115 83 146 115 83 145 115 83 144 115 82 143 115 82 142 115 82 141 115 81 139 115 81 138 114 80 137 114 80 136 114 79 134 114 79 133 113 78 132 113 78 130 113 77 129 112 77 127 112 76 126 111 76 124 111 75 123 110 74 121 110 74 120 109 73 118 109 72 116 108 72 115 108 71 113 107 70 111 106 69 109 106 68 107 105 68 105 104 67 103 103 66 101 102 65 99 101 64 97 101 63 95 100 62 93 99 61 90 98 60 88 96 59 85 95 57 83 94 56 80 93 55 78 92 54 75 90 52 72 89 51 69 87 49 66 86 48 63 84 46 59 82 44 56 80 43 52 78 41 48 76 38 44 73 36 39 71 34 34 67 31 28 64 27 21 60 23 13 54 0 0 0 0 0 0 0 0 0 0 0 0 0 0 0 0 0 0 0 0 0 0 0 0 0 0 0 0 0 0 0 0 0 0 0 0 0 0 0 0 0 0 0 0 0 0 0 0 0 0 0 0 0 0 0 0 0 0 0 0 0 0 0 0 0 0 0 0 0 0 0 0 0 0 0 0 0 0 0 0 0 0 0 0 0 0 0 0 0 0 0 0 0 0 0 0 0 0 0 0 0 0 0 0 0 0 0 0 0 0 0 0 0 0 0 0 0 0 0 0 0 0 0 0 0 0 0 0 0 0 0 0 0 0 0 0 0 0 0 0 0 0 0 0 0 0 0 0 0 0 0 0 0 0 0 0 0 0 0 0 0 0 0 0 0 0 0 0 0 0 0 0 0 0 0 0 0 0 0 0 0 0 0 0 0 0 0 0 0 0 0 0 0 0 0 0 0 0 0 0 0 0 0 0 0 0 0 0 0 0 0 0 0 0 0 0 0 0 0 0 0 0 0 0 0 0 0 0 0 0 0 0 0 0 0 0 0 0 0 0 0 0 0 0 0 0 0 0 0 0 0 0 0 0 0 0 0 0 0 0 0 0 0 0 0 0 0 0 0 0 0 0 0 0 0 0 0 0 0 0 0 0 0 0 0 0 0 0 0 0 0 0 0 0 0 0 0 0 0 0 0 0 0 0 0 0 0 0 0 0 0 0 0 0 0 0 0 0 0 0 0 0 0 0 0 0 0 0 0 0 0 0 0 0 0 0 0 0 0 0 0 0 0 0 0 0 0 0 0 0 0 0 0 0 0 0 0 0 0 0 0 0 0 0 0 0 0 0 0 0 0 0 0 0 0 0 0 0 0 0 0 0 0 0 0 0 0 0 0 0 0 0 0 0 0 0 0 0 0 0 0 0 0 0 0 0 0 0 0 0 0 0 0 0 0 0 0 0 0 0 0 0 0 0 0 0 0 0 0 0 0 0
0 0 0 0 0 0 0 0 0 0 0 0 0 0 0 0 0 0 0 0 0 0 0 0 0 0 0 0 0 0 0 0 0 0 0 0 0 0 0 0 0 0 0 0 0 0 0 0 0 0 0 0 0 0 0 0 0 0 0 0 0 0 0 0 0 0 0 0 0 0 0 0 0 0 0 0 0 0 0 0 0 0 0 0 0 0 0 0 0 0 0 0 0 0 0 0 0 0 0 0 0 0 0 0 0 0 0 0 0 0 0 0 0 0 0 0 0 0 0 0 0 0 0 0 0 0 0 0 0 0 0 0 0 0 0 0 0 0 0 0 0 0 0 0 0 0 0 0 0 0 0 0 0 0 0 0 0 0 0 0 0 0 0 0 0 0 0 0 0 0 0 0 0 0 0 0 0 0 0 0 0 0 0 0 0 0 0 0 0 0 0 0 0 0 0 0 0 0 0 0 0 0 0 0 0 0 0 0 0 0 0 0 0 0 0 0 0 0 0 0 0 0 0 0 0 0 0 0 0 0 0 0 0 0 63 130 70 68 138 78 71 143 82 73 146 85 75 148 88 76 150 90 77 152 93 78 153 94 79 154 96 80 155 98 81 156 99 81 157 100 82 157 102 82 158 103 83 158 104 83 158 105 84 158 105 84 158 106 84 158 107 84 158 108 85 158 108 85 158 109 85 158 110 85 158 110 85 157 111 85 157 111 85 156 111 85 156 112 85 155 112 85 155 112 85 154 113 85 154 113 85 153 113 85 152 113 85 152 114 84 151 114 84 150 114 84 149 114 84 148 114 83 148 114 83 147 114 83 146 114 83 145 114 82 144 114 82 143 114 82 141 114 81 140 114 81 139 113 80 138 113 80 137 113 79 136 113 79 134 112 79 133 112 78 132 112 78 130 112 77 129 111 76 128 111 76 126 110 75 125 110 75 123 109 74 122 109 73 120 108 73 118 108 72 117 107 71 115 107 71 113 106 70 112 106 69 110 105 68 108 104 67 106 103 67 104 103 66 102 102 65 100 101 64 98 100 63 96 99 62 94 98 61 91 97 60 89 96 59 87 95 58 84 94 57 82 93 55 79 92 54 77 90 53 74 89 52 71 87 50 68 86 49 65 84 47 62 83 46 58 81 44 55 79 42 51 77 40 47 75 38 43 72 36 39 70 33 34 67 31 29 64 27 22 60 24 15 55 18 3 47 0 0 0 0 0 0 0 0 0 0 0 0 0 0 0 0 0 0 0 0 0 0 0 0 0 0 0 0 0 0 0 0 0 0 0 0 0 0 0 0 0 0 0 0 0 0 0 0 0 0 0 0 0 0 0 0 0 0 0 0 0 0 0 0 0 0 0 0 0 0 0 0 0 0 0 0 0 0 0 0 0 0 0 0 0 0 0 0 0 0 0 0 0 0 0 0 0 0 0 0 0 0 0 0 0 0 0 0 0 0 0 0 0 0 0 0 0 0 0 0 0 0 0 0 0 0 0 0 0 0 0 0 0 0 0 0 0 0 0 0 0 0 0 0 0 0 0 0 0 0 0 0 0 0 0 0 0 0 0 0 0 0 0 0 0 0 0 0 0 0 0 0 0 0 0 0 0 0 0 0 0 0 0 0 0 0 0 0 0 0 0 0 0 0 0 0 0 0 0 0 0 0 0 0 0 0 0 0 0 0 0 0 0 0 0 0 0 0 0 0 0 0 0 0 0 0 0 0 0 0 0 0 0 0 0 0 0 0 0 0 0 0 0 0 0 0 0 0 0 0 0 0 0 0 0 0 0 0 0 0 0 0 0 0 0 0 0 0 0 0 0 0 0 0 0 0 0 0 0 0 0 0 0 0 0 0 0 0 0 0 0 0 0 0 0 0 0 0 0 0 0 0 0 0 0 0 0 0 0 0 0 0 0 0 0 0 0 0 0 0 0 0 0 0 0 0 0 0 0 0 0 0 0 0 0 0 0 0 0 0 0 0 0 0 0 0 0 0 0 0 0 0 0 0 0 0 0 0 0 0 0 0 0 0 0 0 0 0 0 0 0 0 0 0 0 0 0 0 0 0 0 0 0 0 0 0 0 0 0 0 0 0 0 0 0 0 0 0 0 0 0 0 0 0 0 0 0 0 0 0 0 0 0 0 0 0 0 0 0 0 0 0 0 0 0 0 0 0 0
0 0 0 0 0 0 0 0 0 0 0 0 0 0 0 0 0 0 0 0 0 0 0 0 0 0 0 0 0 0 0 0 0 0 0 0 0 0 0 0 0 0 0 0 0 0 0 0 0 0 0 0 0 0 0 0 0 0 0 0 0 0 0 0 0 0 0 0 0 0 0 0 0 0 0 0 0 0 0 0 0 0 0 0 0 0 0 0 0 0 0 0 0 0 0 0 0 0 0 0 0 0 0 0 0 0 0 0 0 0 0 0 0 0 0 0 0 0 0 0 0 0 0 0 0 0 0 0 0 0 0 0 0 0 0 0 0 0 0 0 0 0 0 0 0 0 0 0 0 0 0 0 0 0 0 0 0 0 0 0 0 0 0 0 0 0 0 0 0 0 0 0 0 0 0 0 0 0 0 0 0 0 0 0 0 0 0 0 0 0 0 0 0 0 0 0 0 0 0 0 0 0 0 0 0 0 0 0 0 0 0 0 0 0 0 0 0 0 0 0 0 0 0 0 0 0 0 0 0 0 0 0 0 0 65 134 72 68 139 78 71 143 82 73 146 85 74 148 87 76 150 90 77 151 92 78 153 93 79 154 95 79 154 97 80 155 98 81 156 99 81 156 100 82 157 101 82 157 102 82 157 103 83 157 104 83 157 105 83 157 106 84 157 106 84 157 107 84 157 108 84 157 108 84 156 109 84 156 109 84 156 110 84 155 110 84 155 110 84 154 111 84 154 111 84 153 111 84 152 112 84 152 112 84 151 112 84 150 112 83 150 112 83 149 112 83 148 112 83 147 112 83 146 113 82 145 113 82 144 112 82 143 112 81 142 112 81 141 112 81 140 112 80 139 112 80 138 112 79 137 112 79 136 111 79 134 111 78 133 111 78 132 111 77 130 110 77 129 110 76 128 110 76 126 109 75 125 109 74 123 108 74 122 108 73 120 108 73 119 107 72 117 106 71 115 106 70 114 105 70 112 105 69 110 104 68 108 103 67 107 103 67 105 102 66 103 101 65 101 100 64 99 100 63 97 99 62 95 98 61 92 97 60 90 96 59 88 95 58 86 94 57 83 93 56 81 91 55 78 90 53 75 89 52 73 88 51 70 86 49 67 85 48 64 83 46 61 82 45 58 80 43 54 78 42 51 76 40 47 74 38 43 72 35 38 69 33 34 66 31 29 63 28 23 60 24 16 55 19 7 49 0 0 0 0 0 0 0 0 0 0 0 0 0 0 0 0 0 0 0 0 0 0 0 0 0 0 0 0 0 0 0 0 0 0 0 0 0 0 0 0 0 0 0 0 0 0 0 0 0 0 0 0 0 0 0 0 0 0 0 0 0 0 0 0 0 0 0 0 0 0 0 0 0 0 0 0 0 0 0 0 0 0 0 0 0 0 0 0 0 0 0 0 0 0 0 0 0 0 0 0 0 0 0 0 0 0 0 0 0 0 0 0 0 0 0 0 0 0 0 0 0 0 0 0 0 0 0 0 0 0 0 0 0 0 0 0 0 0 0 0 0 0 0 0 0 0 0 0 0 0 0 0 0 0 0 0 0 0 0 0 0 0 0 0 0 0 0 0 0 0 0 0 0 0 0 0 0 0 0 0 0 0 0 0 0 0 0 0 0 0 0 0 0 0 0 0 0 0 0 0 0 0 0 0 0 0 0 0 0 0 0 0 0 0 0 0 0 0 0 0 0 0 0 0 0 0 0 0 0 0 0 0 0 0 0 0 0 0 0 0 0 0 0 0 0 0 0 0 0 0 0 0 0 0 0 0 0 0 0 0 0 0 0 0 0 0 0 0 0 0 0 0 0 0 0 0 0 0 0 0 0 0 0 0 0 0 0 0 0 0 0 0 0 0 0 0 0 0 0 0 0 0 0 0 0 0 0 0 0 0 0 0 0 0 0 0 0 0 0 0 0 0 0 0 0 0 0 0 0 0 0 0 0 0 0 0 0 0 0 0 0 0 0 0 0 0 0 0 0 0 0 0 0 0 0 0 0 0 0 0 0 0 0 0 0 0 0 0 0 0 0 0 0 0 0 0 0 0 0 0 0 0 0 0 0 0 0 0 0 0 0 0 0 0 0 0 0 0 0 0 0 0 0 0 0 0 0 0 0 0 0 0 0 0 0 0 0 0 0 0 0 0 0 0 0 0 0 0 0
0 0 0 0 0 0 0 0 0 0 0 0 0 0 0 0 0 0 0 0 0 0 0 0 0 0 0 0 0 0 0 0 0 0 0 0 0 0 0 0 0 0 0 0 0 0 0 0 0 0 0 0 0 0 0 0 0 0 0 0 0 0 0 0 0 0 0 0 0 0 0 0 0 0 0 0 0 0 0 0 0 0 0 0 0 0 0 0 0 0 0 0 0 0 0 0 0 0 0 0 0 0 0 0 0 0 0 0 0 0 0 0 0 0 0 0 0 0 0 0 0 0 0 0 0 0 0 0 0 0 0 0 0 0 0 0 0 0 0 0 0 0 0 0 0 0 0 0 0 0 0 0 0 0 0 0 0 0 0 0 0 0 0 0 0 0 0 0 0 0 0 0 0 0 0 0 0 0 0 0 0 0 0 0 0 0 0 0 0 0 0 0 0 0 0 0 0 0 0 0 0 0 0 0 0 0 0 0 0 0 0 0 0 0 0 0 0 0 0 0 0 0 0 0 0 0 0 0 0 0 0 60 126 65 65 135 73 68 140 78 71 143 81 72 146 84 74 148 87 75 149 89 76 151 91 77 152 92 78 153 94 79 154 95 79 154 97 80 155 98 80 155 99 81 156 100 81 156 101 82 156 102 82 156 103 82 156 104 83 156 104 83 156 105 83 156 106 83 156 106 83 155 107 83 155 107 83 155 108 83 154 108 83 154 109 83 153 109 83 153 109 83 152 110 83 152 110 83 151 110 83 150 110 83 150 110 83 149 111 82 148 111 82 147 111 82 147 111 82 146 111 82 145 111 81 144 111 81 143 111 81 142 111 80 141 111 80 140 111 80 139 111 79 138 110 79 137 110 79 135 110 78 134 110 78 133 110 77 132 109 77 130 109 76 129 109 76 128 108 75 126 108 75 125 108 74 123 107 73 122 107 73 120 106 72 119 106 72 117 105 71 116 105 70 114 104 70 112 104 69 111 103 68 109 103 67 107 102 67 105 101 66 103 100 65 102 100 64 100 99 63 98 98 62 95 97 61 93 96 60 91 95 59 89 94 58 87 93 57 84 92 56 82 91 55 80 90 54 77 89 53 74 88 51 72 86 50 69 85 49 66 83 47 63 82 46 60 80 44 57 79 43 53 77 41 50 75 39 46 73 37 42 71 35 38 68 33 33 65 30 28 62 27 23 59 24 17 55 20 9 50 14 0 42 0 0 0 0 0 0 0 0 0 0 0 0 0 0 0 0 0 0 0 0 0 0 0 0 0 0 0 0 0 0 0 0 0 0 0 0 0 0 0 0 0 0 0 0 0 0 0 0 0 0 0 0 0 0 0 0 0 0 0 0 0 0 0 0 0 0 0 0 0 0 0 0 0 0 0 0 0 0 0 0 0 0 0 0 0 0 0 0 0 0 0 0 0 0 0 0 0 0 0 0 0 0 0 0 0 0 0 0 0 0 0 0 0 0 0 0 0 0 0 0 0 0 0 0 0 0 0 0 0 0 0 0 0 0 0 0 0 0 0 0 0 0 0 0 0 0 0 0 0 0 0 0 0 0 0 0 0 0 0 0 0 0 0 0 0 0 0 0 0 0 0 0 0 0 0 0 0 0 0 0 0 0 0 0 0 0 0 0 0 0 0 0 0 0 0 0 0 0 0 0 0 0 0 0 0 0 0 0 0 0 0 0 0 0 0 0 0 0 0 0 0 0 0 0 0 0 0 0 0 0 0 0 0 0 0 0 0 0 0 0 0 0 0 0 0 0 0 0 0 0 0 0 0 0 0 0 0 0 0 0 0 0 0 0 0 0 0 0 0 0 0 0 0 0 0 0 0 0 0 0 0 0 0 0 0 0 0 0 0 0 0 0 0 0 0 0 0 0 0 0 0 0 0 0 0 0 0 0 0 0 0 0 0 0 0 0 0 0 0 0 0 0 0 0 0 0 0 0 0 0 0 0 0 0 0 0 0 0 0 0 0 0 0 0 0 0 0 0 0 0 0 0 0 0 0 0 0 0 0 0 0 0 0 0 0 0 0 0 0 0 0 0 0 0 0 0 0 0 0 0 0 0 0 0 0 0 0 0 0 0 0 0 0 0 0 0 0 0 0 0 0 0 0 0 0 0 0 0 0 0 0 0 0 0 0 0 0 0 0 0 0 0 0 0 0 0
0 0 0 0 0 0 0 0 0 0 0 0 0 0 0 0 0 0 0 0 0 0 0 0 0 0 0 0 0 0 0 0 0 0 0 0 0 0 0 0 0 0 0 0 0 0 0 0 0 0 0 0 0 0 0 0 0 0 0 0 0 0 0 0 0 0 0 0 0 0 0 0 0 0 0 0 0 0 0 0 0 0 0 0 0 0 0 0 0 0 0 0 0 0 0 0 0 0 0 0 0 0 0 0 0 0 0 0 0 0 0 0 0 0 0 0 0 0 0 0 0 0 0 0 0 0 0 0 0 0 0 0 0 0 0 0 0 0 0 0 0 0 0 0 0 0 0 0 0 0 0 0 0 0 0 0 0 0 0 0 0 0 0 0 0 0 0 0 0 0 0 0 0 0 0 0 0 0 0 0 0 0 0 0 0 0 0 0 0 0 0 0 0 0 0 0 0 0 0 0 0 0 0 0 0 0 0 0 0 0 0 0 0 0 0 0 0 0 0 0 0 0 0 0 0 0 0 0 0 0 0 62 130 68 66 136 74 68 140 78 70 143 81 72 145 83 73 147 86 74 148 88 75 150 90 76 151 91 77 152 93 78 153 94 79 153 95 79 154 97 80 154 98 80 154 99 80 155 100 81 155 101 81 155 101 81 155 102 82 155 103 82 155 104 82 155 104 82 154 105 82 154 105 82 154 106 82 153 106 82 153 107 82 153 107 82 152 107 82 152 108 82 151 108 82 150 108 82 150 109 82 149 109 82 148 109 82 148 109 82 147 109 81 146 109 81 145 109 81 144 109 81 143 109 80 142 109 80 142 109 80 141 109 79 140 109 79 138 109 79 137 109 78 136 109 78 135 109 78 134 109 77 133 108 77 132 108 76 130 108 76 129 108 75 128 107 75 126 107 74 125 107 74 124 106 73 122 106 72 121 105 72 119 105 71 118 104 71 116 104 70 114 103 69 113 103 69 111 102 68 109 102 67 108 101 66 106 100 66 104 100 65 102 99 64 100 98 63 98 97 62 96 97 61 94 96 60 92 95 59 90 94 58 88 93 57 85 92 56 83 91 55 81 90 54 78 89 53 76 87 52 73 86 51 71 85 49 68 84 48 65 82 46 62 81 45 59 79 43 56 77 42 52 76 40 49 74 38 45 72 37 41 69 34 37 67 32 33 65 30 28 62 27 23 58 24 17 55 20 10 50 15 0 44 0 0 0 0 0 0 0 0 0 0 0 0 0 0 0 0 0 0 0 0 0 0 0 0 0 0 0 0 0 0 0 0 0 0 0 0 0 0 0 0 0 0 0 0 0 0 0 0 0 0 0 0 0 0 0 0 0 0 0 0 0 0 0 0 0 0 0 0 0 0 0 0 0 0 0 0 0 0 0 0 0 0 0 0 0 0 0 0 0 0 0 0 0 0 0 0 0 0 0 0 0 0 0 0 0 0 0 0 0 0 0 0 0 0 0 0 0 0 0 0 0 0 0 0 0 0 0 0 0 0 0 0 0 0 0 0 0 0 0 0 0 0 0 0 0 0 0 0 0 0 0 0 0 0 0 0 0 0 0 0 0 0 0 0 0 0 0 0 0 0 0 0 0 0 0 0 0 0 0 0 0 0 0 0 0 0 0 0 0 0 0 0 0 0 0 0 0 0 0 0 0 0 0 0 0 0 0 0 0 0 0 0 0 0 0 0 0 0 0 0 0 0 0 0 0 0 0 0 0 0 0 0 0 0 0 0 0 0 0 0 0 0 0 0 0 0 0 0 0 0 0 0 0 0 0 0 0 0 0 0 0 0 0 0 0 0 0 0 0 0 0 0 0 0 0 0 0 0 0 0 0 0 0 0 0 0 0 0 0 0 0 0 0 0 0 0 0 0 0 0 0 0 0 0 0 0 0 0 0 0 0 0 0 0 0 0 0 0 0 0 0 0 0 0 0 0 0 0 0 0 0 0 0 0 0 0 0 0 0 0 0 0 0 0 0 0 0 0 0 0 0 0 0 0 0 0 0 0 0 0 0 0 0 0 0 0 0 0 0 0 0 0 0 0 0 0 0 0 0 0 0 0 0 0 0 0 0 0 0 0 0 0 0 0 0 0 0 0 0 0 0 0 0 0 0 0 0 0 0 0 0 0 0 0 0 0 0 0 0 0 0 0 0 0 0 0
0 0 0 0 0 0 0 0 0 0 0 0 0 0 0 0 0 0 0 0 0 0 0 0 0 0 0 0 0 0 0 0 0 0 0 0 0 0 0 0 0 0 0 0 0 0 0 0 0 0 0 0 0 0 0 0 0 0 0 0 0 0 0 0 0 0 0 0 0 0 0 0 0 0 0 0 0 0 0 0 0 0 0 0 0 0 0 0 0 0 0 0 0 0 0 0 0 0 0 0 0 0 0 0 0 0 0 0 0 0 0 0 0 0 0 0 0 0 0 0 0 0 0 0 0 0 0 0 0 0 0 0 0 0 0 0 0 0 0 0 0 0 0 0 0 0 0 0 0 0 0 0 0 0 0 0 0 0 0 0 0 0 0 0 0 0 0 0 0 0 0 0 0 0 0 0 0 0 0 0 0 0 0 0 0 0 0 0 0 0 0 0 0 0 0 0 0 0 0 0 0 0 0 0 0 0 0 0 0 0 0 0 0 0 0 0 0 0 0 0 0 0 0 0 0 0 0 0 55 119 58 63 131 68 66 136 73 68 140 77 70 142 80 71 144 82 73 146 85 74 148 87 75 149 88 76 150 90 76 151 91 77 151 93 78 152 94 78 152 95 79 153 96 79 153 97 80 153 98 80 153 99 80 154 100 81 154 101 81 153 101 81 153 102 81 153 103 81 153 103 81 153 104 81 152 104 81 152 105 82 152 105 82 151 106 81 151 106 81 150 106 81 150 106 81 149 107 81 148 107 81 148 107 81 147 107 81 146 108 81 145 108 80 145 108 80 144 108 80 143 108 80 142 108 79 141 108 79 140 108 79 139 108 78 138 108 78 137 108 78 136 107 77 135 107 77 134 107 77 133 107 76 131 107 76 130 107 75 129 106 75 128 106 74 126 106 74 125 105 73 124 105 73 122 105 72 121 104 72 119 104 71 118 103 70 116 103 70 115 102 69 113 102 68 111 101 68 110 101 67 108 100 66 106 99 65 104 99 65 103 98 64 101 97 63 99 97 62 97 96 61 95 95 60 93 94 59 91 93 58 89 92 58 86 91 57 84 90 55 82 89 54 79 88 53 77 87 52 75 86 51 72 85 50 69 83 48 67 82 47 64 81 46 61 79 44 58 78 43 55 76 41 51 74 39 48 72 38 44 70 36 41 68 34 37 66 32 32 64 29 28 61 27 23 58 24 17 54 20 10 50 16 2 45 8 0 35 0 0 0 0 0 0 0 0 0 0 0 0 0 0 0 0 0 0 0 0 0 0 0 0 0 0 0 0 0 0 0 0 0 0 0 0 0 0 0 0 0 0 0 0 0 0 0 0 0 0 0 0 0 0 0 0 0 0 0 0 0 0 0 0 0 0 0 0 0 0 0 0 0 0 0 0 0 0 0 0 0 0 0 0 0 0 0 0 0 0 0 0 0 0 0 0 0 0 0 0 0 0 0 0 0 0 0 0 0 0 0 0 0 0 0 0 0 0 0 0 0 0 0 0 0 0 0 0 0 0 0 0 0 0 0 0 0 0 0 0 0 0 0 0 0 0 0 0 0 0 0 0 0 0 0 0 0 0 0 0 0 0 0 0 0 0 0 0 0 0 0 0 0 0 0 0 0 0 0 0 0 0 0 0 0 0 0 0 0 0 0 0 0 0 0 0 0 0 0 0 0 0 0 0 0 0 0 0 0 0 0 0 0 0 0 0 0 0 0 0 0 0 0 0 0 0 0 0 0 0 0 0 0 0 0 0 0 0 0 0 0 0 0 0 0 0 0 0 0 0 0 0 0 0 0 0 0 0 0 0 0 0 0 0 0 0 0 0 0 0 0 0 0 0 0 0 0 0 0 0 0 0 0 0 0 0 0 0 0 0 0 0 0 0 0 0 0 0 0 0 0 0 0 0 0 0 0 0 0 0 0 0 0 0 0 0 0 0 0 0 0 0 0 0 0 0 0 0 0 0 0 0 0 0 0 0 0 0 0 0 0 0 0 0 0 0 0 0 0 0 0 0 0 0 0 0 0 0 0 0 0 0 0 0 0 0 0 0 0 0 0 0 0 0 0 0 0 0 0 0 0 0 0 0 0 0 0 0 0 0 0 0 0 0 0 0 0 0 0 0 0 0 0 0 0 0 0 0 0 0 0 0 0 0 0 0 0 0 0 0 0 0 0
53 141 33 53 141 33 53 141 33 53 141 33 53 141 33 53 141 33 53 141 33 53 141 33 53 141 33 53 141 33 53 141 33 53 141 33 53 141 33 53 141 33 53 141 33 53 141 33 53 141 33 53 141 33 53 141 33 53 141 33 53 141 33 53 141 33 53 141 33 53 141 33 53 141 33 53 141 33 53 141 33 53 141 33 53 141 33 53 141 33 53 141 33 53 141 33 53 141 33 53 141 33 53 141 33 53 141 33 53 141 33 53 141 33 53 141 33 53 142 33 53 142 33 53 142 33 53 142 33 53 142 33 53 142 33 53 142 33 53 142 33 53 142 33 53 142 33 53 142 33 53 142 33 53 142 33 53 142 33 53 142 33 53 142 33 53 142 33 53 142 33 53 142 33 53 142 33 53 142 33 53 142 33 53 142 33 53 142 33 53 142 33 53 142 33 53 142 33 53 142 33 53 142 33 53 142 33 53 142 33 53 142 33 53 142 33 53 142 33 53 142 33 53 142 33 53 142 33 58 124 62 63 132 69 66 136 73 68 139 76 69 142 79 71 144 81 72 145 84 73 147 85 74 148 87 75 149 89 76 150 90 76 150 91 77 151 93 77 151 94 78 152 95 78 152 96 79 152 97 79 152 98 79 152 98 80 152 99 80 152 100 80 152 101 80 152 101 80 152 102 80 151 102 80 151 103 81 151 103 81 150 104 81 150 104 81 149 104 80 149 105 80 148 105 80 147 105 80 147 105 80 146 106 80 145 106 80 145 106 80 144 106 79 143 106 79 142 106 79 141 106 79 141 106 78 140 106 78 139 106 78 138 106 77 137 106 77 136 106 77 134 106 76 133 106 76 132 106 76 131 105 75 130 105 75 129 105 74 127 105 74 126 104 73 125 104 73 123 104 72 122 103 72 121 103 71 119 103 71 118 102 70 116 102 69 115 101 69 113 101 68 112 100 67 110 100 67 108 99 66 107 99 65 105 98 64 103 97 64 101 97 63 99 96 62 97 95 61 95 94 60 93 94 59 91 93 59 89 92 58 87 91 57 85 90 56 83 89 55 81 88 53 78 87 52 76 86 51 73 85 50 71 83 49 68 82 48 65 81 46 63 79 45 60 78 43 57 76 42 54 75 40 50 73 39 47 71 37 43 69 35 40 67 33 36 65 31 31 62 29 27 60 26 22 57 24 17 54 20 10 50 16 3 45 11 0 38 53 142 34 53 142 34 53 142 34 53 142 34 53 142 34 53 142 34 53 142 34 53 142 34 53 142 34 53 142 34 53 142 34 53 142 34 53 142 34 53 142 34 53 142 34 53 142 34 53 142 34 53 142 34 53 142 34 53 142 34 53 142 34 53 142 34 53 142 34 53 142 34 53 142 34 53 142 34 53 142 34 53 142 34 53 142 34 53 142 34 53 142 34 53 142 34 53 142 34 53 142 34 53 142 34 53 142 34 53 142 34 53 142 33 53 142 33 53 142 33 53 142 33 53 142 33 53 142 33 53 142 33 53 142 33 53 142 33 53 142 33 53 142 33 53 142 33 53 142 33 53 142 33 53 142 33 53 142 33 53 142 33 53 142 33 53 142 33 53 142 33 53 142 33 53 142 33 53 142 33 53 142 33 53 142 33 53 142 33 53 142 33 53 142 33 53 142 33 53 142 33 53 142 33 53 142 33 53 142 33 53 142 33 53 142 33 53 142 33 53 142 33 53 142 33 53 142 33 53 142 33 53 142 33 53 142 33 53 142 33 53 142 33 53 142 33 53 142 33 53 142 33 53 142 33 53 142 33 53 142 33 53 142 33 53 142 33 53 142 33 53 142 33 53 142 33 53 142 33 53 142 33 53 142 33 53 142 33 53 142 33 53 142 33 53 142 33 53 141 33 53 141 33 53 141 33 53 141 33 53 141 33 53 141 33 53 141 33 53 141 33 53 141 33 53 141 33 53 141 33 53 141 33 53 141 33 53 141 33 53 141 33 53 141 33 53 141 33 53 141 33 53 141 33 53 141 33 53 141 33 53 141 33 53 141 33 53 141 33 53 141 33 53 141 33 53 141 33 53 141 33 53 141 33 53 141 33 53 141 33 53 141 33 53 141 33 53 141 33 53 141 33 53 141 33 53 141 33 53 141 33 53 141 33 53 141 33 53 141 33 53 141 33
56 144 39 56 144 39 56 144 39 56 144 39 56 144 39 56 144 39 56 144 39 56 144 39 56 144 39 56 144 39 56 145 39 56 145 39 56 145 39 56 145 39 56 145 39 56 145 39 56 145 39 56 145 39 56 145 39 56 145 39 56 145 39 56 145 39 56 145 39 56 145 39 56 145 39 56 145 39 56 145 39 56 145 39 56 145 39 56 145 39 56 145 39 56 145 39 56 145 39 56 145 39 56 145 39 56 145 39 56 145 39 56 145 39 56 145 39 56 145 39 56 145 39 56 145 39 56 145 40 56 145 40 56 145 40 56 145 40 56 145 40 56 145 40 56 145 40 56 145 40 56 145 40 56 145 40 56 145 40 56 145 40 56 145 40 56 145 40 56 145 40 56 145 40 56 145 40 56 145 40 56 145 40 56 145 40 56 145 40 56 145 40 56 145 40 56 145 40 56 145 40 56 145 40 56 145 40 56 145 40 56 145 40 56 145 40 56 145 40 56 145 40 56 145 40 56 145 40 59 126 63 63 132 68 65 136 72 67 139 75 69 141 78 70 143 80 71 144 82 72 146 84 73 147 86 74 148 87 75 148 89 75 149 90 76 150 91 77 150 92 77 150 93 77 151 94 78 151 95 78 151 96 78 151 97 79 151 98 79 151 98 79 151 99 79 150 100 79 150 100 79 150 101 80 150 101 80 149 102 80 149 102 80 148 102 80 148 103 79 147 103 79 147 103 79 146 104 79 145 104 79 145 104 79 144 104 79 143 104 79 142 104 78 142 105 78 141 105 78 140 105 78 139 105 77 138 105 77 137 105 77 136 105 76 135 104 76 134 104 76 133 104 75 132 104 75 131 104 75 130 104 74 128 104 74 127 103 73 126 103 73 125 103 72 123 102 72 122 102 71 121 102 71 119 101 70 118 101 70 116 101 69 115 100 68 113 100 68 112 99 67 110 99 66 108 98 66 107 98 65 105 97 64 103 96 63 102 96 63 100 95 62 98 94 61 96 94 60 94 93 59 92 92 58 90 91 58 88 90 57 86 89 56 84 88 55 81 87 54 79 86 53 77 85 51 74 84 50 72 83 49 69 82 48 67 81 47 64 79 45 61 78 44 58 76 43 55 75 41 52 73 40 49 72 38 46 70 36 42 68 34 39 66 32 35 64 30 31 61 28 26 59 26 21 56 23 16 53 20 10 49 16 3 45 12 0 39 57 145 40 57 145 40 57 145 40 57 145 40 57 145 40 57 145 40 57 145 40 57 145 40 57 145 40 57 145 40 57 145 40 57 145 40 57 145 40 57 145 40 57 145 40 57 145 40 57 145 40 57 145 40 57 145 40 57 145 40 57 145 40 57 145 40 56 145 40 56 145 40 56 145 40 56 145 40 56 145 40 56 145 40 56 145 40 56 145 40 56 145 40 56 145 40 56 145 40 56 145 40 56 145 40 56 145 40 56 145 40 56 145 40 56 145 40 56 145 40 56 145 40 56 145 40 56 145 40 56 145 40 56 145 40 56 145 40 56 145 40 56 145 40 56 145 40 56 145 40 56 145 40 56 145 40 56 145 40 56 145 40 56 145 40 56 145 40 56 145 40 56 145 40 56 145 40 56 145 40 56 145 40 56 145 40 56 145 40 56 145 40 56 145 40 56 145 40 56 145 40 56 145 40 56 145 40 56 145 40 56 145 40 56 145 40 56 145 40 56 145 40 56 145 40 56 145 40 56 145 40 56 145 40 56 145 40 56 145 40 56 145 40 56 145 40 56 145 40 56 145 40 56 145 40 56 145 40 56 145 40 56 145 40 56 145 40 56 145 40 56 145 40 56 145 40 56 145 40 56 145 40 56 145 39 56 145 39 56 145 39 56 145 39 56 145 39 56 145 39 56 145 39 56 145 39 56 145 39 56 145 39 56 145 39 56 145 39 56 145 39 56 145 39 56 145 39 56 145 39 56 145 39 56 145 39 56 145 39 56 145 39 56 145 39 56 145 39 56 145 39 56 145 39 56 145 39 56 145 39 56 145 39 56 145 39 56 145 39 56 145 39 56 145 39 56 145 39 56 145 39 56 144 39 56 144 39 56 144 39 56 144 39 56 144 39 56 144 39 56 144 39 56 144 39 56 144 39 56 144 39 56 144 39 56 144 39 56 144 39 56 144 39
59 148 45 59 148 45 59 148 45 59 148 45 59 148 45 59 148 45 59 148 45 59 148 45 59 148 45 59 148 45 59 148 45 59 148 45 59 148 45 59 148 45 59 148 45 59 148 45 59 148 45 59 148 45 59 148 45 59 148 45 59 148 45 59 148 45 59 148 46 59 148 46 59 148 46 59 148 46 59 148 46 59 148 46 59 148 46 59 148 46 59 148 46 59 148 46 59 148 46 59 148 46 59 148 46 59 148 46 59 148 46 59 148 46 59 148 46 59 148 46 59 148 46 59 148 46 59 148 46 59 148 46 59 148 46 59 148 46 59 148 46 59 148 46 59 148 46 59 148 46 59 148 46 59 148 46 59 148 46 59 148 46 59 148 46 59 148 46 59 148 46 59 148 46 59 148 46 59 148 46 59 148 46 59 148 46 59 148 46 59 148 46 60 148 46 60 148 46 60 148 46 60 148 46 60 148 46 60 148 46 60 148 46 60 148 46 60 148 46 60 148 46 60 148 46 53 116 54 59 127 63 62 132 68 65 135 71 67 138 74 68 140 77 69 142 79 71 143 81 72 144 83 72 145 85 73 146 86 74 147 87 75 148 89 75 148 90 76 149 91 76 149 92 76 149 93 77 149 94 77 149 95 77 149 95 78 149 96 78 149 97 78 149 97 78 149 98 78 149 99 78 148 99 79 148 100 79 148 100 79 147 100 79 147 101 79 146 101 78 146 101 78 145 102 78 145 102 78 144 102 78 143 102 78 142 103 78 142 103 78 141 103 77 140 103 77 139 103 77 138 103 77 137 103 76 137 103 76 136 103 76 135 103 75 134 103 75 133 103 75 131 103 74 130 102 74 129 102 74 128 102 73 127 102 73 126 102 72 124 101 72 123 101 71 122 101 71 120 100 70 119 100 70 118 100 69 116 99 68 115 99 68 113 98 67 112 98 67 110 98 66 109 97 65 107 96 65 105 96 64 104 95 63 102 95 62 100 94 62 98 93 61 96 93 60 95 92 59 93 91 58 91 90 57 89 89 57 87 89 56 84 88 55 82 87 54 80 86 53 78 85 52 75 84 50 73 83 49 71 81 48 68 80 47 65 79 46 63 78 44 60 76 43 57 75 42 54 73 40 51 72 39 48 70 37 45 68 35 41 66 34 38 64 32 34 62 30 30 60 28 25 58 25 21 55 23 16 52 20 10 48 16 3 44 12 0 39 5 0 29 60 148 46 60 148 46 60 148 46 60 148 46 60 148 46 60 148 46 60 148 46 60 148 46 60 148 46 60 148 46 60 148 46 60 148 46 60 148 46 60 148 46 60 148 46 60 148 46 60 148 46 60 148 46 60 148 46 60 148 46 60 148 46 60 148 46 60 148 46 60 148 46 60 148 46 60 148 46 60 148 46 60 148 46 60 148 46 60 148 46 60 148 46 60 148 46 60 148 46 60 148 46 60 148 46 60 148 46 60 148 46 60 148 46 60 148 46 60 148 46 60 148 46 60 148 46 60 148 46 60 148 46 60 148 46 60 148 46 60 148 46 60 148 46 60 148 46 60 148 46 60 148 46 60 148 46 60 148 46 60 148 46 60 148 46 60 148 46 60 148 46 60 148 46 60 148 46 60 148 46 60 148 46 60 148 46 60 148 46 60 148 46 60 148 46 60 148 46 60 148 46 60 148 46 60 148 46 60 148 46 59 148 46 59 148 46 59 148 46 59 148 46 59 148 46 59 148 46 59 148 46 59 148 46 59 148 46 59 148 46 59 148 46 59 148 46 59 148 46 59 148 46 59 148 46 59 148 46 59 148 46 59 148 46 59 148 46 59 148 46 59 148 46 59 148 46 59 148 46 59 148 46 59 148 46 59 148 46 59 148 46 59 148 46 59 148 46 59 148 46 59 148 46 59 148 46 59 148 46 59 148 46 59 148 46 59 148 46 59 148 46 59 148 46 59 148 46 59 148 46 59 148 46 59 148 46 59 148 45 59 148 45 59 148 45 59 148 45 59 148 45 59 148 45 59 148 45 59 148 45 59 148 45 59 148 45 59 148 45 59 148 45 59 148 45 59 148 45 59 148 45 59 148 45 59 148 45 59 148 45 59 148 45 59 148 45 59 148 45 59 148 45 59 148 45 59 148 45 59 147 45 59 147 45 59 147 45 59 147 45
62 151 51 62 151 51 62 151 51 62 151 51 62 151 51 62 151 51 62 151 51 62 151 51 62 151 51 62 151 51 62 151 51 62 151 51 62 151 51 62 151 51 62 151 51 62 151 52 62 151 52 62 151 52 62 151 52 62 151 52 62 151 52 62 151 52 62 151 52 62 151 52 62 151 52 62 151 52 62 151 52 62 151 52 62 151 52 62 151 52 62 151 52 62 151 52 62 151 52 62 151 52 62 151 52 62 151 52 62 151 52 62 151 52 62 151 52 62 151 52 62 151 52 62 151 52 62 151 52 62 151 52 62 151 52 62 151 52 62 151 52 63 151 52 63 151 52 63 151 52 63 151 52 63 151 52 63 151 52 63 151 52 63 151 52 63 151 52 63 151 52 63 151 52 63 151 52 63 151 52 63 151 52 63 151 52 63 151 52 63 151 52 63 151 52 63 151 52 63 151 52 63 151 52 63 151 52 63 151 52 63 151 52 63 151 52 63 151 52 63 151 52 63 151 52 55 119 56 59 127 63 62 131 67 64 134 70 66 137 73 67 139 76 69 141 78 70 142 80 71 143 82 72 144 83 72 145 85 73 146 86 74 146 87 74 147 88 75 147 89 75 148 90 76 148 91 76 148 92 76 148 93 76 148 94 77 148 95 77 148 95 77 148 96 77 147 96 77 147 97 77 147 97 77 147 98 78 146 98 78 146 99 78 145 99 78 145 99 77 144 100 77 144 100 77 143 100 77 142 101 77 142 101 77 141 101 77 140 101 77 139 101 76 139 101 76 138 101 76 137 101 76 136 101 75 135 101 75 134 101 75 133 101 74 132 101 74 131 101 74 130 101 73 129 101 73 128 101 72 126 100 72 125 100 72 124 100 71 123 100 71 121 99 70 120 99 70 119 99 69 117 98 69 116 98 68 115 98 67 113 97 67 112 97 66 110 96 66 109 96 65 107 95 64 105 95 64 104 94 63 102 94 62 100 93 61 99 92 61 97 92 60 95 91 59 93 90 58 91 89 57 89 89 56 87 88 56 85 87 55 83 86 54 81 85 53 79 84 52 76 83 51 74 82 49 72 81 48 69 80 47 67 79 46 64 77 45 61 76 43 59 75 42 56 73 41 53 72 39 50 70 38 47 69 36 43 67 35 40 65 33 36 63 31 33 61 29 29 59 27 24 56 25 20 54 22 15 51 19 9 47 16 3 43 12 0 38 6 0 31 63 151 52 63 151 52 63 151 52 63 151 52 63 151 52 63 151 52 63 151 52 63 151 52 63 151 52 63 151 52 63 151 52 63 151 52 63 151 52 63 151 52 63 151 52 63 151 52 63 151 52 63 151 52 63 151 52 63 151 52 63 151 52 63 151 52 63 151 52 63 151 52 63 151 52 63 151 52 63 151 52 63 151 52 63 151 52 63 151 52 63 151 52 63 151 52 63 151 52 63 151 52 63 151 52 63 151 52 63 151 52 63 151 52 63 151 52 63 151 52 63 151 52 63 151 52 63 151 52 63 151 52 63 151 52 63 151 52 63 151 52 63 151 52 63 151 52 63 151 52 63 151 52 63 151 52 63 151 52 63 151 52 63 151 52 63 151 52 63 151 52 63 151 52 63 151 52 63 151 52 63 151 52 63 151 52 63 151 52 63 151 52 63 151 52 63 151 52 63 151 52 63 151 52 63 151 52 63 151 52 63 151 52 63 151 52 63 151 52 63 151 52 63 151 52 63 151 52 63 151 52 63 151 52 63 151 52 63 151 52 63 151 52 63 151 52 63 151 52 63 151 52 63 151 52 63 151 52 62 151 52 62 151 52 62 151 52 62 151 52 62 151 52 62 151 52 62 151 52 62 151 52 62 151 52 62 151 52 62 151 52 62 151 52 62 151 52 62 151 52 62 151 52 62 151 52 62 151 52 62 151 52 62 151 52 62 151 52 62 151 52 62 151 52 62 151 52 62 151 52 62 151 52 62 151 52 62 151 52 62 151 52 62 151 52 62 151 52 62 151 52 62 151 52 62 151 51 62 151 51 62 151 51 62 151 51 62 151 51 62 151 51 62 151 51 62 151 51 62 151 51 62 151 51 62 151 51 62 151 51 62 151 51 62 151 51 62 151 51 62 151 51 62 151 51 62 151 51 62 151 51 62 151 51 62 150 51 62 150 51
65 154 57 65 154 57 65 154 57 65 154 57 65 154 57 65 154 57 65 154 57 65 154 57 65 154 57 65 154 57 65 154 57 65 154 57 65 154 57 65 154 57 65 154 58 65 154 58 65 154 58 65 154 58 65 154 58 65 154 58 65 154 58 65 154 58 65 154 58 65 154 58 65 154 58 65 154 58 65 154 58 65 154 58 65 154 58 65 154 58 65 154 58 65 154 58 65 154 58 65 154 58 65 154 58 65 154 58 65 154 58 65 154 58 65 154 58 65 154 58 65 154 58 65 154 58 66 154 58 66 154 58 66 154 58 66 154 58 66 154 58 66 154 58 66 154 58 66 154 58 66 154 58 66 154 58 66 154 58 66 154 58 66 154 58 66 154 58 66 154 58 66 154 58 66 154 58 66 154 58 66 154 58 66 154 58 66 154 58 66 154 58 66 154 58 66 154 58 66 154 58 66 154 58 66 154 58 66 154 58 66 154 58 66 154 58 66 154 58 66 154 58 66 154 58 55 121 56 59 127 62 62 131 66 64 134 69 65 136 72 67 138 74 68 139 77 69 141 78 70 142 80 71 143 82 71 144 83 72 144 84 73 145 86 73 145 87 74 146 88 74 146 89 75 146 90 75 146 91 75 146 91 75 146 92 76 146 93 76 146 94 76 146 94 76 146 95 76 146 95 76 145 96 76 145 96 76 145 97 77 144 97 76 144 97 76 143 98 76 143 98 76 142 98 76 141 99 76 141 99 76 140 99 76 139 99 76 139 99 75 138 99 75 137 100 75 136 100 75 135 100 75 134 100 74 133 100 74 132 100 74 131 100 73 130 99 73 129 99 73 128 99 72 127 99 72 126 99 71 125 99 71 124 99 71 122 98 70 121 98 70 120 98 69 119 97 69 117 97 68 116 97 68 114 96 67 113 96 66 112 96 66 110 95 65 109 95 65 107 94 64 105 94 63 104 93 63 102 93 62 100 92 61 99 91 60 97 91 60 95 90 59 93 89 58 91 89 57 90 88 56 88 87 55 86 86 55 84 85 54 81 84 53 79 84 52 77 83 51 75 82 50 72 81 48 70 79 47 68 78 46 65 77 45 63 76 44 60 75 43 57 73 41 54 72 40 52 70 38 48 69 37 45 67 35 42 65 34 39 64 32 35 62 30 31 60 28 27 57 26 23 55 24 19 52 21 14 49 19 9 46 16 2 42 12 0 38 7 0 32 66 154 59 66 154 59 66 154 59 66 154 59 66 154 59 66 154 59 66 154 59 66 154 59 66 154 59 66 154 59 66 154 59 66 154 59 66 154 59 66 154 59 66 154 59 66 154 59 66 154 59 66 154 59 66 154 59 66 154 59 66 154 59 66 154 59 66 154 59 66 154 58 66 154 58 66 154 58 66 154 58 66 154 58 66 154 58 66 154 58 66 154 58 66 154 58 66 154 58 66 154 58 66 154 58 66 154 58 66 154 58 66 154 58 66 154 58 66 154 58 66 154 58 66 154 58 66 154 58 66 154 58 66 154 58 66 154 58 66 154 58 66 154 58 66 154 58 66 154 58 66 154 58 66 154 58 66 154 58 66 154 58 66 154 58 66 154 58 66 154 58 66 154 58 66 154 58 66 154 58 66 154 58 66 154 58 66 154 58 66 154 58 66 154 58 66 154 58 66 154 58 66 154 58 66 154 58 66 154 58 66 154 58 66 154 58 66 154 58 66 154 58 66 154 58 66 154 58 66 154 58 66 154 58 66 154 58 66 154 58 66 154 58 66 154 58 66 154 58 66 154 58 66 154 58 66 154 58 66 154 58 66 154 58 66 154 58 65 154 58 65 154 58 65 154 58 65 154 58 65 154 58 65 154 58 65 154 58 65 154 58 65 154 58 65 154 58 65 154 58 65 154 58 65 154 58 65 154 58 65 154 58 65 154 58 65 154 58 65 154 58 65 154 58 65 154 58 65 154 58 65 154 58 65 154 58 65 154 58 65 154 58 65 154 58 65 154 58 65 154 58 65 154 57 65 154 57 65 154 57 65 154 57 65 154 57 65 154 57 65 154 57 65 154 57 65 154 57 65 154 57 65 154 57 65 154 57 65 154 57 65 154 57 65 154 57 65 154 57 65 154 57 65 153 57 65 153 57 65 153 57 65 153 57 65 153 57 65 153 57
68 156 63 68 156 63 68 157 63 68 157 63 68 157 63 68 157 63 68 157 63 68 157 63 68 157 63 68 157 63 68 157 63 68 157 63 68 157 63 68 157 63 68 157 63 68 157 63 68 157 63 68 157 63 68 157 64 68 157 64 68 157 64 68 157 64 68 157 64 68 157 64 68 157 64 68 157 64 68 157 64 68 157 64 68 157 64 68 157 64 68 157 64 68 157 64 68 157 64 68 157 64 68 157 64 68 157 64 68 157 64 68 157 64 68 157 64 68 157 64 68 157 64 68 157 64 68 157 64 68 157 64 69 157 64 69 157 64 69 157 64 69 157 64 69 157 64 69 157 64 69 157 64 69 157 64 69 157 64 69 157 64 69 157 64 69 157 64 69 157 64 69 157 64 69 157 64 69 157 64 69 157 64 69 157 64 69 157 64 69 157 64 69 157 64 69 157 64 69 157 64 69 157 64 69 157 64 69 157 64 69 157 64 69 157 64 69 157 64 69 157 64 47 107 44 55 121 56 59 126 61 61 130 65 63 133 68 64 135 71 66 137 73 67 138 75 68 140 77 69 141 79 70 142 80 71 142 82 71 143 83 72 144 84 72 144 85 73 144 86 73 145 87 74 145 88 74 145 89 74 145 90 74 145 91 75 145 91 75 145 92 75 145 93 75 144 93 75 144 94 75 144 94 75 143 95 75 143 95 75 143 95 75 142 96 75 142 96 75 141 96 75 140 97 75 140 97 75 139 97 75 138 97 75 138 98 75 137 98 74 136 98 74 135 98 74 135 98 74 134 98 73 133 98 73 132 98 73 131 98 73 130 98 72 129 98 72 128 98 72 127 98 71 126 97 71 124 97 70 123 97 70 122 97 69 121 97 69 120 96 69 118 96 68 117 96 68 116 95 67 114 95 66 113 95 66 111 94 65 110 94 65 109 93 64 107 93 63 105 92 63 104 92 62 102 91 61 101 91 61 99 90 60 97 90 59 95 89 59 94 88 58 92 88 57 90 87 56 88 86 55 86 85 54 84 85 53 82 84 53 80 83 52 78 82 51 76 81 50 73 80 49 71 79 47 69 78 46 66 77 45 64 75 44 61 74 43 58 73 42 56 72 40 53 70 39 50 69 37 47 67 36 44 66 34 41 64 33 37 62 31 34 60 29 30 58 27 26 56 25 22 54 23 18 51 21 13 48 18 8 45 15 2 41 11 0 37 7 0 31 0 0 20 69 157 65 69 157 65 69 157 65 69 157 65 69 157 65 69 157 65 69 157 65 69 157 65 69 157 65 69 157 65 69 157 65 69 157 65 69 157 65 69 157 65 69 157 65 69 157 65 69 157 65 69 157 65 69 157 65 69 157 65 69 157 65 69 157 65 69 157 65 69 157 65 69 157 65 69 157 65 69 157 65 69 157 64 69 157 64 69 157 64 69 157 64 69 157 64 69 157 64 69 157 64 69 157 64 69 157 64 69 157 64 69 157 64 69 157 64 69 157 64 69 157 64 69 157 64 69 157 64 69 157 64 69 157 64 69 157 64 69 157 64 69 157 64 69 157 64 69 157 64 69 157 64 69 157 64 69 157 64 69 157 64 69 157 64 69 157 64 69 157 64 69 157 64 69 157 64 69 157 64 69 157 64 69 157 64 69 157 64 69 157 64 69 157 64 69 157 64 69 157 64 69 157 64 69 157 64 69 157 64 69 157 64 69 157 64 69 157 64 69 157 64 69 157 64 69 157 64 69 157 64 69 157 64 69 157 64 69 157 64 69 157 64 69 157 64 69 157 64 69 157 64 69 157 64 68 157 64 68 157 64 68 157 64 68 157 64 68 157 64 68 157 64 68 157 64 68 157 64 68 157 64 68 157 64 68 157 64 68 157 64 68 157 64 68 157 64 68 157 64 68 157 64 68 157 64 68 157 64 68 157 64 68 157 64 68 157 64 68 157 64 68 157 64 68 157 64 68 157 64 68 157 63 68 157 63 68 157 63 68 157 63 68 157 63 68 157 63 68 157 63 68 157 63 68 157 63 68 157 63 68 157 63 68 157 63 68 157 63 68 157 63 68 157 63 68 157 63 68 156 63 68 156 63 68 156 63 68 156 63 68 156 63 68 156 63 68 156 63 68 156 63 68 156 63 68 156 63 68 156 63 68 156 63 68 156 63
71 159 69 71 159 69 71 159 69 71 159 69 71 159 69 71 159 69 71 159 69 71 159 69 71 159 69 71 159 69 71 159 69 71 159 69 71 160 69 71 160 69 71 160 69 71 160 69 71 160 69 71 160 69 71 160 69 71 160 69 71 160 69 71 160 69 71 160 69 71 160 69 71 160 69 71 160 69 71 160 69 71 160 70 71 160 70 71 160 70 71 160 70 71 160 70 71 160 70 71 160 70 71 160 70 71 160 70 71 160 70 71 160 70 71 160 70 71 160 70 71 160 70 71 160 70 71 160 70 71 160 70 71 160 70 71 160 70 71 160 70 71 160 70 71 160 70 71 160 70 71 160 70 71 160 70 72 160 70 72 160 70 72 160 70 72 160 70 72 160 70 72 160 70 72 160 70 72 160 70 72 160 70 72 160 70 72 160 70 72 160 70 72 160 70 72 160 70 72 160 70 72 160 70 72 160 70 72 160 70 72 160 70 72 160 70 72 160 70 72 160 70 50 112 48 55 121 56 58 125 60 60 129 64 62 132 67 64 134 70 65 135 72 66 137 74 67 138 76 68 139 77 69 140 79 70 141 80 70 142 81 71 142 83 71 143 84 72 143 85 72 143 86 73 143 87 73 143 87 73 143 88 73 143 89 74 143 90 74 143 90 74 143 91 74 143 91 74 142 92 74 142 92 74 142 93 74 141 93 74 141 94 74 140 94 74 140 94 74 139 95 74 139 95 74 138 95 74 138 95 74 137 96 74 136 96 73 135 96 73 135 96 73 134 96 73 133 96 73 132 96 72 131 96 72 130 96 72 129 96 71 128 96 71 127 96 71 126 96 70 125 96 70 124 96 70 123 95 69 122 95 69 120 95 68 119 95 68 118 95 67 117 94 67 115 94 66 114 94 66 113 93 65 111 93 65 110 93 64 108 92 64 107 92 63 105 91 62 104 91 62 102 90 61 101 90 60 99 89 60 97 89 59 96 88 58 94 87 57 92 87 57 90 86 56 88 85 55 86 84 54 84 84 53 82 83 52 80 82 51 78 81 51 76 80 50 74 79 49 72 78 47 69 77 46 67 76 45 65 75 44 62 74 43 60 73 42 57 71 40 54 70 39 51 69 38 49 67 36 46 66 35 43 64 33 39 62 32 36 61 30 33 59 28 29 57 26 25 54 24 21 52 22 17 50 20 12 47 17 7 44 14 1 40 11 0 36 7 0 31 0 0 23 72 160 71 72 160 71 72 160 71 72 160 71 72 160 71 72 160 71 72 160 71 72 160 71 72 160 71 72 160 71 72 160 71 72 160 71 72 160 71 72 160 71 72 160 71 72 160 71 72 160 70 72 160 70 72 160 70 72 160 70 72 160 70 72 160 70 72 160 70 72 160 70 72 160 70 72 160 70 72 160 70 72 160 70 72 160 70 72 160 70 72 160 70 72 160 70 72 160 70 72 160 70 72 160 70 72 160 70 72 160 70 72 160 70 72 160 70 72 160 70 72 160 70 72 160 70 72 160 70 72 160 70 72 160 70 72 160 70 72 160 70 72 160 70 72 160 70 72 160 70 72 160 70 72 160 70 72 160 70 72 160 70 72 160 70 72 160 70 72 160 70 72 160 70 72 160 70 72 160 70 72 160 70 72 160 70 72 160 70 72 160 70 72 160 70 72 160 70 72 160 70 72 160 70 72 160 70 72 160 70 72 160 70 72 160 70 72 160 70 72 160 70 72 160 70 71 160 70 71 160 70 71 160 70 71 160 70 71 160 70 71 160 70 71 160 70 71 160 70 71 160 70 71 160 70 71 160 70 71 160 70 71 160 70 71 160 70 71 160 70 71 160 70 71 160 70 71 160 70 71 160 70 71 160 70 71 160 70 71 160 70 71 160 70 71 160 70 71 160 70 71 160 69 71 160 69 71 160 69 71 160 69 71 160 69 71 160 69 71 160 69 71 160 69 71 160 69 71 160 69 71 160 69 71 160 69 71 160 69 71 160 69 71 160 69 71 159 69 71 159 69 71 159 69 71 159 69 71 159 69 71 159 69 71 159 69 71 159 69 71 159 69 71 159 69 71 159 69 71 159 69 71 159 69 71 159 69 71 159 69 71 159 69 71 159 69 71 159 69 71 159 69 71 159 69 71 159 69 71 159 69 71 159 69 71 159 69
74 162 75 74 162 75 74 162 75 74 162 75 74 162 75 74 162 75 74 162 75 74 162 75 74 162 75 74 162 75 74 162 75 74 162 75 74 162 75 74 162 75 74 162 75 74 162 75 74 162 75 74 162 75 74 162 75 74 162 75 74 162 75 74 162 75 74 162 75 74 162 75 74 162 75 74 163 75 74 163 75 74 163 75 74 163 75 74 163 75 74 163 75 74 163 75 74 163 75 74 163 75 74 163 75 74 163 75 74 163 75 74 163 75 74 163 75 74 163 75 74 163 75 74 163 76 74 163 76 74 163 76 74 163 76 74 163 76 74 163 76 74 163 76 74 163 76 74 163 76 74 163 76 74 163 76 74 163 76 74 163 76 74 163 76 74 163 76 74 163 76 74 163 76 74 163 76 74 163 76 74 163 76 74 163 76 74 163 76 74 163 76 74 163 76 74 163 76 75 163 76 75 163 76 75 163 76 75 163 76 75 163 76 75 163 76 75 163 76 75 163 76 50 113 49 55 120 55 57 125 59 60 128 63 61 130 66 63 132 68 64 134 70 65 136 72 66 137 74 67 138 76 68 139 77 69 139 78 69 140 80 70 141 81 70 141 82 71 141 83 71 142 84 71 142 85 72 142 86 72 142 87 72 142 87 73 142 88 73 142 89 73 141 89 73 141 90 73 141 90 73 141 91 73 140 91 73 140 92 73 139 92 73 139 92 73 138 93 73 138 93 73 137 93 73 137 94 73 136 94 73 135 94 73 134 94 72 134 94 72 133 94 72 132 94 72 131 94 71 130 94 71 129 94 71 128 94 71 127 94 70 127 94 70 125 94 70 124 94 69 123 94 69 122 94 69 121 94 68 120 94 68 119 93 67 118 93 67 116 93 66 115 93 66 114 92 65 112 92 65 111 92 64 110 91 64 108 91 63 107 90 63 105 90 62 104 90 61 102 89 61 101 89 60 99 88 59 97 87 59 96 87 58 94 86 57 92 86 56 90 85 56 89 84 55 87 83 54 85 83 53 83 82 52 81 81 51 79 80 50 77 79 49 75 78 48 72 78 47 70 77 46 68 75 45 65 74 44 63 73 43 61 72 42 58 71 41 55 70 39 53 68 38 50 67 37 47 66 35 44 64 34 41 62 32 38 61 31 35 59 29 31 57 27 27 55 25 24 53 23 20 51 21 15 48 19 11 45 16 6 42 14 0 39 10 0 35 6 0 30 1 0 23 75 163 76 75 163 76 75 163 76 75 163 76 75 163 76 75 163 76 75 163 76 75 163 76 75 163 76 75 163 76 75 163 76 75 163 76 75 163 76 75 163 76 75 163 76 75 163 76 75 163 76 75 163 76 75 163 76 75 163 76 75 163 76 75 163 76 75 163 76 75 163 76 75 163 76 75 163 76 75 163 76 75 163 76 75 163 76 75 163 76 75 163 76 75 163 76 75 163 76 75 163 76 75 163 76 75 163 76 75 163 76 75 163 76 75 163 76 75 163 76 75 163 76 75 163 76 75 163 76 75 163 76 75 163 76 75 163 76 75 163 76 75 163 76 75 163 76 75 163 76 75 163 76 75 163 76 75 163 76 75 163 76 75 163 76 75 163 76 75 163 76 75 163 76 75 163 76 74 163 76 74 163 76 74 163 76 74 163 76 74 163 76 74 163 76 74 163 76 74 163 76 74 163 76 74 163 76 74 163 76 74 163 76 74 163 76 74 163 76 74 163 76 74 163 76 74 163 76 74 163 76 74 163 76 74 163 76 74 163 76 74 163 76 74 163 76 74 163 76 74 163 76 74 163 76 74 163 75 74 163 75 74 163 75 74 163 75 74 163 75 74 163 75 74 163 75 74 163 75 74 163 75 74 163 75 74 163 75 74 163 75 74 163 75 74 163 75 74 163 75 74 162 75 74 162 75 74 162 75 74 162 75 74 162 75 74 162 75 74 162 75 74 162 75 74 162 75 74 162 75 74 162 75 74 162 75 74 162 75 74 162 75 74 162 75 74 162 75 74 162 75 74 162 75 74 162 75 74 162 75 74 162 75 74 162 75 74 162 75 74 162 75 74 162 75 74 162 75 74 162 75 74 162 75 74 162 75 74 162 75 74 162 75 74 162 75 74 162 75 74 162 75 74 162 74 74 162 74 74 162 74 74 162 74 74 162 74
77 165 80 77 165 80 77 165 80 77 165 80 77 165 80 77 165 80 77 165 80 77 165 80 77 165 80 77 165 81 77 165 81 77 165 81 77 165 81 77 165 81 77 165 81 77 165 81 77 165 81 77 165 81 77 165 81 77 165 81 77 165 81 77 165 81 77 165 81 77 165 81 77 165 81 77 165 81 77 165 81 77 165 81 77 165 81 77 165 81 77 165 81 77 165 81 77 165 81 77 165 81 77 165 81 77 165 81 77 165 81 77 165 81 77 165 81 77 165 81 77 165 81 77 165 81 77 165 81 77 165 81 77 166 81 77 166 81 77 166 81 77 166 81 77 166 81 77 166 81 77 166 81 77 166 81 77 166 81 77 166 81 77 166 81 77 166 81 77 166 81 77 166 81 77 166 81 77 166 81 77 166 81 77 166 82 77 166 82 77 166 82 77 166 82 77 166 82 77 166 82 77 166 82 77 166 82 77 166 82 77 166 82 77 166 82 77 166 82 77 166 82 50 113 48 54 120 54 57 124 58 59 127 62 60 129 64 62 131 67 63 133 69 64 134 71 65 135 72 66 136 74 67 137 75 67 138 77 68 138 78 69 139 79 69 139 80 70 140 81 70 140 82 70 140 83 71 140 84 71 140 85 71 140 86 71 140 86 72 140 87 72 140 87 72 139 88 72 139 89 72 139 89 72 138 89 72 138 90 72 138 90 72 137 91 72 137 91 72 136 91 72 135 92 72 135 92 72 134 92 72 133 92 71 133 92 71 132 92 71 131 93 71 130 93 71 129 93 70 129 93 70 128 93 70 127 93 70 126 93 69 125 93 69 124 93 69 123 92 68 122 92 68 121 92 67 119 92 67 118 92 67 117 92 66 116 91 66 115 91 65 113 91 65 112 90 64 111 90 64 109 90 63 108 89 63 106 89 62 105 89 61 104 88 61 102 88 60 100 87 60 99 87 59 97 86 58 96 86 57 94 85 57 92 84 56 90 84 55 89 83 54 87 82 54 85 82 53 83 81 52 81 80 51 79 79 50 77 79 49 75 78 48 73 77 47 71 76 46 68 75 45 66 74 44 64 73 43 61 72 42 59 70 41 56 69 40 54 68 38 51 67 37 48 65 36 46 64 34 43 62 33 40 61 31 36 59 30 33 57 28 30 55 26 26 53 24 22 51 23 18 49 20 14 47 18 9 44 16 4 41 13 0 38 10 0 34 6 0 29 1 0 23 78 166 82 78 166 82 78 166 82 78 166 82 78 166 82 78 166 82 78 166 82 78 166 82 78 166 82 78 166 82 78 166 82 78 166 82 78 166 82 78 166 82 78 166 82 78 166 82 78 166 82 78 166 82 78 166 82 78 166 82 78 166 82 78 166 82 78 166 82 78 166 82 78 166 82 78 166 82 78 166 82 78 166 82 78 166 82 78 166 82 78 166 82 78 166 82 78 166 82 77 166 82 77 166 82 77 166 82 77 166 82 77 166 82 77 166 82 77 166 82 77 166 82 77 166 82 77 166 82 77 166 82 77 166 82 77 166 82 77 166 82 77 166 82 77 166 82 77 166 82 77 166 82 77 166 82 77 166 82 77 166 82 77 166 82 77 166 82 77 166 82 77 166 82 77 166 82 77 166 82 77 166 82 77 166 82 77 166 82 77 166 81 77 166 81 77 166 81 77 166 81 77 166 81 77 166 81 77 166 81 77 166 81 77 166 81 77 166 81 77 166 81 77 166 81 77 166 81 77 166 81 77 166 81 77 166 81 77 166 81 77 165 81 77 165 81 77 165 81 77 165 81 77 165 81 77 165 81 77 165 81 77 165 81 77 165 81 77 165 81 77 165 81 77 165 81 77 165 81 77 165 81 77 165 81 77 165 81 77 165 81 77 165 81 77 165 81 77 165 81 77 165 81 77 165 81 77 165 81 77 165 81 77 165 81 77 165 81 77 165 81 77 165 81 77 165 81 77 165 81 77 165 81 77 165 81 77 165 81 77 165 81 77 165 81 77 165 81 77 165 80 77 165 80 77 165 80 77 165 80 77 165 80 77 165 80 77 165 80 77 165 80 77 165 80 77 165 80 77 165 80 77 165 80 77 165 80 77 165 80 77 165 80 77 165 80 77 165 80 77 165 80 77 165 80 77 165 80 77 165 80 77 165 80 77 165 80
79 168 86 79 168 86 79 168 86 79 168 86 80 168 86 80 168 86 80 168 86 80 168 86 80 168 86 80 168 86 80 168 86 80 168 86 80 168 86 80 168 86 80 168 86 80 168 86 80 168 86 80 168 86 80 168 86 80 168 86 80 168 86 80 168 86 80 168 86 80 168 86 80 168 86 80 168 86 80 168 86 80 168 86 80 168 86 80 168 86 80 168 87 80 168 87 80 168 87 80 168 87 80 168 87 80 168 87 80 168 87 80 168 87 80 168 87 80 168 87 80 168 87 80 168 87 80 168 87 80 168 87 80 168 87 80 168 87 80 168 87 80 168 87 80 168 87 80 168 87 80 168 87 80 168 87 80 168 87 80 168 87 80 168 87 80 168 87 80 168 87 80 168 87 80 168 87 80 168 87 80 168 87 80 168 87 80 168 87 80 168 87 80 168 87 80 168 87 80 168 87 80 168 87 80 168 87 80 168 87 80 168 87 80 169 87 80 169 87 80 169 87 50 113 48 53 119 53 56 122 57 58 125 60 60 128 63 61 130 65 62 131 67 63 133 69 64 134 71 65 135 72 66 136 74 66 136 75 67 137 76 68 137 78 68 138 79 69 138 80 69 138 81 69 138 81 70 138 82 70 139 83 70 138 84 70 138 85 71 138 85 71 138 86 71 138 86 71 138 87 71 137 87 71 137 88 71 136 88 71 136 89 71 135 89 71 135 89 71 134 89 71 134 90 71 133 90 71 132 90 70 132 90 70 131 91 70 130 91 70 129 91 70 129 91 69 128 91 69 127 91 69 126 91 69 125 91 68 124 91 68 123 91 68 122 91 67 121 91 67 120 91 67 119 90 66 118 90 66 116 90 65 115 90 65 114 90 65 113 89 64 112 89 64 110 89 63 109 88 63 108 88 62 106 88 61 105 87 61 103 87 60 102 86 60 100 86 59 99 85 58 97 85 58 96 84 57 94 84 56 92 83 56 90 83 55 89 82 54 87 81 53 85 81 53 83 80 52 81 79 51 79 78 50 77 78 49 75 77 48 73 76 47 71 75 46 69 74 45 67 73 44 65 72 43 62 71 42 60 70 41 57 69 40 55 67 39 52 66 37 50 65 36 47 64 35 44 62 33 41 61 32 38 59 30 35 57 29 32 56 27 28 54 25 25 52 23 21 50 22 17 48 19 13 45 17 8 42 15 3 40 12 0 36 9 0 33 5 0 28 0 0 22 80 169 88 80 169 88 80 169 88 80 169 88 80 169 88 80 169 88 80 169 88 80 169 88 80 169 88 80 169 88 80 169 88 80 169 88 80 169 88 80 169 88 80 169 88 80 169 88 80 169 88 80 169 88 80 169 88 80 169 88 80 169 88 80 169 88 80 169 88 80 169 88 80 169 88 80 169 88 80 169 88 80 169 88 80 169 88 80 169 88 80 169 87 80 169 87 80 169 87 80 169 87 80 169 87 80 169 87 80 169 87 80 169 87 80 169 87 80 169 87 80 169 87 80 169 87 80 169 87 80 169 87 80 169 87 80 169 87 80 169 87 80 169 87 80 169 87 80 169 87 80 169 87 80 169 87 80 168 87 80 168 87 80 168 87 80 168 87 80 168 87 80 168 87 80 168 87 80 168 87 80 168 87 80 168 87 80 168 87 80 168 87 80 168 87 80 168 87 80 168 87 80 168 87 80 168 87 80 168 87 80 168 87 80 168 87 80 168 87 80 168 87 80 168 87 80 168 87 80 168 87 80 168 87 80 168 87 80 168 87 80 168 87 80 168 87 80 168 87 80 168 87 80 168 87 80 168 87 80 168 87 80 168 87 80 168 87 80 168 87 80 168 87 80 168 87 80 168 87 80 168 86 80 168 86 80 168 86 80 168 86 80 168 86 80 168 86 80 168 86 80 168 86 80 168 86 80 168 86 80 168 86 80 168 86 80 168 86 80 168 86 80 168 86 80 168 86 80 168 86 80 168 86 80 168 86 80 168 86 80 168 86 80 168 86 80 168 86 80 168 86 80 168 86 80 168 86 79 168 86 79 168 86 79 168 86 79 168 86 79 168 86 79 168 86 79 168 86 79 168 86 79 168 86 79 168 86 79 168 86 79 168 86 79 168 86 79 168 86 79 168 86 79 168 85 79 168 85 79 168 85 79 168 85 79 168 85
82 170 91 82 170 91 82 171 91 82 171 91 82 171 91 82 171 91 82 171 91 82 171 91 82 171 91 82 171 91 82 171 91 82 171 91 82 171 92 82 171 92 82 171 92 82 171 92 82 171 92 82 171 92 82 171 92 82 171 92 82 171 92 82 171 92 82 171 92 82 171 92 82 171 92 82 171 92 82 171 92 82 171 92 82 171 92 83 171 92 83 171 92 83 171 92 83 171 92 83 171 92 83 171 92 83 171 92 83 171 92 83 171 92 83 171 92 83 171 92 83 171 92 83 171 92 83 171 92 83 171 92 83 171 92 83 171 92 83 171 92 83 171 92 83 171 92 83 171 92 83 171 92 83 171 92 83 171 92 83 171 92 83 171 92 83 171 92 83 171 92 83 171 92 83 171 92 83 171 92 83 171 93 83 171 93 83 171 93 83 171 93 83 171 93 83 171 93 83 171 93 83 171 93 83 171 93 83 171 93 83 171 93 83 171 93 83 171 93 43 101 37 49 112 47 53 118 52 55 121 56 57 124 59 59 126 61 60 128 64 61 130 66 62 131 67 63 132 69 64 133 71 65 134 72 65 135 73 66 135 75 67 136 76 67 136 77 67 136 78 68 137 79 68 137 80 68 137 81 69 137 81 69 137 82 69 137 83 69 137 83 70 136 84 70 136 85 70 136 85 70 135 85 70 135 86 70 135 86 70 134 87 70 134 87 70 133 87 70 133 88 70 132 88 70 131 88 69 131 88 69 130 89 69 129 89 69 128 89 69 128 89 69 127 89 68 126 89 68 125 89 68 124 89 68 123 89 67 122 89 67 121 89 67 120 89 66 119 89 66 118 89 66 117 89 65 116 88 65 115 88 64 114 88 64 112 88 63 111 87 63 110 87 62 108 87 62 107 87 61 106 86 61 104 86 60 103 85 60 102 85 59 100 85 58 99 84 58 97 84 57 95 83 57 94 83 56 92 82 55 90 81 54 89 81 54 87 80 53 85 80 52 83 79 51 82 78 51 80 77 50 78 77 49 76 76 48 74 75 47 72 74 46 69 73 45 67 72 44 65 71 43 63 70 42 60 69 41 58 68 40 56 67 39 53 66 37 51 64 36 48 63 35 45 62 34 42 60 32 39 59 31 36 57 29 33 56 28 30 54 26 27 52 24 23 50 22 19 48 21 15 46 18 11 43 16 7 41 14 2 38 11 0 35 8 0 31 5 0 27 0 0 21 0 0 11 83 171 93 83 171 93 83 171 93 83 171 93 83 171 93 83 171 93 83 171 93 83 171 93 83 171 93 83 171 93 83 171 93 83 171 93 83 171 93 83 171 93 83 171 93 83 171 93 83 171 93 83 171 93 83 171 93 83 171 93 83 171 93 83 171 93 83 171 93 83 171 93 83 171 93 83 171 93 83 171 93 83 171 93 83 171 93 83 171 93 83 171 93 83 171 93 83 171 93 83 171 93 83 171 93 83 171 93 83 171 93 83 171 93 83 171 93 83 171 93 83 171 93 83 171 93 83 171 93 83 171 93 83 171 93 83 171 93 83 171 93 83 171 93 83 171 93 83 171 93 83 171 93 83 171 93 83 171 93 83 171 93 83 171 93 83 171 93 83 171 93 83 171 93 83 171 93 83 171 93 83 171 92 83 171 92 83 171 92 83 171 92 83 171 92 83 171 92 83 171 92 83 171 92 83 171 92 83 171 92 83 171 92 83 171 92 83 171 92 83 171 92 83 171 92 83 171 92 83 171 92 83 171 92 83 171 92 83 171 92 83 171 92 83 171 92 83 171 92 83 171 92 83 171 92 83 171 92 83 171 92 83 171 92 83 171 92 83 171 92 83 171 92 83 171 92 82 171 92 82 171 92 82 171 92 82 171 92 82 171 92 82 171 92 82 171 92 82 171 92 82 171 92 82 171 92 82 171 92 82 171 92 82 171 92 82 171 92 82 171 92 82 171 92 82 171 91 82 171 91 82 171 91 82 171 91 82 171 91 82 171 91 82 171 91 82 171 91 82 171 91 82 171 91 82 171 91 82 170 91 82 170 91 82 170 91 82 170 91 82 170 91 82 170 91 82 170 91 82 170 91 82 170 91 82 170 91 82 170 91 82 170 91 82 170 91 82 170 91 82 170 91 82 170 91 82 170 91 82 170 91 82 170 91
85 173 96 85 173 96 85 173 97 85 173 97 85 173 97 85 173 97 85 173 97 85 173 97 85 173 97 85 173 97 85 173 97 85 173 97 85 173 97 85 173 97 85 173 97 85 173 97 85 173 97 85 173 97 85 173 97 85 173 97 85 173 97 85 173 97 85 173 97 85 173 97 85 173 97 85 173 97 85 173 97 85 173 97 85 173 97 85 173 97 85 174 97 85 174 97 85 174 97 85 174 97 85 174 97 85 174 97 85 174 97 85 174 97 85 174 97 85 174 97 85 174 97 85 174 97 85 174 97 85 174 98 85 174 98 85 174 98 85 174 98 85 174 98 85 174 98 85 174 98 85 174 98 85 174 98 85 174 98 85 174 98 85 174 98 85 174 98 85 174 98 85 174 98 85 174 98 85 174 98 85 174 98 85 174 98 85 174 98 85 174 98 86 174 98 86 174 98 86 174 98 86 174 98 86 174 98 86 174 98 86 174 98 86 174 98 86 174 98 43 102 38 49 111 46 52 116 50 54 120 54 56 123 57 58 125 60 59 127 62 60 128 64 61 129 66 62 131 67 63 131 69 64 132 70 64 133 72 65 134 73 65 134 74 66 134 75 66 135 76 67 135 77 67 135 78 67 135 79 68 135 80 68 135 80 68 135 81 68 135 82 68 135 82 69 134 83 69 134 83 69 134 84 69 133 84 69 133 85 69 132 85 69 132 85 69 131 86 69 131 86 69 130 86 68 130 86 68 129 87 68 128 87 68 127 87 68 127 87 68 126 87 67 125 87 67 124 87 67 123 87 67 122 87 66 122 87 66 121 87 66 120 87 65 119 87 65 117 87 65 116 87 64 115 87 64 114 87 64 113 86 63 112 86 63 111 86 62 109 86 62 108 85 61 107 85 61 105 85 60 104 84 60 103 84 59 101 84 59 100 83 58 98 83 57 97 82 57 95 82 56 94 81 55 92 81 55 90 80 54 89 80 53 87 79 53 85 78 52 83 78 51 82 77 50 80 76 49 78 76 49 76 75 48 74 74 47 72 73 46 70 72 45 68 71 44 66 70 43 63 69 42 61 68 41 59 67 40 56 66 39 54 65 38 51 64 36 49 63 35 46 61 34 43 60 32 41 59 31 38 57 30 35 56 28 32 54 27 28 52 25 25 50 23 21 48 21 18 46 19 14 44 17 10 42 15 5 39 13 0 36 10 0 33 7 0 30 4 0 26 0 0 20 0 0 12 86 174 99 86 174 99 86 174 99 86 174 99 86 174 99 86 174 98 86 174 98 86 174 98 86 174 98 86 174 98 86 174 98 86 174 98 86 174 98 86 174 98 86 174 98 86 174 98 86 174 98 86 174 98 86 174 98 86 174 98 86 174 98 86 174 98 86 174 98 86 174 98 86 174 98 86 174 98 86 174 98 86 174 98 86 174 98 86 174 98 86 174 98 86 174 98 86 174 98 86 174 98 86 174 98 86 174 98 86 174 98 86 174 98 86 174 98 86 174 98 86 174 98 86 174 98 86 174 98 86 174 98 86 174 98 86 174 98 86 174 98 86 174 98 86 174 98 86 174 98 86 174 98 86 174 98 86 174 98 86 174 98 86 174 98 85 174 98 85 174 98 85 174 98 85 174 98 85 174 98 85 174 98 85 174 98 85 174 98 85 174 98 85 174 98 85 174 98 85 174 98 85 174 98 85 174 98 85 174 98 85 174 98 85 174 98 85 174 98 85 174 98 85 174 98 85 174 98 85 174 97 85 174 97 85 174 97 85 174 97 85 174 97 85 174 97 85 174 97 85 174 97 85 174 97 85 174 97 85 174 97 85 174 97 85 174 97 85 173 97 85 173 97 85 173 97 85 173 97 85 173 97 85 173 97 85 173 97 85 173 97 85 173 97 85 173 97 85 173 97 85 173 97 85 173 97 85 173 97 85 173 97 85 173 97 85 173 97 85 173 97 85 173 97 85 173 97 85 173 97 85 173 97 85 173 97 85 173 97 85 173 97 85 173 97 85 173 97 85 173 97 85 173 96 85 173 96 85 173 96 85 173 96 85 173 96 85 173 96 85 173 96 85 173 96 85 173 96 85 173 96 85 173 96 85 173 96 85 173 96 85 173 96 85 173 96 85 173 96 85 173 96 85 173 96 85 173 96 85 173 96 85 173 96
87 176 102 87 176 102 87 176 102 87 176 102 87 176 102 87 176 102 87 176 102 87 176 102 87 176 102 87 176 102 87 176 102 88 176 102 88 176 102 88 176 102 88 176 102 88 176 102 88 176 102 88 176 102 88 176 102 88 176 102 88 176 102 88 176 102 88 176 102 88 176 102 88 176 102 88 176 102 88 176 102 88 176 102 88 176 102 88 176 102 88 176 102 88 176 102 88 176 102 88 176 102 88 176 102 88 176 103 88 176 103 88 176 103 88 176 103 88 176 103 88 176 103 88 176 103 88 176 103 88 176 103 88 176 103 88 176 103 88 176 103 88 176 103 88 176 103 88 176 103 88 176 103 88 176 103 88 176 103 88 176 103 88 176 103 88 176 103 88 176 103 88 176 103 88 176 103 88 176 103 88 176 103 88 176 103 88 176 103 88 176 103 88 176 103 88 176 103 88 176 103 88 176 103 88 176 103 88 176 103 88 176 103 88 176 103 88 177 103 43 102 37 48 110 44 51 115 49 53 118 53 55 121 55 57 123 58 58 125 60 59 126 62 60 128 64 61 129 66 62 130 67 62 131 69 63 131 70 64 132 71 64 132 72 65 133 73 65 133 74 66 133 75 66 133 76 66 133 77 66 133 78 67 133 78 67 133 79 67 133 80 67 133 80 67 133 81 67 132 81 68 132 82 68 131 82 68 131 83 68 131 83 68 130 83 67 130 84 67 129 84 67 128 84 67 128 85 67 127 85 67 126 85 67 126 85 67 125 85 66 124 85 66 123 85 66 122 85 66 122 85 65 121 85 65 120 85 65 119 85 65 118 85 64 117 85 64 116 85 64 115 85 63 113 85 63 112 85 62 111 85 62 110 84 61 109 84 61 107 84 61 106 84 60 105 83 60 104 83 59 102 83 58 101 82 58 99 82 57 98 81 57 96 81 56 95 80 56 93 80 55 92 79 54 90 79 54 89 78 53 87 78 52 85 77 51 83 77 51 82 76 50 80 75 49 78 74 48 76 74 47 74 73 47 72 72 46 70 71 45 68 70 44 66 70 43 64 69 42 62 68 41 59 67 40 57 66 39 55 64 38 52 63 36 50 62 35 47 61 34 44 60 33 42 58 31 39 57 30 36 55 28 33 54 27 30 52 25 27 50 24 23 49 22 20 47 20 16 45 18 12 42 16 8 40 14 4 38 12 0 35 9 0 32 6 0 28 3 0 24 0 0 19 0 0 11 88 177 104 88 177 104 88 177 104 88 177 104 88 177 104 88 177 104 88 177 104 88 177 104 88 177 104 88 177 104 88 177 104 88 177 104 88 177 104 88 177 104 88 177 104 88 177 104 88 177 104 88 177 104 88 177 104 88 177 104 88 177 104 88 177 104 88 177 104 88 177 104 88 177 104 88 177 104 88 177 103 88 177 103 88 177 103 88 177 103 88 177 103 88 177 103 88 177 103 88 177 103 88 177 103 88 177 103 88 177 103 88 177 103 88 177 103 88 177 103 88 177 103 88 177 103 88 177 103 88 177 103 88 177 103 88 177 103 88 176 103 88 176 103 88 176 103 88 176 103 88 176 103 88 176 103 88 176 103 88 176 103 88 176 103 88 176 103 88 176 103 88 176 103 88 176 103 88 176 103 88 176 103 88 176 103 88 176 103 88 176 103 88 176 103 88 176 103 88 176 103 88 176 103 88 176 103 88 176 103 88 176 103 88 176 103 88 176 103 88 176 103 88 176 103 88 176 103 88 176 103 88 176 103 88 176 103 88 176 103 88 176 103 88 176 103 88 176 102 88 176 102 88 176 102 88 176 102 88 176 102 88 176 102 88 176 102 88 176 102 88 176 102 88 176 102 88 176 102 88 176 102 88 176 102 88 176 102 88 176 102 88 176 102 88 176 102 88 176 102 88 176 102 88 176 102 88 176 102 88 176 102 88 176 102 88 176 102 88 176 102 87 176 102 87 176 102 87 176 102 87 176 102 87 176 102 87 176 102 87 176 102 87 176 102 87 176 102 87 176 102 87 176 102 87 176 102 87 176 102 87 176 101 87 176 101 87 176 101 87 176 101 87 176 101 87 176 101 87 176 101 87 176 101 87 176 101 87 175 101 87 175 101 87 175 101 87 175 101 87 175 101 87 175 101 87 175 101 87 175 101 87 175 101
90 178 107 90 178 107 90 178 107 90 178 107 90 178 107 90 178 107 90 178 107 90 178 107 90 178 107 90 178 107 90 178 107 90 178 107 90 178 107 90 178 107 90 178 107 90 178 107 90 178 107 90 178 107 90 178 107 90 178 107 90 178 107 90 178 107 90 179 107 90 179 107 90 179 107 90 179 107 90 179 107 90 179 107 90 179 107 90 179 107 90 179 107 90 179 107 90 179 107 90 179 108 90 179 108 90 179 108 90 179 108 90 179 108 90 179 108 90 179 108 90 179 108 90 179 108 90 179 108 90 179 108 90 179 108 90 179 108 90 179 108 90 179 108 90 179 108 90 179 108 90 179 108 91 179 108 91 179 108 91 179 108 91 179 108 91 179 108 91 179 108 91 179 108 91 179 108 91 179 108 91 179 108 91 179 108 91 179 108 91 179 108 91 179 108 91 179 108 91 179 108 91 179 108 91 179 108 91 179 108 91 179 108 91 179 108 91 179 108 43 102 36 47 109 43 50 114 47 52 117 51 54 119 54 55 122 56 57 123 59 58 125 60 59 126 62 60 127 64 61 128 65 61 129 67 62 129 68 63 130 69 63 130 70 64 131 72 64 131 73 64 131 73 65 131 74 65 131 75 65 131 76 66 131 77 66 131 77 66 131 78 66 131 78 66 131 79 66 130 80 66 130 80 66 130 80 66 129 81 66 129 81 66 128 82 66 128 82 66 127 82 66 127 82 66 126 83 66 125 83 66 125 83 66 124 83 65 123 83 65 122 83 65 121 83 65 121 84 65 120 84 64 119 84 64 118 84 64 117 84 63 116 83 63 115 83 63 114 83 62 113 83 62 112 83 62 110 83 61 109 83 61 108 82 60 107 82 60 106 82 59 104 82 59 103 81 58 102 81 58 100 81 57 99 80 57 98 80 56 96 80 56 95 79 55 93 79 54 92 78 54 90 78 53 88 77 52 87 77 52 85 76 51 83 75 50 82 75 49 80 74 49 78 73 48 76 73 47 74 72 46 72 71 45 70 70 44 68 69 44 66 69 43 64 68 42 62 67 41 60 66 40 57 65 39 55 64 37 53 63 36 50 61 35 48 60 34 45 59 33 43 58 31 40 56 30 37 55 29 34 53 27 31 52 26 28 50 24 25 49 23 21 47 21 18 45 19 14 43 17 10 41 15 6 38 13 2 36 11 0 33 8 0 30 5 0 27 2 0 23 0 0 17 0 0 10 91 179 109 91 179 109 91 179 109 91 179 109 91 179 109 91 179 109 91 179 109 91 179 109 91 179 109 91 179 109 91 179 109 91 179 109 91 179 109 91 179 109 91 179 109 91 179 109 91 179 109 91 179 109 91 179 109 91 179 109 91 179 109 91 179 109 91 179 109 91 179 109 91 179 109 91 179 109 91 179 109 91 179 109 91 179 109 91 179 109 91 179 108 91 179 108 91 179 108 91 179 108 91 179 108 91 179 108 91 179 108 91 179 108 91 179 108 91 179 108 91 179 108 91 179 108 91 179 108 91 179 108 91 179 108 91 179 108 91 179 108 91 179 108 91 179 108 91 179 108 91 179 108 91 179 108 91 179 108 91 179 108 91 179 108 91 179 108 91 179 108 91 179 108 91 179 108 91 179 108 91 179 108 91 179 108 91 179 108 91 179 108 91 179 108 90 179 108 90 179 108 90 179 108 90 179 108 90 179 108 90 179 108 90 179 108 90 179 108 90 179 108 90 179 108 90 179 108 90 179 108 90 179 108 90 179 108 90 179 108 90 179 108 90 179 108 90 179 108 90 179 107 90 179 107 90 179 107 90 179 107 90 179 107 90 179 107 90 179 107 90 179 107 90 179 107 90 179 107 90 179 107 90 178 107 90 178 107 90 178 107 90 178 107 90 178 107 90 178 107 90 178 107 90 178 107 90 178 107 90 178 107 90 178 107 90 178 107 90 178 107 90 178 107 90 178 107 90 178 107 90 178 107 90 178 107 90 178 107 90 178 107 90 178 107 90 178 107 90 178 107 90 178 107 90 178 107 90 178 106 90 178 106 90 178 106 90 178 106 90 178 106 90 178 106 90 178 106 90 178 106 90 178 106 90 178 106 90 178 106 90 178 106 90 178 106 90 178 106 90 178 106 90 178 106 90 178 106 90 178 106 90 178 106
92 181 111 92 181 112 92 181 112 92 181 112 92 181 112 92 181 112 92 181 112 92 181 112 92 181 112 92 181 112 92 181 112 92 181 112 92 181 112 92 181 112 93 181 112 93 181 112 93 181 112 93 181 112 93 181 112 93 181 112 93 181 112 93 181 112 93 181 112 93 181 112 93 181 112 93 181 112 93 181 112 93 181 112 93 181 112 93 181 112 93 181 112 93 181 112 93 181 112 93 181 112 93 181 112 93 181 112 93 181 112 93 181 113 93 181 113 93 181 113 93 181 113 93 181 113 93 181 113 93 181 113 93 181 113 93 181 113 93 181 113 93 181 113 93 181 113 93 181 113 93 181 113 93 181 113 93 181 113 93 181 113 93 181 113 93 181 113 93 181 113 93 181 113 93 181 113 93 181 113 93 181 113 93 181 113 93 181 113 93 181 113 93 181 113 93 181 113 93 181 113 93 181 113 93 181 113 93 181 113 93 181 113 93 181 113 93 182 113 42 101 35 46 108 42 49 112 46 51 115 49 53 118 52 54 120 55 56 122 57 57 123 59 58 124 60 59 125 62 59 126 64 60 127 65 61 128 66 61 128 68 62 129 69 62 129 70 63 129 71 63 129 72 64 130 72 64 130 73 64 130 74 64 130 75 65 129 75 65 129 76 65 129 77 65 129 77 65 129 78 65 128 78 65 128 79 65 127 79 65 127 79 65 126 80 65 126 80 65 125 80 65 125 81 65 124 81 65 123 81 65 123 81 64 122 81 64 121 81 64 120 82 64 120 82 64 119 82 63 118 82 63 117 82 63 116 82 62 115 82 62 114 82 62 113 81 61 112 81 61 111 81 61 110 81 60 109 81 60 107 81 60 106 81 59 105 80 59 104 80 58 103 80 58 101 79 57 100 79 57 99 79 56 97 78 56 96 78 55 94 78 54 93 77 54 91 77 53 90 76 52 88 76 52 87 75 51 85 75 50 83 74 50 82 73 49 80 73 48 78 72 47 76 71 47 74 71 46 72 70 45 70 69 44 68 68 43 66 68 42 64 67 41 62 66 40 60 65 39 58 64 38 56 63 37 53 62 36 51 61 35 49 60 34 46 58 33 43 57 32 41 56 30 38 55 29 35 53 28 32 52 26 29 50 25 26 48 23 23 47 21 20 45 20 16 43 18 12 41 16 9 39 14 5 37 12 0 34 10 0 31 7 0 28 4 0 25 1 0 21 0 0 16 0 0 9 93 182 114 93 182 114 93 182 114 93 182 114 93 182 114 93 182 114 93 182 114 93 182 114 93 182 114 93 182 114 93 182 114 93 182 114 93 182 114 93 182 114 93 182 114 93 182 114 93 182 114 93 182 114 93 182 114 93 182 114 93 182 114 93 182 114 93 182 114 93 182 113 93 182 113 93 182 113 93 182 113 93 182 113 93 182 113 93 182 113 93 182 113 93 182 113 93 182 113 93 182 113 93 182 113 93 182 113 93 182 113 93 182 113 93 182 113 93 182 113 93 182 113 93 182 113 93 181 113 93 181 113 93 181 113 93 181 113 93 181 113 93 181 113 93 181 113 93 181 113 93 181 113 93 181 113 93 181 113 93 181 113 93 181 113 93 181 113 93 181 113 93 181 113 93 181 113 93 181 113 93 181 113 93 181 113 93 181 113 93 181 113 93 181 113 93 181 113 93 181 113 93 181 113 93 181 113 93 181 113 93 181 113 93 181 113 93 181 113 93 181 113 93 181 113 93 181 113 93 181 113 93 181 113 93 181 112 93 181 112 93 181 112 93 181 112 93 181 112 93 181 112 93 181 112 93 181 112 93 181 112 93 181 112 93 181 112 93 181 112 93 181 112 93 181 112 93 181 112 93 181 112 93 181 112 93 181 112 93 181 112 93 181 112 93 181 112 93 181 112 93 181 112 92 181 112 92 181 112 92 181 112 92 181 112 92 181 112 92 181 112 92 181 112 92 181 112 92 181 112 92 181 112 92 181 112 92 181 112 92 181 112 92 181 111 92 181 111 92 181 111 92 181 111 92 181 111 92 181 111 92 181 111 92 181 111 92 181 111 92 180 111 92 180 111 92 180 111 92 180 111 92 180 111 92 180 111 92 180 111 92 180 111 92 180 111 92 180 111 92 180 111 92 180 111 92 180 111 92 180 111 92 180 111
95 183 116 95 183 116 95 183 116 95 183 116 95 183 116 95 183 116 95 183 116 95 183 116 95 183 116 95 183 117 95 183 117 95 183 117 95 183 117 95 183 117 95 183 117 95 183 117 95 183 117 95 183 117 95 183 117 95 183 117 95 183 117 95 183 117 95 183 117 95 183 117 95 183 117 95 183 117 95 183 117 95 183 117 95 183 117 95 183 117 95 183 117 95 183 117 95 183 117 95 183 117 95 183 117 95 184 117 95 184 117 95 184 117 95 184 117 95 184 117 95 184 117 95 184 117 95 184 117 95 184 117 95 184 117 95 184 117 95 184 117 95 184 118 95 184 118 95 184 118 95 184 118 95 184 118 95 184 118 95 184 118 95 184 118 95 184 118 95 184 118 95 184 118 95 184 118 95 184 118 95 184 118 95 184 118 95 184 118 95 184 118 95 184 118 96 184 118 96 184 118 96 184 118 96 184 118 96 184 118 96 184 118 96 184 118 96 184 118 41 100 34 45 106 40 48 110 44 50 113 47 52 116 50 53 118 53 54 120 55 56 121 57 57 122 59 57 123 60 58 124 62 59 125 63 60 126 64 60 126 66 61 127 67 61 127 68 62 127 69 62 128 70 62 128 71 63 128 71 63 128 72 63 128 73 63 128 74 63 127 74 64 127 75 64 127 75 64 127 76 64 126 76 64 126 77 64 126 77 64 125 77 64 125 78 64 124 78 64 123 78 64 123 79 64 122 79 63 122 79 63 121 79 63 120 79 63 119 80 63 119 80 63 118 80 62 117 80 62 116 80 62 115 80 62 114 80 61 113 80 61 112 80 61 111 80 60 110 79 60 109 79 60 108 79 59 107 79 59 106 79 58 104 79 58 103 78 57 102 78 57 101 78 56 99 78 56 98 77 55 97 77 55 95 77 54 94 76 54 92 76 53 91 75 53 89 75 52 88 74 51 86 74 51 85 73 50 83 73 49 81 72 48 80 72 48 78 71 47 76 70 46 74 70 45 72 69 45 71 68 44 69 67 43 67 67 42 65 66 41 63 65 40 60 64 39 58 63 38 56 62 37 54 61 36 51 60 35 49 59 34 47 58 33 44 56 32 42 55 30 39 54 29 36 53 28 33 51 26 30 50 25 27 48 23 24 47 22 21 45 20 18 43 19 14 41 17 11 39 15 7 37 13 3 35 11 0 32 8 0 29 6 0 26 3 0 23 0 0 19 0 0 14 0 0 8 96 184 119 96 184 119 96 184 119 96 184 118 96 184 118 96 184 118 96 184 118 96 184 118 96 184 118 96 184 118 96 184 118 96 184 118 96 184 118 96 184 118 96 184 118 96 184 118 96 184 118 96 184 118 96 184 118 96 184 118 96 184 118 96 184 118 96 184 118 96 184 118 96 184 118 96 184 118 96 184 118 96 184 118 96 184 118 96 184 118 96 184 118 96 184 118 96 184 118 96 184 118 96 184 118 96 184 118 96 184 118 96 184 118 96 184 118 96 184 118 96 184 118 96 184 118 96 184 118 96 184 118 96 184 118 96 184 118 96 184 118 96 184 118 95 184 118 95 184 118 95 184 118 95 184 118 95 184 118 95 184 118 95 184 118 95 184 118 95 184 118 95 184 118 95 184 118 95 184 118 95 184 118 95 184 118 95 184 118 95 184 118 95 184 118 95 184 118 95 184 118 95 184 117 95 184 117 95 184 117 95 184 117 95 184 117 95 184 117 95 184 117 95 184 117 95 184 117 95 184 117 95 184 117 95 184 117 95 183 117 95 183 117 95 183 117 95 183 117 95 183 117 95 183 117 95 183 117 95 183 117 95 183 117 95 183 117 95 183 117 95 183 117 95 183 117 95 183 117 95 183 117 95 183 117 95 183 117 95 183 117 95 183 117 95 183 117 95 183 117 95 183 117 95 183 117 95 183 117 95 183 117 95 183 117 95 183 116 95 183 116 95 183 116 95 183 116 95 183 116 95 183 116 95 183 116 95 183 116 95 183 116 95 183 116 95 183 116 95 183 116 95 183 116 95 183 116 95 183 116 95 183 116 95 183 116 95 183 116 95 183 116 94 183 116 94 183 116 94 183 116 94 183 116 94 183 116 94 183 116 94 183 116 94 183 116 94 183 116 94 183 116 94 183 116 94 183 115 94 183 115 94 183 115
97 185 121 97 185 121 97 185 121 97 185 121 97 185 121 97 185 121 97 185 121 97 185 121 97 185 121 97 185 121 97 185 121 97 185 121 97 186 121 97 186 121 97 186 121 97 186 121 97 186 121 97 186 121 97 186 121 97 186 121 97 186 121 97 186 122 97 186 122 97 186 122 97 186 122 97 186 122 97 186 122 97 186 122 97 186 122 97 186 122 97 186 122 97 186 122 97 186 122 97 186 122 97 186 122 97 186 122 98 186 122 98 186 122 98 186 122 98 186 122 98 186 122 98 186 122 98 186 122 98 186 122 98 186 122 98 186 122 98 186 122 98 186 122 98 186 122 98 186 122 98 186 122 98 186 122 98 186 122 98 186 122 98 186 122 98 186 122 98 186 122 98 186 122 98 186 122 98 186 122 98 186 122 98 186 122 98 186 122 98 186 123 98 186 123 98 186 123 98 186 123 98 186 123 98 186 123 98 186 123 98 186 123 98 186 123 98 186 123 40 98 32 44 104 38 47 109 42 49 112 46 50 114 48 52 116 51 53 118 53 54 119 55 55 121 57 56 122 58 57 122 60 58 123 61 58 124 63 59 124 64 59 125 65 60 125 66 60 125 67 61 126 68 61 126 69 61 126 69 62 126 70 62 126 71 62 126 72 62 126 72 62 125 73 62 125 73 63 125 74 63 124 74 63 124 75 63 124 75 63 123 76 63 123 76 63 122 76 63 122 76 62 121 77 62 120 77 62 120 77 62 119 77 62 118 77 62 117 78 62 117 78 61 116 78 61 115 78 61 114 78 61 113 78 60 112 78 60 111 78 60 110 78 59 109 78 59 108 78 59 107 77 58 106 77 58 105 77 57 104 77 57 102 77 57 101 76 56 100 76 56 99 76 55 97 76 55 96 75 54 95 75 54 93 75 53 92 74 52 90 74 52 89 73 51 87 73 51 86 72 50 84 72 49 83 71 49 81 71 48 79 70 47 78 70 47 76 69 46 74 68 45 72 68 44 71 67 43 69 66 43 67 65 42 65 65 41 63 64 40 61 63 39 58 62 38 56 61 37 54 60 36 52 59 35 50 58 34 47 57 33 45 56 32 42 55 30 40 53 29 37 52 28 34 51 26 31 49 25 29 48 24 26 46 22 22 45 21 19 43 19 16 41 17 12 39 16 9 37 14 5 35 12 1 33 10 0 30 7 0 28 5 0 25 2 0 21 0 0 17 0 0 13 0 0 6 98 186 123 98 186 123 98 186 123 98 186 123 98 186 123 98 186 123 98 186 123 98 186 123 98 186 123 98 186 123 98 186 123 98 186 123 98 186 123 98 186 123 98 186 123 98 186 123 98 186 123 98 186 123 98 186 123 98 186 123 98 186 123 98 186 123 98 186 123 98 186 123 98 186 123 98 186 123 98 186 123 98 186 123 98 186 123 98 186 123 98 186 123 98 186 123 98 186 123 98 186 123 98 186 123 98 186 123 98 186 123 98 186 123 98 186 123 98 186 123 98 186 123 98 186 123 98 186 123 98 186 123 98 186 123 98 186 123 98 186 123 98 186 123 98 186 123 98 186 122 98 186 122 98 186 122 98 186 122 98 186 122 98 186 122 98 186 122 98 186 122 98 186 122 98 186 122 98 186 122 98 186 122 98 186 122 98 186 122 98 186 122 98 186 122 98 186 122 98 186 122 98 186 122 98 186 122 98 186 122 98 186 122 98 186 122 98 186 122 98 186 122 98 186 122 98 186 122 97 186 122 97 186 122 97 186 122 97 186 122 97 186 122 97 186 122 97 186 122 97 186 122 97 186 122 97 186 122 97 186 122 97 186 122 97 186 122 97 186 122 97 186 121 97 186 121 97 186 121 97 186 121 97 186 121 97 186 121 97 186 121 97 186 121 97 186 121 97 186 121 97 185 121 97 185 121 97 185 121 97 185 121 97 185 121 97 185 121 97 185 121 97 185 121 97 185 121 97 185 121 97 185 121 97 185 121 97 185 121 97 185 121 97 185 121 97 185 121 97 185 121 97 185 121 97 185 121 97 185 121 97 185 121 97 185 121 97 185 120 97 185 120 97 185 120 97 185 120 97 185 120 97 185 120 97 185 120 97 185 120 97 185 120 97 185 120 97 185 120 97 185 120 97 185 120 97 185 120 97 185 120 97 185 120
99 188 125 99 188 125 99 188 125 99 188 125 99 188 125 99 188 126 99 188 126 99 188 126 99 188 126 99 188 126 99 188 126 99 188 126 99 188 126 99 188 126 99 188 126 99 188 126 99 188 126 100 188 126 100 188 126 100 188 126 100 188 126 100 188 126 100 188 126 100 188 126 100 188 126 100 188 126 100 188 126 100 188 126 100 188 126 100 188 126 100 188 126 100 188 126 100 188 126 100 188 126 100 188 126 100 188 126 100 188 126 100 188 126 100 188 126 100 188 126 100 188 127 100 188 127 100 188 127 100 188 127 100 188 127 100 188 127 100 188 127 100 188 127 100 188 127 100 188 127 100 188 127 100 188 127 100 188 127 100 188 127 100 188 127 100 188 127 100 188 127 100 188 127 100 188 127 100 188 127 100 188 127 100 188 127 100 188 127 100 188 127 100 188 127 100 188 127 100 188 127 100 188 127 100 188 127 100 188 127 100 188 127 100 188 127 100 188 127 39 97 31 43 103 36 45 107 40 48 110 44 49 112 47 51 114 49 52 116 51 53 117 53 54 119 55 55 120 56 56 121 58 56 121 59 57 122 61 58 122 62 58 123 63 59 123 64 59 124 65 59 124 66 60 124 67 60 124 68 60 124 68 61 124 69 61 124 70 61 124 70 61 123 71 61 123 71 61 123 72 61 122 72 61 122 73 61 122 73 61 121 74 61 121 74 61 120 74 61 120 75 61 119 75 61 118 75 61 118 75 61 117 75 61 116 76 60 115 76 60 115 76 60 114 76 60 113 76 60 112 76 59 111 76 59 110 76 59 109 76 58 108 76 58 107 76 58 106 76 57 105 75 57 104 75 57 103 75 56 102 75 56 101 75 55 99 75 55 98 74 54 97 74 54 95 74 53 94 73 53 93 73 52 91 73 52 90 72 51 89 72 51 87 71 50 86 71 49 84 70 49 82 70 48 81 69 47 79 69 47 77 68 46 76 68 45 74 67 44 72 66 44 70 66 43 69 65 42 67 64 41 65 63 40 63 63 40 61 62 39 59 61 38 57 60 37 54 59 36 52 58 35 50 57 34 48 56 33 45 55 31 43 54 30 40 53 29 38 51 28 35 50 27 32 49 25 30 47 24 27 46 22 24 44 21 21 43 19 17 41 18 14 39 16 10 37 14 7 35 12 3 33 10 0 31 8 0 28 6 0 26 3 0 23 1 0 19 0 0 15 0 0 11 0 0 4 100 189 128 100 189 128 100 189 128 100 189 128 100 189 128 100 189 128 100 189 128 100 189 128 100 189 128 100 189 128 100 189 128 100 189 128 100 189 128 100 189 128 100 189 128 100 189 128 100 189 128 100 189 127 100 189 127 100 189 127 100 189 127 100 189 127 100 189 127 100 189 127 100 189 127 100 189 127 100 189 127 100 189 127 100 189 127 100 189 127 100 189 127 100 189 127 100 189 127 100 189 127 100 189 127 100 189 127 100 188 127 100 188 127 100 188 127 100 188 127 100 188 127 100 188 127 100 188 127 100 188 127 100 188 127 100 188 127 100 188 127 100 188 127 100 188 127 100 188 127 100 188 127 100 188 127 100 188 127 100 188 127 100 188 127 100 188 127 100 188 127 100 188 127 100 188 127 100 188 127 100 188 127 100 188 127 100 188 127 100 188 127 100 188 127 100 188 127 100 188 127 100 188 127 100 188 127 100 188 127 100 188 126 100 188 126 100 188 126 100 188 126 100 188 126 100 188 126 100 188 126 100 188 126 100 188 126 100 188 126 100 188 126 100 188 126 100 188 126 100 188 126 100 188 126 100 188 126 100 188 126 100 188 126 100 188 126 100 188 126 100 188 126 100 188 126 100 188 126 99 188 126 99 188 126 99 188 126 99 188 126 99 188 126 99 188 126 99 188 126 99 188 126 99 188 126 99 188 126 99 188 126 99 188 126 99 188 126 99 188 125 99 188 125 99 188 125 99 188 125 99 188 125 99 188 125 99 188 125 99 188 125 99 187 125 99 187 125 99 187 125 99 187 125 99 187 125 99 187 125 99 187 125 99 187 125 99 187 125 99 187 125 99 187 125 99 187 125 99 187 125 99 187 125 99 187 125 99 187 125 99 187 125 99 187 125 99 187 125 99 187 125 99 187 124 99 187 124 99 187 124 99 187 124
101 190 130 101 190 130 101 190 130 101 190 130 101 190 130 101 190 130 102 190 130 102 190 130 102 190 130 102 190 130 102 190 130 102 190 130 102 190 130 102 190 130 102 190 130 102 190 130 102 190 130 102 190 130 102 190 130 102 190 130 102 190 130 102 190 130 102 190 130 102 190 130 102 190 130 102 190 130 102 190 131 102 190 131 102 190 131 102 190 131 102 190 131 102 190 131 102 190 131 102 190 131 102 190 131 102 190 131 102 190 131 102 190 131 102 190 131 102 190 131 102 190 131 102 190 131 102 190 131 102 190 131 102 190 131 102 190 131 102 190 131 102 190 131 102 190 131 102 190 131 102 190 131 102 190 131 102 190 131 102 190 131 102 190 131 102 191 131 102 191 131 102 191 131 102 191 131 102 191 131 102 191 131 102 191 131 102 191 131 102 191 131 102 191 131 102 191 131 102 191 131 102 191 131 102 191 131 102 191 132 102 191 132 102 191 132 102 191 132 38 95 29 42 101 34 44 105 38 46 108 42 48 110 45 49 112 47 51 114 49 52 115 51 53 117 53 54 118 54 54 119 56 55 119 57 56 120 59 56 121 60 57 121 61 57 121 62 58 122 63 58 122 64 59 122 65 59 122 66 59 122 66 59 122 67 60 122 68 60 122 68 60 121 69 60 121 69 60 121 70 60 120 70 60 120 71 60 120 71 60 119 72 60 119 72 60 118 72 60 118 73 60 117 73 60 116 73 60 116 73 60 115 73 59 114 74 59 114 74 59 113 74 59 112 74 59 111 74 58 110 74 58 109 74 58 108 74 57 107 74 57 106 74 57 105 74 56 104 74 56 103 74 56 102 73 55 101 73 55 100 73 55 99 73 54 97 73 54 96 72 53 95 72 53 94 72 52 92 71 52 91 71 51 89 71 51 88 70 50 87 70 49 85 69 49 84 69 48 82 68 47 80 68 47 79 67 46 77 67 45 76 66 45 74 66 44 72 65 43 70 64 42 68 64 42 67 63 41 65 62 40 63 61 39 61 61 38 59 60 37 57 59 36 55 58 35 52 57 34 50 56 33 48 55 32 46 54 31 43 53 30 41 52 29 38 51 28 36 49 27 33 48 25 30 47 24 28 45 23 25 44 21 22 42 20 19 41 18 15 39 17 12 37 15 9 35 13 5 33 11 1 31 9 0 29 7 0 26 5 0 24 2 0 21 0 0 17 0 0 14 0 0 9 0 0 2 103 191 132 103 191 132 103 191 132 103 191 132 103 191 132 103 191 132 103 191 132 103 191 132 103 191 132 103 191 132 103 191 132 103 191 132 103 191 132 103 191 132 103 191 132 102 191 132 102 191 132 102 191 132 102 191 132 102 191 132 102 191 132 102 191 132 102 191 132 102 191 132 102 191 132 102 191 132 102 191 132 102 191 132 102 191 132 102 191 132 102 191 132 102 191 132 102 191 132 102 191 132 102 191 132 102 191 132 102 191 132 102 191 132 102 191 132 102 191 132 102 191 131 102 191 131 102 191 131 102 191 131 102 191 131 102 191 131 102 191 131 102 191 131 102 191 131 102 191 131 102 191 131 102 191 131 102 191 131 102 191 131 102 190 131 102 190 131 102 190 131 102 190 131 102 190 131 102 190 131 102 190 131 102 190 131 102 190 131 102 190 131 102 190 131 102 190 131 102 190 131 102 190 131 102 190 131 102 190 131 102 190 131 102 190 131 102 190 131 102 190 131 102 190 131 102 190 131 102 190 131 102 190 131 102 190 131 102 190 131 102 190 131 102 190 131 102 190 131 102 190 130 102 190 130 102 190 130 102 190 130 102 190 130 102 190 130 102 190 130 102 190 130 102 190 130 102 190 130 102 190 130 102 190 130 102 190 130 102 190 130 102 190 130 102 190 130 102 190 130 102 190 130 102 190 130 102 190 130 101 190 130 101 190 130 101 190 130 101 190 130 101 190 130 101 190 130 101 190 130 101 190 130 101 190 130 101 190 130 101 190 130 101 190 130 101 190 129 101 190 129 101 190 129 101 190 129 101 190 129 101 190 129 101 190 129 101 190 129 101 189 129 101 189 129 101 189 129 101 189 129 101 189 129 101 189 129 101 189 129 101 189 129 101 189 129 101 189 129 101 189 129 101 189 129 101 189 129 101 189 129 101 189 129
104 192 134 104 192 134 104 192 134 104 192 134 104 192 134 104 192 134 104 192 134 104 192 134 104 192 134 104 192 134 104 192 134 104 192 134 104 192 134 104 192 134 104 192 134 104 192 134 104 192 134 104 192 134 104 192 135 104 192 135 104 192 135 104 192 135 104 192 135 104 192 135 104 192 135 104 192 135 104 192 135 104 192 135 104 192 135 104 192 135 104 192 135 104 192 135 104 192 135 104 192 135 104 192 135 104 192 135 104 192 135 104 192 135 104 192 135 104 192 135 104 192 135 104 192 135 104 192 135 104 192 135 104 193 135 104 193 135 104 193 135 104 193 135 104 193 135 104 193 135 104 193 135 104 193 135 104 193 135 104 193 135 104 193 135 104 193 135 104 193 135 104 193 136 104 193 136 104 193 136 104 193 136 104 193 136 104 193 136 104 193 136 104 193 136 104 193 136 104 193 136 104 193 136 104 193 136 104 193 136 104 193 136 104 193 136 104 193 136 37 93 27 40 99 32 43 103 36 45 106 40 47 108 43 48 110 45 49 112 47 50 113 49 51 115 51 52 116 52 53 117 54 54 117 55 54 118 57 55 118 58 56 119 59 56 119 60 56 120 61 57 120 62 57 120 63 58 120 64 58 120 64 58 120 65 58 120 66 58 120 66 59 119 67 59 119 67 59 119 68 59 118 68 59 118 69 59 118 69 59 117 70 59 117 70 59 116 70 59 116 71 59 115 71 59 114 71 58 114 71 58 113 71 58 112 72 58 112 72 58 111 72 58 110 72 57 109 72 57 108 72 57 107 72 56 106 72 56 105 72 56 104 72 56 103 72 55 102 72 55 101 72 54 100 71 54 99 71 54 98 71 53 97 71 53 95 71 52 94 70 52 93 70 51 92 70 51 90 69 50 89 69 50 87 69 49 86 68 49 85 68 48 83 67 47 82 67 47 80 67 46 78 66 46 77 65 45 75 65 44 74 64 43 72 64 43 70 63 42 68 62 41 66 62 40 65 61 40 63 60 39 61 59 38 59 59 37 57 58 36 55 57 35 53 56 34 50 55 33 48 54 32 46 53 31 44 52 30 41 51 29 39 50 28 36 49 26 34 47 25 31 46 24 28 45 23 26 43 21 23 42 20 20 40 18 17 39 17 13 37 15 10 35 13 6 33 12 3 31 10 0 29 8 0 27 6 0 24 3 0 22 1 0 19 0 0 15 0 0 11 0 0 7 0 0 0 105 193 136 105 193 136 105 193 136 105 193 136 105 193 136 105 193 136 105 193 136 105 193 136 105 193 136 105 193 136 105 193 136 105 193 136 105 193 136 105 193 136 105 193 136 105 193 136 105 193 136 105 193 136 105 193 136 105 193 136 105 193 136 105 193 136 105 193 136 105 193 136 105 193 136 105 193 136 105 193 136 105 193 136 105 193 136 105 193 136 105 193 136 104 193 136 104 193 136 104 193 136 104 193 136 104 193 136 104 193 136 104 193 136 104 193 136 104 193 136 104 193 136 104 193 136 104 193 136 104 193 136 104 193 136 104 193 136 104 193 136 104 193 136 104 193 136 104 193 136 104 193 136 104 193 135 104 193 135 104 193 135 104 193 135 104 193 135 104 193 135 104 193 135 104 193 135 104 193 135 104 193 135 104 193 135 104 193 135 104 192 135 104 192 135 104 192 135 104 192 135 104 192 135 104 192 135 104 192 135 104 192 135 104 192 135 104 192 135 104 192 135 104 192 135 104 192 135 104 192 135 104 192 135 104 192 135 104 192 135 104 192 135 104 192 135 104 192 135 104 192 135 104 192 135 104 192 135 104 192 135 104 192 135 104 192 135 104 192 135 104 192 134 104 192 134 104 192 134 104 192 134 104 192 134 104 192 134 104 192 134 104 192 134 104 192 134 104 192 134 104 192 134 104 192 134 104 192 134 104 192 134 104 192 134 104 192 134 104 192 134 104 192 134 104 192 134 103 192 134 103 192 134 103 192 134 103 192 134 103 192 134 103 192 134 103 192 134 103 192 134 103 192 134 103 192 134 103 192 134 103 192 133 103 192 133 103 192 133 103 192 133 103 192 133 103 192 133 103 192 133 103 191 133 103 191 133 103 191 133 103 191 133 103 191 133 103 191 133 103 191 133 103 191 133 103 191 133 103 191 133 103 191 133
106 194 138 106 194 138 106 194 138 106 194 138 106 194 138 106 194 138 106 194 138 106 194 138 106 194 138 106 194 138 106 194 138 106 194 138 106 194 138 106 194 138 106 194 139 106 194 139 106 194 139 106 194 139 106 194 139 106 194 139 106 194 139 106 194 139 106 194 139 106 194 139 106 194 139 106 194 139 106 194 139 106 194 139 106 194 139 106 194 139 106 194 139 106 194 139 106 194 139 106 194 139 106 194 139 106 194 139 106 194 139 106 194 139 106 194 139 106 194 139 106 195 139 106 195 139 106 195 139 106 195 139 106 195 139 106 195 139 106 195 139 106 195 139 106 195 139 106 195 139 106 195 139 106 195 139 106 195 140 106 195 140 106 195 140 106 195 140 106 195 140 106 195 140 106 195 140 106 195 140 106 195 140 106 195 140 106 195 140 106 195 140 106 195 140 106 195 140 106 195 140 106 195 140 106 195 140 106 195 140 106 195 140 107 195 140 107 195 140 35 91 25 39 97 30 42 101 34 44 104 38 45 106 40 47 108 43 48 110 45 49 111 47 50 113 49 51 114 50 52 114 52 53 115 53 53 116 55 54 116 56 54 117 57 55 117 58 55 117 59 56 118 60 56 118 61 56 118 62 56 118 62 57 118 63 57 118 64 57 118 64 57 117 65 57 117 65 57 117 66 58 116 66 58 116 67 58 116 67 58 115 68 58 115 68 57 114 68 57 114 69 57 113 69 57 112 69 57 112 69 57 111 69 57 110 70 57 109 70 56 109 70 56 108 70 56 107 70 56 106 70 55 105 70 55 104 70 55 103 70 55 102 70 54 101 70 54 100 70 54 99 70 53 98 69 53 97 69 52 96 69 52 95 69 51 93 69 51 92 68 51 91 68 50 89 68 50 88 67 49 87 67 48 85 67 48 84 66 47 83 66 47 81 65 46 80 65 46 78 64 45 76 64 44 75 63 44 73 63 43 71 62 42 70 62 41 68 61 41 66 60 40 64 60 39 63 59 38 61 58 37 59 57 37 57 57 36 55 56 35 53 55 34 51 54 33 48 53 32 46 52 31 44 51 30 42 50 29 39 49 28 37 48 26 34 47 25 32 45 24 29 44 23 26 43 21 23 41 20 21 40 19 18 38 17 14 37 15 11 35 14 8 33 12 4 31 10 1 29 8 0 27 6 0 25 4 0 22 2 0 20 0 0 17 0 0 13 0 0 9 0 0 5 0 0 0 107 195 140 107 195 140 107 195 140 107 195 140 107 195 140 107 195 140 107 195 140 107 195 140 107 195 140 107 195 140 107 195 140 107 195 140 107 195 140 107 195 140 107 195 140 107 195 140 107 195 140 107 195 140 107 195 140 107 195 140 107 195 140 107 195 140 107 195 140 107 195 140 107 195 140 107 195 140 107 195 140 107 195 140 107 195 140 107 195 140 107 195 140 107 195 140 107 195 140 107 195 140 107 195 140 106 195 140 106 195 140 106 195 140 106 195 140 106 195 140 106 195 140 106 195 140 106 195 140 106 195 140 106 195 140 106 195 140 106 195 140 106 195 140 106 195 140 106 195 140 106 195 140 106 195 140 106 195 140 106 195 140 106 195 139 106 195 139 106 195 139 106 195 139 106 195 139 106 195 139 106 195 139 106 195 139 106 195 139 106 195 139 106 195 139 106 195 139 106 194 139 106 194 139 106 194 139 106 194 139 106 194 139 106 194 139 106 194 139 106 194 139 106 194 139 106 194 139 106 194 139 106 194 139 106 194 139 106 194 139 106 194 139 106 194 139 106 194 139 106 194 139 106 194 139 106 194 139 106 194 139 106 194 139 106 194 139 106 194 139 106 194 139 106 194 139 106 194 138 106 194 138 106 194 138 106 194 138 106 194 138 106 194 138 106 194 138 106 194 138 106 194 138 106 194 138 106 194 138 106 194 138 106 194 138 106 194 138 106 194 138 106 194 138 106 194 138 106 194 138 105 194 138 105 194 138 105 194 138 105 194 138 105 194 138 105 194 138 105 194 138 105 194 138 105 194 138 105 194 138 105 194 138 105 194 137 105 194 137 105 194 137 105 194 137 105 194 137 105 194 137 105 194 137 105 193 137 105 193 137 105 193 137 105 193 137 105 193 137 105 193 137 105 193 137 105 193 137 105 193 137 105 193 137
108 196 142 108 196 142 108 196 142 108 196 142 108 196 142 108 196 142 108 196 142 108 196 142 108 196 142 108 196 142 108 196 142 108 196 142 108 196 142 108 196 142 108 196 142 108 196 143 108 196 143 108 196 143 108 196 143 108 196 143 108 196 143 108 196 143 108 196 143 108 196 143 108 196 143 108 196 143 108 196 143 108 196 143 108 196 143 108 196 143 108 196 143 108 196 143 108 196 143 108 196 143 108 196 143 108 196 143 108 196 143 108 196 143 108 196 143 108 196 143 108 196 143 108 197 143 108 197 143 108 197 143 108 197 143 108 197 143 108 197 143 108 197 143 108 197 143 108 197 143 108 197 143 108 197 143 108 197 143 108 197 144 108 197 144 108 197 144 108 197 144 108 197 144 108 197 144 108 197 144 108 197 144 108 197 144 108 197 144 108 197 144 108 197 144 108 197 144 108 197 144 108 197 144 108 197 144 108 197 144 108 197 144 108 197 144 109 197 144 34 88 22 37 94 28 40 98 32 42 101 36 44 104 38 45 106 41 47 108 43 48 109 45 49 110 47 50 111 48 50 112 50 51 113 51 52 114 53 52 114 54 53 115 55 53 115 56 54 115 57 54 116 58 55 116 59 55 116 59 55 116 60 55 116 61 56 116 62 56 115 62 56 115 63 56 115 63 56 115 64 56 114 64 56 114 65 56 114 65 56 113 66 56 113 66 56 112 66 56 112 67 56 111 67 56 110 67 56 110 67 56 109 67 55 108 68 55 107 68 55 107 68 55 106 68 55 105 68 54 104 68 54 103 68 54 102 68 54 101 68 53 100 68 53 99 68 53 98 68 52 97 68 52 96 67 51 95 67 51 94 67 51 93 67 50 91 67 50 90 66 49 89 66 49 87 66 48 86 65 48 85 65 47 83 65 47 82 64 46 80 64 45 79 63 45 77 63 44 76 62 44 74 62 43 73 61 42 71 61 42 69 60 41 68 60 40 66 59 39 64 58 39 62 58 38 60 57 37 59 56 36 57 55 35 55 55 34 53 54 33 51 53 32 48 52 31 46 51 30 44 50 29 42 49 28 39 48 27 37 47 26 35 46 25 32 45 24 30 43 23 27 42 21 24 41 20 21 39 19 18 38 17 15 36 16 12 35 14 9 33 12 6 31 11 2 29 9 0 27 7 0 25 5 0 23 3 0 20 1 0 17 0 0 14 0 0 11 0 0 7 0 0 2 0 0 0 109 197 144 109 197 144 109 197 144 109 197 144 109 197 144 109 197 144 109 197 144 109 197 144 109 197 144 109 197 144 109 197 144 109 197 144 109 197 144 109 197 144 109 197 144 109 197 144 109 197 144 109 197 144 109 197 144 109 197 144 109 197 144 109 197 144 109 197 144 109 197 144 109 197 144 109 197 144 109 197 144 109 197 144 109 197 144 109 197 144 109 197 144 109 197 144 108 197 144 108 197 144 108 197 144 108 197 144 108 197 144 108 197 144 108 197 144 108 197 144 108 197 144 108 197 144 108 197 144 108 197 144 108 197 144 108 197 144 108 197 144 108 197 144 108 197 144 108 197 144 108 197 144 108 197 144 108 197 143 108 197 143 108 197 143 108 197 143 108 197 143 108 197 143 108 197 143 108 197 143 108 197 143 108 197 143 108 197 143 108 197 143 108 196 143 108 196 143 108 196 143 108 196 143 108 196 143 108 196 143 108 196 143 108 196 143 108 196 143 108 196 143 108 196 143 108 196 143 108 196 143 108 196 143 108 196 143 108 196 143 108 196 143 108 196 143 108 196 143 108 196 143 108 196 143 108 196 143 108 196 143 108 196 143 108 196 143 108 196 142 108 196 142 108 196 142 108 196 142 108 196 142 108 196 142 108 196 142 108 196 142 108 196 142 108 196 142 108 196 142 108 196 142 108 196 142 108 196 142 108 196 142 108 196 142 108 196 142 108 196 142 108 196 142 107 196 142 107 196 142 107 196 142 107 196 142 107 196 142 107 196 142 107 196 142 107 196 142 107 196 142 107 196 142 107 196 142 107 196 141 107 196 141 107 196 141 107 196 141 107 196 141 107 196 141 107 196 141 107 195 141 107 195 141 107 195 141 107 195 141 107 195 141 107 195 141 107 195 141 107 195 141 107 195 141 107 195 141 107 195 141 107 195 141
109 198 146 110 198 146 110 198 146 110 198 146 110 198 146 110 198 146 110 198 146 110 198 146 110 198 146 110 198 146 110 198 146 110 198 146 110 198 146 110 198 146 110 198 146 110 198 146 110 198 146 110 198 146 110 198 146 110 198 146 110 198 147 110 198 147 110 198 147 110 198 147 110 198 147 110 198 147 110 198 147 110 198 147 110 198 147 110 198 147 110 198 147 110 198 147 110 198 147 110 198 147 110 198 147 110 198 147 110 198 147 110 198 147 110 198 147 110 198 147 110 198 147 110 198 147 110 198 147 110 198 147 110 198 147 110 198 147 110 198 147 110 199 147 110 199 147 110 199 147 110 199 147 110 199 147 110 199 147 110 199 147 110 199 147 110 199 147 110 199 147 110 199 147 110 199 147 110 199 147 110 199 148 110 199 148 110 199 148 110 199 148 110 199 148 110 199 148 110 199 148 110 199 148 110 199 148 110 199 148 110 199 148 110 199 148 110 199 148 32 86 20 36 92 26 39 96 30 41 99 33 42 102 36 44 104 39 45 105 41 46 107 43 47 108 45 48 109 46 49 110 48 50 111 49 50 112 50 51 112 52 52 113 53 52 113 54 52 113 55 53 113 56 53 114 57 54 114 57 54 114 58 54 114 59 54 114 60 54 113 60 55 113 61 55 113 61 55 113 62 55 112 62 55 112 63 55 111 63 55 111 64 55 111 64 55 110 64 55 109 64 55 109 65 55 108 65 54 108 65 54 107 65 54 106 65 54 105 66 54 105 66 54 104 66 53 103 66 53 102 66 53 101 66 53 100 66 52 99 66 52 98 66 52 97 66 51 96 66 51 95 65 51 94 65 50 93 65 50 92 65 49 90 65 49 89 65 48 88 64 48 87 64 47 85 64 47 84 63 46 83 63 46 81 63 45 80 62 45 78 62 44 77 61 43 75 61 43 74 60 42 72 60 42 71 59 41 69 59 40 67 58 39 66 58 39 64 57 38 62 56 37 60 56 36 58 55 36 56 54 35 55 53 34 53 53 33 51 52 32 48 51 31 46 50 30 44 49 29 42 48 28 40 47 27 37 46 26 35 45 25 33 44 24 30 42 22 27 41 21 25 40 20 22 39 19 19 37 17 16 36 16 13 34 14 10 33 13 7 31 11 4 29 9 0 27 8 0 25 6 0 23 4 0 21 2 0 18 0 0 15 0 0 12 0 0 9 0 0 5 0 0 0 0 0 0 111 199 148 111 199 148 111 199 148 111 199 148 111 199 148 111 199 148 111 199 148 111 199 148 111 199 148 111 199 148 111 199 148 111 199 148 111 199 148 111 199 148 111 199 148 111 199 148 111 199 148 111 199 148 111 199 148 111 199 148 111 199 148 111 199 148 110 199 148 110 199 148 110 199 148 110 199 148 110 199 148 110 199 148 110 199 148 110 199 148 110 199 148 110 199 148 110 199 148 110 199 148 110 199 148 110 199 148 110 199 148 110 199 148 110 199 148 110 199 148 110 199 148 110 199 148 110 199 148 110 199 147 110 199 147 110 199 147 110 199 147 110 199 147 110 199 147 110 199 147 110 199 147 110 199 147 110 199 147 110 199 147 110 199 147 110 199 147 110 198 147 110 198 147 110 198 147 110 198 147 110 198 147 110 198 147 110 198 147 110 198 147 110 198 147 110 198 147 110 198 147 110 198 147 110 198 147 110 198 147 110 198 147 110 198 147 110 198 147 110 198 147 110 198 147 110 198 147 110 198 147 110 198 147 110 198 147 110 198 147 110 198 147 110 198 147 110 198 147 110 198 146 110 198 146 110 198 146 110 198 146 110 198 146 110 198 146 110 198 146 110 198 146 110 198 146 110 198 146 110 198 146 110 198 146 110 198 146 110 198 146 110 198 146 110 198 146 110 198 146 110 198 146 110 198 146 109 198 146 109 198 146 109 198 146 109 198 146 109 198 146 109 198 146 109 198 146 109 198 146 109 198 146 109 198 146 109 198 146 109 198 145 109 198 145 109 198 145 109 198 145 109 198 145 109 198 145 109 198 145 109 198 145 109 197 145 109 197 145 109 197 145 109 197 145 109 197 145 109 197 145 109 197 145 109 197 145 109 197 145 109 197 145 109 197 145 109 197 145 109 197 145 109 197 145 109 197 145 109 197 145 109 197 145
111 200 150 111 200 150 111 200 150 111 200 150 111 200 150 111 200 150 111 200 150 111 200 150 111 200 150 111 200 150 112 200 150 112 200 150 112 200 150 112 200 150 112 200 150 112 200 150 112 200 150 112 200 150 112 200 150 112 200 150 112 200 150 112 200 150 112 200 150 112 200 150 112 200 150 112 200 150 112 200 150 112 200 150 112 200 150 112 200 150 112 200 151 112 200 151 112 200 151 112 200 151 112 200 151 112 200 151 112 200 151 112 200 151 112 200 151 112 200 151 112 200 151 112 200 151 112 200 151 112 200 151 112 200 151 112 200 151 112 200 151 112 200 151 112 200 151 112 200 151 112 200 151 112 200 151 112 200 151 112 200 151 112 200 151 112 200 151 112 200 151 112 200 151 112 200 151 112 200 151 112 201 151 112 201 151 112 201 151 112 201 151 112 201 151 112 201 151 112 201 151 112 201 151 112 201 151 112 201 151 112 201 151 112 201 151 112 201 151 30 83 17 34 89 24 37 94 28 39 97 31 41 99 34 43 101 36 44 103 39 45 105 41 46 106 42 47 107 44 48 108 46 48 109 47 49 109 48 50 110 49 50 110 51 51 111 52 51 111 53 51 111 54 52 111 54 52 112 55 52 112 56 53 111 57 53 111 57 53 111 58 53 111 59 53 111 59 53 110 60 53 110 60 54 110 61 54 109 61 54 109 61 54 108 62 53 108 62 53 107 62 53 107 63 53 106 63 53 105 63 53 105 63 53 104 63 53 103 64 52 102 64 52 102 64 52 101 64 52 100 64 51 99 64 51 98 64 51 97 64 51 96 64 50 95 64 50 94 64 50 93 63 49 92 63 49 91 63 48 90 63 48 88 63 47 87 62 47 86 62 47 85 62 46 83 62 46 82 61 45 81 61 44 79 61 44 78 60 43 76 60 43 75 59 42 73 59 42 72 58 41 70 58 40 69 57 40 67 57 39 65 56 38 64 56 37 62 55 37 60 54 36 58 54 35 56 53 34 54 52 33 52 51 32 50 50 32 48 50 31 46 49 30 44 48 29 42 47 28 40 46 27 38 45 26 35 44 25 33 43 23 30 42 22 28 40 21 25 39 20 23 38 19 20 36 17 17 35 16 14 34 14 11 32 13 8 30 11 5 29 10 1 27 8 0 25 6 0 23 4 0 21 2 0 18 0 0 16 0 0 13 0 0 10 0 0 7 0 0 3 0 0 0 0 0 0 112 201 152 112 201 152 112 201 152 112 201 152 112 201 152 112 201 152 112 201 152 112 201 152 112 201 152 112 201 152 112 201 152 112 201 152 112 201 152 112 201 152 112 201 152 112 201 152 112 201 152 112 201 152 112 201 152 112 201 152 112 201 152 112 201 152 112 201 152 112 201 152 112 201 152 112 201 152 112 201 151 112 201 151 112 201 151 112 201 151 112 201 151 112 201 151 112 201 151 112 201 151 112 201 151 112 201 151 112 201 151 112 201 151 112 201 151 112 201 151 112 201 151 112 201 151 112 200 151 112 200 151 112 200 151 112 200 151 112 200 151 112 200 151 112 200 151 112 200 151 112 200 151 112 200 151 112 200 151 112 200 151 112 200 151 112 200 151 112 200 151 112 200 151 112 200 151 112 200 151 112 200 151 112 200 151 112 200 151 112 200 151 112 200 151 112 200 151 112 200 151 112 200 151 112 200 151 112 200 151 112 200 151 112 200 151 112 200 150 112 200 150 112 200 150 112 200 150 112 200 150 112 200 150 112 200 150 112 200 150 112 200 150 112 200 150 112 200 150 112 200 150 112 200 150 112 200 150 112 200 150 112 200 150 112 200 150 112 200 150 112 200 150 112 200 150 111 200 150 111 200 150 111 200 150 111 200 150 111 200 150 111 200 150 111 200 150 111 200 150 111 200 150 111 200 150 111 200 150 111 200 150 111 200 149 111 200 149 111 200 149 111 200 149 111 200 149 111 200 149 111 200 149 111 200 149 111 199 149 111 199 149 111 199 149 111 199 149 111 199 149 111 199 149 111 199 149 111 199 149 111 199 149 111 199 149 111 199 149 111 199 149 111 199 149 111 199 149 111 199 149 111 199 149 111 199 149 111 199 149 111 199 148 111 199 148 111 199 148 111 199 148 111 199 148 111 199 148 111 199 148 111 199 148
113 201 153 113 201 153 113 202 153 113 202 153 113 202 153 113 202 153 113 202 153 113 202 153 113 202 153 113 202 153 113 202 154 113 202 154 113 202 154 113 202 154 113 202 154 113 202 154 113 202 154 113 202 154 113 202 154 113 202 154 113 202 154 113 202 154 113 202 154 114 202 154 114 202 154 114 202 154 114 202 154 114 202 154 114 202 154 114 202 154 114 202 154 114 202 154 114 202 154 114 202 154 114 202 154 114 202 154 114 202 154 114 202 154 114 202 154 114 202 154 114 202 154 114 202 154 114 202 154 114 202 154 114 202 154 114 202 154 114 202 155 114 202 155 114 202 155 114 202 155 114 202 155 114 202 155 114 202 155 114 202 155 114 202 155 114 202 155 114 202 155 114 202 155 114 202 155 114 202 155 114 202 155 114 202 155 114 202 155 114 202 155 114 202 155 114 202 155 114 202 155 114 202 155 114 202 155 114 202 155 114 202 155 114 202 155 114 202 155 29 80 15 33 87 21 36 91 25 38 94 29 40 97 32 41 99 34 42 101 36 43 102 38 45 104 40 45 105 42 46 106 43 47 107 45 48 107 46 48 108 47 49 108 48 49 109 50 50 109 51 50 109 51 50 109 52 51 109 53 51 109 54 51 109 55 51 109 55 52 109 56 52 109 57 52 109 57 52 108 58 52 108 58 52 108 59 52 107 59 52 107 59 52 106 60 52 106 60 52 105 60 52 105 61 52 104 61 52 103 61 52 103 61 51 102 61 51 101 61 51 100 62 51 100 62 51 99 62 50 98 62 50 97 62 50 96 62 50 95 62 49 94 62 49 93 62 49 92 61 48 91 61 48 90 61 47 89 61 47 87 61 47 86 61 46 85 60 46 84 60 45 82 60 45 81 60 44 80 59 44 78 59 43 77 58 43 76 58 42 74 58 41 73 57 41 71 57 40 70 56 40 68 56 39 66 55 38 65 55 37 63 54 37 61 53 36 60 53 35 58 52 34 56 51 34 54 51 33 52 50 32 50 49 31 48 48 30 46 48 29 44 47 28 42 46 27 40 45 26 38 44 25 35 43 24 33 42 23 31 41 22 28 39 21 26 38 20 23 37 18 20 36 17 18 34 16 15 33 14 12 31 13 9 30 11 6 28 10 2 26 8 0 25 7 0 23 5 0 21 3 0 18 1 0 16 0 0 14 0 0 11 0 0 8 0 0 4 0 0 0 0 0 0 0 0 0 114 203 155 114 203 155 114 203 155 114 203 155 114 203 155 114 203 155 114 203 155 114 203 155 114 203 155 114 203 155 114 203 155 114 203 155 114 203 155 114 203 155 114 203 155 114 203 155 114 203 155 114 202 155 114 202 155 114 202 155 114 202 155 114 202 155 114 202 155 114 202 155 114 202 155 114 202 155 114 202 155 114 202 155 114 202 155 114 202 155 114 202 155 114 202 155 114 202 155 114 202 155 114 202 155 114 202 155 114 202 155 114 202 155 114 202 155 114 202 155 114 202 155 114 202 155 114 202 155 114 202 155 114 202 155 114 202 155 114 202 155 114 202 155 114 202 155 114 202 155 114 202 155 114 202 155 114 202 155 114 202 155 114 202 154 114 202 154 114 202 154 114 202 154 114 202 154 114 202 154 114 202 154 114 202 154 114 202 154 114 202 154 114 202 154 114 202 154 114 202 154 114 202 154 114 202 154 114 202 154 114 202 154 114 202 154 114 202 154 114 202 154 114 202 154 114 202 154 114 202 154 113 202 154 113 202 154 113 202 154 113 202 154 113 202 154 113 202 154 113 202 154 113 202 154 113 202 154 113 202 154 113 202 154 113 202 154 113 202 154 113 202 153 113 202 153 113 202 153 113 202 153 113 202 153 113 202 153 113 202 153 113 202 153 113 202 153 113 201 153 113 201 153 113 201 153 113 201 153 113 201 153 113 201 153 113 201 153 113 201 153 113 201 153 113 201 153 113 201 153 113 201 153 113 201 153 113 201 153 113 201 153 113 201 153 113 201 153 113 201 153 113 201 153 113 201 153 113 201 152 113 201 152 113 201 152 113 201 152 113 201 152 113 201 152 113 201 152 113 201 152 113 201 152 113 201 152 113 201 152 113 201 152 113 201 152 113 201 152 113 201 152 112 201 152 112 201 152 112 201 152 112 201 152
115 203 157 115 203 157 115 203 157 115 203 157 115 203 157 115 203 157 115 203 157 115 203 157 115 203 157 115 203 157 115 203 157 115 203 157 115 203 157 115 203 157 115 203 157 115 203 157 115 203 157 115 203 157 115 204 157 115 204 157 115 204 157 115 204 157 115 204 157 115 204 157 115 204 157 115 204 157 115 204 157 115 204 157 115 204 158 115 204 158 115 204 158 115 204 158 115 204 158 115 204 158 115 204 158 115 204 158 115 204 158 115 204 158 115 204 158 115 204 158 115 204 158 115 204 158 115 204 158 116 204 158 116 204 158 116 204 158 116 204 158 116 204 158 116 204 158 116 204 158 116 204 158 116 204 158 116 204 158 116 204 158 116 204 158 116 204 158 116 204 158 116 204 158 116 204 158 116 204 158 116 204 158 116 204 158 116 204 158 116 204 158 116 204 158 116 204 158 116 204 158 116 204 158 116 204 158 116 204 158 116 204 158 116 204 158 116 204 159 27 77 12 31 84 18 34 89 23 36 92 26 38 95 29 40 97 32 41 98 34 42 100 36 43 101 38 44 102 40 45 103 41 46 104 43 46 105 44 47 105 45 47 106 46 48 106 47 48 107 48 49 107 49 49 107 50 49 107 51 50 107 52 50 107 53 50 107 53 50 107 54 50 107 54 51 106 55 51 106 55 51 106 56 51 105 56 51 105 57 51 105 57 51 104 58 51 104 58 51 103 58 51 102 58 50 102 59 50 101 59 50 100 59 50 100 59 50 99 59 50 98 59 49 97 60 49 97 60 49 96 60 49 95 60 48 94 60 48 93 60 48 92 60 48 91 59 47 90 59 47 89 59 46 88 59 46 86 59 46 85 59 45 84 59 45 83 58 44 82 58 44 80 58 43 79 57 43 78 57 42 76 57 42 75 56 41 73 56 41 72 56 40 71 55 39 69 55 39 67 54 38 66 54 37 64 53 37 63 53 36 61 52 35 59 51 35 57 51 34 56 50 33 54 49 32 52 49 31 50 48 31 48 47 30 46 46 29 44 45 28 42 45 27 40 44 26 38 43 25 35 42 24 33 41 23 31 40 22 28 38 21 26 37 19 23 36 18 21 35 17 18 34 16 15 32 14 13 31 13 10 29 11 7 28 10 3 26 8 0 24 7 0 22 5 0 20 3 0 18 1 0 16 0 0 14 0 0 11 0 0 8 0 0 5 0 0 2 0 0 0 0 0 0 0 0 0 116 204 159 116 204 159 116 204 159 116 204 159 116 204 159 116 204 159 116 204 159 116 204 159 83 142 118 87 146 124 88 148 127 88 147 129 88 145 129 87 142 129 86 138 128 83 133 126 80 126 123 76 117 118 70 105 111 116 204 159 116 204 159 116 204 159 116 204 159 116 204 159 116 204 159 116 204 159 116 204 159 116 204 158 116 204 158 116 204 158 116 204 158 116 204 158 116 204 158 116 204 158 116 204 158 116 204 158 116 204 158 116 204 158 116 204 158 116 204 158 116 204 158 116 204 158 116 204 158 116 204 158 116 204 158 116 204 158 116 204 158 116 204 158 116 204 158 116 204 158 116 204 158 116 204 158 116 204 158 116 204 158 116 204 158 116 204 158 115 204 158 115 204 158 115 204 158 115 204 158 115 204 158 115 204 158 115 204 158 115 204 158 115 204 158 115 204 158 115 204 158 115 204 158 115 204 158 115 204 158 115 204 158 115 204 157 115 204 157 115 204 157 115 204 157 115 204 157 115 204 157 115 204 157 115 204 157 115 204 157 115 204 157 115 203 157 115 203 157 115 203 157 115 203 157 115 203 157 115 203 157 115 203 157 115 203 157 115 203 157 115 203 157 115 203 157 115 203 157 115 203 157 115 203 157 115 203 157 115 203 157 115 203 157 115 203 157 115 203 157 115 203 157 115 203 157 115 203 157 115 203 156 115 203 156 115 203 156 115 203 156 115 203 156 115 203 156 115 203 156 115 203 156 115 203 156 115 203 156 115 203 156 115 203 156 115 203 156 115 203 156 115 203 156 115 203 156 115 203 156 114 203 156 114 203 156 114 203 156 114 203 156 114 203 156 114 203 156 114 203 156 114 203 156 114 203 156 114 203 155 114 203 155 114 203 155 114 203 155 114 203 155 114 203 155 114 203 155 114 202 155 114 202 155
117 205 160 117 205 160 117 205 160 117 205 160 117 205 160 117 205 160 117 205 160 117 205 160 117 205 160 117 205 160 117 205 160 117 205 160 117 205 160 117 205 160 117 205 160 117 205 160 117 205 161 117 205 161 117 205 161 117 205 161 117 205 161 117 205 161 117 205 161 117 205 161 117 205 161 117 205 161 117 205 161 117 205 161 117 205 161 117 205 161 117 205 161 117 205 161 117 205 161 117 205 161 117 205 161 117 205 161 117 205 161 117 205 161 117 205 161 117 205 161 117 205 161 117 205 161 117 206 161 117 206 161 117 206 161 117 206 161 117 206 161 117 206 161 117 206 161 117 206 161 117 206 161 117 206 161 117 206 161 117 206 161 117 206 162 117 206 162 117 206 162 117 206 162 117 206 162 117 206 162 117 206 162 117 206 162 117 206 162 117 206 162 117 206 162 117 206 162 77 124 115 77 124 117 76 120 116 72 111 112 117 206 162 117 206 162 117 206 162 24 73 9 29 81 16 32 86 20 35 89 24 36 92 27 38 94 29 39 96 32 40 98 34 42 99 36 42 100 37 43 101 39 44 102 40 45 103 42 45 103 43 46 104 44 46 104 45 47 104 46 47 105 47 48 105 48 48 105 49 48 105 50 48 105 50 49 105 51 49 105 52 49 104 52 49 104 53 49 104 53 49 104 54 49 103 54 49 103 55 49 102 55 49 102 55 49 101 56 49 101 56 49 100 56 49 100 57 49 99 57 49 98 57 49 98 57 48 97 57 48 96 57 48 95 57 48 94 57 48 93 58 47 93 58 47 92 58 47 91 57 46 90 57 46 89 57 46 88 57 45 86 57 45 85 57 45 84 57 44 83 57 44 82 56 43 81 56 43 79 56 42 78 56 42 77 55 41 75 55 41 74 55 40 73 54 40 71 54 39 70 53 39 68 53 38 67 53 37 65 52 37 64 52 36 62 51 35 60 50 35 59 50 34 57 49 33 55 49 32 53 48 32 52 47 31 50 46 30 48 46 29 46 45 28 44 44 27 42 43 26 40 42 26 38 41 25 35 40 24 33 39 22 31 38 21 29 37 20 26 36 19 24 35 18 21 34 17 18 33 16 16 31 14 13 30 13 10 28 11 7 27 10 4 25 9 1 24 7 0 22 5 0 20 4 0 18 2 0 16 0 0 14 0 0 12 0 0 9 0 0 6 0 0 3 0 0 0 0 0 0 0 0 0 0 0 0 118 206 162 118 206 162 118 206 162 118 206 162 118 206 162 78 138 108 87 151 120 90 156 126 92 158 130 93 159 132 94 158 134 93 156 135 93 154 135 92 151 135 90 147 134 88 142 132 86 137 130 83 130 127 79 122 123 75 113 118 68 101 110 55 75 93 118 206 162 117 206 162 117 206 162 117 206 162 117 206 162 117 206 162 117 206 162 117 206 162 117 206 162 117 206 162 117 206 162 117 206 162 117 206 162 117 206 162 117 206 162 117 206 162 117 206 162 117 206 162 117 206 162 117 206 162 117 206 162 117 206 161 117 206 161 117 206 161 117 206 161 117 206 161 117 206 161 117 206 161 117 206 161 117 206 161 117 206 161 117 206 161 117 206 161 117 206 161 117 205 161 117 205 161 117 205 161 117 205 161 117 205 161 117 205 161 117 205 161 117 205 161 117 205 161 117 205 161 117 205 161 117 205 161 117 205 161 117 205 161 117 205 161 117 205 161 117 205 161 117 205 161 117 205 161 117 205 161 117 205 161 117 205 161 117 205 161 117 205 161 117 205 161 117 205 161 117 205 160 117 205 160 117 205 160 117 205 160 117 205 160 117 205 160 117 205 160 117 205 160 117 205 160 117 205 160 117 205 160 117 205 160 117 205 160 117 205 160 117 205 160 117 205 160 117 205 160 117 205 160 117 205 160 116 205 160 116 205 160 116 205 160 116 205 160 116 205 160 116 205 160 116 205 160 116 205 160 116 205 160 116 205 160 116 205 159 116 205 159 116 205 159 116 205 159 116 205 159 116 205 159 116 205 159 116 205 159 116 204 159 116 204 159 116 204 159 116 204 159 116 204 159 116 204 159 116 204 159 116 204 159 116 204 159 116 204 159 116 204 159 116 204 159 116 204 159 116 204 159 116 204 159 116 204 159 116 204 159 116 204 159 116 204 158
118 207 163 118 207 163 118 207 163 118 207 163 118 207 163 118 207 163 118 207 163 118 207 163 118 207 164 118 207 164 118 207 164 118 207 164 118 207 164 118 207 164 118 207 164 118 207 164 118 207 164 118 207 164 118 207 164 118 207 164 118 207 164 119 207 164 119 207 164 119 207 164 119 207 164 119 207 164 119 207 164 119 207 164 119 207 164 119 207 164 119 207 164 119 207 164 119 207 164 119 207 164 119 207 164 119 207 164 119 207 164 119 207 164 119 207 164 119 207 164 119 207 164 119 207 164 119 207 164 119 207 164 119 207 165 119 207 165 119 207 165 119 207 165 119 207 165 119 207 165 119 207 165 119 207 165 119 207 165 119 207 165 119 207 165 119 207 165 119 207 165 119 207 165 119 207 165 119 207 165 119 207 165 119 207 165 86 147 122 88 149 126 89 148 129 89 147 130 88 144 131 87 141 131 86 137 130 84 132 128 82 126 126 78 120 123 75 112 119 22 69 5 27 78 13 30 83 18 33 87 21 35 89 24 36 92 27 38 94 29 39 95 31 40 96 33 41 98 35 42 99 37 43 99 38 43 100 39 44 101 41 44 101 42 45 102 43 45 102 44 46 102 45 46 102 46 46 103 47 47 103 47 47 103 48 47 102 49 47 102 49 48 102 50 48 102 51 48 102 51 48 101 52 48 101 52 48 101 53 48 100 53 48 100 53 48 99 54 48 99 54 48 98 54 48 97 54 48 97 55 47 96 55 47 95 55 47 95 55 47 94 55 47 93 55 46 92 55 46 91 55 46 90 55 46 89 55 45 88 55 45 87 55 45 86 55 44 85 55 44 84 55 44 83 55 43 82 55 43 81 54 42 80 54 42 78 54 41 77 54 41 76 53 41 75 53 40 73 53 39 72 52 39 70 52 38 69 52 38 68 51 37 66 51 37 65 50 36 63 50 35 61 49 35 60 49 34 58 48 33 56 48 33 55 47 32 53 46 31 51 46 30 49 45 29 47 44 29 46 44 28 44 43 27 42 42 26 40 41 25 37 40 24 35 39 23 33 38 22 31 37 21 29 36 20 26 35 19 24 34 18 21 33 17 19 32 15 16 30 14 13 29 13 11 28 11 8 26 10 5 25 9 2 23 7 0 21 5 0 20 4 0 18 2 0 16 0 0 14 0 0 12 0 0 9 0 0 6 0 0 4 0 0 0 0 0 0 0 0 0 0 0 0 0 0 0 119 208 165 119 208 165 119 208 165 119 208 165 85 152 115 90 159 123 93 163 128 94 164 131 95 165 134 96 164 135 96 163 137 96 161 137 95 159 137 94 155 137 92 151 136 91 147 135 88 142 133 86 136 130 83 129 127 79 122 123 75 113 118 69 102 112 62 87 103 119 207 165 119 207 165 119 207 165 119 207 165 119 207 165 119 207 165 119 207 165 119 207 165 119 207 165 119 207 165 119 207 165 119 207 165 119 207 165 119 207 165 119 207 165 119 207 165 119 207 165 119 207 165 119 207 165 119 207 165 119 207 165 119 207 165 119 207 165 119 207 165 119 207 165 119 207 165 119 207 165 119 207 165 119 207 165 119 207 164 119 207 164 119 207 164 119 207 164 119 207 164 119 207 164 119 207 164 119 207 164 119 207 164 119 207 164 119 207 164 119 207 164 119 207 164 119 207 164 119 207 164 79 134 113 85 144 122 87 147 126 89 148 128 89 148 130 89 146 130 88 144 130 87 140 129 85 136 127 82 130 125 79 123 121 74 113 115 118 207 164 118 207 164 118 207 164 118 207 164 118 207 164 118 207 164 118 207 164 118 207 164 118 207 164 118 207 163 118 207 163 118 207 163 118 207 163 118 207 163 118 207 163 118 207 163 118 207 163 118 207 163 118 206 163 118 206 163 118 206 163 118 206 163 118 206 163 118 206 163 118 206 163 118 206 163 118 206 163 118 206 163 118 206 163 118 206 163 118 206 163 118 206 163 118 206 163 118 206 163 118 206 163 118 206 163 118 206 163 118 206 163 118 206 162 118 206 162 118 206 162 118 206 162 118 206 162 118 206 162 118 206 162 118 206 162 118 206 162 118 206 162 118 206 162 118 206 162 118 206 162 118 206 162 118 206 162 117 206 162 117 206 162 117 206 162 117 206 162 117 206 162 117 206 162
120 208 166 120 208 166 120 208 166 120 208 166 120 208 167 120 208 167 120 208 167 120 208 167 120 208 167 120 208 167 120 208 167 120 208 167 120 208 167 120 208 167 120 208 167 120 208 167 120 208 167 120 208 167 120 208 167 120 208 167 120 208 167 120 208 167 120 208 167 120 208 167 120 208 167 120 208 167 120 208 167 120 208 167 120 209 167 120 209 167 120 209 167 120 209 167 120 209 167 120 209 167 120 209 167 120 209 167 120 209 167 120 209 167 120 209 167 120 209 168 120 209 168 120 209 168 120 209 168 120 209 168 120 209 168 120 209 168 120 209 168 120 209 168 120 209 168 120 209 168 120 209 168 120 209 168 120 209 168 120 209 168 120 209 168 120 209 168 121 209 168 121 209 168 121 209 168 84 149 115 89 155 123 91 157 128 92 158 131 93 157 133 93 155 134 92 153 135 92 150 135 91 147 135 89 143 134 87 138 133 85 133 131 83 127 129 80 120 126 19 64 0 25 75 10 29 80 15 31 84 19 33 87 22 35 89 25 36 91 27 37 93 29 38 94 31 39 95 33 40 96 34 41 97 36 42 98 37 42 98 38 43 99 40 43 99 41 44 100 42 44 100 43 45 100 44 45 100 44 45 100 45 46 100 46 46 100 47 46 100 47 46 100 48 46 100 48 46 99 49 46 99 49 46 99 50 46 98 50 47 98 51 46 97 51 46 97 51 46 96 52 46 96 52 46 95 52 46 94 52 46 94 53 46 93 53 46 92 53 45 92 53 45 91 53 45 90 53 45 89 53 45 88 53 44 87 53 44 86 53 44 85 53 43 84 53 43 83 53 43 82 53 42 81 53 42 80 52 41 79 52 41 77 52 41 76 52 40 75 52 40 74 51 39 72 51 39 71 51 38 70 50 38 68 50 37 67 50 36 65 49 36 64 49 35 62 48 35 61 48 34 59 47 33 58 47 33 56 46 32 54 45 31 52 45 30 51 44 30 49 44 29 47 43 28 45 42 27 43 41 26 41 41 25 39 40 24 37 39 24 35 38 23 33 37 22 31 36 21 29 35 20 26 34 18 24 33 17 21 32 16 19 31 15 16 29 14 14 28 13 11 27 11 8 25 10 5 24 8 2 22 7 0 21 5 0 19 4 0 17 2 0 16 0 0 14 0 0 11 0 0 9 0 0 7 0 0 4 0 0 1 0 0 0 0 0 0 0 0 0 0 0 0 0 0 0 121 209 168 121 209 168 78 143 103 86 156 115 91 162 122 93 166 127 95 168 130 96 168 133 97 168 135 97 167 137 97 166 137 97 164 138 96 161 138 95 158 137 93 154 137 92 150 135 89 145 134 87 139 131 84 133 129 81 126 125 77 118 121 73 109 116 68 98 110 61 85 102 49 62 87 121 209 168 121 209 168 121 209 168 121 209 168 121 209 168 121 209 168 121 209 168 121 209 168 121 209 168 121 209 168 121 209 168 121 209 168 121 209 168 120 209 168 120 209 168 120 209 168 120 209 168 120 209 168 120 209 168 120 209 168 120 209 168 120 209 168 120 209 168 120 209 168 120 209 168 120 209 168 120 209 168 120 209 168 120 209 168 120 209 168 120 209 168 120 209 167 120 209 167 120 209 167 120 209 167 120 209 167 120 209 167 120 209 167 120 209 167 120 209 167 83 145 116 88 152 123 91 156 128 93 158 131 93 159 133 94 158 134 94 157 135 93 155 135 92 153 135 91 150 134 90 146 133 88 141 131 85 135 129 82 129 125 78 121 121 73 111 115 66 96 106 120 208 167 120 208 167 120 208 167 120 208 167 120 208 167 120 208 167 120 208 167 120 208 167 120 208 167 120 208 166 120 208 166 120 208 166 120 208 166 120 208 166 120 208 166 120 208 166 120 208 166 120 208 166 120 208 166 120 208 166 120 208 166 120 208 166 120 208 166 120 208 166 120 208 166 120 208 166 119 208 166 119 208 166 119 208 166 119 208 166 119 208 166 119 208 166 119 208 166 119 208 166 119 208 166 119 208 166 119 208 166 119 208 165 119 208 165 119 208 165 119 208 165 119 208 165 119 208 165 119 208 165 119 207 165 119 207 165 119 207 165 119 207 165 119 207 165 119 207 165 119 207 165 119 207 165 119 207 165 119 207 165 119 207 165 119 207 165
121 210 169 121 210 169 121 210 169 121 210 170 121 210 170 121 210 170 121 210 170 121 210 170 121 210 170 121 210 170 121 210 170 121 210 170 121 210 170 121 210 170 121 210 170 121 210 170 122 210 170 122 210 170 122 210 170 122 210 170 122 210 170 122 210 170 122 210 170 122 210 170 122 210 170 122 210 170 122 210 170 122 210 170 122 210 170 122 210 170 122 210 170 122 210 170 122 210 170 122 210 170 122 210 170 122 210 170 122 210 170 122 210 170 122 210 170 122 210 171 122 210 171 122 210 171 122 210 171 122 210 171 122 210 171 122 210 171 122 210 171 122 210 171 122 210 171 122 210 171 122 210 171 122 210 171 122 210 171 122 210 171 122 210 171 122 210 171 122 210 171 81 147 108 88 158 119 91 161 125 93 163 129 94 163 132 95 162 134 95 161 135 95 159 136 94 156 137 93 153 137 92 149 136 90 145 136 89 141 134 87 136 133 84 130 131 82 124 128 79 118 125 23 71 7 27 77 12 29 81 16 31 84 19 33 86 22 34 88 24 36 90 27 37 91 29 38 93 30 39 94 32 39 95 33 40 95 35 41 96 36 41 96 37 42 97 38 42 97 39 43 98 40 43 98 41 43 98 42 44 98 43 44 98 44 44 98 44 44 98 45 45 98 46 45 97 46 45 97 47 45 97 47 45 96 48 45 96 48 45 96 48 45 95 49 45 95 49 45 94 49 45 93 50 45 93 50 45 92 50 45 91 50 44 91 51 44 90 51 44 89 51 44 88 51 44 88 51 43 87 51 43 86 51 43 85 51 42 84 51 42 83 51 42 82 51 42 81 51 41 80 51 41 79 50 40 78 50 40 76 50 40 75 50 39 74 50 39 73 49 38 71 49 38 70 49 37 69 48 37 67 48 36 66 48 36 65 47 35 63 47 34 62 46 34 60 46 33 58 46 32 57 45 32 55 44 31 54 44 30 52 43 30 50 43 29 48 42 28 47 41 27 45 41 27 43 40 26 41 39 25 39 38 24 37 38 23 35 37 22 33 36 21 31 35 20 28 34 19 26 33 18 24 32 17 22 31 16 19 30 15 17 28 14 14 27 12 11 26 11 9 25 10 6 23 8 3 22 7 0 20 5 0 19 4 0 17 2 0 15 1 0 13 0 0 11 0 0 9 0 0 7 0 0 4 0 0 1 0 0 0 0 0 0 0 0 0 0 0 0 0 0 0 122 211 171 122 211 171 78 145 101 86 157 113 90 163 120 93 167 125 95 169 128 96 170 131 97 170 133 97 170 135 98 169 136 97 167 137 97 165 137 96 162 137 95 159 137 93 155 136 92 151 135 90 146 133 87 141 131 85 135 129 82 128 126 79 121 122 75 113 118 70 103 113 65 92 106 58 79 98 47 58 85 122 210 171 122 210 171 122 210 171 122 210 171 122 210 171 122 210 171 122 210 171 122 210 171 122 210 171 122 210 171 122 210 171 122 210 171 122 210 171 122 210 171 122 210 171 122 210 171 122 210 171 122 210 171 122 210 171 122 210 171 122 210 171 122 210 171 122 210 171 122 210 171 122 210 171 122 210 171 122 210 171 122 210 171 122 210 171 122 210 170 122 210 170 122 210 170 122 210 170 122 210 170 122 210 170 122 210 170 122 210 170 81 144 111 87 154 120 91 159 125 93 162 129 95 164 132 96 165 134 96 165 136 96 164 137 96 162 137 96 160 137 95 158 137 93 155 136 92 151 135 90 147 134 88 142 132 85 136 129 82 129 126 79 122 122 74 113 117 68 101 110 59 83 99 121 210 170 121 210 170 121 210 170 121 210 170 121 210 170 121 210 170 121 210 169 121 210 169 121 210 169 121 210 169 121 210 169 121 210 169 121 210 169 121 210 169 121 209 169 121 209 169 121 209 169 121 209 169 121 209 169 121 209 169 121 209 169 121 209 169 121 209 169 121 209 169 121 209 169 121 209 169 121 209 169 121 209 169 121 209 169 121 209 169 121 209 169 121 209 169 121 209 169 121 209 169 121 209 168 121 209 168 121 209 168 121 209 168 121 209 168 121 209 168 121 209 168 121 209 168 121 209 168 121 209 168 121 209 168 121 209 168 121 209 168 121 209 168 121 209 168 121 209 168 120 209 168 120 209 168 120 209 168 120 209 168
123 211 172 123 211 172 123 211 172 123 211 172 123 211 172 123 211 172 123 211 173 123 211 173 123 211 173 123 211 173 123 211 173 123 211 173 123 211 173 123 211 173 123 211 173 123 211 173 123 211 173 123 211 173 123 211 173 123 211 173 123 211 173 123 211 173 123 211 173 123 211 173 123 211 173 123 211 173 82 135 120 84 136 124 84 135 125 83 133 126 82 129 125 80 125 124 78 119 121 74 112 118 67 99 109 123 212 173 123 212 173 123 212 173 123 212 173 123 212 173 123 212 173 123 212 173 123 212 173 123 212 174 123 212 174 123 212 174 123 212 174 123 212 174 123 212 174 123 212 174 123 212 174 123 212 174 123 212 174 123 212 174 123 212 174 123 212 174 84 155 111 89 161 119 92 165 125 94 166 129 95 166 131 96 165 134 96 164 135 96 162 136 95 160 137 94 157 137 93 154 137 92 150 137 91 146 136 89 142 135 87 137 133 85 132 131 82 126 129 80 120 126 21 67 3 25 74 9 27 78 13 29 81 17 31 83 19 33 86 22 34 87 24 35 89 26 36 90 28 37 91 29 38 92 31 39 93 32 39 93 34 40 94 35 40 94 36 41 95 37 41 95 38 42 95 39 42 95 40 42 95 41 43 95 41 43 95 42 43 95 43 43 95 43 43 95 44 43 95 44 43 94 45 44 94 45 44 94 46 44 93 46 44 93 47 44 92 47 43 92 47 43 91 48 43 91 48 43 90 48 43 89 48 43 88 48 43 88 49 43 87 49 42 86 49 42 85 49 42 84 49 42 84 49 41 83 49 41 82 49 41 81 49 40 80 49 40 79 49 40 77 48 39 76 48 39 75 48 39 74 48 38 73 48 38 72 47 37 70 47 37 69 47 36 68 47 36 66 46 35 65 46 35 64 46 34 62 45 33 61 45 33 59 44 32 58 44 32 56 43 31 55 43 30 53 42 30 51 42 29 50 41 28 48 40 27 46 40 27 44 39 26 42 38 25 41 38 24 39 37 23 37 36 22 35 35 22 33 34 21 30 33 20 28 33 19 26 32 18 24 31 17 21 30 15 19 28 14 17 27 13 14 26 12 12 25 11 9 24 9 6 22 8 3 21 7 0 19 5 0 18 4 0 16 2 0 14 1 0 13 0 0 11 0 0 9 0 0 6 0 0 4 0 0 2 0 0 0 0 0 0 0 0 0 0 0 0 0 0 0 0 0 0 124 212 174 76 143 96 84 156 108 88 163 116 92 167 121 94 169 125 95 171 128 96 171 131 97 171 133 97 170 134 97 169 135 97 167 136 96 165 136 95 162 136 94 158 136 93 155 135 91 151 134 89 146 132 87 141 130 85 135 128 82 129 125 79 122 122 75 114 118 71 106 113 66 96 108 60 85 101 53 70 93 42 49 78 124 212 174 124 212 174 124 212 174 124 212 174 123 212 174 123 212 174 123 212 174 123 212 174 123 212 174 123 212 174 123 212 174 123 212 174 123 212 174 123 212 174 123 212 174 123 212 174 123 212 174 123 212 174 123 212 174 123 212 174 123 212 174 123 212 174 123 212 173 123 212 173 123 212 173 123 212 173 123 212 173 123 212 173 123 212 173 123 212 173 123 212 173 123 212 173 123 212 173 123 212 173 123 211 173 83 150 112 88 158 120 92 163 125 94 166 129 96 168 132 97 168 134 97 169 136 98 168 137 98 167 138 97 165 138 97 163 138 96 161 138 95 158 137 93 154 136 91 150 135 89 145 133 87 140 130 84 134 128 81 127 124 77 120 120 73 111 115 68 100 109 60 85 100 123 211 173 123 211 172 123 211 172 123 211 172 123 211 172 123 211 172 123 211 172 123 211 172 123 211 172 123 211 172 123 211 172 123 211 172 123 211 172 123 211 172 123 211 172 123 211 172 123 211 172 123 211 172 123 211 172 122 211 172 122 211 172 75 121 112 80 130 120 81 131 122 81 130 122 80 127 121 77 122 119 72 111 112 122 211 172 122 211 172 122 211 171 122 211 171 122 211 171 122 211 171 122 211 171 122 211 171 122 211 171 122 210 171 122 210 171 122 210 171 122 210 171 122 210 171 122 210 171 122 210 171 122 210 171 122 210 171 122 210 171 122 210 171 122 210 171 122 210 171 122 210 171 122 210 171 122 210 171
124 212 175 124 212 175 124 212 175 124 213 175 124 213 175 124 213 175 124 213 175 124 213 175 124 213 175 124 213 175 124 213 175 124 213 175 124 213 176 124 213 176 124 213 176 124 213 176 124 213 176 124 213 176 124 213 176 124 213 176 124 213 176 124 213 176 83 142 116 88 149 124 89 151 128 90 151 130 90 149 132 90 147 133 89 145 133 88 142 133 87 138 132 86 134 131 84 130 130 81 124 128 79 118 125 76 112 122 72 104 117 66 93 110 125 213 176 125 213 176 125 213 176 125 213 176 125 213 176 125 213 176 125 213 176 125 213 176 125 213 176 125 213 176 125 213 176 125 213 176 125 213 176 125 213 176 125 213 177 125 213 177 125 213 177 84 157 109 89 163 117 92 166 123 94 167 126 95 168 129 96 167 132 96 166 134 96 165 135 96 163 136 95 160 136 94 157 136 93 154 136 92 150 136 90 146 135 89 142 134 87 137 132 85 132 131 82 126 129 80 120 126 18 63 0 23 70 6 25 75 10 28 78 14 29 81 17 31 83 19 32 85 21 33 86 23 34 87 25 35 88 27 36 89 29 37 90 30 38 91 31 38 91 32 39 92 34 39 92 35 40 93 36 40 93 37 40 93 37 41 93 38 41 93 39 41 93 40 41 93 40 42 93 41 42 93 42 42 92 42 42 92 43 42 92 43 42 91 44 42 91 44 42 90 44 42 90 45 42 89 45 42 89 45 42 88 46 42 88 46 42 87 46 41 86 46 41 85 46 41 85 46 41 84 46 41 83 47 40 82 47 40 81 47 40 80 47 40 79 47 39 78 46 39 77 46 39 76 46 38 75 46 38 74 46 37 73 46 37 72 46 37 71 45 36 69 45 36 68 45 35 67 45 35 65 44 34 64 44 34 63 44 33 61 43 33 60 43 32 58 42 31 57 42 31 55 42 30 54 41 29 52 41 29 51 40 28 49 39 27 47 39 27 45 38 26 44 38 25 42 37 24 40 36 24 38 35 23 36 35 22 34 34 21 32 33 20 30 32 19 28 31 18 26 30 17 24 29 16 21 28 15 19 27 14 17 26 13 14 25 12 12 24 10 9 23 9 6 21 8 4 20 7 1 18 5 0 17 4 0 15 2 0 14 1 0 12 0 0 10 0 0 8 0 0 6 0 0 4 0 0 2 0 0 0 0 0 0 0 0 0 0 0 0 0 0 0 0 0 0 0 0 0 71 137 88 81 152 102 86 160 110 89 165 116 92 168 121 94 170 124 95 171 127 96 171 129 96 171 131 96 170 133 96 168 133 96 166 134 95 164 134 94 161 134 93 157 134 92 154 133 90 150 132 88 145 130 86 140 128 84 135 126 81 129 124 78 122 121 75 115 117 71 107 113 67 98 108 62 87 102 55 75 95 48 60 85 34 35 69 125 213 177 125 213 177 125 213 177 125 213 177 125 213 177 125 213 177 125 213 177 125 213 177 125 213 177 125 213 177 125 213 177 125 213 176 125 213 176 125 213 176 125 213 176 125 213 176 125 213 176 125 213 176 125 213 176 125 213 176 125 213 176 125 213 176 125 213 176 125 213 176 125 213 176 125 213 176 125 213 176 125 213 176 125 213 176 125 213 176 125 213 176 125 213 176 73 133 95 83 151 110 88 159 117 91 164 123 94 167 127 95 169 130 97 170 132 97 171 134 98 171 136 98 170 137 98 169 137 98 167 138 97 165 138 96 162 137 95 159 137 93 156 136 92 152 134 90 147 133 88 142 131 85 137 128 82 130 125 79 123 122 75 115 117 71 106 112 65 95 106 58 81 97 43 54 79 124 213 175 124 212 175 124 212 175 124 212 175 124 212 175 124 212 175 124 212 175 124 212 175 124 212 175 124 212 175 124 212 175 124 212 175 124 212 175 124 212 175 124 212 175 80 135 115 86 144 123 88 148 127 90 150 129 90 150 131 91 150 132 90 149 132 90 147 132 89 145 132 87 141 131 86 137 129 83 132 127 80 126 123 76 118 119 70 105 112 124 212 174 124 212 174 124 212 174 124 212 174 124 212 174 124 212 174 124 212 174 124 212 174 123 212 174 123 212 174 123 212 174 123 212 174 123 212 174 123 212 174 123 212 174 123 212 174 123 212 174 123 212 173 123 212 173 123 212 173 123 212 173
125 214 178 126 214 178 126 214 178 126 214 178 126 214 178 126 214 178 126 214 178 126 214 178 126 214 178 126 214 178 126 214 178 126 214 178 126 214 178 126 214 178 126 214 178 126 214 178 126 214 178 126 214 178 126 214 178 126 214 178 86 151 118 90 156 125 92 158 129 93 158 131 93 157 133 93 156 134 93 154 135 92 152 136 92 149 136 90 146 135 89 142 135 88 138 134 86 134 132 84 129 131 82 124 129 79 118 126 76 111 123 72 104 119 68 95 114 63 85 107 126 214 179 126 214 179 126 214 179 126 214 179 126 214 179 126 214 179 126 214 179 126 214 179 126 214 179 126 214 179 126 214 179 126 214 179 126 214 179 126 215 179 83 156 105 88 163 114 91 166 119 93 168 123 94 168 127 95 168 129 95 167 131 95 166 133 95 164 134 95 162 135 94 159 135 93 156 135 92 153 135 91 149 134 90 145 133 88 141 132 86 136 131 84 131 129 82 126 127 79 120 125 15 58 0 20 66 3 23 71 7 26 75 11 28 78 14 29 80 17 30 82 19 32 83 21 33 85 23 34 86 24 35 87 26 35 88 27 36 88 29 37 89 30 37 89 31 38 90 32 38 90 33 38 90 34 39 90 35 39 91 36 39 91 37 40 91 37 40 90 38 40 90 39 40 90 39 40 90 40 40 90 40 40 89 41 41 89 41 41 88 42 41 88 42 41 87 42 40 87 43 40 86 43 40 86 43 40 85 43 40 84 44 40 84 44 40 83 44 40 82 44 39 81 44 39 81 44 39 80 44 39 79 44 38 78 44 38 77 44 38 76 44 37 75 44 37 74 44 37 73 44 36 72 44 36 71 44 36 69 43 35 68 43 35 67 43 34 66 43 34 64 42 33 63 42 33 62 42 32 60 41 32 59 41 31 58 41 31 56 40 30 55 40 29 53 39 29 51 39 28 50 38 27 48 38 27 47 37 26 45 37 25 43 36 24 41 35 24 39 35 23 38 34 22 36 33 21 34 32 20 32 32 19 30 31 18 28 30 18 26 29 17 23 28 16 21 27 15 19 26 13 17 25 12 14 24 11 12 23 10 9 21 9 7 20 8 4 19 6 1 17 5 0 16 4 0 15 2 0 13 1 0 11 0 0 10 0 0 8 0 0 6 0 0 4 0 0 1 0 0 0 0 0 0 0 0 0 0 0 0 0 0 0 0 0 0 0 0 0 0 0 0 76 147 95 82 156 104 86 162 111 89 165 116 91 168 120 93 169 123 94 170 125 95 170 127 95 169 129 95 168 130 95 167 131 95 164 132 94 162 132 93 159 132 92 156 131 91 152 130 89 148 129 87 144 128 85 139 126 83 133 124 80 127 121 77 121 119 74 114 115 70 106 111 66 98 107 62 88 102 56 77 95 50 64 87 41 47 76 126 215 179 126 215 179 126 215 179 126 215 179 126 215 179 126 215 179 126 215 179 126 215 179 126 214 179 126 214 179 126 214 179 126 214 179 126 214 179 126 214 179 126 214 179 126 214 179 126 214 179 126 214 179 126 214 179 126 214 179 126 214 179 126 214 179 126 214 179 126 214 179 126 214 179 126 214 179 126 214 179 126 214 179 126 214 179 126 214 179 126 214 179 71 132 92 81 150 106 87 158 114 90 163 119 93 167 124 94 169 127 96 171 130 97 172 132 97 172 133 98 171 135 98 171 136 98 169 136 97 167 137 97 165 137 96 162 136 95 159 136 93 156 135 92 152 133 90 148 132 88 143 130 85 138 128 83 132 125 80 125 122 76 118 118 72 110 114 68 100 108 62 89 102 55 75 93 41 49 76 125 214 178 125 214 178 125 214 178 125 214 178 125 214 178 125 214 178 125 214 178 125 214 178 125 214 178 125 214 178 125 214 178 125 214 177 83 143 117 88 151 124 90 155 128 92 158 131 93 159 133 94 159 134 94 159 135 94 158 136 94 157 136 93 155 136 92 152 135 91 149 135 90 146 133 88 142 132 86 137 129 83 131 127 80 124 123 76 116 118 70 104 112 125 213 177 125 213 177 125 213 177 125 213 177 125 213 177 125 213 177 125 213 177 125 213 176 125 213 176 125 213 176 125 213 176 125 213 176 125 213 176 125 213 176 125 213 176 125 213 176 125 213 176 125 213 176 125 213 176
127 215 180 127 215 181 127 215 181 127 215 181 127 215 181 127 215 181 127 215 181 127 215 181 127 215 181 127 215 181 127 215 181 127 215 181 127 215 181 127 215 181 127 215 181 127 215 181 127 215 181 127 215 181 84 151 112 89 158 121 92 161 126 93 162 129 94 162 132 95 162 134 95 160 135 94 158 136 94 156 137 93 154 137 92 151 137 91 147 136 90 144 136 89 140 135 87 136 133 85 131 132 83 126 130 80 121 128 78 115 125 75 108 122 71 101 118 67 93 114 62 83 108 56 71 100 127 216 182 127 216 182 127 216 182 127 216 182 127 216 182 127 216 182 127 216 182 127 216 182 127 216 182 127 216 182 127 216 182 80 154 100 86 161 109 89 165 115 91 167 119 93 168 123 94 168 126 94 168 128 95 166 130 95 165 131 94 163 132 94 161 133 93 158 133 92 155 133 91 152 133 90 148 132 89 144 131 87 139 130 85 135 129 83 130 127 81 125 126 78 119 123 10 50 0 18 62 0 21 68 4 24 71 8 26 74 11 27 77 14 29 79 16 30 80 18 31 82 20 32 83 22 33 84 23 34 85 25 34 86 26 35 86 28 35 87 29 36 87 30 36 87 31 37 88 32 37 88 33 38 88 34 38 88 34 38 88 35 38 88 36 38 88 36 39 88 37 39 87 38 39 87 38 39 87 39 39 86 39 39 86 39 39 86 40 39 85 40 39 85 40 39 84 41 39 83 41 39 83 41 39 82 41 38 81 42 38 81 42 38 80 42 38 79 42 38 78 42 37 77 42 37 76 42 37 75 42 37 75 42 36 74 42 36 73 42 36 71 42 35 70 42 35 69 42 34 68 41 34 67 41 34 66 41 33 65 41 33 63 40 32 62 40 32 61 40 31 59 40 31 58 39 30 57 39 30 55 38 29 54 38 28 52 38 28 51 37 27 49 37 26 47 36 26 46 35 25 44 35 24 42 34 24 41 34 23 39 33 22 37 32 21 35 32 20 33 31 20 31 30 19 29 29 18 27 28 17 25 27 16 23 27 15 21 26 14 19 25 13 16 24 12 14 23 11 12 21 10 9 20 8 7 19 7 4 18 6 1 16 5 0 15 3 0 14 2 0 12 0 0 10 0 0 9 0 0 7 0 0 5 0 0 3 0 0 1 0 0 0 0 0 0 0 0 0 0 0 0 0 0 0 0 0 0 0 0 0 0 0 0 0 0 0 78 150 96 83 157 104 86 162 109 89 165 114 90 167 118 92 168 121 93 168 123 93 168 125 94 167 126 94 166 127 93 164 128 93 162 129 92 160 129 91 157 129 90 154 128 89 150 127 87 146 126 86 141 125 83 137 123 81 131 121 79 125 119 76 119 116 73 112 113 69 105 109 65 97 105 61 88 100 56 77 94 50 66 87 43 51 78 32 31 65 128 216 182 128 216 182 127 216 182 127 216 182 127 216 182 127 216 182 127 216 182 127 216 182 127 216 182 127 216 182 127 216 182 127 216 182 127 216 182 127 216 182 127 216 182 127 216 182 127 216 182 127 216 182 127 216 182 127 216 182 127 216 182 127 216 181 127 216 181 127 216 181 127 216 181 127 216 181 127 216 181 127 216 181 127 216 181 66 125 83 78 147 101 84 156 109 88 162 115 91 166 120 93 169 123 94 170 126 96 171 129 96 172 131 97 172 132 97 171 133 97 170 134 97 169 135 97 167 135 96 165 135 95 162 134 94 159 134 92 156 133 91 152 132 89 148 130 87 143 128 85 138 126 82 132 124 80 126 121 76 119 117 73 112 113 68 103 109 64 93 103 58 81 96 50 66 87 33 35 66 127 215 180 127 215 180 127 215 180 127 215 180 127 215 180 127 215 180 127 215 180 127 215 180 127 215 180 81 142 112 87 152 120 90 157 125 93 161 129 94 163 132 95 164 134 96 165 135 96 165 136 96 164 137 96 163 138 96 161 138 95 159 138 94 157 137 93 154 136 92 151 135 90 147 134 88 143 132 86 138 130 83 132 127 80 125 124 77 118 119 72 108 114 65 95 106 126 215 179 126 215 179 126 214 179 126 214 179 126 214 179 126 214 179 126 214 179 126 214 179 126 214 179 126 214 179 126 214 179 126 214 179 126 214 179 126 214 179 126 214 179 126 214 179 126 214 179
128 216 183 128 216 183 128 216 183 128 216 183 128 216 183 128 216 183 128 216 183 128 216 183 128 217 183 128 217 183 128 217 183 128 217 183 128 217 183 128 217 183 128 217 183 128 217 183 128 217 183 86 157 114 90 162 121 92 164 125 94 165 129 95 165 131 95 164 133 95 163 134 95 161 136 95 159 136 94 157 137 93 154 137 93 151 137 91 148 136 90 144 135 89 141 135 87 136 133 85 132 132 83 127 130 81 122 128 78 116 126 76 110 123 73 104 120 69 96 116 65 88 112 61 79 106 55 67 99 44 48 85 129 217 184 129 217 184 129 217 184 129 217 184 129 217 184 129 217 184 129 217 184 129 217 184 76 149 92 83 158 103 86 163 110 89 165 115 91 167 119 92 167 122 93 167 124 93 166 126 93 165 128 93 163 129 93 161 130 93 159 130 92 156 131 91 153 131 90 149 130 89 146 130 87 142 129 85 137 128 84 133 127 82 128 125 79 123 123 77 117 121 74 111 119 15 58 0 19 64 1 22 68 5 24 71 8 25 74 11 27 76 13 28 77 16 29 79 17 30 80 19 31 81 21 32 82 22 33 83 24 33 84 25 34 84 26 34 85 27 35 85 28 35 85 29 36 85 30 36 85 31 36 85 32 36 85 33 37 85 33 37 85 34 37 85 35 37 85 35 37 85 36 37 84 36 37 84 37 37 84 37 37 83 37 37 83 38 37 82 38 37 82 38 37 81 39 37 80 39 37 80 39 37 79 39 37 78 39 37 77 40 36 77 40 36 76 40 36 75 40 36 74 40 35 73 40 35 72 40 35 71 40 34 70 40 34 69 39 34 68 39 33 67 39 33 66 39 33 65 39 32 63 39 32 62 38 31 61 38 31 60 38 30 58 38 30 57 37 29 56 37 29 54 36 28 53 36 27 51 36 27 50 35 26 48 35 26 47 34 25 45 34 24 43 33 24 42 33 23 40 32 22 38 31 21 36 31 21 35 30 20 33 29 19 31 28 18 29 28 17 27 27 16 25 26 15 23 25 14 21 24 13 18 23 12 16 22 11 14 21 10 11 20 9 9 19 8 7 18 7 4 17 6 1 15 4 0 14 3 0 13 2 0 11 0 0 10 0 0 8 0 0 6 0 0 4 0 0 3 0 0 1 0 0 0 0 0 0 0 0 0 0 0 0 0 0 0 0 0 0 0 0 0 0 0 0 0 0 0 72 142 87 78 151 96 82 157 102 85 161 107 87 163 112 89 165 115 90 166 118 91 166 120 92 166 122 92 165 123 92 163 124 92 162 125 91 160 125 90 157 126 89 154 125 88 151 125 87 147 124 85 143 123 84 139 122 82 134 120 79 129 118 77 123 116 74 117 113 71 110 110 68 103 106 64 95 102 60 86 98 55 77 92 49 66 86 43 53 78 34 36 67 19 8 48 129 217 184 129 217 184 129 217 184 129 217 184 129 217 184 129 217 184 129 217 184 129 217 184 129 217 184 129 217 184 129 217 184 129 217 184 129 217 184 129 217 184 129 217 184 129 217 184 129 217 184 129 217 184 129 217 184 129 217 184 129 217 184 129 217 184 129 217 184 128 217 184 128 217 184 128 217 184 128 217 184 128 217 184 74 141 94 81 152 103 85 159 110 88 163 115 91 166 119 93 169 122 94 170 125 95 171 127 96 171 129 96 171 130 96 170 131 96 169 132 96 168 132 95 166 133 95 164 133 94 161 132 93 158 132 91 155 131 90 151 130 88 147 128 86 142 126 84 137 124 82 132 122 79 126 119 76 119 116 72 112 112 69 104 108 64 95 103 59 85 97 53 72 89 44 55 79 128 216 183 128 216 183 128 216 183 128 216 183 128 216 183 128 216 183 128 216 183 73 130 100 83 148 114 88 156 120 91 161 125 93 164 128 95 166 131 96 167 133 97 168 135 97 168 136 98 168 137 98 167 138 97 166 138 97 164 138 96 162 138 95 160 137 94 157 137 93 154 136 91 150 134 90 146 133 88 142 131 85 136 128 83 131 126 79 124 122 76 117 118 71 108 113 66 96 107 57 79 96 127 216 182 127 216 182 127 216 182 127 216 182 127 216 182 127 216 181 127 216 181 127 216 181 127 216 181 127 216 181 127 216 181 127 216 181 127 215 181 127 215 181 127 215 181
129 218 185 129 218 185 129 218 186 129 218 186 129 218 186 129 218 186 129 218 186 129 218 186 129 218 186 129 218 186 129 218 186 129 218 186 129 218 186 129 218 186 129 218 186 76 143 97 86 159 113 90 163 119 92 166 124 94 167 127 95 167 129 95 166 131 95 165 133 95 163 134 95 162 135 95 159 136 94 157 136 93 154 136 92 151 136 91 148 135 90 144 135 88 140 134 87 136 132 84 139 124 86 140 127 86 139 128 86 138 129 85 136 129 84 133 129 83 129 128 81 125 126 79 120 124 76 114 121 72 105 116 43 45 84 130 218 187 130 218 187 130 218 187 130 218 187 130 218 187 130 218 187 70 140 82 79 154 96 83 159 104 86 163 109 88 165 113 90 165 117 91 166 120 91 165 122 92 164 124 92 163 125 92 161 126 91 159 127 91 156 128 90 153 128 89 150 128 88 147 127 87 143 127 85 139 126 84 135 125 82 130 124 80 125 122 78 120 120 75 115 118 73 109 116 12 52 0 16 60 0 19 64 2 22 68 5 23 70 8 25 73 11 26 74 13 27 76 15 28 77 17 29 78 18 30 79 20 31 80 21 32 81 22 32 81 24 33 82 25 33 82 26 34 82 27 34 83 28 34 83 29 35 83 29 35 83 30 35 83 31 35 83 32 35 83 32 36 82 33 36 82 33 36 82 34 36 81 34 36 81 35 36 81 35 36 80 35 36 80 36 36 79 36 36 78 36 36 78 37 35 77 37 35 76 37 35 76 37 35 75 37 35 74 37 35 73 37 34 72 37 34 72 37 34 71 37 34 70 37 33 69 37 33 68 37 33 67 37 32 66 37 32 64 37 31 63 37 31 62 37 31 61 36 30 60 36 30 58 36 29 57 36 29 56 35 28 54 35 28 53 35 27 52 34 27 50 34 26 49 33 25 47 33 25 46 32 24 44 32 23 42 31 23 41 31 22 39 30 21 37 30 21 36 29 20 34 28 19 32 28 18 30 27 17 28 26 16 26 25 16 24 24 15 22 24 14 20 23 13 18 22 12 16 21 11 14 20 10 11 19 9 9 18 8 6 17 6 4 15 5 1 14 4 0 13 3 0 11 1 0 10 0 0 9 0 0 7 0 0 5 0 0 4 0 0 2 0 0 0 0 0 0 0 0 0 0 0 0 0 0 0 0 0 0 0 0 0 0 0 0 0 0 0 0 0 0 0 0 0 72 143 86 77 151 94 81 155 100 83 159 105 86 161 109 87 162 112 88 163 114 89 163 117 89 163 118 90 162 120 90 160 121 89 159 121 89 156 122 88 154 122 87 151 122 86 148 121 85 144 120 83 140 119 81 136 118 79 131 116 77 126 114 75 120 112 72 114 110 69 108 107 66 100 103 62 93 99 58 84 95 54 75 90 48 64 84 42 52 76 35 37 67 24 17 54 130 218 187 130 218 187 130 218 187 130 218 187 130 218 187 130 218 187 130 218 187 130 218 187 130 218 187 130 218 187 130 218 187 130 218 187 130 218 187 130 218 187 130 218 186 130 218 186 130 218 186 130 218 186 130 218 186 130 218 186 130 218 186 130 218 186 130 218 186 130 218 186 130 218 186 130 218 186 130 218 186 68 132 84 77 146 96 82 154 103 85 160 109 88 163 113 90 166 117 92 168 120 93 169 123 94 170 125 94 170 126 95 170 128 95 169 129 95 168 129 95 166 130 94 164 130 93 162 130 92 159 130 91 156 129 90 153 128 89 149 127 87 145 126 85 141 124 83 136 122 80 131 120 78 125 117 75 119 114 72 112 110 68 104 107 64 96 102 59 86 96 54 75 90 47 61 82 36 41 69 129 218 185 129 217 185 129 217 185 129 217 185 80 130 119 83 135 124 84 136 126 85 136 127 84 135 127 83 133 126 82 129 125 80 125 123 77 118 120 98 170 135 98 170 136 98 170 137 98 169 137 98 168 138 97 166 138 97 164 137 96 161 137 95 159 136 93 156 135 92 152 134 90 148 133 88 144 131 86 139 129 84 134 126 81 128 123 78 121 120 74 114 116 70 105 111 64 94 105 57 79 95 129 217 184 129 217 184 129 217 184 129 217 184 129 217 184 128 217 184 128 217 184 128 217 184 128 217 184 128 217 184 128 217 184 128 217 184 128 217 184 128 217 184
130 219 188 130 219 188 130 219 188 130 219 188 131 219 188 131 219 188 131 219 188 131 219 188 131 219 188 131 219 188 131 219 188 131 219 188 131 219 188 131 219 188 78 148 97 86 159 110 89 164 117 91 166 121 93 167 124 94 167 127 94 167 129 95 166 131 95 165 132 95 163 133 94 161 134 94 159 134 93 156 134 92 153 134 91 150 134 83 142 117 88 149 125 90 151 129 91 151 131 91 151 133 91 149 134 91 148 134 90 145 134 89 143 134 88 140 133 87 136 133 85 132 131 83 128 130 81 123 128 79 118 126 76 112 123 73 105 119 68 96 114 131 219 189 131 219 189 131 219 189 131 219 189 74 147 87 79 155 96 83 159 103 85 162 108 87 163 111 88 164 115 89 163 117 90 163 119 90 162 121 90 160 122 90 158 123 89 156 124 89 153 124 88 151 125 87 147 125 86 144 124 85 140 124 83 136 123 82 132 122 80 127 121 78 123 119 76 117 117 73 112 115 71 106 113 8 46 0 14 55 0 17 61 0 19 64 2 21 67 5 23 69 8 24 71 10 26 73 12 27 74 14 28 75 16 28 76 17 29 77 19 30 78 20 30 79 21 31 79 22 31 79 23 32 80 24 32 80 25 33 80 26 33 80 27 33 80 28 33 80 28 34 80 29 34 80 30 34 80 30 34 80 31 34 79 31 34 79 32 34 78 32 34 78 33 34 78 33 34 77 33 34 76 34 34 76 34 34 75 34 34 75 34 34 74 35 34 73 35 33 72 35 33 72 35 33 71 35 33 70 35 33 69 35 32 68 35 32 67 35 32 66 35 31 65 35 31 64 35 31 63 35 30 62 35 30 61 34 29 60 34 29 58 34 29 57 34 28 56 33 28 55 33 27 53 33 27 52 33 26 51 32 26 49 32 25 48 31 24 46 31 24 45 31 23 43 30 22 42 30 22 40 29 21 38 28 20 37 28 20 35 27 19 33 27 18 31 26 17 30 25 17 28 24 16 26 24 15 24 23 14 22 22 13 20 21 12 18 20 11 15 19 10 13 18 9 11 17 8 9 16 7 6 15 6 4 14 5 1 13 4 0 12 2 0 10 1 0 9 0 0 8 0 0 6 0 0 4 0 0 3 0 0 1 0 0 0 0 0 0 0 0 0 0 0 0 0 0 0 0 0 0 0 0 0 0 0 0 0 0 0 0 0 0 0 0 0 0 0 0 71 142 84 76 149 92 79 153 97 82 156 102 83 158 105 85 159 108 86 160 111 87 160 113 87 159 115 87 158 116 87 157 117 87 155 117 86 153 118 86 150 118 85 147 118 84 144 117 82 140 116 81 136 115 79 132 114 77 127 112 75 122 111 72 117 108 70 111 106 67 104 103 64 97 100 60 90 96 56 81 92 52 72 87 47 62 81 41 51 74 34 37 66 25 19 54 4 0 28 131 219 189 131 219 189 131 219 189 131 219 189 131 219 189 131 219 189 131 219 189 131 219 189 131 219 189 131 219 189 131 219 189 131 219 189 131 219 189 131 219 189 131 219 189 131 219 189 131 219 189 131 219 189 131 219 189 131 219 189 131 219 189 131 219 189 131 219 189 131 219 189 131 219 189 59 117 70 71 138 87 77 148 96 81 155 102 85 159 107 87 163 111 89 165 115 90 167 118 92 168 120 92 168 122 93 168 124 93 168 125 93 167 126 93 166 126 93 164 127 92 162 127 92 160 127 91 157 127 90 154 126 88 151 125 87 147 124 85 143 123 83 139 121 81 134 119 79 129 117 76 123 114 74 117 111 71 111 108 67 103 104 63 95 100 59 86 95 54 76 89 47 63 82 39 48 72 80 133 116 86 143 124 88 148 127 90 150 130 91 151 132 91 151 133 91 150 133 91 149 134 90 148 134 90 146 133 89 143 133 87 140 131 86 136 130 83 131 128 81 126 125 78 119 121 73 109 116 98 168 137 97 167 137 96 165 136 95 162 136 94 159 135 93 156 134 92 153 133 90 149 132 88 145 130 86 141 128 84 136 126 82 130 123 79 124 120 76 117 117 72 110 113 67 101 108 62 90 101 54 75 92 130 218 186 130 218 186 130 218 186 130 218 186 130 218 186 130 218 186 130 218 186 130 218 186 130 218 186 130 218 186 130 218 186 130 218 186 129 218 186
132 220 190 132 220 190 132 220 190 132 220 190 132 220 190 132 220 190 132 220 190 132 220 190 132 220 190 132 220 190 132 220 190 132 220 190 132 220 190 75 146 92 84 158 106 88 163 113 90 166 117 92 167 121 93 167 124 94 167 126 94 166 128 94 165 130 94 164 131 94 162 132 93 160 132 93 157 133 92 155 133 86 150 119 90 155 126 92 157 129 93 158 132 93 157 133 93 156 135 93 155 135 93 153 136 92 151 136 92 149 136 91 146 136 90 143 135 88 140 134 87 136 133 85 132 132 83 127 131 81 123 129 79 118 126 76 112 124 73 105 121 70 98 117 65 89 111 58 76 102 66 137 75 74 148 88 79 154 95 82 158 101 84 160 105 86 161 109 87 161 112 87 161 114 88 160 116 88 159 118 88 157 119 88 155 120 87 153 121 87 150 121 86 147 121 85 144 121 84 141 121 83 137 120 81 133 119 79 129 118 78 124 117 76 119 116 74 114 114 71 109 112 69 103 110 66 97 107 11 51 0 15 57 0 17 61 0 19 64 2 21 66 5 22 68 7 24 70 9 25 71 11 26 72 13 27 74 14 27 74 16 28 75 17 29 76 18 29 76 20 30 77 21 30 77 22 31 77 23 31 77 24 31 78 24 32 78 25 32 78 26 32 77 27 32 77 27 32 77 28 32 77 28 33 77 29 33 76 29 33 76 30 33 75 30 33 75 31 33 74 31 33 74 31 33 73 32 32 73 32 32 72 32 32 71 32 32 71 32 32 70 32 32 69 33 31 68 33 31 67 33 31 67 33 31 66 33 30 65 33 30 64 33 30 63 33 29 62 32 29 61 32 29 59 32 28 58 32 28 57 32 27 56 32 27 55 31 27 53 31 26 52 31 26 51 31 25 49 30 24 48 30 24 47 29 23 45 29 23 44 29 22 42 28 22 41 28 21 39 27 20 37 27 20 36 26 19 34 25 18 32 25 17 31 24 17 29 23 16 27 23 15 25 22 14 23 21 13 21 20 12 19 20 11 17 19 11 15 18 10 13 17 9 10 16 7 8 15 6 6 14 5 3 13 4 1 12 3 0 10 2 0 9 1 0 8 0 0 6 0 0 5 0 0 3 0 0 2 0 0 0 0 0 0 0 0 0 0 0 0 0 0 0 0 0 0 0 0 0 0 0 0 0 0 0 0 0 0 0 0 0 0 0 0 0 0 0 64 132 73 70 140 82 74 146 88 77 150 94 79 153 98 81 155 101 82 156 104 83 156 107 84 156 109 84 155 110 85 154 112 85 153 113 84 151 113 84 149 114 83 146 114 82 143 113 81 140 113 79 136 112 78 132 111 76 128 110 74 123 108 72 118 106 70 113 104 67 107 102 64 101 99 61 94 96 58 86 92 54 78 88 49 69 83 45 59 77 39 48 71 32 35 63 24 19 53 11 0 37 132 221 191 132 221 191 132 221 191 132 220 191 132 220 191 132 220 191 132 220 191 132 220 191 132 220 191 132 220 191 132 220 191 132 220 191 132 220 191 132 220 191 132 220 191 132 220 191 132 220 191 132 220 191 132 220 191 132 220 191 132 220 191 132 220 191 132 220 191 132 220 191 132 220 191 64 127 76 72 140 87 77 148 95 81 154 100 83 158 105 86 161 109 87 163 112 89 165 115 90 166 117 91 166 119 91 166 120 91 165 122 91 164 123 91 163 123 91 162 124 90 160 124 90 157 124 89 155 123 88 152 123 86 148 122 85 145 121 83 141 119 82 136 118 80 132 116 77 127 114 75 121 111 72 115 109 69 109 105 66 102 102 62 94 98 58 85 93 53 75 87 83 142 118 88 150 124 90 154 128 92 156 131 93 158 133 94 158 134 94 159 135 94 158 136 94 157 136 94 156 137 93 154 136 93 152 136 92 150 135 90 147 134 89 143 133 87 139 132 85 135 130 83 130 127 80 124 124 77 117 121 72 108 116 65 93 107 95 162 134 94 160 134 93 157 133 91 153 132 90 150 130 88 146 129 86 141 127 84 137 125 82 131 122 79 126 120 76 119 116 73 112 113 69 104 108 64 95 103 59 84 97 51 68 87 131 219 189 131 219 188 131 219 188 131 219 188 131 219 188 131 219 188 131 219 188 131 219 188 131 219 188 131 219 188 131 219 188 131 219 188
133 221 192 133 221 192 133 221 192 133 221 192 133 221 192 133 221 192 133 221 192 133 221 192 133 221 192 133 221 192 133 221 193 133 221 193 133 221 193 81 156 101 85 161 108 88 164 113 90 166 117 91 167 120 92 167 123 93 166 125 93 165 126 93 164 128 93 162 129 93 160 130 92 158 130 85 151 115 90 158 123 92 160 127 93 161 130 94 162 132 94 161 134 95 160 135 95 159 136 94 157 136 94 155 137 93 153 137 92 150 137 91 148 136 90 145 136 89 141 135 88 138 134 86 134 133 84 130 131 82 125 130 80 120 128 78 115 125 75 109 123 72 103 120 69 96 116 65 88 112 60 78 105 50 60 93 78 153 93 80 155 98 82 157 102 84 158 106 85 158 109 85 158 111 86 157 113 86 155 114 86 154 115 85 152 116 85 149 117 84 147 117 84 144 117 83 141 117 81 137 117 80 133 116 79 129 116 77 125 115 75 121 113 73 116 112 71 111 110 69 105 108 66 100 106 64 93 103 7 45 0 12 52 0 15 57 0 17 60 0 19 63 1 20 65 4 22 67 6 23 68 8 24 69 10 25 71 12 25 71 13 26 72 15 27 73 16 27 73 17 28 74 18 28 74 19 29 75 20 29 75 21 30 75 22 30 75 23 30 75 23 30 75 24 31 75 25 31 74 25 31 74 26 31 74 26 31 74 27 31 73 27 31 73 28 31 72 28 31 72 28 31 71 29 31 71 29 31 70 29 31 69 30 31 69 30 30 68 30 30 67 30 30 67 30 30 66 30 30 65 30 29 64 30 29 63 30 29 62 30 28 61 30 28 60 30 28 59 30 27 58 30 27 57 30 27 56 30 26 55 29 26 53 29 25 52 29 25 51 29 24 50 28 24 48 28 23 47 28 23 45 27 22 44 27 22 43 27 21 41 26 21 40 26 20 38 25 19 36 25 19 35 24 18 33 24 17 31 23 16 30 22 16 28 22 15 26 21 14 24 20 13 22 20 12 20 19 12 18 18 11 16 17 10 14 16 9 12 15 8 10 14 7 8 13 6 5 12 5 3 11 4 1 10 2 0 9 1 0 8 0 0 7 0 0 5 0 0 4 0 0 2 0 0 1 0 0 0 0 0 0 0 0 0 0 0 0 0 0 0 0 0 0 0 0 0 0 0 0 0 0 0 0 0 0 0 0 0 0 0 0 0 0 0 0 0 0 63 130 70 68 137 78 72 143 85 74 146 90 77 149 94 78 151 97 80 152 100 81 152 102 81 152 104 82 151 106 82 150 107 82 149 108 81 147 109 81 144 109 80 142 109 79 139 109 78 136 108 77 132 108 75 128 107 73 124 105 71 119 104 69 114 102 67 109 100 64 103 97 61 96 94 58 90 91 55 82 88 51 74 84 47 66 79 42 56 74 37 45 67 30 33 60 23 17 50 12 0 37 133 222 193 133 222 193 133 222 193 133 222 193 133 222 193 133 222 193 133 222 193 133 222 193 133 222 193 133 222 193 133 221 193 133 221 193 133 221 193 133 221 193 133 221 193 133 221 193 133 221 193 133 221 193 133 221 193 133 221 193 133 221 193 133 221 193 133 221 193 133 221 193 51 106 57 65 130 77 71 141 86 76 148 93 79 153 98 82 156 102 84 159 106 86 161 109 87 162 112 88 163 114 89 163 115 89 163 117 89 162 118 89 162 119 89 160 120 89 159 120 88 157 120 88 154 120 87 152 120 86 149 119 84 145 118 83 142 117 81 138 116 79 134 114 77 129 112 75 124 110 73 119 108 70 113 105 67 106 102 64 99 99 60 92 95 82 142 114 87 151 121 90 156 126 92 159 129 94 161 131 95 163 133 95 163 135 96 163 136 96 163 137 96 163 137 96 161 138 96 160 138 95 158 138 94 156 137 93 154 137 92 151 136 91 148 135 89 144 133 88 140 132 86 136 130 83 131 127 81 125 125 78 119 121 74 111 117 69 101 111 60 84 101 92 156 131 91 153 130 89 149 129 87 145 127 86 141 125 84 137 123 81 132 121 79 126 118 76 120 115 73 114 112 69 106 108 65 98 104 60 88 98 54 76 91 46 60 81 132 220 191 132 220 191 132 220 191 132 220 191 132 220 190 132 220 190 132 220 190 132 220 190 132 220 190 132 220 190 132 220 190
134 222 194 134 222 194 134 222 194 134 222 194 134 222 194 134 222 194 134 222 195 134 222 195 134 222 195 134 222 195 134 222 195 134 222 195 78 152 94 83 159 103 86 162 108 88 164 113 89 165 116 90 166 119 91 165 121 92 165 123 92 163 124 92 162 126 92 160 126 91 158 127 87 157 117 91 161 123 93 163 127 94 164 129 95 164 131 95 164 133 95 163 134 95 162 135 95 160 136 95 158 136 94 156 137 93 154 137 92 151 136 91 148 136 90 145 135 89 142 135 88 138 134 86 135 133 85 130 131 83 126 130 81 122 128 79 117 126 76 111 123 74 106 121 71 99 118 67 92 114 63 85 110 59 75 104 52 63 96 78 153 95 80 154 99 81 155 102 82 155 105 83 154 107 83 153 109 83 152 110 83 150 112 83 148 112 82 146 113 82 143 113 81 140 113 80 137 113 79 133 113 78 129 112 76 125 112 74 121 111 73 117 109 71 112 108 69 107 106 66 101 104 64 96 102 61 90 99 2 36 0 9 47 0 12 52 0 15 56 0 17 59 0 18 61 1 20 63 3 21 65 5 22 66 7 23 67 9 24 68 10 24 69 12 25 70 13 26 71 14 26 71 15 27 71 17 27 72 18 27 72 18 28 72 19 28 72 20 28 72 21 29 72 22 29 72 22 29 72 23 29 72 23 85 140 125 87 142 128 88 143 130 88 142 131 87 141 131 87 139 131 86 136 131 85 133 130 83 130 129 82 126 127 80 121 125 77 115 122 73 107 118 28 64 28 28 63 28 28 62 28 28 61 28 27 60 28 27 59 28 27 59 28 27 57 28 26 56 28 26 55 28 25 54 27 25 53 27 25 52 27 24 51 27 24 50 27 23 48 26 23 47 26 22 46 26 22 44 25 21 43 25 21 41 25 20 40 24 20 39 24 19 37 23 18 35 23 18 34 22 17 32 22 16 31 21 16 29 21 15 27 20 14 25 19 13 23 19 12 22 18 12 20 17 11 18 16 10 16 16 9 14 15 8 12 14 7 9 13 6 7 12 5 5 11 4 3 10 3 0 9 2 0 8 1 0 6 0 0 5 0 0 4 0 0 3 0 0 1 0 0 0 0 0 0 0 0 0 0 0 0 0 0 0 0 0 0 0 0 0 0 0 0 0 0 0 0 0 0 0 0 0 0 0 0 0 0 0 0 0 0 0 0 0 0 0 0 60 126 66 65 134 74 69 139 80 72 142 85 74 145 89 75 146 92 77 147 95 78 147 98 78 147 100 79 146 101 45 45 91 46 46 92 46 46 93 47 47 94 47 47 94 47 47 94 47 47 94 47 47 94 46 46 93 46 46 92 68 114 99 66 109 97 64 104 95 61 98 92 83 136 123 86 140 127 87 141 129 87 142 130 87 141 131 87 139 131 86 137 130 85 134 130 84 131 128 82 127 127 79 122 124 76 115 121 134 223 195 134 223 195 134 223 195 134 223 195 134 223 195 134 223 195 134 223 195 134 223 195 134 223 195 134 223 195 134 223 195 134 222 195 134 222 195 134 222 195 134 222 195 134 222 195 134 222 195 134 222 195 134 222 195 134 222 195 134 222 195 134 222 195 56 115 62 65 130 75 70 139 84 74 146 90 78 150 95 80 154 99 82 156 103 84 158 105 85 159 108 86 160 110 86 160 112 87 160 113 87 159 114 87 158 115 87 157 116 86 155 116 86 153 116 85 151 116 84 148 116 83 145 115 82 142 114 81 138 113 79 135 112 77 130 110 75 126 109 73 121 107 71 116 104 68 110 102 65 104 99 76 133 105 84 148 116 88 155 121 91 159 125 93 162 128 94 164 131 95 166 133 96 166 134 97 167 135 97 167 136 97 166 137 97 165 138 97 164 138 96 163 138 96 161 138 95 159 137 94 156 137 93 154 136 92 151 135 90 147 134 89 144 132 87 140 131 85 135 129 83 130 126 80 124 124 77 118 120 73 111 116 69 102 111 63 89 104 90 152 128 88 148 126 86 145 125 85 141 123 83 136 121 81 131 119 78 126 117 75 120 114 72 114 111 69 107 107 65 99 103 61 90 98 56 80 92 50 67 85 40 49 73 133 221 193 133 221 193 133 221 193 133 221 193 133 221 193 133 221 192 133 221 192 133 221 192 133 221 192 133 221 192
135 223 196 135 223 196 135 223 196 135 223 196 135 223 196 135 223 197 135 223 197 135 223 197 135 223 197 135 223 197 135 223 197 73 146 86 79 155 96 83 159 103 85 162 108 87 163 111 88 164 114 89 164 117 90 163 119 90 163 120 90 161 122 90 160 123 82 151 108 88 160 117 91 163 122 93 165 125 94 166 128 95 166 130 95 166 132 95 165 133 95 164 134 95 162 135 95 161 135 94 159 136 94 156 136 93 154 136 92 151 135 91 148 135 90 145 135 89 142 134 87 138 133 86 135 132 84 131 130 83 126 129 81 122 127 79 117 125 76 112 123 74 107 121 71 101 118 68 95 115 65 88 111 61 80 107 57 71 102 51 60 95 78 150 95 79 151 98 80 151 101 80 150 103 81 149 105 81 148 106 81 146 107 80 144 108 80 141 109 79 139 109 78 136 109 77 132 109 76 129 109 75 125 108 73 121 107 72 117 106 70 112 105 68 108 104 66 103 102 64 97 100 61 92 98 59 86 95 56 79 92 5 42 0 9 48 0 12 52 0 14 55 0 16 58 0 17 60 0 19 62 2 20 63 4 21 64 6 22 65 8 22 66 9 23 67 10 24 68 12 24 68 13 25 68 14 25 69 15 26 69 16 26 69 17 26 69 18 27 69 18 27 69 19 87 148 125 90 151 129 91 152 131 91 152 133 92 152 134 92 151 135 91 149 135 91 148 135 90 145 135 89 143 135 88 140 134 87 137 133 85 133 132 84 129 130 82 125 128 79 120 126 77 114 123 74 107 120 69 98 115 26 59 25 26 58 25 26 57 25 25 56 25 25 55 25 25 54 25 24 53 25 24 52 25 23 50 25 23 49 25 23 48 24 22 47 24 22 46 24 21 44 24 21 43 23 20 42 23 20 40 23 19 39 22 18 37 22 18 36 21 17 34 21 17 33 20 16 31 20 15 30 19 15 28 19 14 26 18 13 24 17 12 23 17 12 21 16 11 19 15 10 17 15 9 15 14 8 13 13 7 11 12 6 9 11 5 7 10 4 4 9 3 2 8 2 0 7 1 0 6 0 0 5 0 0 4 0 0 3 0 0 1 0 0 0 0 0 0 0 0 0 0 0 0 0 0 0 0 0 0 0 0 0 0 0 0 0 0 0 0 0 0 0 0 0 0 0 0 0 0 0 0 0 0 0 0 0 0 0 0 0 0 0 51 112 52 58 122 62 62 129 70 66 134 76 69 137 80 71 140 84 65 127 79 74 142 90 74 142 93 37 37 75 42 42 85 39 39 78 43 43 87 44 44 88 44 44 89 44 44 89 44 44 89 44 44 89 40 40 80 44 44 88 43 43 87 43 43 86 86 145 124 89 149 128 90 151 130 91 152 132 92 152 133 92 152 134 92 151 135 91 150 135 91 148 135 90 146 135 89 143 134 88 140 133 87 137 132 85 133 130 83 129 129 81 123 126 78 117 123 74 110 119 68 98 113 135 224 197 135 224 197 135 224 197 135 224 197 135 224 197 135 224 197 135 223 197 135 223 197 135 223 197 135 223 197 135 223 197 135 223 197 135 223 197 135 223 197 135 223 197 135 223 197 135 223 197 135 223 197 56 117 62 64 129 73 69 137 81 73 143 87 75 147 91 78 151 95 80 153 99 81 155 102 82 156 104 83 156 106 84 157 108 84 156 109 84 156 110 84 155 111 84 153 112 84 151 112 83 149 112 83 147 112 82 145 112 81 142 111 79 138 110 78 135 109 76 131 108 75 127 106 73 122 105 71 117 103 68 112 100 66 106 98 79 140 107 85 151 115 88 157 120 91 161 124 93 164 127 94 166 129 95 168 131 96 168 133 97 169 134 97 169 135 97 169 136 98 168 137 97 167 137 97 166 137 97 164 137 96 163 137 95 161 137 94 158 136 93 156 136 92 153 135 91 149 133 89 146 132 88 142 131 86 138 129 84 133 127 81 128 124 79 122 121 76 116 118 72 109 114 68 100 110 62 89 103 53 71 92 85 143 123 83 139 121 82 135 119 79 130 117 77 125 115 75 120 112 72 114 109 69 107 106 65 100 102 61 92 97 56 82 92 51 71 86 44 57 77 32 33 62 134 222 195 134 222 195 134 222 195 134 222 195 134 222 195 134 222 194 134 222 194 134 222 194 134 222 194
136 224 198 136 224 198 136 224 198 136 224 198 136 224 198 136 224 198 136 224 199 136 224 199 136 224 199 136 224 199 64 132 71 75 150 89 80 155 96 82 159 102 84 161 106 86 162 109 87 162 112 88 162 114 88 161 116 89 160 118 89 159 119 83 154 107 88 161 115 90 164 119 92 166 123 93 167 126 94 167 128 95 167 130 95 166 131 95 165 132 95 164 133 95 162 134 94 160 134 94 158 134 93 156 135 92 153 134 91 151 134 90 148 134 89 145 133 88 141 132 87 138 131 85 134 130 84 130 129 82 126 128 80 122 126 78 117 124 76 112 122 74 107 120 71 101 117 68 95 115 65 89 111 62 82 108 58 74 103 54 65 98 48 54 91 37 34 77 77 147 97 78 146 99 78 145 101 78 143 102 78 142 103 77 139 104 77 137 104 76 134 105 75 131 105 74 128 105 73 125 104 72 121 104 70 117 103 69 113 102 67 108 100 65 103 99 63 98 97 61 93 95 58 87 93 56 81 91 53 75 88 1 34 0 6 43 0 10 48 0 12 51 0 14 54 0 15 56 0 17 58 0 18 60 1 19 61 3 20 62 5 21 63 6 21 64 8 22 64 9 22 65 10 23 65 11 23 66 12 24 66 13 24 66 14 84 145 117 89 153 125 91 156 128 92 158 131 93 158 133 94 158 134 94 157 135 94 156 136 94 155 136 93 153 137 93 151 137 92 149 136 91 147 136 90 144 135 89 141 134 87 137 133 86 133 132 84 129 131 82 125 129 80 120 127 77 114 124 74 108 121 71 101 117 67 92 112 59 77 103 24 53 23 23 52 23 23 51 23 23 50 23 22 49 22 22 48 22 21 47 22 21 45 22 20 44 22 20 43 21 20 42 21 19 40 21 18 39 20 18 38 20 17 36 20 17 35 19 16 33 19 16 32 18 15 30 18 14 28 17 14 27 17 13 25 16 12 23 16 11 22 15 11 20 14 10 18 14 9 16 13 8 14 12 7 12 11 7 10 10 6 8 10 5 6 9 4 4 8 3 2 7 2 0 6 1 0 5 0 0 4 0 0 2 0 0 1 0 0 0 0 0 0 0 0 0 0 0 0 0 0 0 0 0 0 0 0 0 0 0 0 0 0 0 0 0 0 0 0 0 0 0 0 0 0 0 0 0 0 0 0 0 0 0 0 0 0 0 0 0 0 0 0 0 43 96 42 55 118 57 59 124 65 63 129 70 65 132 75 67 135 79 62 122 74 37 37 74 34 34 69 39 39 78 36 36 72 40 40 81 37 37 74 37 37 75 42 42 84 42 42 84 42 42 84 38 38 76 37 37 75 82 140 116 87 150 124 90 154 128 92 156 130 93 158 132 94 158 134 94 158 135 94 158 136 94 157 136 94 156 137 94 155 137 93 153 137 92 151 136 91 148 136 90 145 135 89 142 134 87 139 133 86 135 131 84 130 129 82 126 127 79 120 125 76 114 121 72 106 117 67 95 112 136 224 199 136 224 199 136 224 199 136 224 199 136 224 199 136 224 199 136 224 199 136 224 199 136 224 199 136 224 199 136 224 199 136 224 199 136 224 199 136 224 199 136 224 199 39 87 38 55 116 60 62 127 70 67 135 77 70 140 83 73 144 88 75 147 91 77 149 95 79 151 97 80 152 100 81 152 102 81 153 103 82 152 105 82 152 106 82 151 107 82 149 107 81 147 108 81 145 108 80 143 108 79 140 107 78 138 107 77 134 106 75 131 105 74 127 104 72 123 102 70 118 100 68 113 98 66 108 96 79 142 105 84 151 113 88 157 118 90 162 122 92 165 125 94 167 127 95 168 129 96 169 131 97 170 132 97 170 134 97 170 135 98 170 135 97 169 136 97 168 136 97 167 136 97 165 136 96 163 136 95 161 136 94 159 135 93 157 135 92 154 134 91 151 133 89 147 131 88 144 130 86 139 128 84 135 126 82 130 124 80 125 122 77 119 119 74 113 116 70 105 112 66 97 107 61 86 101 53 70 92 82 138 118 80 134 116 78 129 114 76 124 112 73 119 110 71 113 107 68 106 104 64 99 100 61 92 96 56 83 91 51 73 85 45 61 78 37 44 68 135 223 197 135 223 197 135 223 197 135 223 196 135 223 196 135 223 196 135 223 196 135 223 196 135 223 196
137 225 200 137 225 200 137 225 200 137 225 200 137 225 200 137 225 200 137 225 200 137 225 200 137 225 200 137 225 200 70 142 79 75 150 89 79 155 95 81 157 100 83 159 104 84 160 107 85 160 109 86 159 111 86 159 113 87 157 115 82 154 104 86 161 112 89 164 117 91 166 120 92 167 123 93 167 125 94 167 127 94 167 129 94 166 130 94 164 131 94 163 132 94 161 132 94 159 133 93 157 133 92 155 133 91 152 133 91 150 132 90 147 132 88 144 131 87 140 131 86 137 130 84 133 129 83 129 128 81 125 126 79 121 125 77 116 123 75 112 121 73 107 119 71 101 116 68 96 114 65 89 111 62 83 107 59 76 104 55 68 99 50 58 94 44 47 86 33 27 72 75 141 94 75 140 96 75 139 97 75 137 98 74 135 99 74 132 100 73 130 100 72 127 100 71 123 100 70 120 99 69 116 99 67 112 98 66 108 97 64 103 96 62 98 94 60 93 93 58 88 91 55 82 89 53 77 86 50 70 83 47 64 80 3 37 0 7 43 0 9 47 0 11 50 0 13 53 0 14 55 0 16 56 0 17 58 0 18 59 2 19 60 3 19 61 5 20 61 6 21 62 7 21 62 8 22 63 9 82 144 112 88 155 122 91 158 126 93 161 129 94 162 131 94 162 133 95 162 134 95 161 135 95 160 136 95 159 137 94 157 137 94 156 137 93 154 137 93 151 137 92 149 136 91 146 136 89 143 135 88 139 134 87 136 133 85 132 131 83 128 130 81 123 128 79 118 126 77 113 123 74 107 120 71 100 117 67 93 113 62 83 107 22 49 20 21 48 20 21 47 20 20 46 20 20 45 20 20 44 20 19 43 19 19 42 19 18 40 19 18 39 19 17 38 18 17 36 18 16 35 18 16 33 17 15 32 17 15 30 16 14 29 16 13 27 15 13 26 15 12 24 14 11 22 14 10 21 13 10 19 12 9 17 12 8 15 11 7 13 10 7 11 9 6 9 9 5 7 8 4 5 7 3 3 6 2 1 5 1 0 4 0 0 3 0 0 2 0 0 1 0 0 0 0 0 0 0 0 0 0 0 0 0 0 0 0 0 0 0 0 0 0 0 0 0 0 0 0 0 0 0 0 0 0 0 0 0 0 0 0 0 0 0 0 0 0 0 0 0 0 0 0 0 0 0 0 0 0 0 0 31 79 22 40 92 38 51 112 52 56 119 59 53 111 58 49 101 56 64 129 73 33 33 66 34 34 69 35 35 71 36 36 73 37 37 75 34 34 68 34 34 69 35 35 70 39 39 79 39 39 79 39 39 79 80 138 111 87 151 121 90 156 125 92 159 128 93 161 131 94 162 133 95 163 134 95 163 135 96 162 136 96 162 137 95 161 137 95 159 137 95 158 137 94 156 137 93 154 137 92 151 136 91 149 136 90 146 135 89 142 134 87 139 132 86 135 131 84 130 129 81 126 127 79 120 124 76 114 121 73 107 118 69 99 113 63 87 106 137 225 201 137 225 201 137 225 201 137 225 201 137 225 201 137 225 201 137 225 201 137 225 201 137 225 201 137 225 201 137 225 201 137 225 201 137 225 201 42 94 41 54 114 57 60 124 67 64 131 73 68 136 79 70 140 83 73 143 87 74 145 90 76 147 93 77 148 95 70 133 87 78 148 99 79 148 100 79 147 101 79 146 102 79 145 103 78 143 103 78 141 103 77 139 103 76 136 103 75 133 102 74 130 101 72 126 100 71 123 99 69 119 98 67 114 96 65 109 94 77 141 102 83 151 109 86 157 115 89 161 119 91 164 122 93 167 124 94 168 127 95 170 129 96 171 130 96 171 131 97 171 133 97 171 133 97 170 134 97 169 135 97 168 135 97 167 135 96 166 135 96 164 135 95 162 134 94 159 134 93 157 133 92 154 132 91 151 131 89 148 130 88 144 129 86 140 127 84 136 125 82 132 123 80 127 121 77 121 119 75 115 116 71 109 112 68 101 108 63 92 103 58 82 97 50 66 88 79 132 114 77 127 112 74 122 109 72 117 107 69 111 104 66 105 101 63 98 98 60 91 94 56 83 89 51 73 84 45 62 78 39 49 69 28 28 56 136 224 198 136 224 198 136 224 198 136 224 198 136 224 198 136 224 198 136 224 198 136 224 198
138 226 202 138 226 202 138 226 202 138 226 202 138 226 202 138 226 202 138 226 202 138 226 202 138 226 202 59 127 63 70 144 80 75 150 88 78 153 93 80 155 98 82 156 101 83 157 104 84 157 106 84 156 108 84 156 110 80 152 100 85 159 108 88 163 113 90 165 117 91 167 120 92 167 122 93 167 124 93 167 126 94 166 127 94 165 128 94 164 129 93 162 130 93 160 130 92 158 131 92 156 131 91 154 131 90 151 131 89 148 130 88 145 130 87 142 129 86 139 129 85 135 128 83 132 127 82 128 126 80 124 124 78 120 123 76 115 121 74 111 119 72 106 117 70 100 115 67 95 112 65 89 110 62 83 106 58 76 103 55 69 99 51 60 94 46 51 88 40 39 81 64 123 80 72 135 91 72 134 92 72 132 93 71 130 94 64 115 85 63 112 85 69 122 95 68 118 95 67 115 94 66 111 94 64 107 93 63 103 92 61 98 91 53 84 80 57 88 88 49 75 77 52 78 84 50 72 81 47 65 78 44 59 75 0 30 0 4 38 0 7 43 0 9 46 0 11 49 0 12 51 0 13 53 0 15 54 0 16 55 0 16 56 0 17 57 2 18 58 3 19 59 4 19 59 5 86 153 116 90 159 122 92 162 126 93 163 128 94 164 131 95 165 132 95 165 134 96 164 135 96 163 136 96 162 136 95 161 137 95 159 137 94 157 137 94 155 137 93 152 136 92 150 136 91 147 135 90 144 135 88 141 134 87 137 132 85 134 131 84 130 130 82 125 128 80 121 126 78 116 124 75 110 121 72 105 119 69 98 115 66 90 111 61 81 106 55 69 99 19 45 18 19 44 17 18 42 17 18 41 17 18 40 17 17 39 17 17 37 16 16 36 16 16 35 16 15 33 15 15 32 15 14 31 15 13 29 14 13 28 14 12 26 13 12 25 13 11 23 12 10 21 12 9 20 11 9 18 10 8 16 10 7 14 9 6 12 8 6 10 8 5 9 7 4 7 6 3 4 5 2 2 4 1 0 3 0 0 2 0 0 1 0 0 0 0 0 0 0 0 0 0 0 0 0 0 0 0 0 0 0 0 0 0 0 0 0 0 0 0 0 0 0 0 0 0 0 0 0 0 0 0 0 0 0 0 0 0 0 0 0 0 0 0 0 0 0 0 0 0 0 0 0 0 0 0 0 0 0 0 0 24 65 14 36 86 32 42 95 41 52 112 53 49 105 53 46 96 51 28 28 57 30 30 60 31 31 63 29 29 59 33 33 67 34 34 69 35 35 71 36 36 72 32 32 65 36 36 73 33 33 66 84 148 115 88 155 121 91 159 125 93 162 128 94 164 130 95 165 132 96 165 133 96 166 135 96 165 136 96 165 136 96 164 137 96 163 137 96 161 137 95 160 137 95 158 137 94 156 137 93 153 136 92 151 136 91 148 135 89 145 134 88 141 132 86 137 131 85 133 129 83 129 128 81 124 125 78 119 123 75 113 120 72 106 117 68 98 112 64 88 107 55 72 97 138 226 203 138 226 203 138 226 203 138 226 203 138 226 203 138 226 203 138 226 203 138 226 203 138 226 203 138 226 203 138 226 203 41 93 39 51 110 54 57 120 62 62 127 69 65 132 74 61 122 71 70 139 82 71 141 86 65 128 79 66 129 81 75 144 92 75 144 94 76 143 95 76 143 96 76 141 97 76 140 98 75 138 98 75 136 98 74 134 98 73 131 98 72 129 97 71 125 96 69 122 95 68 118 94 66 114 93 64 109 91 75 138 97 81 149 105 85 155 111 87 160 115 90 163 118 91 166 121 93 168 124 94 169 126 95 170 127 96 171 129 96 171 130 96 171 131 97 171 132 97 170 132 97 169 133 96 168 133 96 167 133 95 165 133 95 163 133 94 161 133 93 159 132 92 157 132 91 154 131 90 151 130 89 148 129 87 144 127 86 141 126 84 137 124 82 132 122 80 127 120 77 122 118 75 117 115 72 111 112 69 104 108 65 96 104 60 87 99 55 76 93 47 60 83 75 125 109 73 120 106 70 115 104 68 109 101 65 103 98 62 97 95 58 90 91 55 82 87 50 73 82 45 63 76 39 50 69 31 34 59 137 225 200 137 225 200 137 225 200 137 225 200 137 225 200 137 225 200 137 225 200 137 225 200
138 227 204 138 227 204 138 227 204 139 227 204 139 227 204 139 227 204 139 227 204 139 227 204 139 227 204 63 134 68 70 143 79 74 148 86 76 151 91 78 153 95 80 154 98 81 154 101 81 154 103 82 153 105 77 148 94 83 157 104 86 162 109 88 164 113 90 166 116 91 166 119 92 166 121 92 166 123 92 166 124 93 165 126 93 164 127 92 162 127 92 160 128 92 159 128 91 157 129 91 154 129 90 152 129 89 149 129 88 147 128 87 144 128 86 140 127 85 137 126 83 134 126 82 130 125 81 126 123 79 122 122 77 118 121 75 114 119 73 109 117 71 104 115 69 99 113 66 94 111 64 88 108 61 82 105 58 76 102 55 69 98 51 61 94 47 52 89 41 42 83 35 29 74 68 130 86 62 116 79 68 127 88 68 125 89 67 122 90 67 119 90 59 105 81 65 113 90 64 110 89 50 85 71 61 102 88 59 98 87 46 74 68 55 88 84 53 83 82 46 70 72 49 72 78 41 60 68 39 54 66 40 53 70 37 46 67 0 32 0 4 38 0 6 42 0 8 45 0 10 47 0 11 49 0 12 51 0 13 52 0 14 53 0 15 54 0 16 55 0 79 143 104 87 156 116 90 161 121 92 164 124 93 165 127 94 166 129 95 166 131 95 166 132 96 166 134 96 165 134 96 164 135 96 163 136 95 161 136 95 159 136 94 157 136 93 155 136 93 153 135 92 150 135 91 148 134 90 145 134 88 141 133 87 138 132 85 134 130 84 130 129 82 126 128 80 122 126 78 117 124 76 112 122 73 107 119 70 101 116 67 94 113 64 87 109 60 78 104 54 67 97 17 41 15 17 40 15 16 38 14 16 37 14 15 36 14 15 35 14 14 33 13 14 32 13 13 31 13 13 29 12 12 28 12 12 26 12 11 25 11 10 23 11 10 22 10 9 20 10 8 18 9 8 17 8 7 15 8 6 13 7 5 11 7 5 10 6 4 8 5 3 6 4 2 4 3 1 2 3 0 0 2 0 0 1 0 0 0 0 0 0 0 0 0 0 0 0 0 0 0 0 0 0 0 0 0 0 0 0 0 0 0 0 0 0 0 0 0 0 0 0 0 0 0 0 0 0 0 0 0 0 0 0 0 0 0 0 0 0 0 0 0 0 0 0 0 0 0 0 0 0 0 0 0 0 0 0 139 228 205 9 29 2 36 88 29 38 89 35 43 95 42 46 99 47 19 19 38 23 23 46 24 24 49 23 23 46 30 30 60 27 27 55 25 25 51 29 29 58 33 33 66 33 33 67 76 136 103 85 151 114 88 157 120 91 161 123 93 164 126 94 165 129 95 167 131 96 167 132 96 168 133 97 167 134 97 167 135 97 166 136 97 165 136 96 164 137 96 163 137 95 161 137 95 159 136 94 157 136 93 154 136 92 152 135 91 149 134 90 146 133 88 143 132 87 139 131 85 135 129 83 131 127 81 126 125 79 122 123 77 116 121 74 110 118 71 104 115 67 96 110 62 87 105 56 74 98 139 227 204 139 227 204 139 227 204 139 227 204 139 227 204 139 227 204 139 227 204 139 227 204 139 227 204 139 227 204 39 90 36 44 96 44 54 116 58 58 122 64 62 127 69 58 118 66 60 120 70 68 136 81 63 123 75 71 138 86 71 139 87 72 139 89 58 111 72 58 110 73 73 136 92 72 135 93 72 133 93 71 131 93 71 129 93 70 126 93 69 124 92 61 108 82 66 117 90 65 113 89 57 98 79 71 133 91 78 145 101 82 152 107 85 158 111 88 161 115 90 164 118 91 167 120 92 168 122 93 169 124 94 170 126 95 171 127 95 171 128 96 171 129 96 170 130 96 170 130 96 169 131 95 168 131 95 166 131 95 165 131 94 163 131 93 161 131 92 159 130 91 156 130 90 153 129 89 151 128 88 147 127 86 144 125 85 140 124 83 136 122 81 132 121 79 128 119 77 123 116 75 117 114 72 112 111 69 105 108 65 98 104 61 90 100 57 81 94 51 69 88 42 52 77 71 118 103 68 112 101 66 107 98 63 101 95 60 95 92 57 88 88 53 80 84 49 72 80 44 62 74 38 50 67 31 36 59 20 14 45 138 226 202 138 226 202 137 226 202 137 226 202 137 226 202 137 226 202 137 226 202
139 228 206 139 228 206 139 228 206 139 228 206 139 228 206 139 228 206 139 228 206 139 228 206 139 228 206 64 135 69 69 142 77 72 146 83 74 148 88 76 150 92 78 151 95 79 151 97 79 151 100 72 142 86 80 154 98 84 159 104 86 162 109 88 164 112 89 165 115 90 165 117 91 165 119 91 165 121 91 164 122 91 163 123 91 162 124 91 160 125 91 159 126 90 157 126 90 155 126 89 152 126 88 150 126 88 147 126 87 145 126 86 142 125 85 138 125 83 135 124 82 132 123 81 128 122 79 124 121 77 120 120 76 116 118 74 112 117 72 107 115 70 103 113 68 98 111 65 92 108 63 87 106 60 81 103 57 75 100 54 68 96 50 61 93 46 53 88 42 44 83 36 33 76 28 18 66 65 123 82 65 121 83 64 119 84 57 105 76 57 102 76 62 111 85 61 108 84 48 83 67 47 80 67 57 96 82 50 83 73 54 87 80 47 74 71 50 78 77 48 72 75 41 60 66 43 61 71 36 49 61 33 43 58 30 37 55 0 24 0 0 32 0 3 37 0 5 40 0 7 43 0 9 45 0 10 47 0 11 48 0 12 50 0 13 51 0 81 148 106 86 157 114 89 162 119 91 164 122 93 166 125 94 167 127 95 167 129 95 167 131 96 167 132 96 166 133 96 166 134 96 164 134 95 163 135 95 161 135 94 160 135 94 157 135 93 155 135 92 153 134 91 150 134 90 148 133 89 145 132 88 141 132 87 138 131 85 135 129 83 131 128 82 127 127 80 123 125 78 118 123 76 113 121 73 108 119 71 103 116 68 97 113 65 90 110 61 82 106 57 74 101 52 63 95 42 44 82 14 36 12 14 34 12 14 33 11 13 32 11 13 31 11 12 29 11 12 28 10 11 26 10 10 25 9 10 24 9 9 22 9 9 20 8 8 19 8 7 17 7 7 16 6 6 14 6 5 12 5 4 10 5 4 8 4 3 7 3 2 5 2 1 3 2 0 1 1 0 0 0 0 0 0 0 0 0 0 0 0 0 0 0 0 0 0 0 0 0 0 0 0 0 0 0 0 0 0 0 0 0 0 0 0 0 0 0 0 0 0 0 0 0 0 0 0 0 0 0 0 0 0 0 0 0 0 0 0 0 0 0 0 0 0 0 0 0 0 0 0 0 0 0 0 0 0 0 0 0 140 228 207 140 228 207 31 80 21 38 91 32 30 69 28 42 93 41 14 14 29 15 15 31 19 19 39 23 23 46 27 27 54 28 28 56 26 26 52 23 23 47 24 24 48 78 141 104 84 152 113 88 158 118 90 162 121 92 165 124 93 166 127 95 168 129 95 168 130 96 169 132 96 169 133 97 168 134 97 168 134 97 167 135 96 166 135 96 165 136 96 163 136 95 161 136 94 159 135 94 157 135 93 155 134 92 152 134 91 150 133 90 147 132 88 143 131 87 140 130 85 136 128 83 132 127 82 128 125 79 123 123 77 118 121 75 113 118 72 107 115 69 100 112 65 92 108 61 83 103 55 71 96 140 228 206 140 228 206 140 228 206 140 228 206 140 228 206 140 228 206 140 228 206 140 228 206 140 228 206 32 77 28 45 101 44 51 111 52 50 105 53 58 122 64 61 126 69 63 128 72 58 117 68 59 119 70 60 120 72 54 107 66 69 133 84 69 133 85 69 132 86 69 131 87 62 117 79 62 115 79 68 126 88 67 124 88 66 121 87 65 118 87 64 115 86 63 112 85 61 108 84 66 125 84 75 141 95 79 149 101 83 155 106 85 159 110 88 162 114 89 165 116 91 167 119 92 168 121 93 169 122 93 170 124 94 170 125 94 170 126 95 170 127 95 169 128 95 169 128 95 168 129 94 167 129 94 165 129 93 164 129 93 162 129 92 160 128 91 158 128 90 155 127 89 153 127 88 150 126 87 147 125 86 143 123 84 140 122 82 136 120 80 132 119 78 127 117 76 123 115 74 117 112 71 112 110 69 106 107 65 99 103 62 92 99 58 83 95 53 73 89 47 61 82 36 40 69 66 110 97 64 104 95 61 99 92 58 92 89 55 86 85 51 78 81 47 70 77 43 60 72 38 50 65 31 37 58 22 19 46 138 227 204 138 227 204 138 227 204 138 227 204 138 227 203 138 227 203 138 227 203
140 228 207 140 228 207 140 229 207 140 229 207 140 229 207 140 229 207 140 229 207 140 229 207 53 119 52 63 134 67 67 140 75 70 143 80 72 145 85 74 147 88 75 147 91 76 147 94 77 147 96 76 150 92 81 156 99 84 160 104 86 162 108 87 163 111 88 164 113 89 164 116 89 164 117 90 163 119 90 162 120 90 161 121 90 160 122 90 158 123 89 157 123 89 155 123 88 153 124 88 150 124 87 148 124 86 145 123 85 142 123 84 139 123 83 136 122 82 133 121 80 130 120 79 126 119 78 122 118 76 118 117 74 114 116 72 110 114 70 105 112 68 101 110 66 96 108 64 91 106 61 85 104 59 79 101 56 73 98 53 67 95 49 60 91 46 52 87 42 44 82 37 34 76 30 22 68 21 4 56 55 104 70 55 102 70 60 111 79 59 108 79 41 73 55 58 102 79 51 88 70 55 95 78 54 91 77 52 86 76 40 65 60 43 69 66 37 57 57 44 67 70 42 61 67 31 44 52 36 49 62 33 42 59 30 35 56 26 28 52 0 25 0 0 32 0 3 35 0 5 39 0 6 41 0 8 43 0 9 44 0 10 46 0 80 148 103 85 157 112 88 162 116 91 165 120 92 166 123 93 167 125 94 168 127 95 168 128 95 168 130 95 167 131 95 167 132 95 165 132 95 164 133 95 163 133 94 161 133 94 159 133 93 157 133 92 155 133 91 152 133 91 150 132 90 147 132 88 144 131 87 141 130 86 138 129 84 134 128 83 131 127 81 127 125 79 122 124 78 118 122 76 113 120 73 109 118 71 103 115 68 98 113 65 91 110 62 85 106 59 77 102 54 68 97 49 58 91 39 40 79 12 31 9 12 30 9 11 29 9 11 28 8 10 26 8 10 25 8 9 24 7 9 22 7 8 21 6 8 19 6 7 18 5 6 16 5 6 14 4 5 13 4 4 11 3 3 9 3 3 7 2 2 5 1 1 4 0 0 2 0 0 0 0 0 0 0 0 0 0 0 0 0 0 0 0 0 0 0 0 0 0 0 0 0 0 0 0 0 0 0 0 0 0 0 0 0 0 0 0 0 0 0 0 0 0 0 0 0 0 0 0 0 0 0 0 0 0 0 0 0 0 0 0 0 0 0 0 0 0 0 0 0 0 0 0 0 0 0 0 0 0 0 0 0 141 229 208 141 229 208 141 229 208 20 56 10 29 74 22 38 90 32 29 67 27 12 12 24 17 17 35 21 21 42 20 20 40 19 19 38 19 19 39 23 23 46 21 21 42 77 142 102 83 152 110 87 158 115 89 162 119 91 165 122 93 167 124 94 168 126 95 169 128 95 169 130 96 169 131 96 169 132 96 169 133 96 168 133 96 167 134 96 166 134 96 165 134 95 163 134 95 161 134 94 160 134 93 157 134 92 155 133 91 153 132 90 150 132 89 147 131 88 144 130 86 140 129 85 137 127 83 133 126 81 129 124 79 124 122 77 120 120 75 114 118 72 109 115 70 103 112 66 96 108 63 88 104 58 79 99 52 67 93 140 229 208 140 229 208 140 229 208 140 229 208 140 229 208 140 229 208 140 229 208 140 229 208 26 63 20 41 95 38 42 94 42 41 89 43 49 105 53 52 108 57 59 123 67 55 112 63 56 114 65 64 127 75 58 115 69 58 115 70 65 127 80 52 101 64 46 88 57 65 124 82 65 123 82 64 121 82 64 118 82 56 104 74 62 113 81 61 110 81 59 106 80 52 92 71 70 135 88 76 144 96 80 151 101 83 156 105 85 159 109 87 162 112 89 164 115 90 166 117 91 167 119 92 168 120 92 169 122 93 169 123 93 169 124 93 169 125 94 168 125 94 167 126 93 166 126 93 165 126 93 164 127 92 162 126 92 160 126 91 158 126 90 156 125 89 154 125 88 151 124 87 148 123 86 145 122 84 142 121 83 139 120 81 135 118 79 131 117 78 127 115 75 122 113 73 117 110 71 112 108 68 106 105 65 99 102 62 93 98 58 85 94 54 76 89 48 65 83 41 51 75 64 107 94 62 101 91 59 96 88 56 89 85 53 83 82 50 76 78 46 67 74 41 58 69 36 48 63 30 36 55 22 20 46 139 228 205 139 228 205 139 227 205 139 227 205 139 227 205 139 227 205 139 227 205
141 229 209 141 229 209 141 229 209 141 229 209 141 229 209 141 229 209 141 229 209 141 229 209 54 121 53 61 131 65 65 137 72 68 140 77 70 142 81 72 143 84 73 143 87 74 143 90 72 144 84 77 152 93 81 157 99 83 159 103 85 161 106 86 162 109 87 162 111 88 162 113 88 162 115 88 161 116 89 160 118 88 159 119 88 158 119 88 156 120 88 154 120 87 152 121 87 150 121 86 148 121 85 145 121 84 143 121 83 140 120 82 137 120 81 134 119 80 131 118 79 127 118 77 124 117 76 120 115 74 116 114 73 112 113 71 108 111 69 103 110 67 98 108 65 94 106 62 89 103 60 83 101 57 78 98 55 72 96 52 65 92 48 58 89 45 51 85 41 43 80 36 34 75 31 23 69 24 10 60 57 110 72 51 97 65 56 105 73 50 92 66 55 99 73 54 96 73 53 92 73 46 80 65 35 59 50 48 80 70 46 76 69 35 57 54 38 59 59 36 54 57 38 55 62 35 49 59 29 38 51 29 36 53 21 23 40 20 19 42 0 16 0 0 25 0 0 30 0 2 34 0 4 37 0 5 39 0 7 41 0 78 147 100 84 156 108 87 161 113 89 164 117 91 166 120 92 167 122 93 168 124 94 168 126 94 168 127 94 168 128 95 167 129 95 166 130 94 165 131 94 164 131 94 162 131 93 160 132 93 158 132 92 156 131 91 154 131 91 152 131 90 149 130 89 146 130 88 143 129 86 140 128 85 137 127 84 134 126 82 130 125 81 126 124 79 122 122 77 118 120 75 113 119 73 108 116 71 103 114 68 98 112 65 92 109 62 86 106 59 79 102 55 71 98 51 62 93 45 51 86 35 32 74 10 27 6 10 26 6 9 25 6 9 23 5 8 22 5 7 21 5 7 19 4 6 18 4 6 16 3 5 15 3 4 13 2 4 11 2 3 10 1 2 8 0 2 6 0 1 4 0 0 2 0 0 1 0 0 0 0 0 0 0 0 0 0 0 0 0 0 0 0 0 0 0 0 0 0 0 0 0 0 0 0 0 0 0 0 0 0 0 0 0 0 0 0 0 0 0 0 0 0 0 0 0 0 0 0 0 0 0 0 0 0 0 0 0 0 0 0 0 0 0 0 0 0 0 0 0 0 0 0 0 0 0 0 0 0 0 0 0 0 0 0 142 230 210 142 230 210 142 230 210 14 46 1 21 58 12 22 57 17 11 11 22 11 11 22 12 12 25 12 12 24 17 17 34 18 18 37 21 21 43 22 22 45 75 140 98 82 151 106 85 157 112 88 161 116 90 164 119 92 166 121 93 168 124 94 169 125 94 169 127 95 170 128 95 170 129 96 169 130 96 169 131 96 168 132 96 167 132 95 166 132 95 165 133 95 163 133 94 161 132 93 159 132 93 157 132 92 155 131 91 152 131 90 150 130 89 147 129 87 144 128 86 140 127 84 137 126 83 133 124 81 129 123 79 125 121 77 120 119 75 115 117 72 110 114 70 104 111 67 98 108 64 91 105 60 83 101 55 73 95 49 61 88 141 229 209 141 229 209 141 229 209 141 229 209 141 229 209 141 229 209 141 229 209 25 65 16 33 80 29 43 98 41 43 95 43 51 110 53 48 102 51 50 105 55 52 107 57 59 120 67 36 73 41 61 122 71 55 110 65 55 109 66 56 109 67 56 108 68 55 106 69 61 117 77 55 103 69 48 90 61 53 99 69 58 107 76 45 83 60 55 100 74 65 126 80 72 138 89 76 146 95 80 151 100 82 156 104 84 159 107 86 162 110 88 164 112 89 165 115 90 166 116 91 167 118 91 167 119 92 168 120 92 168 121 92 167 122 92 167 123 92 166 123 92 165 124 92 164 124 91 162 124 91 161 124 90 159 124 89 157 123 89 155 123 88 152 122 87 150 122 86 147 121 84 144 120 83 141 119 82 137 117 80 134 116 78 130 114 76 125 112 74 121 110 72 116 108 70 111 106 67 105 103 64 99 100 61 93 97 58 85 93 54 77 88 49 67 83 43 56 76 35 39 66 59 98 87 57 92 85 54 86 82 51 80 78 47 73 74 44 65 70 39 56 65 34 46 60 29 34 53 21 19 44 9 0 29 140 228 207 140 228 207 140 228 207 140 228 207 140 228 207 140 228 207
142 230 210 142 230 210 142 230 210 142 230 210 142 230 210 142 230 210 142 230 210 142 230 210 53 120 51 59 129 61 63 133 68 66 136 73 68 138 77 69 139 80 70 139 83 62 129 68 73 147 86 77 153 93 80 156 97 82 158 101 84 160 104 85 160 107 86 161 109 86 160 111 87 160 112 87 159 114 87 158 115 87 157 116 87 155 117 86 154 117 86 152 118 85 150 118 85 148 118 84 145 118 83 143 118 83 140 118 82 137 117 81 134 117 79 131 116 78 128 115 77 125 114 75 121 114 74 117 112 72 113 111 71 109 110 69 105 108 67 101 107 65 96 105 63 91 103 61 86 101 58 81 98 56 75 96 53 69 93 50 63 90 47 57 86 44 49 83 40 42 78 36 33 73 31 23 68 24 12 60 15 0 48 48 91 60 52 99 67 47 86 60 46 84 60 50 90 67 39 69 53 43 74 59 46 78 65 40 67 58 34 55 50 36 58 55 31 48 48 25 38 40 34 49 56 25 34 42 25 33 45 18 21 33 22 23 44 15 12 32 15 7 36 0 18 0 0 25 0 0 29 0 1 32 0 3 34 0 76 144 95 82 155 104 85 160 110 88 163 113 90 165 117 91 167 119 92 167 121 93 168 123 93 168 124 93 168 126 94 167 127 94 166 128 94 165 128 94 164 129 93 163 129 93 161 129 92 159 130 92 157 130 91 155 129 90 153 129 90 150 129 89 148 128 88 145 128 87 142 127 85 139 126 84 136 125 83 133 124 81 129 123 80 125 122 78 121 120 76 117 119 74 113 117 72 108 115 70 103 113 68 98 110 65 92 108 62 86 105 59 80 101 56 73 98 52 65 93 47 55 88 41 43 81 8 24 3 8 23 3 7 22 3 7 20 3 6 19 2 6 18 2 5 16 1 4 15 1 4 13 0 3 12 0 3 10 0 2 8 0 1 7 0 0 5 0 0 3 0 0 1 0 0 0 0 0 0 0 0 0 0 0 0 0 0 0 0 0 0 0 0 0 0 0 0 0 0 0 0 0 0 0 0 0 0 0 0 0 0 0 0 0 0 0 0 0 0 0 0 0 0 0 0 0 0 0 0 0 0 0 0 0 0 0 0 0 0 0 0 0 0 0 0 0 0 0 0 0 0 0 0 0 0 0 0 0 0 0 0 0 0 0 142 231 212 142 231 211 142 231 211 142 231 211 5 28 0 12 37 3 24 64 14 6 6 12 8 8 16 8 8 17 12 12 25 14 14 28 11 11 23 12 12 25 72 135 92 80 148 102 84 155 108 86 160 112 88 163 115 90 165 118 91 167 120 92 168 122 93 169 124 94 169 126 94 170 127 95 169 128 95 169 129 95 168 129 95 168 130 95 167 130 94 165 130 94 164 131 94 162 131 93 160 130 92 159 130 92 156 130 91 154 129 90 152 129 89 149 128 88 146 127 86 143 126 85 140 125 84 136 124 82 133 123 80 129 121 79 125 119 77 120 117 74 115 115 72 110 113 70 105 110 67 99 108 64 92 104 60 85 101 56 77 96 52 67 91 45 54 83 142 230 211 142 230 211 142 230 211 142 230 211 142 230 211 142 230 211 20 56 9 26 65 20 39 91 34 43 98 41 47 103 46 44 96 46 41 88 44 48 101 52 44 91 48 39 80 44 51 104 58 57 116 67 58 115 68 52 103 62 46 91 56 46 90 56 57 110 71 51 98 64 45 85 57 50 93 63 54 101 70 53 98 69 56 111 67 67 131 81 72 140 89 76 147 94 79 151 99 81 155 102 83 158 105 85 160 108 86 162 110 88 164 112 88 165 114 89 165 115 90 166 117 90 166 118 90 166 119 91 165 119 91 165 120 91 164 120 90 163 121 90 162 121 90 160 121 89 159 121 89 157 121 88 155 120 87 153 120 86 150 119 85 148 119 84 145 118 83 142 117 82 139 116 80 136 115 79 132 113 77 128 112 75 124 110 73 120 108 71 115 106 69 110 103 66 104 101 63 98 98 60 92 95 57 85 91 53 77 87 49 68 82 44 58 76 37 45 68 26 22 54 54 89 81 52 83 78 48 76 74 45 69 71 41 61 66 37 53 62 32 43 56 27 32 50 20 18 41 9 0 29 141 229 208 141 229 208 141 229 208 141 229 208 141 229 208 141 229 208
142 231 212 142 231 212 142 231 212 142 231 212 142 231 212 142 231 212 143 231 212 143 231 212 51 117 48 51 112 52 60 129 64 63 132 69 65 134 73 66 135 76 67 135 79 68 140 77 74 148 86 77 152 91 79 155 96 81 157 99 82 158 102 83 158 104 84 158 106 84 158 108 85 158 110 85 157 111 85 156 112 85 154 113 85 153 114 84 151 114 84 149 114 84 147 115 83 145 115 82 142 115 81 140 115 81 137 114 80 134 114 79 131 114 77 128 113 76 125 112 75 122 111 74 118 110 72 114 109 70 111 108 69 107 107 67 102 105 65 98 104 63 93 102 61 89 100 59 84 98 57 78 95 54 73 93 51 67 90 49 61 87 45 54 84 42 48 80 38 40 76 34 32 71 30 23 66 24 12 59 17 0 50 39 76 48 48 92 61 48 89 61 42 78 55 41 75 55 40 72 54 43 76 60 33 57 47 36 61 52 34 57 51 29 46 44 31 48 48 22 33 36 24 34 39 24 32 42 22 27 40 12 14 24 16 14 34 14 8 34 9 0 26 6 0 25 0 18 0 0 23 0 0 27 0 71 137 87 80 152 99 83 158 105 86 161 110 88 164 113 89 165 116 90 166 118 91 167 120 92 167 121 92 167 123 93 167 124 93 166 125 93 165 126 93 164 126 92 163 127 92 161 127 92 160 127 91 158 127 91 156 127 90 154 127 89 152 127 88 149 127 87 146 126 86 144 126 85 141 125 84 138 124 83 135 123 82 131 122 80 128 121 78 124 120 77 120 118 75 116 117 73 112 115 71 107 113 69 102 111 67 97 109 64 92 106 62 86 103 59 80 100 55 73 97 52 66 93 48 57 88 43 47 82 36 34 75 6 20 0 5 19 0 5 17 0 4 16 0 4 15 0 3 13 0 3 12 0 2 10 0 1 8 0 1 7 0 0 5 0 0 3 0 0 2 0 0 0 0 0 0 0 0 0 0 0 0 0 0 0 0 0 0 0 0 0 0 0 0 0 0 0 0 0 0 0 0 0 0 0 0 0 0 0 0 0 0 0 0 0 0 0 0 0 0 0 0 0 0 0 0 0 0 0 0 0 0 0 0 0 0 0 0 0 0 0 0 0 0 0 0 0 0 0 0 0 0 0 0 0 0 0 0 0 0 0 0 0 0 143 231 213 143 231 213 143 231 213 143 231 213 143 231 213 143 231 213 10 39 0 16 48 5 2 2 5 5 5 10 7 7 15 7 7 14 10 10 21 12 12 24 66 126 83 77 145 97 81 152 104 84 157 108 87 161 112 88 164 115 90 166 117 91 167 119 92 168 121 93 169 122 93 169 124 94 169 125 94 169 126 94 168 127 94 168 127 94 167 128 94 166 128 93 164 128 93 163 129 93 161 129 92 159 128 91 158 128 91 155 128 90 153 127 89 151 127 88 148 126 87 145 125 85 142 124 84 139 123 83 136 122 81 132 121 80 128 119 78 124 118 76 120 116 74 115 114 72 110 111 69 105 109 67 99 106 64 93 103 61 86 100 57 79 96 53 70 91 48 60 85 41 46 77 143 231 212 143 231 212 143 231 212 143 231 212 143 231 212 11 40 0 22 58 14 31 75 24 35 82 31 34 77 32 36 80 35 38 83 38 29 63 31 45 96 49 46 97 51 47 98 53 48 98 54 48 98 55 48 97 56 43 85 51 54 106 64 48 94 58 42 81 52 47 90 58 51 97 64 45 85 57 49 91 63 61 120 72 68 133 81 72 141 88 76 146 93 78 151 97 80 154 100 82 157 103 84 159 105 85 161 107 86 162 109 87 163 111 88 164 112 88 164 114 89 164 115 89 164 116 89 163 116 89 163 117 89 162 118 89 161 118 88 160 118 88 158 118 88 157 118 87 155 118 86 153 118 85 151 117 85 148 116 84 146 116 82 143 115 81 140 114 80 137 113 79 134 112 77 130 110 75 126 109 74 122 107 72 118 105 70 113 103 67 108 101 65 103 98 62 97 95 59 91 92 56 84 89 52 77 85 48 68 80 44 59 75 38 47 68 30 31 59 52 85 76 49 79 73 46 72 70 43 66 66 39 58 62 35 49 58 30 40 52 25 29 46 16 14 34 8 0 26 141 230 210 141 230 210 141 230 210 141 230 210 141 230 210 141 230 210
143 231 213 143 231 213 143 232 213 143 232 213 143 232 213 143 232 213 143 232 213 143 232 213 49 114 45 43 97 43 58 125 60 48 102 52 56 116 62 63 130 72 64 131 74 69 141 78 73 147 85 76 151 90 78 153 93 79 155 97 81 156 99 82 156 102 82 156 104 83 156 105 83 155 107 83 154 108 83 153 109 83 151 110 83 150 110 83 148 111 82 146 111 82 144 111 81 142 112 80 140 112 79 137 111 79 134 111 78 131 111 77 128 110 75 125 110 74 122 109 73 119 108 71 115 107 70 111 106 68 108 105 67 104 103 65 99 102 63 95 100 61 90 99 59 86 97 57 81 95 55 76 92 52 70 90 50 64 87 47 58 84 44 52 81 40 45 77 37 38 73 33 30 69 29 21 64 23 11 58 17 0 50 7 0 37 40 77 49 35 66 44 34 64 44 37 69 49 36 66 49 35 62 48 34 58 47 32 55 46 31 51 45 22 36 34 24 37 37 22 33 36 25 35 43 18 23 32 18 20 34 13 13 27 12 8 28 10 1 27 4 0 18 1 0 14 0 9 0 0 17 0 0 19 0 76 148 94 81 155 101 84 159 105 86 162 109 87 164 112 89 165 114 90 166 116 90 166 118 91 166 119 91 166 121 92 166 122 92 165 123 92 164 123 91 163 124 91 161 125 91 160 125 90 158 125 90 156 125 89 154 125 89 152 125 88 150 125 87 147 124 86 145 124 85 142 123 84 139 123 83 136 122 82 133 121 80 130 120 79 126 119 77 122 117 76 119 116 74 115 114 72 110 113 70 106 111 68 101 109 66 96 107 63 91 104 61 85 102 58 79 99 55 73 95 52 66 92 48 58 88 43 49 83 38 39 76 30 24 67 3 16 0 3 14 0 2 13 0 2 11 0 1 10 0 1 8 0 0 7 0 0 5 0 0 4 0 0 2 0 0 0 0 0 0 0 0 0 0 0 0 0 0 0 0 0 0 0 0 0 0 0 0 0 0 0 0 0 0 0 0 0 0 0 0 0 0 0 0 0 0 0 0 0 0 0 0 0 0 0 0 0 0 0 0 0 0 0 0 0 0 0 0 0 0 0 0 0 0 0 0 0 0 0 0 0 0 0 0 0 0 0 0 0 0 0 0 0 0 0 0 0 0 0 0 0 0 0 0 144 232 214 144 232 214 144 232 214 144 232 214 144 232 214 144 232 214 1 19 0 7 29 0 0 0 0 1 1 3 2 2 5 5 5 10 6 6 13 6 6 13 73 140 91 78 149 99 82 155 104 84 159 107 86 161 111 88 164 113 89 165 115 90 167 117 91 167 119 92 168 121 92 168 122 93 168 123 93 168 124 93 167 125 93 167 125 93 166 126 93 164 126 92 163 126 92 162 126 91 160 126 91 158 126 90 156 126 89 154 125 89 152 125 88 149 124 87 147 124 86 144 123 84 141 122 83 138 121 82 134 120 80 131 118 79 127 117 77 123 115 75 119 114 73 115 112 71 110 110 69 105 107 66 99 105 63 93 102 60 87 99 57 80 95 53 72 91 49 63 86 43 52 80 35 35 70 143 232 213 143 232 213 143 232 213 143 232 213 143 232 213 19 56 8 26 67 17 27 66 21 30 71 26 24 55 22 34 77 33 40 88 40 37 80 38 47 101 50 34 71 36 44 92 48 39 81 44 44 91 51 39 80 46 44 89 52 44 87 52 44 86 53 43 84 52 42 81 52 41 79 52 48 98 54 62 124 72 67 133 80 71 140 86 74 145 90 77 149 94 79 153 97 81 155 100 82 157 103 83 159 105 84 160 106 85 161 108 86 161 110 86 162 111 87 162 112 87 162 113 87 161 113 87 160 114 87 160 114 87 159 115 87 157 115 86 156 115 86 154 115 85 152 115 84 150 114 84 148 114 83 146 113 82 143 113 81 141 112 80 138 111 78 135 110 77 131 109 75 128 107 74 124 106 72 120 104 70 116 102 68 111 100 66 106 98 63 101 96 61 96 93 58 90 90 55 83 87 51 76 83 48 68 79 43 59 74 38 48 67 31 35 60 19 12 46 46 75 69 39 62 59 40 61 62 36 54 58 29 41 48 25 32 43 22 25 42 15 12 34 6 0 23 142 230 211 142 230 211 142 230 211 142 230 211 142 230 211 142 230 211
144 232 215 144 232 215 144 232 215 144 232 215 144 232 215 144 232 215 144 232 215 144 232 215 46 109 41 46 105 44 55 120 55 51 111 54 59 125 64 60 125 67 62 132 67 68 141 77 72 146 83 75 149 87 76 151 91 78 152 94 79 153 96 80 153 99 80 153 101 81 153 102 81 152 103 81 151 105 81 150 106 81 148 106 81 147 107 80 145 108 80 143 108 79 141 108 79 139 108 78 136 108 77 134 108 76 131 108 75 128 107 74 125 107 73 122 106 72 119 105 71 116 105 69 112 104 68 108 103 66 104 101 65 100 100 63 96 98 61 92 97 59 87 95 57 83 93 55 78 91 53 73 89 50 67 87 48 62 84 45 56 81 42 49 78 39 43 74 35 35 71 31 28 66 27 19 61 22 10 56 16 0 48 8 0 38 24 47 28 35 68 43 27 51 33 33 62 43 32 59 43 28 50 37 23 40 32 25 43 36 15 24 22 28 44 42 23 35 36 21 30 34 14 19 25 11 13 20 14 14 27 11 8 25 9 1 24 4 0 18 1 0 15 0 0 10 0 0 3 0 8 0 72 142 87 78 151 95 81 156 100 84 159 104 85 162 108 87 163 110 88 164 112 89 165 114 89 165 116 90 165 117 90 165 119 90 164 120 90 163 120 90 162 121 90 161 122 90 160 122 90 158 122 89 156 123 89 155 123 88 153 123 87 150 122 86 148 122 86 146 122 85 143 121 84 140 121 83 137 120 81 134 119 80 131 118 79 128 117 77 124 116 76 121 115 74 117 113 73 113 112 71 109 110 69 104 109 67 100 107 65 95 104 62 90 102 60 84 100 57 78 97 54 72 94 51 66 90 47 58 86 43 50 82 39 40 76 33 29 69 23 9 57 1 11 0 0 10 0 0 8 0 0 7 0 0 5 0 0 4 0 0 2 0 0 0 0 0 0 0 0 0 0 0 0 0 0 0 0 0 0 0 0 0 0 0 0 0 0 0 0 0 0 0 0 0 0 0 0 0 0 0 0 0 0 0 0 0 0 0 0 0 0 0 0 0 0 0 0 0 0 0 0 0 0 0 0 0 0 0 0 0 0 0 0 0 0 0 0 0 0 0 0 0 0 0 0 0 0 0 0 0 0 0 0 0 0 0 0 0 0 0 0 0 0 0 144 233 216 144 233 216 144 233 216 144 233 216 144 233 216 144 233 216 144 233 216 144 233 216 1 13 0 0 0 0 0 0 0 0 0 0 1 1 3 2 2 4 69 133 84 75 144 93 79 151 98 82 155 103 84 159 106 86 161 109 87 163 112 88 165 114 89 166 115 90 167 117 91 167 118 91 167 120 91 167 121 92 167 122 92 166 122 92 165 123 92 164 123 91 163 124 91 162 124 91 160 124 90 159 124 90 157 124 89 155 123 88 153 123 87 150 123 86 148 122 85 145 121 84 143 121 83 140 120 82 136 119 80 133 117 79 130 116 77 126 115 76 122 113 74 118 112 72 114 110 70 109 108 68 104 105 65 99 103 63 93 100 60 87 97 57 80 94 53 73 90 49 65 86 44 55 80 38 42 73 27 21 60 144 232 215 144 232 215 144 232 215 144 232 215 12 41 0 16 46 8 17 44 11 22 56 17 28 68 24 30 70 27 28 63 26 37 83 37 38 84 39 39 85 41 35 76 38 27 56 29 36 75 40 45 93 51 36 73 41 36 72 41 40 79 47 39 77 47 38 75 46 29 56 35 54 110 61 62 125 72 67 133 78 70 139 84 73 144 88 76 148 91 78 151 95 79 153 97 81 155 100 82 157 102 83 158 103 84 159 105 84 159 106 85 159 108 85 159 109 85 159 109 85 159 110 85 158 111 85 157 111 85 156 111 85 155 112 84 153 112 84 152 112 83 150 111 83 148 111 82 146 111 81 143 110 80 141 109 79 138 109 78 135 108 76 132 107 75 129 105 73 125 104 72 122 103 70 118 101 68 114 99 66 109 97 64 104 95 62 99 93 59 94 90 56 88 87 53 82 84 50 75 80 46 67 76 42 58 71 37 48 66 31 36 59 23 19 49 43 70 64 40 64 61 37 57 58 33 50 54 29 41 49 25 32 44 19 21 38 11 7 27 4 0 19 143 231 213 143 231 213 143 231 212 143 231 212 143 231 212 143 231 212
145 233 216 145 233 216 145 233 216 145 233 216 145 233 216 145 233 216 145 233 216 145 233 216 34 84 28 43 100 40 52 115 50 43 94 44 56 120 59 51 108 56 63 133 67 68 140 75 71 144 80 73 147 85 75 149 88 76 150 91 77 150 93 78 150 96 78 150 97 79 150 99 79 149 100 79 148 101 79 147 102 79 145 103 79 144 104 78 142 104 78 140 104 77 138 105 77 135 105 76 133 105 75 131 104 74 128 104 73 125 104 72 122 103 71 119 103 70 116 102 68 112 101 67 109 100 66 105 99 64 101 98 62 97 96 61 93 95 59 89 93 57 84 92 55 79 90 53 75 88 50 69 85 48 64 83 45 59 80 43 53 78 40 46 75 37 40 71 33 33 67 30 25 63 25 17 59 21 7 53 15 0 46 8 0 37 28 57 32 27 55 33 30 59 37 26 50 33 22 41 28 18 33 24 26 46 35 24 42 34 22 38 33 21 33 31 17 25 27 19 26 31 13 16 23 11 11 21 7 5 16 5 0 14 3 0 13 0 0 11 0 0 8 0 0 2 0 0 0 65 131 76 74 146 89 78 152 95 81 156 100 83 159 103 85 161 106 86 162 108 87 163 110 88 163 112 88 164 114 89 163 115 89 163 116 89 162 117 89 161 118 89 160 119 89 159 119 88 158 120 88 156 120 88 154 120 87 153 120 86 151 120 86 148 120 85 146 119 84 144 119 83 141 119 82 138 118 81 135 117 80 132 117 79 129 116 77 126 115 76 122 113 74 119 112 73 115 111 71 111 109 69 107 108 67 103 106 65 98 104 63 93 102 61 88 100 59 83 97 56 77 95 53 71 92 50 65 88 47 58 85 43 50 81 39 41 76 33 31 70 26 17 61 0 8 0 0 6 0 0 4 0 0 4 0 0 2 0 0 0 0 0 0 0 0 0 0 0 0 0 0 0 0 0 0 0 0 0 0 0 0 0 0 0 0 0 0 0 0 0 0 0 0 0 0 0 0 0 0 0 0 0 0 0 0 0 0 0 0 0 0 0 0 0 0 0 0 0 0 0 0 0 0 0 0 0 0 0 0 0 0 0 0 0 0 0 0 0 0 0 0 0 0 0 0 0 0 0 0 0 0 0 0 0 0 0 0 0 0 0 0 0 0 145 233 217 145 233 217 145 233 217 145 233 217 145 233 217 145 233 217 145 233 217 145 233 217 145 233 217 0 11 0 0 0 0 0 0 0 0 0 0 0 0 0 60 119 72 71 138 86 76 146 93 79 152 98 81 156 101 83 159 105 85 161 107 86 163 110 87 164 112 88 165 113 89 165 115 90 166 116 90 166 117 90 165 118 90 165 119 90 164 120 90 164 120 90 163 121 90 161 121 90 160 121 89 159 121 89 157 121 88 155 121 87 153 121 87 151 120 86 149 120 85 146 119 84 144 119 83 141 118 82 138 117 80 135 116 79 132 115 78 128 114 76 125 112 74 121 111 73 117 109 71 112 107 69 108 105 67 103 103 64 98 101 62 92 98 59 86 95 56 80 92 53 73 89 49 65 84 44 56 80 39 46 74 32 31 65 145 233 216 145 233 216 145 233 216 145 233 216 4 25 0 13 43 1 13 38 6 19 50 12 24 61 18 33 80 27 31 74 27 22 50 20 26 60 25 35 78 34 32 69 32 36 78 37 24 52 25 32 68 35 36 76 40 20 41 22 27 56 31 39 78 45 26 53 31 33 66 40 54 113 61 61 124 70 66 132 76 69 138 81 72 142 85 74 146 89 76 149 92 77 151 94 79 153 96 80 154 98 81 155 100 82 156 102 82 156 103 83 157 104 83 157 105 83 156 106 83 156 107 83 155 107 83 154 108 83 153 108 83 152 108 82 150 108 82 149 108 81 147 108 81 145 108 80 143 107 79 141 107 78 138 106 77 135 105 76 133 104 74 130 103 73 126 102 72 123 101 70 119 99 68 115 98 66 111 96 64 107 94 62 102 92 60 97 90 57 92 87 55 86 84 52 80 81 49 73 78 45 65 74 41 57 69 36 48 64 31 36 57 23 22 49 36 59 54 37 59 56 34 52 53 24 36 39 24 33 40 22 27 39 15 15 30 9 3 23 1 0 15 144 232 214 143 232 214 143 232 214 143 232 214 143 232 214 143 232 214
145 233 217 145 233 217 145 233 217 145 234 217 145 234 217 145 234 217 145 234 217 145 234 217 36 89 27 45 106 39 43 99 40 45 101 45 42 91 43 53 118 51 62 133 66 66 138 73 69 142 78 71 144 82 73 146 85 74 147 88 75 147 90 76 147 92 76 147 94 77 147 95 77 146 97 77 145 98 77 143 99 77 142 99 76 140 100 76 138 100 76 136 101 75 134 101 74 132 101 74 130 101 73 127 101 72 124 100 71 122 100 70 119 100 69 115 99 67 112 98 66 109 97 65 105 96 63 102 95 62 98 94 60 94 93 58 90 91 57 85 90 55 81 88 53 76 86 50 71 84 48 66 82 46 61 80 43 55 77 41 49 74 38 43 71 35 37 68 31 30 64 28 22 60 24 14 55 19 5 50 14 0 44 7 0 36 0 0 21 21 42 23 8 17 10 19 38 23 18 35 23 12 23 16 16 30 22 15 27 21 16 27 23 9 14 14 13 19 21 12 17 22 9 10 17 8 6 17 4 0 11 1 0 9 0 0 9 0 0 4 0 0 0 0 0 0 0 0 0 70 140 81 75 148 89 78 153 94 80 156 98 82 158 101 84 160 104 85 161 106 86 162 108 86 162 110 87 162 111 87 162 113 87 161 114 87 160 115 87 159 115 87 158 116 87 157 116 87 156 117 86 154 117 86 152 117 85 150 117 85 148 117 84 146 117 83 144 117 82 141 116 82 139 116 81 136 115 79 133 115 78 130 114 77 127 113 76 124 112 74 120 111 73 117 110 71 113 108 70 109 107 68 105 105 66 101 103 64 96 102 62 91 100 60 87 97 57 81 95 55 76 92 52 70 89 49 64 86 46 57 83 42 49 79 38 41 74 33 31 69 27 20 62 18 2 51 0 3 0 0 2 0 0 0 0 0 0 0 0 0 0 0 0 0 0 0 0 0 0 0 0 0 0 0 0 0 0 0 0 0 0 0 0 0 0 0 0 0 0 0 0 0 0 0 0 0 0 0 0 0 0 0 0 0 0 0 0 0 0 0 0 0 0 0 0 0 0 0 0 0 0 0 0 0 0 0 0 0 0 0 0 0 0 0 0 0 0 0 0 0 0 0 0 0 0 0 0 0 0 0 0 0 0 0 0 0 0 0 0 0 146 234 218 146 234 218 146 234 218 146 234 218 146 234 218 146 234 218 146 234 218 146 234 218 146 234 218 146 234 218 146 234 218 0 7 0 0 0 0 0 0 0 0 0 0 66 130 78 72 141 86 76 147 92 78 152 96 81 155 100 82 158 103 84 160 105 85 161 107 86 163 109 87 163 111 88 164 112 88 164 114 89 164 115 89 164 116 89 163 116 89 163 117 89 162 118 89 161 118 88 160 118 88 158 118 88 157 119 87 155 118 87 153 118 86 151 118 85 149 118 84 147 117 83 144 117 82 142 116 81 139 115 80 136 114 79 133 113 78 130 112 76 126 111 75 123 110 73 119 108 71 115 107 69 111 105 67 106 103 65 102 101 63 97 99 61 91 96 58 85 93 55 79 90 52 73 87 48 65 83 44 57 78 39 47 73 34 35 66 24 17 55 145 234 217 145 234 217 145 234 217 145 234 217 6 29 0 11 37 1 17 49 7 17 46 10 22 56 15 23 59 18 25 61 21 19 46 17 20 47 18 28 63 26 17 39 17 28 63 28 32 70 33 21 46 22 28 60 30 24 51 26 24 49 26 23 47 26 40 88 41 54 113 60 60 123 68 64 130 74 67 136 78 70 140 82 72 143 85 74 146 88 75 148 91 77 150 93 78 151 95 79 152 97 80 153 98 80 153 100 81 154 101 81 154 102 81 153 103 81 153 103 81 152 104 81 151 104 81 150 105 81 149 105 80 147 105 80 146 105 79 144 104 78 142 104 78 140 104 77 138 103 76 135 103 75 133 102 74 130 101 72 127 100 71 123 99 69 120 97 68 116 96 66 112 94 64 108 93 62 104 91 60 99 89 58 94 86 56 89 84 53 83 81 50 77 78 47 71 75 43 63 71 40 55 66 35 46 61 30 36 55 23 22 48 13 2 35 34 54 51 27 42 43 27 40 44 18 25 31 16 20 31 12 10 25 7 0 20 0 0 9 144 232 215 144 232 215 144 232 215 144 232 215 144 232 215 144 232 215
146 234 218 146 234 218 146 234 218 146 234 218 146 234 218 146 234 219 146 234 219 146 234 219 25 65 17 29 70 23 44 104 39 37 86 35 39 87 38 54 121 53 61 131 64 65 136 70 67 139 75 69 142 79 71 143 82 72 144 84 73 144 87 73 144 89 74 144 90 74 143 92 74 142 93 75 141 94 74 140 95 74 138 96 74 137 96 74 135 97 73 133 97 73 131 97 72 128 97 71 126 97 70 123 97 69 121 97 68 118 96 67 115 96 66 112 95 65 109 94 64 105 94 62 102 93 61 98 91 59 94 90 58 90 89 56 86 87 54 82 86 52 77 84 50 73 82 48 68 80 46 63 78 43 57 76 41 52 73 38 46 70 35 40 67 32 33 64 29 26 61 25 19 57 21 11 52 17 2 47 12 0 41 6 0 33 0 0 21 25 53 26 16 35 18 11 23 13 22 43 26 12 23 15 15 28 19 12 21 16 14 23 20 9 15 14 10 14 17 9 10 16 3 2 7 3 0 10 0 0 6 0 0 3 0 0 0 0 0 0 0 0 0 0 0 0 63 129 70 71 142 82 75 148 88 77 152 93 79 155 96 81 157 99 82 158 102 83 159 104 84 160 106 85 160 107 85 160 109 86 160 110 86 159 111 86 158 112 86 157 113 86 156 113 85 155 114 85 153 114 85 152 114 84 150 114 84 148 114 83 146 114 82 144 114 82 141 114 81 139 113 80 136 113 79 134 112 78 131 112 77 128 111 75 125 110 74 121 109 73 118 108 71 114 107 70 111 105 68 107 104 66 103 102 64 99 101 62 94 99 60 89 97 58 85 95 56 79 92 53 74 90 51 68 87 48 62 84 45 55 81 41 48 77 37 40 73 33 31 67 28 21 61 21 7 53 0 0 0 0 0 0 0 0 0 0 0 0 0 0 0 0 0 0 0 0 0 0 0 0 0 0 0 0 0 0 0 0 0 0 0 0 0 0 0 0 0 0 0 0 0 0 0 0 0 0 0 0 0 0 0 0 0 0 0 0 0 0 0 0 0 0 0 0 0 0 0 0 0 0 0 0 0 0 0 0 0 0 0 0 0 0 0 0 0 0 0 0 0 0 0 0 0 0 0 0 0 0 0 0 0 0 0 0 0 0 0 0 0 0 146 235 219 146 235 219 146 235 219 146 235 219 146 235 219 146 235 219 146 235 219 146 235 219 146 235 219 146 235 219 146 235 219 146 235 219 0 0 0 0 0 0 57 115 65 67 134 79 72 142 86 75 147 91 78 151 95 80 154 98 81 157 101 83 159 103 84 160 105 85 161 107 86 162 108 86 162 110 87 162 111 87 162 112 87 162 113 87 161 114 87 161 114 87 160 115 87 159 115 87 157 115 87 156 116 86 155 116 86 153 116 85 151 115 84 149 115 84 147 115 83 145 114 82 142 114 81 140 113 80 137 112 79 134 112 77 131 111 76 128 110 75 124 108 73 121 107 72 117 106 70 113 104 68 109 102 66 105 100 64 100 98 62 95 96 59 90 94 57 84 91 54 78 88 51 72 85 47 65 81 44 57 77 39 48 72 34 37 66 27 23 58 146 234 219 146 234 218 146 234 218 146 234 218 0 15 0 3 16 0 10 35 0 13 39 4 19 55 9 24 64 14 13 33 9 25 62 19 23 56 18 26 63 23 9 21 8 15 35 14 27 62 26 18 41 18 12 26 12 24 52 24 23 50 24 22 48 24 44 95 45 53 112 58 59 122 65 62 128 71 66 133 75 68 137 79 70 141 82 72 143 85 73 145 87 75 147 90 76 148 91 77 149 93 77 150 95 78 150 96 78 151 97 79 150 98 79 150 99 79 150 100 79 149 100 79 148 101 79 147 101 78 146 101 78 144 101 77 143 101 77 141 101 76 139 101 75 137 100 75 135 100 74 132 99 73 129 98 71 127 97 70 124 96 69 120 95 67 117 94 66 113 92 64 109 91 62 105 89 60 101 87 58 96 85 56 92 83 54 86 80 51 81 78 48 75 75 45 68 71 42 61 68 38 53 63 34 44 59 29 34 53 22 22 46 13 4 35 30 49 46 22 33 34 21 31 35 17 23 30 13 15 26 9 6 22 3 0 15 0 0 3 145 233 216 145 233 216 145 233 216 145 233 216 145 233 216 145 233 216
146 235 220 146 235 220 146 235 220 146 235 220 146 235 220 146 235 220 146 235 220 146 235 220 28 77 16 33 84 24 32 78 27 30 71 27 36 82 34 54 120 52 53 116 55 63 133 67 65 136 72 67 138 75 69 140 78 70 140 81 71 141 83 71 141 85 72 140 87 72 140 88 72 139 89 72 138 90 72 136 91 72 135 92 72 133 92 71 131 93 71 129 93 70 127 93 69 125 93 69 122 93 68 120 93 67 117 93 66 114 92 65 111 92 64 108 91 63 105 90 61 101 90 60 98 89 58 94 88 57 90 86 55 86 85 54 82 84 52 78 82 50 73 80 48 69 78 46 64 76 43 59 74 41 54 72 38 48 69 36 42 67 33 36 64 30 30 60 27 23 57 23 16 53 19 8 48 15 0 43 10 0 37 4 0 30 0 0 18 11 26 11 13 29 13 12 27 13 10 21 11 9 18 10 8 16 10 9 18 12 5 9 7 4 6 6 4 5 7 2 1 5 0 0 4 0 0 2 0 0 0 0 0 0 0 0 0 0 0 0 0 0 0 0 0 0 65 134 73 70 143 81 74 148 87 76 151 91 78 154 94 80 155 97 81 157 99 82 157 101 83 158 103 83 158 105 84 158 106 84 157 107 84 157 108 84 156 109 84 155 110 84 154 110 84 152 111 83 151 111 83 149 111 82 147 111 82 146 111 81 143 111 81 141 111 80 139 111 79 136 110 78 134 110 77 131 109 76 128 109 75 125 108 74 122 107 72 119 106 71 116 105 69 112 104 68 108 102 66 104 101 64 100 99 63 96 98 61 92 96 59 87 94 56 82 92 54 77 90 52 72 87 49 66 84 46 60 81 43 54 78 40 47 74 36 39 70 32 31 66 27 21 60 21 9 53 11 0 40 0 0 0 0 0 0 0 0 0 0 0 0 0 0 0 0 0 0 0 0 0 0 0 0 0 0 0 0 0 0 0 0 0 0 0 0 0 0 0 0 0 0 0 0 0 0 0 0 0 0 0 0 0 0 0 0 0 0 0 0 0 0 0 0 0 0 0 0 0 0 0 0 0 0 0 0 0 0 0 0 0 0 0 0 0 0 0 0 0 0 0 0 0 0 0 0 0 0 0 0 0 0 0 0 0 0 0 0 147 235 221 147 235 221 147 235 221 147 235 221 147 235 221 147 235 221 147 235 221 147 235 221 147 235 221 147 235 221 147 235 221 147 235 220 147 235 220 147 235 220 0 0 0 61 124 70 67 135 79 71 142 84 74 147 89 77 150 92 79 153 95 80 155 98 81 157 100 82 158 102 83 159 104 84 160 106 85 160 107 85 160 108 85 160 109 86 160 110 86 159 111 86 158 111 86 157 112 85 156 112 85 155 113 85 154 113 84 152 113 84 151 113 83 149 113 83 147 112 82 145 112 81 142 111 80 140 111 79 137 110 78 135 109 77 132 109 76 129 108 74 126 107 73 122 105 72 119 104 70 115 103 68 111 101 66 107 99 64 103 98 62 98 96 60 93 93 58 88 91 55 83 88 53 77 86 50 70 82 46 64 79 43 56 75 39 47 70 34 38 65 28 25 58 18 6 46 146 235 220 146 235 220 146 235 220 146 235 220 0 21 0 6 34 0 6 22 0 14 45 1 14 43 5 10 28 4 13 35 7 21 54 13 24 61 17 24 61 19 17 43 14 15 36 13 22 53 20 20 46 18 14 33 13 16 37 16 14 31 13 44 96 44 52 111 55 51 107 56 60 126 67 63 130 72 66 134 75 68 138 78 70 140 81 71 142 84 72 144 86 73 145 88 74 146 89 75 147 91 76 147 92 76 147 93 76 147 94 77 147 95 77 146 96 77 146 96 77 145 97 76 144 97 76 142 97 76 141 97 75 139 97 75 138 97 74 136 97 73 133 96 72 131 96 71 129 95 70 126 94 69 123 94 68 120 93 66 117 91 65 114 90 63 110 89 62 106 87 60 102 85 58 98 84 56 93 82 54 88 79 51 83 77 49 78 74 46 72 71 43 65 68 40 58 64 36 51 60 32 42 56 27 32 50 21 20 43 13 5 34 19 30 28 21 32 33 14 20 23 16 20 28 8 7 16 4 0 13 0 0 9 0 0 0 145 234 218 145 234 218 145 234 218 145 234 218 145 234 217 145 234 217
147 235 221 147 235 221 147 235 221 147 235 221 147 235 221 147 235 221 147 235 221 147 235 221 21 62 8 23 61 14 29 73 22 35 85 29 37 87 33 52 119 50 57 126 58 61 130 64 63 133 68 65 135 72 66 136 75 67 137 77 68 137 79 69 137 81 69 137 83 69 136 84 70 135 85 70 134 86 70 132 87 69 131 88 69 129 88 69 127 89 68 125 89 68 123 89 67 121 89 66 118 89 65 116 89 64 113 89 63 110 88 62 107 88 55 94 78 60 101 86 59 97 86 57 94 85 56 90 84 54 86 82 53 82 81 51 78 80 49 74 78 47 70 76 45 65 74 43 60 72 41 55 70 38 50 68 36 44 65 33 39 63 30 32 60 27 26 57 24 19 53 21 12 49 17 4 45 12 0 40 8 0 34 2 0 27 0 0 15 8 21 6 10 26 8 7 17 6 9 21 8 7 15 6 4 9 4 3 7 3 4 7 5 2 3 3 0 0 2 0 0 0 0 0 0 0 0 0 0 0 0 0 0 0 0 0 0 0 0 0 0 0 0 55 118 58 66 135 73 70 142 80 73 147 85 75 150 89 77 152 92 78 153 94 79 155 97 80 155 99 81 156 100 81 156 102 82 155 103 82 155 104 82 154 105 82 153 106 82 152 107 82 151 107 82 150 108 82 148 108 81 147 108 81 145 108 80 143 108 79 141 108 79 139 108 78 136 108 77 134 107 76 131 107 75 129 106 74 126 105 73 123 105 72 120 104 70 116 103 69 113 102 67 109 101 66 106 99 64 102 98 63 98 96 61 94 95 59 89 93 57 85 91 55 80 89 52 75 87 50 70 84 47 64 82 45 58 79 42 52 75 38 45 72 35 38 68 31 29 64 26 20 58 21 9 52 13 0 42 0 0 0 0 0 0 0 0 0 0 0 0 0 0 0 0 0 0 0 0 0 0 0 0 0 0 0 0 0 0 0 0 0 0 0 0 0 0 0 0 0 0 0 0 0 0 0 0 0 0 0 0 0 0 0 0 0 0 0 0 0 0 0 0 0 0 0 0 0 0 0 0 0 0 0 0 0 0 0 0 0 0 0 0 0 0 0 0 0 0 0 0 0 0 0 0 0 0 0 0 0 0 0 0 0 147 236 222 147 236 222 147 236 222 147 236 222 147 236 222 147 236 222 147 236 222 147 236 222 147 236 222 147 236 222 147 236 222 147 236 222 147 236 222 147 236 222 147 236 222 147 236 222 62 126 70 67 135 77 70 141 82 73 145 87 75 149 90 77 151 93 79 153 95 80 155 98 81 156 100 82 157 101 82 158 103 83 158 104 83 158 105 84 158 106 84 157 107 84 157 108 84 156 108 84 155 109 84 154 109 83 153 109 83 151 110 83 150 110 82 148 110 81 146 109 81 144 109 80 142 109 79 140 108 78 138 108 77 135 107 76 132 106 75 129 106 74 126 105 73 123 104 71 120 102 70 116 101 68 113 100 67 109 98 65 105 97 63 101 95 61 96 93 59 91 91 56 86 88 54 81 86 51 75 83 48 69 80 45 62 77 42 55 73 38 47 68 33 37 63 28 26 57 20 11 48 147 235 221 147 235 221 147 235 221 147 235 221 0 5 0 0 16 0 3 23 0 6 27 0 9 35 0 14 47 0 11 34 2 13 40 5 11 31 5 17 46 9 17 46 11 11 30 8 9 25 7 13 34 10 15 37 12 11 27 9 12 29 10 43 95 42 50 108 52 55 116 59 58 123 64 61 127 68 64 131 72 66 134 75 67 137 77 69 139 80 70 140 82 71 142 84 72 143 86 73 143 87 73 144 88 74 144 89 74 144 90 74 143 91 74 143 92 74 142 92 74 141 93 74 140 93 74 139 93 73 137 93 73 136 93 72 134 93 71 132 93 71 130 92 70 128 92 69 125 91 68 123 91 67 120 90 65 117 89 64 114 88 63 110 86 61 107 85 59 103 83 58 99 82 56 95 80 54 90 78 52 85 76 49 80 73 47 75 71 44 69 68 41 62 64 38 55 61 34 48 57 30 39 52 25 30 47 17 16 36 12 4 32 0 0 11 20 30 31 16 22 27 8 10 16 6 3 14 1 0 9 0 0 2 0 0 0 146 234 219 146 234 219 146 234 219 146 234 219 146 234 219 146 234 219
148 236 222 148 236 222 148 236 222 148 236 222 148 236 222 148 236 222 148 236 222 148 236 222 14 47 1 25 71 12 29 76 19 28 70 21 26 63 21 51 116 47 55 123 55 52 114 54 61 130 64 62 131 68 64 132 71 65 133 73 66 133 75 66 133 77 67 133 79 67 132 80 67 131 81 67 130 82 67 128 83 67 127 84 66 125 84 53 99 68 66 121 85 65 119 85 64 117 85 64 114 85 63 112 85 62 109 85 61 106 84 60 103 84 59 100 83 57 97 82 50 84 73 55 90 80 53 86 79 52 82 78 50 78 77 48 74 75 46 70 74 45 66 72 43 61 70 40 56 68 38 51 66 36 46 64 33 40 61 31 35 59 25 26 50 25 22 52 22 15 49 18 8 45 14 0 41 10 0 36 5 0 30 0 0 23 0 0 14 3 10 0 3 11 1 4 14 1 5 15 1 2 8 0 1 5 0 0 2 0 0 0 0 0 0 0 0 0 0 0 0 0 0 0 0 0 0 0 0 0 0 0 0 0 0 0 0 0 0 0 0 0 0 59 125 63 65 136 72 69 141 78 72 145 83 74 148 86 75 150 89 77 151 92 78 152 94 79 153 96 79 153 97 80 153 99 80 153 100 80 152 101 80 152 102 80 151 103 80 150 103 80 148 104 80 147 104 80 146 105 79 144 105 79 142 105 78 140 105 77 138 105 77 136 105 76 133 104 75 131 104 74 128 103 73 126 103 72 123 102 71 120 101 70 117 101 68 114 100 67 110 98 66 107 97 64 103 96 62 99 95 61 95 93 59 91 92 57 87 90 55 82 88 53 77 86 51 72 84 48 67 81 46 62 79 43 56 76 40 50 73 37 43 69 33 36 65 30 28 61 25 19 56 20 8 50 13 0 42 0 0 0 0 0 0 0 0 0 0 0 0 0 0 0 0 0 0 0 0 0 0 0 0 0 0 0 0 0 0 0 0 0 0 0 0 0 0 0 0 0 0 0 0 0 0 0 0 0 0 0 0 0 0 0 0 0 0 0 0 0 0 0 0 0 0 0 0 0 0 0 0 0 0 0 0 0 0 0 0 0 0 0 0 0 0 0 0 0 0 0 0 0 0 0 0 0 0 0 0 0 0 104 104 208 104 104 208 104 104 208 104 104 208 148 236 223 148 236 223 148 236 223 148 236 223 148 236 223 148 236 223 148 236 223 148 236 223 148 236 223 148 236 223 148 236 223 148 236 223 54 113 58 62 127 69 66 135 75 69 140 80 72 144 84 74 147 87 76 149 90 77 151 93 78 153 95 79 154 97 80 155 98 81 155 100 81 155 101 82 155 102 82 155 103 82 155 104 82 154 105 82 153 105 82 153 106 82 151 106 82 150 106 81 149 106 81 147 106 80 146 106 80 144 106 79 142 106 78 140 106 77 137 105 76 135 105 75 132 104 74 130 103 73 127 102 72 124 102 71 121 100 69 117 99 68 114 98 66 110 97 65 107 95 63 102 94 61 98 92 59 94 90 57 89 88 55 84 85 52 79 83 50 73 80 47 67 77 44 61 74 40 53 70 37 46 66 32 37 61 27 26 55 20 13 48 8 0 32 147 236 222 147 236 222 147 236 222 147 236 222 0 3 0 0 13 0 0 18 0 3 22 0 5 28 0 5 23 0 7 28 0 8 29 0 7 25 1 5 16 1 8 24 3 4 12 1 8 23 3 8 22 4 7 21 4 9 26 5 41 93 39 38 84 39 47 102 49 56 119 60 59 124 64 55 115 61 63 131 71 65 133 74 66 135 76 68 137 78 69 138 80 69 139 82 70 139 83 64 126 76 71 140 85 71 140 86 64 126 78 72 139 88 72 138 88 72 137 89 71 136 89 71 135 89 71 134 89 70 132 89 70 130 89 62 115 80 68 126 88 67 124 88 66 122 87 65 119 87 64 116 86 63 113 85 62 110 84 60 107 82 59 103 81 57 99 79 55 95 78 53 91 76 51 86 74 44 73 64 47 77 69 44 71 67 42 65 64 39 59 61 35 52 57 32 45 53 28 36 49 23 27 43 18 16 37 11 2 29 0 0 14 11 16 18 12 16 21 7 6 15 2 0 9 0 0 4 0 0 0 0 0 0 146 235 220 146 235 220 146 235 220 146 235 220 146 235 220 146 235 220
148 236 223 148 236 223 148 236 223 148 236 223 148 236 223 148 236 223 148 236 223 148 236 223 11 53 0 18 56 4 16 46 8 30 81 19 29 75 21 39 90 35 48 107 46 50 111 51 52 113 54 54 115 57 55 116 60 62 129 69 63 129 71 64 129 73 64 129 75 64 128 76 64 127 77 64 126 78 64 124 79 64 123 80 64 121 80 63 119 81 63 117 81 62 115 81 62 113 81 61 110 81 60 108 81 59 105 80 58 102 80 57 99 79 56 96 79 49 83 70 53 89 77 52 86 76 45 74 68 44 70 66 43 67 65 46 70 71 44 66 70 42 61 68 40 57 66 38 52 64 35 47 62 33 42 60 24 29 46 28 30 54 23 22 46 22 18 48 17 10 40 15 4 41 12 0 36 7 0 32 2 0 26 0 0 15 0 0 10 1 11 0 1 9 0 0 5 0 0 5 0 0 1 0 0 0 0 0 0 0 0 0 0 0 0 0 0 0 0 0 0 0 0 0 0 0 0 0 0 0 0 0 0 0 0 0 0 0 0 0 0 0 0 59 126 63 64 135 71 68 140 76 70 143 80 72 146 83 74 148 86 75 149 89 76 150 91 77 150 93 77 150 94 78 150 96 78 150 97 78 149 98 78 149 99 78 148 100 78 147 100 78 146 101 78 144 101 78 143 101 77 141 102 77 139 102 76 137 102 75 135 102 75 133 101 74 131 101 73 128 101 72 125 100 71 123 100 70 120 99 69 117 98 68 114 97 66 111 96 65 107 95 64 104 94 62 100 93 60 96 91 59 92 90 57 88 88 55 84 87 53 79 85 51 75 83 49 70 80 46 64 78 44 59 75 41 53 73 38 47 70 35 40 66 32 33 63 28 26 58 24 17 54 19 7 48 13 0 40 3 0 28 0 0 0 0 0 0 0 0 0 0 0 0 0 0 0 0 0 0 0 0 0 0 0 0 0 0 0 0 0 0 0 0 0 0 0 0 0 0 0 0 0 0 0 0 0 0 0 0 0 0 0 0 0 0 0 0 0 0 0 0 0 0 0 0 0 0 0 0 0 0 0 0 0 0 0 0 0 0 0 0 0 0 0 0 0 0 0 0 0 0 0 0 0 0 0 0 104 104 209 104 104 209 104 104 209 104 104 209 148 237 224 148 237 224 148 237 224 148 237 224 148 237 224 148 237 224 148 237 224 148 237 224 148 237 224 148 237 224 44 132 14 44 132 14 44 132 14 54 115 59 61 127 67 65 133 73 68 138 78 70 142 81 72 145 85 74 147 87 75 149 90 76 150 92 77 151 94 78 152 95 79 153 97 79 153 98 80 153 99 80 153 100 80 152 101 80 152 101 80 151 102 80 150 102 80 149 103 80 147 103 79 146 103 79 144 103 78 143 103 78 141 103 77 139 103 76 137 102 75 135 102 74 132 101 74 130 101 72 127 100 71 124 99 70 121 98 69 118 97 68 115 96 66 111 95 65 108 93 63 104 92 61 100 90 59 96 89 57 91 87 55 87 85 53 82 82 51 76 80 48 71 77 45 65 74 42 59 71 39 52 68 35 44 64 31 35 59 26 25 53 20 13 46 11 0 36 148 236 223 148 236 223 148 236 223 148 236 223 148 236 223 0 0 0 0 5 0 0 12 0 0 11 0 1 15 0 3 23 0 3 21 0 5 24 0 4 18 0 5 21 0 3 15 0 4 17 0 5 21 0 5 20 0 2 11 0 31 72 28 45 102 45 50 110 51 54 115 56 56 120 60 53 111 57 61 127 67 62 129 69 64 131 72 58 119 66 66 134 76 67 135 77 68 136 79 68 136 80 69 136 81 69 136 82 69 136 83 69 135 84 55 107 67 69 134 85 69 132 85 68 131 85 54 104 68 68 128 85 60 114 76 66 124 85 66 122 84 52 96 67 57 106 75 63 115 82 55 101 73 60 109 81 59 106 79 58 103 78 56 99 77 54 95 75 53 91 74 51 87 72 49 83 70 47 78 68 44 73 65 42 67 63 35 55 54 36 55 57 33 49 53 29 41 49 25 33 45 19 21 36 15 13 34 8 0 23 0 0 13 10 15 17 6 7 12 3 0 8 0 0 3 0 0 0 0 0 0 0 0 0 147 235 221 147 235 221 147 235 221 147 235 221 147 235 221 147 235 221
149 237 224 149 237 224 149 237 224 149 237 224 149 237 224 149 237 224 149 237 224 149 237 224 149 237 224 15 55 0 13 41 3 18 51 8 36 93 24 41 98 36 50 115 47 53 119 52 55 122 56 51 111 54 58 124 62 59 125 65 54 112 60 61 125 69 61 124 70 55 111 64 62 123 73 62 122 74 49 96 60 55 107 68 61 117 76 61 115 76 60 113 77 47 89 61 59 108 77 46 85 61 51 93 69 56 101 76 55 98 76 54 95 75 48 82 67 47 80 66 51 85 73 49 81 72 48 78 71 41 66 63 44 70 68 43 66 67 41 62 65 39 57 64 33 47 55 35 48 60 33 43 58 27 34 50 28 32 53 25 26 50 22 20 47 19 14 44 16 7 40 11 0 33 7 0 26 4 0 24 0 0 21 0 0 15 0 0 5 0 4 0 0 1 0 0 0 0 0 0 0 0 0 0 0 0 0 0 0 0 0 0 0 0 0 0 0 0 0 0 0 0 0 0 0 0 0 0 0 0 0 0 0 0 0 0 0 0 0 0 47 106 45 59 126 62 63 133 68 66 138 73 69 141 77 70 143 80 72 145 83 73 146 86 74 147 88 75 147 89 75 148 91 76 147 92 76 147 94 76 147 95 76 146 95 76 145 96 76 144 97 76 143 97 76 141 98 75 140 98 75 138 98 75 136 98 74 134 98 73 132 98 73 130 98 72 127 98 71 125 97 70 122 97 69 120 96 68 117 95 67 114 95 66 111 94 64 108 93 63 104 92 61 101 91 60 97 89 58 93 88 57 89 86 55 85 85 53 81 83 51 76 81 49 72 79 47 67 77 44 62 75 42 56 72 39 50 69 36 44 66 33 38 63 30 31 60 26 23 55 22 15 51 17 5 45 12 0 38 3 0 28 0 0 0 0 0 0 0 0 0 0 0 0 0 0 0 0 0 0 0 0 0 0 0 0 0 0 0 0 0 0 0 0 0 0 0 0 0 0 0 0 0 0 0 0 0 0 0 0 0 0 0 0 0 0 0 0 0 0 0 0 0 0 0 0 0 0 0 0 0 0 0 0 0 0 0 0 0 0 0 0 0 0 0 0 0 0 0 0 0 0 0 0 0 149 237 225 149 237 225 149 237 225 149 237 225 149 237 225 149 237 225 149 237 225 149 237 225 149 237 225 149 237 225 149 237 225 149 237 225 149 237 225 44 132 14 44 132 14 44 132 14 44 132 14 44 132 14 54 116 58 60 125 65 64 132 71 66 136 75 69 140 79 71 143 82 72 145 84 73 147 87 75 148 89 76 149 90 76 150 92 77 150 93 77 150 95 78 150 96 78 150 97 78 149 97 78 149 98 78 148 99 78 147 99 78 146 99 78 145 100 77 143 100 77 142 100 76 140 100 76 138 100 75 136 99 74 134 99 73 132 99 72 129 98 71 127 97 70 124 97 69 121 96 68 118 95 67 115 94 66 112 93 64 109 92 63 105 90 61 101 89 59 97 87 57 93 85 55 89 83 53 84 81 51 79 79 49 74 77 46 68 74 43 63 71 40 56 68 37 49 65 34 42 61 30 34 56 25 24 51 19 13 45 11 0 35 149 237 224 149 237 224 149 237 224 149 237 224 148 237 224 148 237 224 0 0 0 0 1 0 0 4 0 0 7 0 0 14 0 0 12 0 0 11 0 0 11 0 0 11 0 0 13 0 0 8 0 0 9 0 0 7 0 0 7 0 36 86 31 43 98 40 43 95 42 51 111 52 54 116 56 50 108 53 58 123 62 60 125 65 61 127 68 56 116 63 63 130 72 64 131 73 65 131 75 65 132 76 66 132 77 59 119 70 66 132 79 66 131 80 66 130 80 60 116 72 59 115 73 66 127 81 65 126 81 65 124 81 64 122 81 64 120 81 63 118 80 62 116 80 61 114 79 60 111 78 53 97 70 52 95 69 56 102 75 55 99 74 48 86 65 52 91 71 50 87 70 43 75 61 46 79 66 44 74 64 42 69 61 39 64 59 36 58 56 34 52 53 30 45 49 27 37 45 21 26 37 16 18 32 12 8 27 6 0 20 0 0 9 6 8 10 2 1 5 0 0 3 0 0 0 0 0 0 0 0 0 148 236 222 148 236 222 148 236 222 148 236 222 148 236 222 148 236 222 147 236 222
149 237 225 149 237 225 149 237 225 149 237 225 149 237 225 149 237 225 149 237 225 149 237 225 149 237 225 7 39 0 10 36 0 16 52 3 34 90 21 39 94 32 43 100 38 50 115 48 47 105 47 54 119 55 56 120 58 57 120 60 57 121 63 58 120 64 58 120 66 59 119 67 59 118 68 59 117 69 59 116 70 58 114 71 46 90 57 58 111 72 46 87 58 57 106 72 56 104 72 50 91 65 54 99 72 53 96 72 52 93 71 51 90 71 45 78 63 49 84 69 43 72 61 42 69 61 45 73 66 43 69 65 42 65 64 40 61 62 34 51 55 32 47 53 31 43 51 32 43 55 24 30 42 27 33 51 22 25 43 18 17 36 19 15 42 15 8 35 12 2 32 9 0 29 5 0 25 1 0 18 0 0 15 0 0 10 0 0 0 0 0 0 0 0 0 0 0 0 0 0 0 0 0 0 0 0 0 0 0 0 0 0 0 0 0 0 0 0 0 0 0 0 0 0 0 0 0 0 0 0 0 0 0 0 0 0 0 0 0 0 50 113 49 58 125 60 62 131 66 65 135 71 67 138 74 69 141 77 70 142 80 71 143 82 72 144 84 73 144 86 73 145 88 74 144 89 74 144 90 74 143 91 74 143 92 74 142 93 74 141 93 74 139 94 74 138 94 73 136 95 73 135 95 72 133 95 72 131 95 71 129 95 70 127 94 70 124 94 69 122 94 68 119 93 67 116 93 66 114 92 65 111 91 63 108 90 62 104 89 61 101 88 59 98 87 58 94 86 56 90 84 54 86 83 53 82 81 51 78 80 49 73 78 47 69 76 45 64 74 42 59 71 40 53 69 37 48 66 34 42 63 31 35 60 28 28 56 24 21 52 20 12 48 16 3 42 10 0 36 3 0 27 0 0 0 0 0 0 0 0 0 0 0 0 0 0 0 0 0 0 0 0 0 0 0 0 0 0 0 0 0 0 0 0 0 0 0 0 0 0 0 0 0 0 0 0 0 0 0 0 0 0 0 0 0 0 0 0 0 0 0 0 0 0 0 0 0 0 0 0 0 0 0 0 0 0 0 0 0 0 0 0 0 0 0 0 0 0 0 0 0 0 150 238 226 150 238 226 149 238 226 149 238 226 149 238 226 149 238 226 149 238 226 149 238 226 149 238 226 149 238 226 149 238 226 149 238 226 149 238 226 149 238 226 149 238 226 149 238 226 44 132 14 44 132 14 43 97 42 53 115 56 58 124 63 62 130 68 65 134 72 67 137 75 69 140 78 70 142 81 72 144 83 73 145 85 73 146 87 74 147 89 75 147 90 75 147 91 76 147 92 76 147 93 76 146 94 76 146 95 76 145 95 76 144 96 76 143 96 75 142 96 75 140 96 75 139 96 74 137 96 73 135 96 73 133 96 72 131 96 71 129 95 70 126 95 69 124 94 68 121 93 67 118 92 66 115 91 65 112 90 63 109 89 62 106 88 60 102 87 59 98 85 57 94 84 55 90 82 53 86 80 51 81 78 49 76 76 47 71 74 44 66 71 42 60 68 39 54 65 35 47 62 32 40 58 28 32 54 23 22 48 18 11 42 11 0 34 149 237 225 149 237 225 149 237 225 149 237 225 149 237 225 149 237 225 149 237 225 0 0 0 0 0 0 0 0 0 0 1 0 0 3 0 0 3 0 0 2 0 0 3 0 0 4 0 0 4 0 0 2 0 0 1 0 0 0 0 20 49 16 40 93 36 44 101 42 48 107 47 51 112 51 48 104 49 55 118 58 51 109 55 58 123 63 53 112 59 54 113 60 55 114 62 56 114 63 63 128 72 57 115 65 57 115 66 57 115 67 64 127 75 64 126 76 64 125 76 63 124 76 63 123 77 63 121 77 62 120 77 62 118 76 61 116 76 60 114 76 53 101 68 52 98 67 52 96 66 56 104 73 55 101 72 54 98 71 52 95 70 51 91 68 49 87 67 47 83 65 45 79 63 43 75 61 41 70 59 35 58 51 36 59 54 34 54 51 28 43 43 25 37 40 24 33 41 20 25 37 14 14 28 10 5 25 3 0 16 0 0 6 2 2 5 0 0 1 0 0 0 0 0 0 0 0 0 0 0 0 148 236 223 148 236 223 148 236 223 148 236 223 148 236 223 148 236 223 148 236 223
150 238 226 150 238 226 150 238 226 150 238 226 150 238 226 150 238 226 150 238 226 150 238 226 150 238 226 150 238 226 9 44 0 10 39 0 27 76 14 36 90 28 44 106 38 43 99 39 50 113 47 46 103 45 47 104 48 54 116 56 54 116 58 49 104 54 55 115 61 56 115 63 56 114 64 56 113 65 50 100 59 56 110 66 55 108 67 55 106 67 54 104 68 54 102 68 53 100 68 52 97 68 46 85 61 50 92 67 34 62 47 34 60 46 47 83 65 46 79 65 45 76 64 43 72 63 42 69 62 36 58 54 31 49 47 37 57 58 35 52 56 30 43 49 31 43 53 26 35 45 24 30 43 24 28 46 22 23 43 19 17 41 15 10 34 12 4 31 8 0 25 6 0 24 2 0 18 0 0 16 0 0 11 0 0 4 0 0 0 0 0 0 0 0 0 0 0 0 0 0 0 0 0 0 0 0 0 0 0 0 0 0 0 0 0 0 0 0 0 0 0 0 0 0 0 0 0 0 0 0 0 0 0 0 0 0 0 0 0 0 50 113 48 56 123 57 60 129 63 63 133 67 65 136 71 67 138 74 68 139 77 69 140 79 70 141 81 71 141 83 71 141 84 72 141 85 72 141 87 72 140 88 72 139 88 72 138 89 72 137 90 72 136 90 71 135 91 71 133 91 71 131 91 70 130 91 69 128 91 69 125 91 68 123 91 67 121 90 66 118 90 66 116 90 64 113 89 63 110 88 62 107 88 61 104 87 60 101 86 58 98 85 57 94 83 55 91 82 54 87 81 52 83 79 50 79 78 49 74 76 47 70 74 45 65 72 42 61 70 40 55 68 38 50 65 35 44 63 32 38 60 29 32 57 26 25 53 22 18 49 18 10 45 14 1 39 9 0 33 2 0 25 0 0 0 0 0 0 0 0 0 0 0 0 0 0 0 0 0 0 0 0 0 0 0 0 0 0 0 0 0 0 0 0 0 0 0 0 0 0 0 0 0 0 0 0 0 0 0 0 0 0 0 0 0 0 0 0 0 0 0 0 0 0 0 0 0 0 0 0 0 0 0 0 0 0 0 0 0 0 0 0 0 0 0 0 0 0 0 150 238 227 150 238 227 150 238 227 150 238 227 150 238 227 150 238 227 150 238 227 150 238 227 106 106 212 106 106 212 106 106 212 106 106 212 106 106 212 106 106 212 106 106 212 106 106 212 106 106 212 106 106 212 106 106 212 44 99 42 52 114 53 57 122 60 60 127 65 63 131 69 65 135 72 67 137 75 68 139 78 69 141 80 70 142 82 71 143 84 72 144 85 73 144 87 73 144 88 73 144 89 74 144 90 74 143 90 74 143 91 74 142 92 74 141 92 74 140 92 73 138 93 73 137 93 72 135 93 72 134 93 71 132 93 71 130 92 70 128 92 69 126 92 68 123 91 67 121 90 66 118 90 65 115 89 64 112 88 63 109 87 61 106 86 60 102 85 58 99 83 57 95 82 55 91 80 53 87 79 51 83 77 49 78 75 47 73 73 45 68 70 42 63 68 40 57 65 37 51 62 34 44 58 30 37 55 26 29 50 22 20 46 17 10 40 9 0 29 0 0 18 105 105 211 149 238 226 149 238 226 149 238 226 149 238 226 149 238 226 149 238 226 0 0 0 0 0 0 0 0 0 0 0 0 0 0 0 0 0 0 0 0 0 0 0 0 0 0 0 0 0 0 0 0 0 0 0 0 24 61 17 37 88 31 41 96 37 40 92 38 48 107 47 45 100 45 47 102 48 54 116 56 44 94 47 51 108 55 58 121 63 53 110 58 53 110 59 54 111 60 60 123 68 54 111 62 48 98 56 55 110 64 61 122 71 48 97 57 60 120 72 48 95 58 60 117 72 47 92 58 59 114 72 58 112 72 51 99 64 56 107 71 55 105 70 54 102 69 43 80 55 47 87 61 51 94 67 44 81 59 48 87 64 46 83 62 36 63 49 38 67 53 41 70 57 38 66 55 36 60 52 27 44 40 28 44 42 25 39 39 22 33 36 21 29 37 16 19 29 11 10 24 6 1 17 1 0 13 0 0 1 0 0 0 0 0 0 0 0 0 0 0 0 0 0 0 0 0 0 149 237 224 149 237 224 149 237 224 149 237 224 149 237 224 149 237 224 148 237 224
150 238 227 150 238 227 150 238 227 150 238 227 150 238 227 150 238 227 150 238 227 150 238 227 150 238 227 150 238 227 1 21 0 6 32 0 8 35 0 33 85 23 37 91 30 44 105 38 37 86 34 48 109 46 45 99 44 45 100 46 51 111 53 52 111 55 47 100 51 53 110 58 53 109 59 53 108 60 53 107 61 52 105 62 52 103 62 36 71 44 46 89 57 51 97 63 50 95 63 39 74 50 43 81 56 47 87 62 46 84 62 32 57 43 44 78 61 43 75 60 42 71 59 36 61 52 27 45 40 33 54 50 36 56 54 27 42 42 25 38 41 21 30 35 28 39 48 26 34 46 19 23 35 17 19 33 17 16 35 14 11 32 12 5 30 10 0 30 5 0 21 3 0 22 0 0 18 0 0 11 0 0 6 0 0 0 0 0 0 0 0 0 0 0 0 0 0 0 0 0 0 0 0 0 0 0 0 0 0 0 0 0 0 0 0 0 0 0 0 0 0 0 0 0 0 0 0 0 0 0 0 0 0 0 0 0 0 0 0 0 44 101 41 55 121 54 52 114 54 61 130 64 63 133 68 64 135 71 66 136 73 67 137 75 68 138 77 68 138 79 69 138 81 69 138 82 70 138 83 70 137 84 70 136 85 70 135 86 70 134 86 69 133 87 69 131 87 69 130 87 68 128 87 68 126 87 67 124 87 60 110 79 66 120 87 65 117 87 64 115 86 63 112 86 62 110 85 61 107 85 60 104 84 59 101 83 57 98 82 56 94 81 55 91 80 53 87 79 52 83 77 50 79 76 48 75 74 46 71 72 44 67 71 42 62 69 40 57 66 38 52 64 32 42 56 33 41 59 30 35 56 27 29 53 24 22 49 18 13 41 15 6 37 12 0 36 6 0 27 0 0 22 0 0 7 0 0 0 0 0 0 0 0 0 0 0 0 0 0 0 0 0 0 0 0 0 0 0 0 0 0 0 0 0 0 0 0 0 0 0 0 0 0 0 0 0 0 0 0 0 0 0 0 0 0 0 0 0 0 0 0 0 0 0 0 0 0 0 0 0 0 0 0 0 0 0 0 0 0 0 0 0 0 106 106 213 106 106 213 106 106 213 106 106 213 106 106 213 106 106 213 106 106 213 106 106 213 106 106 213 106 106 213 106 106 213 106 106 213 106 106 213 106 106 213 106 106 213 106 106 213 106 106 213 106 106 213 106 106 213 106 106 213 106 106 213 43 99 41 50 112 51 55 119 57 58 124 62 61 128 65 63 132 69 65 134 72 66 136 74 67 138 76 68 139 78 69 140 80 70 140 82 70 141 83 71 141 84 71 141 85 71 140 86 64 126 78 72 139 87 72 138 88 71 137 88 71 136 89 71 135 89 71 134 89 70 132 89 70 130 89 69 129 89 68 127 89 68 124 88 67 122 88 66 120 87 65 117 87 64 115 86 63 112 85 62 109 84 60 106 83 59 103 82 58 99 81 56 96 80 54 92 78 53 88 77 51 84 75 49 80 73 47 75 71 45 70 69 34 52 53 40 60 64 37 54 61 31 43 53 28 37 50 28 34 51 24 26 47 20 18 42 15 7 37 9 0 29 0 0 18 106 106 212 106 106 212 106 106 212 0 0 0 0 0 0 0 0 0 0 0 0 44 132 14 0 0 0 0 0 0 0 0 0 0 0 0 0 0 0 0 0 0 0 0 0 0 0 0 0 0 0 0 0 0 0 0 0 26 70 16 33 83 26 38 91 32 21 48 19 40 92 38 42 95 41 49 109 49 46 100 46 52 113 54 48 104 50 49 105 52 55 117 60 50 106 55 57 118 62 51 107 57 57 119 65 52 106 59 52 106 59 52 105 60 52 105 60 57 115 67 40 80 47 57 112 68 51 100 61 56 109 67 55 107 67 54 105 67 48 93 60 47 90 59 52 98 65 50 95 64 49 92 63 43 80 56 42 77 55 45 82 59 35 63 46 33 59 45 40 70 54 38 66 52 32 55 45 33 56 48 31 51 45 28 45 42 22 35 35 22 32 36 15 19 25 13 14 25 10 7 22 4 0 15 0 0 8 0 0 0 0 0 0 0 0 0 0 0 0 0 0 0 0 0 0 149 237 225 149 237 225 149 237 225 149 237 225 149 237 225 149 237 225 149 237 225 149 237 225
151 239 228 151 239 228 151 239 228 151 239 228 151 239 228 151 239 228 151 239 228 151 239 228 151 239 228 151 239 228 151 239 228 0 20 0 5 32 0 23 62 14 38 96 28 41 100 33 39 92 34 40 94 37 37 84 35 43 95 42 43 96 44 44 96 45 44 95 47 40 84 43 45 94 49 40 82 44 45 91 51 49 100 57 49 98 58 39 77 46 43 85 52 48 92 58 42 81 52 41 79 52 41 76 52 44 82 58 35 63 46 38 69 51 29 51 39 40 70 55 39 66 54 30 50 43 36 59 52 27 44 41 32 51 50 28 42 43 29 43 47 21 31 36 22 30 39 20 26 37 14 16 27 18 18 36 15 13 34 11 6 28 9 1 25 6 0 22 3 0 17 0 0 17 0 0 9 0 0 7 0 0 1 0 0 0 0 0 0 0 0 0 0 0 0 0 0 0 0 0 0 0 0 0 0 0 0 0 0 0 0 0 0 0 0 0 0 0 0 0 0 0 0 0 0 0 0 0 0 0 0 0 0 0 0 0 0 0 0 0 47 110 43 47 106 46 56 123 57 59 127 61 61 129 64 62 131 67 63 133 70 65 134 72 65 134 74 66 135 75 60 121 69 67 134 78 67 134 79 67 133 80 67 133 81 67 132 82 67 130 82 67 129 83 67 128 83 66 126 83 66 124 84 65 123 84 58 108 75 64 118 84 63 116 83 63 114 83 56 100 74 61 109 82 54 95 73 59 103 81 58 100 80 56 97 79 55 94 78 54 91 77 52 87 76 51 84 75 49 80 73 43 68 65 46 72 70 44 68 69 38 57 60 40 58 65 38 54 63 35 49 60 33 43 58 30 38 55 28 32 52 25 25 49 21 19 46 16 10 38 14 3 38 10 0 33 4 0 24 0 0 19 0 0 5 0 0 0 0 0 0 0 0 0 0 0 0 0 0 0 0 0 0 0 0 0 0 0 0 0 0 0 0 0 0 0 0 0 0 0 0 0 0 0 0 0 0 0 0 0 0 0 0 0 0 0 0 0 0 0 0 0 0 0 0 0 0 0 0 0 0 0 0 0 0 0 0 0 0 0 107 107 214 107 107 214 107 107 214 107 107 214 107 107 214 107 107 214 107 107 214 107 107 214 107 107 214 107 107 214 107 107 214 107 107 214 107 107 214 107 107 214 107 107 214 107 107 214 107 107 214 107 107 214 107 107 214 107 107 214 107 107 214 107 107 214 42 97 38 49 109 47 53 116 53 56 121 58 59 125 62 61 128 65 62 131 68 64 133 71 65 134 73 66 136 75 67 136 76 68 137 78 68 137 79 62 124 72 69 137 81 69 137 82 69 136 83 69 136 84 62 121 76 69 134 85 69 133 85 62 118 77 68 130 85 68 129 85 67 127 85 67 125 85 66 123 85 65 121 85 64 119 84 64 116 84 63 114 83 62 111 82 60 108 82 59 106 81 58 102 80 57 99 79 55 96 77 54 92 76 52 89 75 50 85 73 49 81 71 47 76 69 45 72 67 43 67 65 40 62 63 38 57 61 35 51 58 32 45 55 29 38 52 26 31 48 22 24 44 18 15 39 13 5 33 7 0 26 0 0 16 0 0 0 0 0 0 0 0 0 0 0 0 0 0 0 0 0 0 0 0 0 0 0 0 0 0 0 44 132 14 0 0 0 0 0 0 0 0 0 0 0 0 0 0 0 0 0 0 0 0 0 0 0 0 0 0 0 18 51 8 27 69 18 35 85 27 38 92 32 33 77 29 39 90 36 41 93 39 43 96 42 34 76 34 50 110 51 51 111 53 52 112 55 42 90 45 54 114 58 43 91 47 49 102 54 49 102 55 55 113 61 55 112 62 55 111 62 49 99 56 49 98 57 54 108 63 53 106 63 47 94 56 52 103 62 46 90 56 45 88 55 40 77 49 44 84 54 43 81 53 46 87 58 45 84 57 43 81 56 42 77 55 36 66 48 35 63 46 33 59 45 24 43 33 29 51 41 27 46 39 25 41 37 20 32 30 20 30 31 19 27 31 14 17 24 10 10 20 6 2 16 1 0 10 0 0 2 0 0 0 0 0 0 0 0 0 0 0 0 0 0 0 150 238 226 150 238 226 150 238 226 150 238 226 149 238 226 149 238 226 149 238 226 149 238 226 149 238 226
151 239 229 151 239 229 151 239 229 151 239 229 151 239 229 151 239 229 151 239 229 151 239 229 151 239 229 151 239 229 151 239 229 0 9 0 0 22 0 26 74 13 31 81 20 30 75 22 36 87 29 37 89 32 39 90 35 44 101 41 40 91 39 41 91 41 46 101 47 32 70 34 42 89 45 42 88 45 46 97 51 46 95 52 46 93 53 41 82 48 36 72 43 40 79 48 35 68 43 39 74 48 34 64 42 33 62 42 32 59 42 31 57 41 26 48 36 26 45 35 35 61 49 31 52 44 23 38 33 25 40 37 23 37 36 16 25 26 23 34 37 24 33 40 15 20 26 19 24 36 17 18 34 10 9 22 10 6 23 9 2 26 7 0 23 3 0 17 0 0 14 0 0 9 0 0 7 0 0 1 0 0 0 0 0 0 0 0 0 0 0 0 0 0 0 0 0 0 0 0 0 0 0 0 0 0 0 0 0 0 0 0 0 0 0 0 0 0 0 0 0 0 0 0 0 0 0 0 0 0 0 0 0 0 0 0 0 0 0 0 45 107 40 50 115 48 54 120 53 56 123 57 52 113 54 48 102 51 61 129 66 62 130 68 63 131 70 57 118 64 64 131 73 65 131 74 65 130 75 65 130 76 58 116 70 58 115 70 65 127 79 65 125 79 64 124 79 64 122 80 63 121 80 63 119 80 62 117 80 62 115 80 61 113 79 54 99 71 53 97 71 58 105 78 57 102 78 56 100 77 55 97 76 48 84 68 53 90 74 46 78 66 50 84 72 48 80 71 47 76 70 41 65 61 43 68 67 41 64 65 40 59 63 37 55 61 35 50 59 33 45 57 31 40 54 25 31 46 25 28 49 22 22 45 19 15 42 16 8 38 12 0 34 7 0 29 2 0 23 0 0 14 0 0 3 0 0 0 0 0 0 0 0 0 0 0 0 0 0 0 0 0 0 0 0 0 0 0 0 0 0 0 0 0 0 0 0 0 0 0 0 0 0 0 0 0 0 0 0 0 0 0 0 0 0 0 0 0 0 0 0 0 0 0 0 0 0 0 0 0 0 0 0 0 0 0 0 0 0 0 0 0 0 0 0 0 0 0 0 0 0 0 0 0 0 0 0 0 107 107 215 107 107 215 107 107 215 107 107 215 107 107 215 107 107 215 107 107 215 107 107 215 107 107 215 107 107 215 107 107 215 107 107 215 107 107 215 107 107 215 107 107 215 107 107 215 40 95 35 46 106 44 45 102 45 48 106 49 51 110 52 52 112 55 60 127 64 55 116 60 63 131 69 64 132 71 64 133 73 65 133 74 66 134 75 66 134 77 67 134 78 60 120 71 67 133 79 67 132 80 67 131 80 67 130 81 67 129 81 66 128 81 66 127 82 65 125 82 65 123 82 64 122 81 64 120 81 57 106 73 62 115 80 61 113 80 60 110 79 59 108 79 52 94 70 51 92 69 56 99 76 54 96 75 53 92 73 51 89 72 50 85 71 48 81 69 42 69 61 40 65 59 42 68 64 36 57 55 38 58 59 36 53 57 33 48 54 30 41 51 24 31 43 24 28 44 20 20 40 14 10 32 10 2 27 4 0 21 0 0 12 107 107 214 0 0 0 0 0 0 0 0 0 0 0 0 0 0 0 0 0 0 0 0 0 0 0 0 0 0 0 0 0 0 0 0 0 0 0 0 0 0 0 0 0 0 0 0 0 0 0 0 0 0 0 0 0 0 14 44 2 23 63 13 28 71 19 28 69 21 38 91 31 36 85 32 38 88 35 40 91 37 41 93 39 47 105 46 43 96 43 44 96 45 45 97 46 40 87 42 35 76 38 41 87 44 51 108 56 52 108 56 41 86 46 51 106 58 51 105 58 46 94 52 45 92 52 50 101 58 45 90 52 49 98 58 48 96 57 47 93 57 46 91 56 36 71 44 44 85 55 39 74 48 42 79 53 36 68 46 35 65 45 37 69 48 35 65 47 33 60 45 31 56 43 17 31 24 24 41 34 22 37 32 17 28 26 19 29 30 12 17 21 12 14 22 5 4 12 2 0 10 0 0 5 0 0 0 0 0 0 0 0 0 0 0 0 0 0 0 0 0 0 150 238 227 150 238 227 150 238 227 150 238 227 150 238 227 150 238 227 150 238 227 150 238 227 150 238 227
151 240 230 151 240 230 151 240 230 151 240 230 151 240 230 151 240 230 151 240 230 151 240 230 151 240 230 151 240 230 151 240 230 151 240 230 0 7 0 20 60 6 27 75 15 20 53 13 29 73 21 34 84 27 32 76 27 37 86 32 33 77 31 42 96 40 38 86 38 43 95 43 34 75 35 39 84 41 39 82 42 34 72 38 43 88 48 38 78 43 33 67 39 29 57 34 36 72 44 40 78 48 31 60 38 19 36 24 26 48 33 32 60 42 35 63 46 27 48 36 29 51 40 24 42 35 26 44 38 22 36 33 21 33 32 22 33 34 15 23 25 18 25 31 15 18 26 16 18 31 14 13 29 11 8 26 7 2 19 5 0 19 2 0 12 0 0 10 0 0 6 0 0 4 0 0 1 0 0 0 0 0 0 0 0 0 0 0 0 0 0 0 0 0 0 0 0 0 0 0 0 0 0 0 0 0 0 0 0 0 0 0 0 0 0 0 0 0 0 0 0 0 0 0 0 0 0 0 0 0 0 0 0 0 0 0 0 0 0 0 43 104 37 48 111 44 46 105 44 54 120 53 50 110 51 57 124 60 59 126 62 60 126 64 60 127 66 55 114 61 62 127 69 62 127 70 62 127 72 56 113 65 63 125 73 62 124 74 56 111 67 62 122 75 56 108 68 55 107 68 61 117 76 60 115 76 60 113 76 59 111 76 53 98 68 58 106 75 45 83 60 56 101 74 49 89 66 54 96 73 53 93 72 51 90 71 50 87 70 49 83 69 43 72 61 46 76 67 44 72 66 43 68 64 41 64 63 35 54 55 37 56 59 35 51 57 33 46 55 27 37 47 28 36 50 25 30 48 20 22 40 16 14 33 17 11 38 13 4 34 9 0 30 5 0 25 0 0 17 0 0 12 0 0 0 0 0 0 0 0 0 0 0 0 0 0 0 0 0 0 0 0 0 0 0 0 0 0 0 0 0 0 0 0 0 0 0 0 0 0 0 0 0 0 0 0 0 0 0 0 0 0 0 0 0 0 0 0 0 0 0 0 0 0 0 0 0 0 0 0 0 0 0 0 0 0 0 0 0 0 0 0 0 0 0 0 0 0 0 0 0 0 0 0 0 0 0 0 0 0 0 0 0 0 0 0 0 0 0 0 0 0 0 0 0 0 0 0 0 108 108 216 108 108 216 108 108 216 108 108 216 108 108 216 108 108 216 108 108 216 108 108 216 107 107 215 38 92 32 44 102 40 43 98 41 51 114 51 54 118 54 50 109 52 58 124 60 59 126 63 60 127 65 61 128 67 62 129 69 56 117 63 57 117 64 64 130 73 64 130 74 64 130 75 64 129 75 64 129 76 64 128 77 64 127 77 64 126 77 64 124 78 57 111 70 63 121 78 62 120 78 62 118 77 61 116 77 60 114 77 60 112 76 59 109 76 58 107 75 51 94 67 56 101 74 54 98 73 48 86 65 52 92 71 50 89 70 44 77 61 47 81 67 46 78 65 44 73 64 42 69 62 36 58 54 38 60 58 32 49 50 33 50 53 30 44 50 28 38 47 20 25 35 19 22 36 16 15 33 12 7 29 8 0 24 3 0 20 0 0 10 107 107 215 107 107 215 107 107 215 107 107 215 107 107 215 0 0 0 0 0 0 0 0 0 0 0 0 44 132 14 44 132 14 44 132 14 0 0 0 0 0 0 0 0 0 0 0 0 0 0 0 0 0 0 0 0 0 9 35 0 17 50 6 27 73 16 31 80 21 24 59 18 25 62 21 35 83 30 36 86 32 34 78 31 35 79 33 45 101 43 41 92 40 42 92 42 47 103 48 38 83 39 48 103 50 38 82 41 43 92 46 38 82 42 48 101 53 48 100 53 33 69 37 43 88 48 42 86 48 42 85 48 41 83 47 40 81 47 40 79 47 39 77 46 34 66 40 24 48 30 40 77 49 38 74 48 37 71 46 28 54 36 34 64 44 29 54 38 27 50 36 20 35 26 23 41 32 16 28 23 21 35 31 16 26 25 12 18 20 7 10 12 7 7 13 4 0 11 0 0 5 0 0 0 0 0 0 0 0 0 0 0 0 0 0 0 0 0 0 150 239 228 150 239 228 150 239 228 150 239 228 150 239 228 150 239 228 150 239 228 150 239 228 150 239 228 150 239 228
152 240 231 152 240 231 152 240 231 152 240 231 152 240 231 152 240 231 152 240 231 152 240 231 152 240 231 152 240 231 152 240 231 152 240 231 152 240 231 17 60 0 23 69 9 27 74 15 32 86 21 27 70 20 32 80 25 30 72 24 26 63 23 39 90 35 31 72 29 36 80 34 40 89 39 32 70 32 36 78 37 36 76 38 27 58 30 35 73 39 31 63 34 30 62 35 33 67 39 29 58 34 28 56 34 31 60 38 30 58 38 29 55 37 28 52 37 24 44 32 20 36 27 25 43 34 21 35 30 14 24 21 20 32 31 21 32 33 17 24 28 15 20 27 12 14 22 5 5 10 8 6 19 6 2 17 5 0 18 2 0 14 0 0 10 0 0 7 0 0 5 0 0 0 0 0 0 0 0 0 0 0 0 0 0 0 152 240 231 152 240 231 152 241 231 152 241 231 152 241 231 152 241 231 152 241 231 152 241 231 152 241 231 152 241 231 152 241 231 152 241 231 152 241 231 152 241 231 152 241 231 152 241 231 152 241 231 152 241 231 33 80 26 36 86 32 49 112 45 51 116 49 53 118 53 55 120 56 56 122 58 57 123 60 58 123 62 53 111 57 59 123 65 53 111 60 60 123 68 60 122 69 60 121 69 54 108 63 54 107 64 54 106 64 59 116 71 59 115 72 58 113 72 52 100 65 52 98 65 57 107 72 50 94 64 50 92 64 54 100 71 53 97 70 47 85 63 51 92 69 45 80 61 39 69 54 43 74 60 46 79 65 45 76 64 43 72 63 42 68 62 40 64 60 34 54 53 33 50 51 34 52 55 32 47 53 30 42 51 25 33 44 25 32 46 23 26 43 18 18 36 17 14 37 14 7 34 11 0 30 7 0 26 2 0 19 0 0 15 0 0 7 0 0 0 0 0 0 0 0 0 0 0 0 0 0 0 0 0 0 0 0 0 0 0 0 0 0 0 0 0 0 0 0 0 0 0 0 0 0 0 0 0 0 0 0 0 0 0 0 0 0 0 0 0 0 0 0 0 0 0 0 0 0 0 0 0 0 0 0 0 0 0 0 0 0 0 0 0 0 0 0 0 0 0 0 0 0 0 0 0 0 0 0 0 0 0 0 0 0 0 0 0 0 0 0 0 0 0 0 0 0 0 0 0 0 0 0 0 0 0 0 0 0 0 0 0 0 0 0 0 0 0 0 108 108 216 108 108 216 108 108 216 108 108 216 35 88 28 37 89 32 36 84 33 49 110 47 51 114 50 53 117 54 49 108 51 56 122 59 58 123 61 53 112 57 53 113 58 60 126 66 61 126 67 43 88 48 62 126 70 62 126 71 62 125 71 62 125 72 56 111 65 62 123 73 49 97 59 55 108 66 61 119 74 60 117 74 60 116 74 59 114 73 53 101 66 58 110 73 57 108 72 56 105 72 50 92 64 54 100 71 48 88 63 47 85 62 46 82 61 49 88 67 48 85 66 46 81 64 40 70 57 43 74 61 41 70 60 39 65 58 37 61 56 35 56 54 33 51 52 31 46 49 28 40 46 25 34 43 22 28 40 17 19 33 15 13 32 11 5 28 6 0 22 0 0 16 0 0 6 108 108 216 108 108 216 107 107 215 107 107 215 107 107 215 107 107 215 107 107 215 152 240 230 152 240 230 152 240 230 152 240 230 152 240 230 152 240 230 152 240 230 152 240 230 152 240 230 152 240 230 44 132 14 44 132 14 44 132 14 13 44 0 15 46 6 27 73 15 24 63 16 19 50 14 35 87 28 22 53 18 39 92 33 28 65 25 37 86 34 42 96 39 39 87 37 30 68 30 40 88 39 35 78 36 45 98 46 31 68 32 40 87 42 36 77 38 36 76 38 40 84 43 31 65 34 44 91 48 34 71 38 29 61 33 33 68 38 37 75 42 32 64 37 35 70 41 34 68 40 36 72 44 32 62 38 30 59 37 32 62 40 24 47 31 26 49 33 24 45 31 22 41 30 23 41 31 20 35 28 14 24 20 10 17 16 11 16 17 8 9 14 4 2 10 0 0 4 0 0 1 0 0 0 0 0 0 0 0 0 0 0 0 0 0 0 151 239 229 151 239 229 151 239 229 151 239 229 151 239 229 151 239 229 151 239 228 151 239 228 151 239 228 151 239 228 151 239 228
152 241 231 152 241 231 152 241 231 152 241 231 152 241 231 152 241 231 152 241 231 152 241 231 152 241 231 152 241 231 152 241 231 152 241 231 152 241 231 7 32 0 13 41 2 23 68 9 23 63 12 27 73 17 29 75 20 30 76 22 24 59 19 32 76 26 28 67 25 21 50 19 29 66 27 33 74 31 29 64 29 32 71 33 36 78 37 28 61 30 24 51 26 34 72 38 30 62 34 26 53 30 32 64 38 22 43 26 27 53 33 23 44 29 22 42 29 21 39 28 20 36 27 24 42 33 9 15 12 12 20 18 17 27 26 12 18 19 15 22 26 11 14 19 10 11 20 6 5 14 6 2 16 4 0 14 1 0 11 0 0 9 0 0 4 0 0 2 0 0 0 0 0 0 0 0 0 0 0 0 0 0 0 0 0 0 153 241 232 153 241 232 153 241 232 153 241 232 153 241 232 153 241 232 153 241 232 153 241 232 153 241 232 153 241 232 153 241 232 153 241 232 153 241 232 153 241 232 153 241 232 153 241 232 153 241 232 153 241 232 34 86 26 43 103 36 37 87 33 49 112 45 45 103 44 52 116 51 53 118 54 54 118 56 55 119 58 56 119 60 56 119 61 51 107 56 57 119 63 46 94 51 57 117 65 51 105 59 57 115 67 40 79 47 45 90 54 56 111 68 56 109 68 50 96 61 55 105 68 49 93 61 48 91 61 42 79 54 46 86 60 51 93 66 50 91 66 39 70 52 47 85 64 46 82 63 45 79 62 44 75 61 42 72 60 36 61 53 39 64 57 37 60 56 32 51 49 34 52 53 25 38 41 27 39 44 22 30 37 25 33 44 23 28 42 20 22 39 17 16 36 13 9 30 11 3 30 7 0 23 4 0 22 0 0 17 0 0 10 0 0 3 0 0 0 0 0 0 0 0 0 0 0 0 0 0 0 0 0 0 0 0 0 0 0 0 0 0 0 0 0 0 0 0 0 0 0 0 0 0 0 0 0 0 0 0 0 0 0 0 0 0 0 0 0 0 0 0 0 0 0 0 0 0 0 0 0 0 0 0 0 0 0 0 0 0 0 0 0 0 0 0 0 0 0 0 0 0 0 0 0 0 0 0 0 0 0 0 0 0 0 0 0 0 0 0 0 0 0 0 0 0 0 0 0 0 0 0 0 0 0 0 0 0 0 0 0 0 0 0 0 0 0 0 0 0 0 0 0 0 0 0 0 0 0 0 29 75 21 35 85 29 39 91 34 46 106 42 44 99 41 45 102 44 47 104 47 48 106 49 49 107 51 56 120 59 51 109 54 58 122 62 52 110 57 53 110 58 59 122 66 53 110 60 59 121 67 53 109 61 59 120 68 59 119 69 59 118 69 53 105 62 52 104 63 58 114 70 57 112 70 57 110 69 56 108 69 55 106 69 43 83 55 48 91 61 53 99 67 52 96 67 40 75 53 49 91 65 48 87 64 37 67 50 41 73 55 44 77 60 42 74 59 41 70 57 35 59 50 37 61 54 31 51 47 33 52 50 27 42 43 25 38 40 23 33 38 23 30 39 16 19 29 16 17 32 13 9 28 8 1 24 4 0 18 0 0 12 0 0 2 108 108 216 108 108 216 108 108 216 108 108 216 108 108 216 152 240 231 152 240 231 152 240 231 152 240 231 152 240 231 152 240 231 152 240 231 152 240 231 152 240 231 152 240 231 152 240 231 152 240 231 152 240 231 152 240 231 152 240 231 7 31 0 12 40 1 18 52 7 23 65 13 26 69 16 28 72 20 23 58 17 24 60 19 29 70 24 34 80 29 35 81 31 35 82 32 40 92 37 36 83 34 37 83 35 37 83 36 41 92 41 37 82 38 33 72 34 29 62 30 37 79 39 36 78 39 32 68 34 24 50 26 27 57 30 27 56 29 34 70 38 36 75 41 28 58 32 31 63 36 30 60 35 29 57 34 24 48 29 26 51 31 16 31 20 20 39 25 21 40 27 19 36 25 17 31 23 15 27 21 13 22 18 8 12 12 6 9 11 3 3 7 0 0 3 0 0 0 0 0 0 0 0 0 0 0 0 0 0 0 0 0 0 151 240 229 151 240 229 151 240 229 151 240 229 151 240 229 151 240 229 151 240 229 151 240 229 151 240 229 151 240 229 151 239 229 151 239 229
153 241 232 153 241 232 153 241 232 153 241 232 153 241 232 153 241 232 153 241 232 153 241 232 153 241 232 153 241 232 153 241 232 153 241 232 153 241 232 153 241 232 13 49 0 17 54 2 14 43 5 24 68 12 17 46 10 24 62 15 21 55 15 28 71 21 32 79 26 22 55 19 23 54 20 29 69 27 26 60 24 19 44 19 22 50 22 22 49 22 25 54 26 21 46 23 27 57 29 23 49 26 23 47 26 22 45 26 18 37 22 18 35 22 17 33 21 16 30 21 20 36 26 18 33 25 13 23 18 17 29 25 14 22 21 12 18 20 9 13 16 9 10 17 5 4 12 5 1 15 2 0 10 0 0 8 0 0 5 0 0 3 0 0 0 0 0 0 0 0 0 0 0 0 0 0 0 0 0 0 0 0 0 0 0 0 109 109 218 109 109 218 109 109 218 109 109 218 109 109 218 109 109 218 109 109 218 109 109 218 109 109 218 109 109 218 109 109 218 109 109 218 109 109 218 109 109 218 109 109 218 109 109 218 109 109 218 0 0 0 28 73 19 40 99 31 30 73 25 41 97 37 43 99 40 44 101 42 40 91 40 46 103 47 53 115 54 48 104 50 48 104 51 49 103 52 49 103 53 49 102 54 55 113 61 55 112 62 49 100 56 49 99 56 48 97 57 48 96 57 53 105 64 47 93 57 47 91 57 46 89 57 51 97 63 50 94 63 49 92 62 48 89 62 47 87 61 46 84 61 40 73 54 43 78 59 42 74 58 41 71 57 35 61 50 38 64 55 36 60 53 31 51 47 30 47 45 31 48 48 29 43 47 27 39 45 25 34 42 22 29 40 20 23 38 17 18 35 15 12 32 7 3 17 8 0 25 5 0 22 1 0 17 0 0 10 0 0 6 0 0 0 0 0 0 0 0 0 0 0 0 0 0 0 0 0 0 0 0 0 0 0 0 0 0 0 0 0 0 0 0 0 0 0 0 0 0 0 0 0 0 0 0 0 0 0 0 0 0 0 0 0 0 0 0 0 0 0 0 0 0 0 0 0 0 0 0 0 0 0 0 0 0 0 0 0 0 0 0 0 0 0 0 0 0 0 0 0 0 0 0 0 0 0 0 0 0 0 0 0 0 0 0 0 0 0 0 0 0 0 0 0 0 0 0 0 0 0 0 0 0 0 0 0 0 0 0 0 0 0 0 0 0 0 0 0 0 0 0 0 0 0 0 0 0 0 23 63 14 36 90 27 40 97 33 34 81 30 41 95 38 48 109 45 44 100 43 46 102 45 36 80 37 42 93 43 49 105 51 55 118 58 55 118 59 50 106 54 50 106 55 56 118 62 51 105 57 51 105 57 57 116 64 51 103 58 56 114 65 50 101 59 56 111 65 55 109 65 55 108 65 54 106 65 53 104 65 53 102 65 52 100 64 51 97 64 50 95 63 49 92 62 48 89 62 47 86 61 45 83 60 44 80 59 43 77 57 41 73 56 40 70 55 38 66 53 36 62 51 20 34 30 26 42 38 30 48 46 19 30 30 20 30 33 23 32 38 14 18 24 17 20 32 13 13 28 9 4 22 6 0 19 1 0 11 0 0 7 0 0 0 108 108 217 152 241 232 152 241 232 152 241 232 152 241 232 152 241 232 152 241 232 152 241 232 152 241 232 152 241 232 152 241 232 152 241 232 152 241 232 152 241 232 152 241 232 152 241 232 152 241 232 152 241 232 152 241 231 152 241 231 2 22 0 11 44 0 12 40 1 15 45 5 17 48 8 24 66 14 26 69 17 21 55 15 26 65 19 20 50 16 28 67 23 32 77 27 18 43 16 33 78 30 30 69 27 38 86 35 26 60 25 34 77 33 30 68 29 30 67 30 34 74 34 33 73 34 22 48 22 21 47 22 32 68 34 28 59 29 27 57 29 30 62 32 25 53 28 24 51 27 30 61 33 25 52 29 24 49 28 20 41 23 16 33 19 17 34 21 20 39 24 9 17 11 12 23 16 12 21 16 8 14 12 4 7 7 3 4 6 1 0 4 0 0 0 0 0 0 0 0 0 0 0 0 0 0 0 0 0 0 108 108 216 108 108 216 108 108 216 108 108 216 107 107 215 107 107 215 107 107 215 107 107 215 107 107 215 107 107 215 107 107 215 107 107 215 107 107 215
153 241 233 153 241 233 153 241 233 153 241 233 153 241 233 153 241 233 153 241 233 153 241 233 153 241 233 153 241 233 153 241 233 153 241 233 153 241 233 153 241 233 7 35 0 9 36 0 10 32 1 15 48 4 22 63 9 20 57 10 19 51 11 22 58 14 20 51 14 20 50 15 23 57 18 17 42 14 26 62 22 26 61 23 17 40 16 20 45 19 16 37 16 16 36 16 24 52 24 15 33 16 22 48 24 19 40 21 23 47 26 11 22 13 16 33 20 17 34 22 16 31 21 12 21 15 9 16 12 9 16 14 7 11 11 4 5 6 8 10 15 3 3 8 2 0 6 1 0 8 0 0 4 0 0 3 0 0 1 0 0 0 0 0 0 0 0 0 0 0 0 0 0 0 0 0 0 0 0 0 0 0 0 109 109 219 109 109 219 109 109 219 109 109 219 109 109 219 109 109 219 109 109 219 109 109 219 109 109 219 109 109 219 109 109 219 109 109 219 109 109 219 109 109 219 109 109 219 109 109 219 0 0 0 0 0 0 0 0 0 29 77 17 37 94 27 36 89 29 39 92 33 36 84 32 46 107 43 43 98 41 44 99 43 45 99 44 50 111 51 51 111 52 46 99 48 46 99 49 47 99 50 52 109 57 41 86 46 36 74 40 51 105 58 46 93 53 51 102 59 40 80 47 50 99 59 49 97 59 44 85 53 43 83 53 47 90 59 41 79 52 41 76 52 44 82 57 30 55 39 42 76 56 41 73 55 27 49 37 30 53 42 29 50 41 32 54 45 33 56 49 25 41 38 27 43 41 25 39 40 21 31 34 19 27 32 20 27 34 16 19 29 15 17 30 13 12 27 12 7 28 9 1 24 3 0 12 2 0 15 0 0 13 0 0 7 0 0 0 0 0 0 0 0 0 0 0 0 0 0 0 0 0 0 0 0 0 0 0 0 0 0 0 0 0 0 0 0 0 0 0 0 0 0 0 0 0 0 0 0 0 0 0 0 0 0 0 0 0 0 0 0 0 0 0 0 0 0 0 0 0 0 0 0 0 0 0 0 0 0 0 0 0 0 0 0 0 0 0 0 0 0 0 0 0 0 0 0 0 0 0 0 0 0 0 0 0 0 0 0 0 0 0 0 0 0 0 0 0 0 0 0 0 0 0 0 0 0 0 0 0 0 0 0 0 0 0 0 0 0 0 0 0 0 0 0 0 0 0 0 0 0 0 0 0 0 26 72 13 26 67 18 37 92 28 40 97 33 38 91 33 40 94 36 37 85 35 43 98 41 39 88 38 40 89 40 46 101 47 52 113 53 47 102 49 53 114 56 53 114 57 43 91 46 54 113 59 43 90 47 54 111 60 54 110 60 53 109 61 48 97 55 47 96 55 42 84 49 47 93 55 41 81 49 40 80 49 50 98 60 44 86 54 43 84 53 47 91 59 42 79 52 45 85 57 39 74 51 38 71 50 37 68 49 36 65 48 35 62 47 37 65 50 32 55 44 33 57 47 31 53 45 29 48 43 24 39 37 22 35 35 18 27 29 16 22 27 17 22 31 13 14 25 9 7 21 6 0 18 3 0 15 0 0 5 0 0 2 0 0 0 153 241 233 153 241 233 153 241 233 153 241 233 153 241 232 153 241 232 153 241 232 153 241 232 153 241 232 153 241 232 153 241 232 153 241 232 153 241 232 153 241 232 153 241 232 153 241 232 153 241 232 153 241 232 153 241 232 153 241 232 153 241 232 3 19 0 12 49 0 12 39 0 14 43 4 18 53 8 15 42 8 19 51 11 20 52 13 18 46 12 18 47 13 28 71 22 32 80 26 20 48 16 30 72 26 27 64 23 31 72 27 27 63 25 27 63 25 27 62 25 23 53 22 30 68 29 23 52 22 26 58 26 16 35 16 25 54 25 24 53 25 23 51 24 22 49 24 22 46 23 15 33 17 15 31 16 16 34 18 17 36 19 12 24 13 16 33 19 16 32 19 10 19 11 10 20 13 6 12 8 6 10 8 3 5 6 0 0 2 0 0 0 0 0 0 0 0 0 0 0 0 0 0 0 0 0 0 108 108 216 108 108 216 108 108 216 108 108 216 108 108 216 108 108 216 108 108 216 108 108 216 108 108 216 108 108 216 108 108 216 108 108 216 108 108 216 108 108 216
153 242 234 153 242 234 153 242 234 153 242 234 153 242 234 153 242 234 153 242 234 153 242 234 153 242 234 153 242 234 153 242 234 153 242 234 153 242 234 153 242 234 153 242 234 9 46 0 13 52 0 12 43 0 12 38 2 13 39 4 16 46 7 21 60 11 14 40 8 20 53 12 17 45 12 25 64 18 23 57 17 17 43 14 20 48 16 19 47 17 14 34 13 19 43 17 20 47 19 13 30 13 17 38 17 18 40 19 9 20 10 14 31 16 12 24 13 11 22 13 8 17 10 13 25 16 7 12 9 7 12 10 4 6 6 3 5 6 2 2 5 2 0 6 0 0 3 0 0 1 0 0 0 0 0 0 0 0 0 0 0 0 0 0 0 0 0 0 0 0 0 0 0 0 0 0 0 0 0 0 0 0 0 110 110 220 110 110 220 110 110 220 110 110 220 110 110 220 110 110 220 110 110 220 110 110 220 110 110 220 110 110 220 110 110 220 110 110 220 110 110 220 110 110 220 110 110 220 0 0 0 0 0 0 0 0 0 0 0 0 25 72 12 34 89 22 33 85 24 28 68 22 38 91 32 39 92 34 45 104 41 37 84 34 42 95 40 47 106 47 48 106 48 48 106 49 49 106 50 44 95 46 44 94 47 44 93 48 39 82 43 44 91 49 24 49 27 48 98 55 33 67 38 37 75 44 42 83 49 32 63 38 36 70 44 44 86 54 39 75 48 38 72 48 37 70 47 36 67 47 31 58 41 34 62 45 37 66 49 35 62 48 30 53 42 32 55 46 31 51 44 20 33 30 24 39 37 15 23 24 21 31 34 17 24 29 19 25 34 13 16 25 13 13 26 9 7 21 8 2 21 5 0 18 2 0 16 0 0 10 0 0 7 0 0 2 0 0 0 0 0 0 0 0 0 0 0 0 0 0 0 0 0 0 0 0 0 0 0 0 0 0 0 0 0 0 0 0 0 0 0 0 0 0 0 0 0 0 0 0 0 0 0 0 0 0 0 0 0 0 0 0 0 0 0 0 0 0 0 0 0 0 0 0 0 0 0 0 0 0 0 0 0 0 0 0 0 0 0 0 0 0 0 0 0 0 0 0 0 0 0 0 0 0 0 0 0 0 0 0 0 0 0 0 0 0 0 0 0 0 0 0 0 0 0 0 0 0 0 0 0 0 0 0 0 0 0 0 0 0 0 0 0 0 0 0 0 0 0 0 0 0 0 0 0 0 21 66 7 26 71 15 27 69 19 29 74 23 32 77 26 42 100 36 44 102 39 41 94 37 42 95 39 38 86 36 48 108 47 49 109 49 45 98 45 50 109 52 35 76 37 46 98 48 46 98 49 51 108 55 46 96 50 51 106 56 40 84 45 50 104 57 50 102 57 50 101 57 49 99 57 48 97 57 43 86 51 33 65 39 46 91 56 36 71 44 44 86 55 35 67 43 42 81 53 41 78 52 40 75 51 35 64 45 30 54 39 36 65 48 34 61 46 32 57 45 27 48 38 29 49 41 24 40 35 24 39 37 15 24 24 20 29 32 15 21 26 14 17 26 10 9 21 8 3 19 4 0 15 0 0 7 0 0 5 0 0 0 0 0 0 153 242 233 153 242 233 153 242 233 153 242 233 153 242 233 153 241 233 153 241 233 153 241 233 153 241 233 153 241 233 153 241 233 153 241 233 153 241 233 153 241 233 153 241 233 153 241 233 153 241 233 153 241 233 153 241 233 153 241 233 153 241 233 0 15 0 5 31 0 10 43 0 9 32 0 11 35 2 18 56 6 20 59 9 19 54 10 18 49 10 21 57 13 19 51 13 23 59 16 23 59 17 24 59 18 21 52 16 15 37 12 24 58 20 24 58 21 27 64 24 24 56 21 27 62 24 26 61 24 23 53 21 14 32 13 19 43 18 21 48 20 20 46 20 24 55 24 14 31 14 13 29 13 14 32 15 13 29 14 12 27 13 13 28 13 11 24 12 11 23 12 7 15 7 4 10 5 4 8 5 1 3 2 0 0 0 0 0 0 0 0 0 0 0 0 0 0 0 0 0 0 0 0 0 0 0 0 108 108 217 108 108 217 108 108 217 108 108 217 108 108 217 108 108 217 108 108 217 108 108 217 108 108 217 108 108 217 108 108 217 108 108 217 108 108 217 108 108 217
154 242 234 154 242 234 154 242 234 154 242 234 154 242 234 154 242 234 154 242 234 154 242 234 154 242 234 154 242 234 154 242 234 44 132 14 44 132 14 44 132 14 44 132 14 2 24 0 6 34 0 10 42 0 10 39 0 12 40 0 11 35 2 11 35 3 14 42 5 12 35 5 12 35 6 12 35 7 12 34 8 21 56 14 14 38 10 21 52 15 14 35 11 14 34 11 11 27 9 5 13 4 14 33 12 10 23 9 12 28 12 13 29 13 8 17 8 8 18 9 9 20 11 7 15 8 7 13 8 4 7 6 3 5 5 1 1 3 0 0 1 0 0 1 0 0 0 0 0 0 0 0 0 0 0 0 0 0 0 0 0 0 0 0 0 0 0 0 0 0 0 0 0 0 0 0 0 0 0 0 110 110 220 110 110 220 110 110 220 110 110 220 110 110 220 110 110 220 110 110 220 110 110 220 110 110 220 110 110 220 110 110 220 110 110 220 110 110 220 110 110 220 110 110 220 110 110 220 0 0 0 0 0 0 44 132 14 44 132 14 24 73 7 24 66 13 30 80 20 33 84 24 35 86 27 32 78 27 29 69 25 34 80 30 35 81 32 44 102 42 36 81 35 41 91 40 37 81 37 46 100 47 41 90 43 46 99 49 46 98 49 41 87 45 41 85 45 36 75 40 40 82 45 44 90 50 39 79 45 43 86 50 38 75 45 37 73 45 32 63 39 35 68 44 38 73 48 34 63 43 33 61 42 28 51 37 27 49 36 32 58 44 28 49 38 26 45 37 25 42 36 23 38 35 22 35 33 22 34 35 16 24 26 13 17 22 11 14 20 9 10 19 9 8 19 7 3 17 5 0 16 2 0 14 0 0 9 0 0 6 0 0 2 0 0 0 0 0 0 0 0 0 0 0 0 0 0 0 0 0 0 0 0 0 0 0 0 0 0 0 0 0 0 0 0 0 0 0 0 0 0 0 0 0 0 0 0 0 0 0 0 0 0 0 0 0 0 0 0 0 0 0 0 0 0 0 0 0 0 0 0 0 0 0 0 0 0 0 0 0 0 0 0 0 0 0 0 0 0 0 0 0 0 0 0 0 0 0 0 0 0 0 0 0 0 0 0 0 0 0 0 0 0 0 0 0 0 0 0 0 0 0 0 0 0 0 0 0 0 0 0 0 0 0 0 0 0 0 0 0 0 0 0 0 0 0 0 0 0 0 0 0 0 0 0 0 13 45 0 25 73 11 27 73 16 34 87 23 25 64 19 39 94 31 36 87 31 42 99 37 39 91 35 44 102 41 45 103 43 41 94 40 42 94 41 38 84 38 38 84 38 43 94 44 43 93 45 38 83 40 43 92 46 48 102 52 33 70 36 43 89 47 33 68 37 37 77 42 41 85 47 36 74 42 31 63 36 40 80 46 39 78 46 38 76 46 37 73 45 41 79 49 35 69 44 38 73 48 37 70 47 28 54 36 31 57 40 26 48 34 28 51 37 23 42 32 22 39 31 23 40 33 24 39 35 21 35 32 17 27 27 15 22 25 12 17 22 9 10 17 6 4 15 4 0 15 1 0 10 0 0 5 0 0 0 0 0 0 0 0 0 154 242 234 154 242 234 154 242 234 154 242 234 154 242 234 154 242 234 154 242 234 153 242 234 153 242 234 153 242 234 153 242 234 153 242 234 153 242 234 153 242 234 153 242 234 153 242 234 153 242 234 153 242 234 153 242 234 153 242 234 153 242 234 153 242 234 0 20 0 5 31 0 7 32 0 9 35 0 14 49 0 12 40 2 12 36 3 13 37 5 13 38 6 16 46 9 19 53 11 17 47 11 15 40 10 18 47 12 16 40 11 21 53 15 24 59 18 18 45 14 15 38 12 20 50 17 15 37 12 20 48 17 22 52 19 21 50 18 18 43 16 15 36 13 18 44 17 11 27 10 14 34 13 8 19 7 15 36 14 7 16 6 6 14 5 4 9 3 6 15 6 4 10 3 2 6 2 0 2 0 0 0 0 0 0 0 0 0 0 0 0 0 0 0 0 0 0 0 0 0 0 0 0 0 0 0 0 0 0 0 0 0 0 0 0 0 0 0 0 0 0 0 0 0 0 109 109 218 109 109 218 109 109 218 109 109 218 109 109 218 109 109 218 109 109 218 109 109 218
154 242 235 154 242 235 154 242 235 154 242 235 154 242 235 154 242 235 154 242 235 154 242 235 154 242 235 44 132 14 44 132 14 44 132 14 44 132 14 44 132 14 44 132 14 44 132 14 2 27 0 6 35 0 5 24 0 8 35 0 8 31 0 7 26 0 14 47 1 13 42 2 6 21 2 15 46 5 10 30 4 15 44 7 10 28 5 10 27 5 14 40 9 12 33 8 13 36 9 13 33 9 9 24 7 10 25 7 9 23 7 6 15 5 6 16 5 5 13 5 4 11 4 3 8 3 1 4 1 1 3 2 0 0 0 0 0 0 0 0 0 0 0 0 0 0 0 0 0 0 0 0 0 0 0 0 0 0 0 0 0 0 0 0 0 0 0 0 0 0 0 0 0 0 0 0 0 0 0 0 110 110 221 110 110 221 110 110 221 110 110 221 110 110 221 110 110 221 110 110 221 110 110 221 110 110 221 110 110 221 110 110 221 154 243 236 154 243 236 154 243 236 154 243 236 154 243 236 44 132 14 44 132 14 44 132 14 44 132 14 11 39 0 26 77 11 27 75 15 26 70 17 35 91 25 33 83 26 27 66 22 28 67 23 41 96 35 29 68 26 29 68 27 30 68 28 34 77 33 34 76 34 43 95 43 26 56 26 43 93 45 38 82 40 38 81 41 38 80 41 37 78 41 33 68 37 40 83 46 32 65 36 31 63 36 38 76 45 37 74 45 33 64 40 28 55 35 31 59 39 26 50 34 29 54 37 28 51 36 29 53 39 17 30 23 24 41 33 25 42 35 21 34 30 17 27 26 15 24 24 17 25 29 12 16 21 10 12 19 9 9 20 6 4 15 5 0 15 2 0 11 0 0 7 0 0 6 0 0 1 0 0 0 0 0 0 0 0 0 0 0 0 0 0 0 0 0 0 0 0 0 0 0 0 0 0 0 0 0 0 0 0 0 0 0 0 0 0 0 0 0 0 0 0 0 0 0 0 0 0 0 0 0 0 0 0 0 0 0 0 0 0 0 0 0 0 0 0 0 0 0 0 0 0 0 0 0 0 0 0 0 0 0 0 0 0 0 0 0 0 0 0 0 0 0 0 0 0 0 0 0 0 0 0 0 0 0 0 0 0 0 0 0 0 0 0 0 0 0 0 0 0 0 0 0 0 0 0 0 0 0 0 0 0 0 0 0 0 0 0 0 0 0 0 0 0 0 0 0 0 0 0 0 0 0 0 7 38 0 15 46 4 21 60 10 27 73 16 26 68 18 35 89 26 30 73 23 31 75 25 36 86 31 37 88 33 38 88 34 43 99 40 39 90 37 40 90 38 45 100 43 45 100 44 36 79 36 36 79 37 40 88 42 31 68 33 36 77 38 44 95 48 44 93 48 44 92 48 43 90 48 38 79 43 38 78 43 37 76 42 28 57 33 36 72 42 31 62 36 26 52 31 25 50 31 28 55 34 31 59 38 29 56 37 25 47 32 27 50 35 22 41 30 26 48 35 25 44 34 16 27 22 16 28 24 16 27 25 13 20 20 11 15 18 10 12 18 7 6 15 5 1 13 1 0 10 0 0 4 0 0 0 0 0 0 0 0 0 0 0 0 154 242 235 154 242 235 154 242 235 154 242 235 154 242 235 154 242 235 154 242 235 154 242 235 154 242 235 154 242 235 154 242 235 154 242 234 154 242 234 154 242 234 154 242 234 154 242 234 154 242 234 154 242 234 154 242 234 154 242 234 154 242 234 154 242 234 0 9 0 0 25 0 3 21 0 5 25 0 10 42 0 9 35 0 7 26 0 13 44 1 7 23 1 7 23 2 16 47 6 14 42 6 17 48 8 15 42 8 13 36 7 15 42 9 13 35 8 13 35 9 20 52 13 8 22 6 17 44 12 16 42 12 16 41 12 7 19 5 17 42 12 12 31 9 17 42 13 14 35 10 14 36 11 10 26 7 10 26 7 6 15 4 6 17 4 4 12 2 3 11 1 0 3 0 0 1 0 0 0 0 0 0 0 0 0 0 0 0 0 0 0 0 0 0 0 0 0 0 0 0 0 0 0 0 0 0 0 0 0 0 0 0 0 0 0 0 0 0 0 0 0 0 0 0 0 0 0 0 0 0 0 0 0 0 109 109 218 109 109 218 109 109 218 109 109 218 109 109 218
154 243 236 154 243 236 154 243 236 154 243 236 154 243 236 154 243 236 154 243 236 154 243 236 154 243 236 44 132 14 44 132 14 44 132 14 44 132 14 44 132 14 44 132 14 44 132 14 0 17 0 1 28 0 4 31 0 4 25 0 7 35 0 7 31 0 7 27 0 7 27 0 9 31 0 13 44 0 6 21 0 7 25 1 7 24 1 9 27 2 7 22 2 9 28 3 5 16 2 7 21 2 8 25 3 7 20 2 5 16 2 4 13 1 2 8 0 3 12 0 2 8 0 1 4 0 0 1 0 0 0 0 0 0 0 0 0 0 0 0 0 0 0 0 0 0 0 0 0 0 0 0 0 0 0 0 0 0 0 0 0 0 0 0 0 0 0 0 0 0 0 0 0 0 0 0 0 111 111 222 111 111 222 155 243 236 155 243 236 155 243 236 155 243 236 155 243 236 155 243 236 155 243 236 155 243 236 155 243 236 155 243 236 155 243 236 155 243 236 155 243 236 155 243 236 155 243 236 155 243 236 155 243 236 44 132 14 44 132 14 13 54 0 13 42 2 21 62 9 21 57 11 29 76 18 30 79 21 35 89 26 33 81 26 30 73 24 38 92 32 35 83 30 27 64 25 32 73 29 28 63 26 36 81 35 28 62 27 28 62 28 40 87 40 23 51 24 39 84 41 31 66 33 34 72 37 30 63 33 29 61 33 29 59 33 28 57 32 31 62 36 30 60 36 29 57 35 22 43 27 21 40 26 17 33 22 25 46 32 18 34 24 22 40 30 16 29 22 17 30 24 20 33 29 11 17 16 14 22 23 11 16 19 10 12 17 8 8 15 7 5 15 4 0 13 2 0 9 0 0 6 0 0 5 0 0 1 0 0 0 0 0 0 0 0 0 0 0 0 0 0 0 0 0 0 0 0 0 0 0 0 0 0 0 0 0 0 0 0 0 0 0 0 0 0 0 0 0 0 0 0 0 0 0 0 0 0 0 0 0 0 0 0 0 0 0 0 0 0 0 0 0 0 0 0 0 0 0 0 0 0 0 0 0 0 0 0 0 0 0 0 0 0 0 0 0 0 0 0 0 0 0 0 0 0 0 0 0 0 0 0 0 0 0 0 0 0 0 0 0 0 0 0 0 0 0 0 0 0 0 0 0 0 0 0 0 0 0 0 0 0 0 0 0 0 0 0 0 0 0 0 0 0 0 0 0 0 110 110 221 110 110 221 110 110 221 110 110 221 13 46 0 16 48 5 26 75 13 23 64 14 22 58 14 27 69 19 28 71 21 29 72 23 38 92 31 35 84 30 40 94 35 40 95 36 41 95 38 37 85 35 42 95 40 38 85 36 42 94 41 33 74 33 25 55 25 33 73 34 37 81 39 29 62 30 37 78 39 36 77 39 28 58 30 27 57 30 34 71 38 34 69 38 33 67 37 32 65 37 35 70 40 30 60 35 29 57 35 28 55 34 24 46 29 28 54 35 24 45 30 20 37 26 21 39 28 17 31 23 20 34 27 16 27 23 12 20 18 6 10 10 8 11 14 7 7 14 3 1 8 1 0 8 0 0 4 0 0 0 0 0 0 0 0 0 0 0 0 154 243 235 154 243 235 154 243 235 154 243 235 154 243 235 154 243 235 154 243 235 154 243 235 154 243 235 154 242 235 154 242 235 154 242 235 154 242 235 154 242 235 154 242 235 154 242 235 154 242 235 154 242 235 154 242 235 154 242 235 154 242 235 154 242 235 154 242 235 154 242 235 0 11 0 0 22 0 2 22 0 3 22 0 6 29 0 4 18 0 9 38 0 12 44 0 10 35 0 8 26 0 13 42 2 10 32 2 8 26 2 16 48 6 14 42 6 16 47 7 7 20 3 14 40 7 10 29 5 10 29 5 10 28 5 14 40 8 12 34 7 7 20 4 8 22 4 7 21 4 8 22 4 7 20 3 7 20 3 6 18 1 4 15 0 3 13 0 1 5 0 0 3 0 0 0 0 0 0 0 0 0 0 0 0 0 0 0 0 0 0 0 0 0 0 0 0 0 0 0 0 0 0 0 0 0 0 0 0 0 0 0 0 0 0 0 0 0 0 0 0 0 0 0 0 0 0 0 0 0 0 0 0 0 0 0 0 109 109 219 109 109 219 109 109 219 109 109 219 109 109 219
155 243 236 155 243 236 155 243 236 155 243 236 155 243 236 155 243 236 155 243 236 155 243 236 155 243 236 155 243 236 155 243 236 155 243 237 155 243 237 44 132 14 44 132 14 44 132 14 44 132 14 0 13 0 0 17 0 1 23 0 2 21 0 4 26 0 4 22 0 4 23 0 5 26 0 7 33 0 6 25 0 7 28 0 4 17 0 6 26 0 4 15 0 5 20 0 6 24 0 3 12 0 3 13 0 4 17 0 2 9 0 1 5 0 1 7 0 0 1 0 0 1 0 0 0 0 0 0 0 0 0 0 0 0 0 0 0 0 0 0 0 0 0 0 0 0 0 0 0 0 0 0 0 0 0 0 0 0 0 0 0 0 0 0 0 0 0 0 0 0 0 0 0 0 155 243 237 155 243 237 155 243 237 155 243 237 155 243 237 155 243 237 155 243 237 155 243 237 155 243 237 155 243 237 155 243 237 155 243 237 155 243 237 155 243 237 155 243 237 155 243 237 155 243 237 155 243 237 155 243 237 155 243 237 155 243 237 155 243 237 155 243 237 12 44 0 18 56 4 23 68 9 28 79 15 21 57 12 32 84 21 26 68 19 31 77 23 28 69 22 25 60 20 29 69 24 25 60 22 33 77 29 33 77 30 33 76 31 33 75 31 33 74 32 29 64 29 32 71 33 32 69 33 17 37 18 27 59 29 27 57 29 30 62 32 29 60 32 28 58 32 27 56 31 23 47 27 20 39 23 24 48 29 23 45 29 19 37 25 18 35 24 22 40 29 12 21 16 18 32 26 17 28 24 13 22 20 10 16 17 9 12 15 8 9 15 5 4 12 4 0 11 1 0 6 0 0 6 0 0 2 0 0 0 0 0 0 0 0 0 0 0 0 0 0 0 0 0 0 0 0 0 0 0 0 0 0 0 0 0 0 0 0 0 0 0 0 0 0 0 0 0 0 0 0 0 0 0 0 0 0 0 0 0 0 0 0 0 0 0 0 0 0 0 0 0 0 0 0 0 0 0 0 0 0 0 0 0 0 0 0 0 0 0 0 0 0 0 0 0 0 0 0 0 0 0 0 0 0 0 0 0 0 0 0 0 0 0 0 0 0 0 0 0 0 0 0 0 0 0 0 0 0 0 0 0 0 0 0 0 0 0 0 0 0 0 0 0 0 0 0 0 0 0 0 111 111 222 111 111 222 111 111 222 111 111 222 111 111 222 111 111 222 111 111 222 111 111 222 9 39 0 12 43 0 22 68 7 26 74 12 20 54 11 21 56 13 25 67 17 27 68 19 24 61 18 32 79 25 29 71 24 30 71 25 22 54 19 27 63 24 35 81 31 31 71 29 35 80 33 35 79 33 39 87 38 31 69 30 38 85 38 30 67 31 26 57 27 30 64 31 25 55 27 21 46 23 24 52 26 34 72 37 30 63 33 32 67 36 31 65 36 21 43 24 17 35 20 22 45 26 21 42 25 20 39 24 19 36 23 17 33 22 14 26 18 13 23 17 16 29 22 13 22 18 7 12 11 7 10 11 5 7 10 4 3 9 1 0 6 0 0 3 0 0 0 0 0 0 0 0 0 0 0 0 0 0 0 155 243 236 155 243 236 155 243 236 155 243 236 155 243 236 155 243 236 155 243 236 154 243 236 154 243 236 154 243 236 154 243 236 154 243 236 154 243 236 154 243 236 154 243 236 154 243 236 154 243 236 154 243 236 154 243 236 154 243 236 154 243 236 154 243 236 154 243 236 154 243 236 0 0 0 0 10 0 0 17 0 0 19 0 2 26 0 3 21 0 5 27 0 3 16 0 8 34 0 5 22 0 8 31 0 6 23 0 6 23 0 11 37 0 7 23 0 11 36 1 7 22 1 11 35 2 9 29 2 10 32 2 8 27 2 8 26 2 4 14 1 6 20 1 4 15 0 5 16 0 5 17 0 4 15 0 3 13 0 2 10 0 1 10 0 0 2 0 0 2 0 0 0 0 0 0 0 0 0 0 0 0 0 0 0 0 0 0 0 0 0 0 0 0 0 0 0 0 0 0 0 0 0 0 0 0 0 0 0 0 0 0 0 0 0 0 0 0 0 0 0 0 0 0 0 0 0 0 0 0 0 110 110 220 110 110 220 110 110 220 110 110 220 110 110 220 154 242 234 154 242 234
155 243 237 155 243 237 155 243 237 155 243 237 155 243 237 155 243 237 155 243 237 155 243 237 155 243 237 155 243 237 155 243 237 155 243 237 155 243 237 155 243 237 155 243 237 155 243 237 155 243 237 155 243 237 0 16 0 0 14 0 0 8 0 0 14 0 1 23 0 2 24 0 2 24 0 2 21 0 3 23 0 2 17 0 3 24 0 2 12 0 2 19 0 1 13 0 2 15 0 1 8 0 0 11 0 0 8 0 0 6 0 0 4 0 0 1 0 0 0 0 0 0 0 0 0 0 0 0 0 0 0 0 0 0 0 0 0 0 0 0 0 0 0 0 0 0 0 0 0 0 0 0 0 0 0 0 0 0 0 0 0 0 0 0 0 0 0 0 0 0 0 0 0 0 155 244 238 155 244 238 155 244 238 155 244 238 155 244 238 155 244 238 155 244 238 155 244 238 155 244 238 155 244 238 155 244 238 155 244 238 155 244 238 155 244 238 155 244 238 155 244 238 155 244 238 155 244 238 155 244 238 155 244 238 155 244 238 155 244 238 155 244 238 7 32 0 14 51 0 22 69 5 22 66 8 24 68 11 17 47 9 15 39 9 28 72 18 25 65 18 29 73 21 26 65 20 30 73 24 30 72 25 30 72 26 23 55 20 27 62 24 20 46 18 30 68 28 26 59 25 26 58 25 32 70 32 28 62 28 18 40 19 27 58 28 29 62 31 25 53 27 22 45 24 21 43 23 20 41 23 19 38 22 16 31 19 19 37 23 18 34 22 15 28 19 15 28 20 10 19 15 9 16 13 8 13 12 9 13 14 4 6 8 4 3 8 3 0 9 0 0 4 0 0 4 0 0 1 0 0 0 0 0 0 0 0 0 0 0 0 0 0 0 0 0 0 0 0 0 0 0 0 0 0 0 0 0 0 0 0 0 0 0 0 0 0 0 0 0 0 0 0 0 0 0 0 0 0 0 0 0 0 0 0 0 0 0 0 0 0 0 0 0 0 0 0 0 0 0 0 0 0 0 0 0 0 0 0 0 0 0 0 0 0 0 0 0 0 0 0 0 0 0 0 0 0 0 0 0 0 0 0 0 0 0 0 0 0 0 0 0 0 0 0 0 0 0 0 0 0 0 0 0 0 0 0 0 0 0 0 111 111 223 111 111 223 111 111 223 111 111 223 111 111 223 111 111 223 111 111 223 111 111 223 111 111 223 111 111 223 111 111 223 111 111 223 155 244 237 1 14 0 12 48 0 11 37 0 13 40 3 19 57 8 21 60 11 20 54 11 21 56 13 22 57 15 22 58 16 30 75 22 30 75 24 34 84 28 28 67 23 28 67 24 32 75 28 25 58 22 32 74 29 21 49 19 32 73 30 28 64 27 31 70 30 24 54 23 20 45 20 33 73 34 23 50 23 29 62 30 25 54 26 24 52 26 23 50 25 25 54 28 19 40 21 21 43 23 20 40 22 16 33 19 22 44 26 12 24 14 15 29 18 17 33 21 13 25 17 9 17 12 10 17 14 8 13 12 6 9 11 3 3 6 0 0 3 0 0 1 0 0 0 0 0 0 0 0 0 0 0 0 0 0 0 0 0 0 155 243 237 155 243 237 155 243 237 155 243 237 155 243 237 155 243 237 155 243 237 155 243 237 155 243 236 155 243 236 155 243 236 155 243 236 155 243 236 155 243 236 155 243 236 155 243 236 155 243 236 155 243 236 155 243 236 155 243 236 155 243 236 155 243 236 155 243 236 155 243 236 155 243 236 0 0 0 0 3 0 0 11 0 0 13 0 0 16 0 1 24 0 2 22 0 3 24 0 3 21 0 3 18 0 3 15 0 4 19 0 4 19 0 5 23 0 5 22 0 7 29 0 6 25 0 6 24 0 5 20 0 4 19 0 6 24 0 6 28 0 4 20 0 4 18 0 2 12 0 2 14 0 0 8 0 0 7 0 0 6 0 0 2 0 0 0 0 0 0 0 0 0 0 0 0 0 0 0 0 0 0 0 0 0 0 0 0 0 0 0 0 0 0 0 0 0 0 44 132 14 44 132 14 44 132 14 154 243 235 154 243 235 154 243 235 154 242 235 154 242 235 154 242 235 154 242 235 154 242 235 154 242 235 154 242 235 154 242 235 154 242 235 154 242 235 154 242 235 154 242 235
155 244 238 155 244 238 155 244 238 155 244 238 155 244 238 155 244 238 155 244 238 155 244 238 155 244 238 155 244 238 155 244 238 155 244 238 155 244 238 155 244 238 155 244 238 155 244 238 155 244 238 155 244 238 0 0 0 0 8 0 0 11 0 0 9 0 0 10 0 0 13 0 0 17 0 0 15 0 0 12 0 0 10 0 0 13 0 0 10 0 0 11 0 0 5 0 0 7 0 0 6 0 0 5 0 0 3 0 0 1 0 0 0 0 0 0 0 0 0 0 0 0 0 0 0 0 0 0 0 0 0 0 0 0 0 0 0 0 0 0 0 0 0 0 0 0 0 0 0 0 0 0 0 0 0 0 0 0 0 0 0 0 0 0 0 0 0 0 0 0 0 156 244 238 156 244 238 156 244 238 156 244 238 156 244 238 156 244 238 156 244 238 156 244 238 156 244 238 156 244 238 156 244 238 156 244 238 156 244 238 156 244 238 156 244 238 156 244 238 156 244 238 156 244 238 156 244 238 156 244 238 156 244 238 156 244 238 156 244 238 156 244 238 3 29 0 6 28 0 7 25 0 14 46 2 18 56 5 22 65 9 21 59 10 22 60 12 17 45 10 26 68 17 23 61 16 27 68 19 27 68 20 27 67 21 27 66 22 24 58 20 15 35 13 24 56 21 20 48 18 29 67 27 23 52 21 14 31 13 22 49 21 24 53 24 26 57 26 12 27 13 19 41 20 20 44 22 17 37 19 16 34 18 13 28 15 18 36 21 13 26 16 15 29 19 8 15 10 11 19 14 9 16 13 3 5 5 4 6 7 3 3 7 2 0 6 0 0 3 0 0 1 0 0 0 0 0 0 0 0 0 0 0 0 0 0 0 0 0 0 0 0 0 0 0 0 0 0 0 0 0 0 0 0 0 0 0 0 0 0 0 0 0 0 0 0 0 0 0 0 0 0 0 0 0 0 0 0 0 0 0 0 0 0 0 0 0 0 0 0 0 0 0 0 0 0 0 0 0 0 0 0 0 0 0 0 0 0 0 0 0 0 0 0 0 0 0 0 0 0 0 0 0 0 0 0 0 0 0 0 0 0 0 0 0 0 156 244 238 156 244 238 156 244 238 156 244 238 156 244 238 156 244 238 156 244 238 156 244 238 156 244 238 156 244 238 156 244 238 156 244 238 156 244 238 156 244 238 156 244 238 156 244 238 156 244 238 156 244 238 156 244 238 156 244 238 156 244 238 155 244 238 6 35 0 9 37 0 14 48 0 12 39 2 16 48 5 20 57 8 21 59 11 28 75 16 29 77 18 21 54 14 15 39 10 28 71 20 19 47 14 29 71 22 22 55 18 19 47 16 16 38 13 32 77 28 29 68 25 22 52 20 22 51 20 22 50 20 27 63 26 27 61 26 23 53 23 23 51 22 25 56 25 27 60 27 21 46 21 20 43 21 17 36 17 20 44 22 19 41 21 18 38 20 17 35 19 15 31 17 11 22 12 12 24 14 8 16 10 7 13 8 7 14 10 3 6 5 3 3 5 0 0 2 0 0 0 0 0 0 0 0 0 0 0 0 0 0 0 0 0 0 0 0 0 155 244 237 155 244 237 155 243 237 155 243 237 155 243 237 155 243 237 155 243 237 155 243 237 155 243 237 155 243 237 155 243 237 155 243 237 155 243 237 155 243 237 155 243 237 155 243 237 155 243 237 155 243 237 155 243 237 155 243 237 155 243 237 155 243 237 155 243 237 155 243 237 155 243 237 155 243 237 155 243 237 0 0 0 0 1 0 0 8 0 0 13 0 0 8 0 0 18 0 0 15 0 0 13 0 1 20 0 2 23 0 2 21 0 2 15 0 1 9 0 2 17 0 2 14 0 2 14 0 2 13 0 2 18 0 2 17 0 2 17 0 1 12 0 1 12 0 0 12 0 0 6 0 0 7 0 0 4 0 0 2 0 0 0 0 0 0 0 0 0 0 0 0 0 0 0 0 0 0 0 0 0 0 0 0 0 0 0 0 0 0 0 0 0 0 0 0 0 155 243 236 155 243 236 155 243 236 155 243 236 155 243 236 154 243 236 154 243 236 154 243 236 154 243 236 154 243 236 154 243 236 154 243 236 154 243 236 154 243 236 154 243 236 154 243 236 154 243 236 154 243 236 154 243 236
156 244 238 156 244 238 156 244 238 156 244 238 156 244 238 156 244 238 156 244 238 156 244 238 156 244 238 156 244 238 156 244 238 156 244 238 156 244 238 156 244 238 156 244 238 156 244 238 156 244 238 156 244 238 156 244 238 0 0 0 0 2 0 0 4 0 0 3 0 0 10 0 0 4 0 0 4 0 0 9 0 0 4 0 0 10 0 0 4 0 0 3 0 0 4 0 0 1 0 0 0 0 0 0 0 0 0 0 0 0 0 0 0 0 0 0 0 0 0 0 0 0 0 0 0 0 0 0 0 0 0 0 0 0 0 0 0 0 0 0 0 0 0 0 0 0 0 0 0 0 0 0 0 0 0 0 0 0 0 0 0 0 0 0 0 0 0 0 156 244 239 156 244 239 156 244 239 156 244 239 156 244 239 156 244 239 156 244 239 156 244 239 156 244 239 156 244 239 156 244 239 156 244 239 156 244 239 156 244 239 156 244 239 112 112 224 112 112 224 112 112 224 112 112 224 112 112 224 112 112 224 112 112 224 112 112 224 112 112 224 112 112 224 112 112 224 4 28 0 12 49 0 13 48 0 11 38 0 14 46 3 18 54 5 19 55 7 14 41 7 17 49 9 23 63 13 21 56 13 26 70 17 16 41 11 24 61 17 21 54 16 21 53 16 13 32 10 23 57 19 26 62 22 25 60 22 17 40 15 19 45 17 18 43 17 18 41 17 19 44 18 14 32 14 15 35 15 13 28 13 12 26 12 8 17 8 10 22 11 6 14 7 8 17 9 8 16 10 6 11 7 5 10 7 3 5 5 2 3 4 0 0 3 0 0 1 0 0 0 0 0 0 0 0 0 0 0 0 0 0 0 0 0 0 0 0 0 0 0 0 0 0 0 0 0 0 44 132 14 44 132 14 44 132 14 44 132 14 44 132 14 44 132 14 44 132 14 44 132 14 44 132 14 44 132 14 44 132 14 44 132 14 44 132 14 44 132 14 44 132 14 44 132 14 44 132 14 44 132 14 44 132 14 156 244 239 156 244 239 156 244 239 156 244 239 156 244 239 156 244 239 156 244 239 156 244 239 156 244 239 156 244 239 156 244 239 156 244 239 156 244 239 156 244 239 156 244 239 156 244 239 156 244 239 156 244 239 156 244 239 156 244 239 156 244 239 156 244 239 156 244 239 156 244 239 156 244 239 156 244 239 156 244 239 156 244 239 156 244 239 156 244 238 156 244 238 156 244 238 156 244 238 0 22 0 6 31 0 6 26 0 13 46 0 15 49 1 14 45 3 18 54 6 24 69 10 15 42 7 18 50 10 24 65 14 27 73 17 25 66 17 20 51 14 23 58 16 23 58 17 20 50 15 26 64 20 20 49 16 25 62 21 19 47 16 19 46 16 16 38 14 27 63 24 21 49 19 15 35 14 17 39 16 21 49 20 20 46 19 17 39 17 18 41 18 15 34 15 14 32 14 11 26 12 10 23 11 12 26 13 8 18 9 8 17 9 5 10 5 5 10 6 3 6 4 1 2 2 0 0 0 0 0 0 0 0 0 0 0 0 0 0 0 0 0 0 0 0 0 0 0 0 0 0 0 155 244 238 155 244 238 155 244 238 155 244 238 155 244 238 155 244 238 155 244 238 155 244 238 155 244 238 155 244 238 155 244 238 155 244 238 155 244 238 155 244 238 155 244 238 155 244 238 155 244 238 155 244 238 155 244 238 155 244 238 155 244 238 155 244 237 155 244 237 155 244 237 155 244 237 155 244 237 155 244 237 155 244 237 0 0 0 0 0 0 0 3 0 0 5 0 0 6 0 0 11 0 0 12 0 0 13 0 0 8 0 0 12 0 0 10 0 0 13 0 0 14 0 0 14 0 0 12 0 0 13 0 0 12 0 0 9 0 0 9 0 0 6 0 0 7 0 0 4 0 0 3 0 0 0 0 0 0 0 0 0 0 0 0 0 0 0 0 0 0 0 0 0 0 0 0 0 0 0 0 0 0 0 0 0 0 0 0 0 0 0 0 0 0 0 111 111 222 111 111 222 111 111 222 111 111 222 111 111 222 111 111 222 111 111 222 111 111 222 111 111 222 111 111 222 111 111 222 111 111 222 111 111 222 111 111 222 111 111 222 111 111 222 111 111 222 155 243 236 155 243 236 155 243 236
156 244 239 156 244 239 156 244 239 156 244 239 156 244 239 156 244 239 156 244 239 156 244 239 156 244 239 156 244 239 156 244 239 156 244 239 156 244 239 156 244 239 156 244 239 156 244 239 156 244 239 156 244 239 156 244 239 156 244 239 0 0 0 0 0 0 0 0 0 0 1 0 0 1 0 0 1 0 0 4 0 0 1 0 0 2 0 0 0 0 0 0 0 0 0 0 0 0 0 0 0 0 0 0 0 0 0 0 0 0 0 0 0 0 0 0 0 0 0 0 0 0 0 0 0 0 0 0 0 0 0 0 0 0 0 0 0 0 0 0 0 0 0 0 0 0 0 0 0 0 0 0 0 0 0 0 0 0 0 0 0 0 0 0 0 156 245 239 156 245 239 156 245 239 112 112 225 112 112 225 112 112 225 112 112 225 112 112 225 112 112 225 112 112 225 112 112 225 112 112 225 112 112 225 112 112 225 112 112 225 112 112 225 112 112 225 112 112 225 112 112 225 112 112 225 112 112 225 112 112 225 112 112 225 112 112 225 112 112 225 112 112 225 112 112 225 0 20 0 7 41 0 3 15 0 10 39 0 13 47 0 14 49 1 19 62 4 14 44 4 6 19 2 15 45 6 13 38 6 13 38 7 14 38 8 18 50 11 16 43 10 16 42 11 18 47 12 11 29 8 15 39 11 22 54 16 12 31 10 18 45 15 10 24 8 17 41 14 14 35 12 17 41 15 8 19 7 10 24 9 12 29 11 10 23 9 9 20 8 7 15 7 5 11 5 7 15 7 4 8 4 2 5 3 1 2 2 0 0 0 0 0 0 0 0 0 0 0 0 0 0 0 0 0 0 0 0 0 0 0 0 0 0 0 0 0 0 0 0 0 0 0 0 0 0 0 156 245 239 156 245 239 156 245 239 156 245 239 156 245 239 156 245 239 156 245 239 156 245 239 156 245 239 156 245 239 156 245 239 156 245 239 156 245 239 156 245 239 156 245 239 156 245 239 156 245 239 156 245 239 156 245 239 156 245 239 156 245 239 156 245 239 156 245 239 156 245 239 156 245 239 156 245 239 156 245 239 156 245 239 156 244 239 156 244 239 156 244 239 156 244 239 156 244 239 156 244 239 156 244 239 156 244 239 156 244 239 156 244 239 156 244 239 156 244 239 156 244 239 156 244 239 156 244 239 156 244 239 156 244 239 156 244 239 156 244 239 156 244 239 156 244 239 156 244 239 156 244 239 156 244 239 156 244 239 2 31 0 6 35 0 8 35 0 13 49 0 15 52 0 11 36 1 14 44 3 15 45 5 20 59 8 21 60 9 16 47 8 17 47 9 17 47 10 20 54 12 23 60 14 12 33 8 20 52 14 17 45 12 20 50 14 15 37 11 14 36 11 12 29 9 23 57 18 20 50 16 17 42 14 12 30 10 18 44 15 13 32 11 13 30 11 10 24 9 11 26 10 10 24 9 12 28 10 6 13 5 6 14 5 7 18 7 5 12 4 3 9 3 2 5 1 0 2 0 0 0 0 0 0 0 0 0 0 0 0 0 0 0 0 0 0 0 0 0 0 0 0 0 0 0 0 0 0 0 156 244 238 156 244 238 156 244 238 156 244 238 156 244 238 156 244 238 156 244 238 156 244 238 156 244 238 156 244 238 156 244 238 156 244 238 156 244 238 156 244 238 156 244 238 156 244 238 156 244 238 156 244 238 156 244 238 156 244 238 156 244 238 156 244 238 156 244 238 156 244 238 156 244 238 156 244 238 156 244 238 156 244 238 156 244 238 0 0 0 0 0 0 0 0 0 0 0 0 0 3 0 0 3 0 0 4 0 0 6 0 0 8 0 0 11 0 0 7 0 0 7 0 0 10 0 0 6 0 0 8 0 0 6 0 0 5 0 0 3 0 0 2 0 0 0 0 0 0 0 0 0 0 0 0 0 0 0 0 0 0 0 0 0 0 0 0 0 0 0 0 0 0 0 0 0 0 0 0 0 0 0 0 0 0 0 0 0 0 0 0 0 111 111 223 111 111 222 111 111 222 111 111 222 111 111 222 111 111 222 111 111 222 111 111 222 111 111 222 111 111 222 111 111 222 111 111 222 111 111 222 111 111 222 111 111 222 111 111 222 111 111 222 111 111 222 111 111 222 111 111 222 111 111 222
156 245 239 156 245 239 156 245 239 156 245 239 156 245 239 156 245 239 156 245 239 156 245 239 156 245 239 156 245 239 156 245 239 156 245 240 156 245 240 156 245 240 156 245 240 156 245 240 156 245 240 156 245 240 156 245 240 156 245 240 156 245 240 0 0 0 0 0 0 0 0 0 0 0 0 0 0 0 0 0 0 0 0 0 0 0 0 0 0 0 0 0 0 0 0 0 0 0 0 0 0 0 0 0 0 0 0 0 0 0 0 0 0 0 0 0 0 0 0 0 0 0 0 0 0 0 0 0 0 0 0 0 0 0 0 0 0 0 0 0 0 0 0 0 0 0 0 0 0 0 0 0 0 0 0 0 0 0 0 0 0 0 112 112 225 112 112 225 112 112 225 112 112 225 112 112 225 112 112 225 112 112 225 112 112 225 112 112 225 112 112 225 112 112 225 112 112 225 112 112 225 112 112 225 112 112 225 112 112 225 112 112 225 112 112 225 112 112 225 112 112 225 112 112 225 112 112 225 112 112 225 112 112 225 112 112 225 112 112 225 112 112 225 112 112 225 112 112 225 1 25 0 4 30 0 7 34 0 12 52 0 7 27 0 15 56 0 11 40 0 14 46 1 11 35 2 11 35 3 13 40 4 7 23 3 13 39 6 19 56 9 11 33 6 17 48 9 17 47 10 13 35 8 12 34 8 10 28 6 10 27 6 13 34 9 12 32 8 7 19 5 8 21 6 7 19 5 11 29 8 8 21 6 6 16 4 7 18 5 3 10 2 3 7 2 2 6 1 1 4 0 0 0 0 0 0 0 0 0 0 0 0 0 0 0 0 0 0 0 0 0 0 0 0 0 0 0 0 0 0 0 0 0 0 0 0 0 0 0 0 0 0 0 157 245 240 157 245 240 157 245 240 157 245 240 157 245 240 157 245 240 157 245 240 156 245 240 156 245 240 156 245 240 156 245 240 156 245 240 156 245 240 156 245 240 156 245 240 156 245 240 156 245 240 156 245 240 156 245 240 156 245 240 156 245 240 156 245 240 156 245 240 156 245 240 156 245 240 156 245 240 156 245 240 156 245 240 156 245 240 156 245 240 156 245 240 156 245 240 156 245 240 156 245 240 156 245 240 156 245 240 156 245 240 156 245 240 156 245 240 156 245 240 156 245 240 156 245 240 156 245 240 156 245 240 156 245 240 156 245 240 156 245 240 156 245 240 156 245 240 156 245 240 156 245 240 156 245 240 156 245 240 156 245 240 0 20 0 2 35 0 5 33 0 7 33 0 7 30 0 10 37 0 8 28 0 12 40 0 14 47 2 15 48 4 16 48 5 14 43 5 19 55 8 15 43 7 17 48 8 13 36 7 13 35 7 17 47 10 17 46 10 12 33 8 16 44 11 16 42 11 20 51 13 13 34 9 13 33 9 12 31 8 8 21 6 9 24 6 9 22 6 12 31 9 8 22 6 9 23 6 6 17 4 5 13 3 5 14 3 4 12 2 2 8 0 0 4 0 0 0 0 0 0 0 0 0 0 0 0 0 0 0 0 0 0 0 0 0 0 0 0 0 0 0 0 0 0 0 0 0 0 156 244 239 156 244 239 156 244 239 156 244 239 156 244 239 156 244 239 156 244 239 156 244 239 156 244 239 156 244 239 156 244 239 156 244 239 156 244 239 156 244 239 156 244 239 156 244 239 156 244 239 156 244 239 156 244 239 156 244 239 156 244 239 156 244 239 156 244 239 156 244 239 156 244 239 156 244 239 156 244 239 156 244 239 156 244 239 156 244 239 156 244 238 0 0 0 0 0 0 0 0 0 0 0 0 0 0 0 0 0 0 0 0 0 0 1 0 0 1 0 0 1 0 0 1 0 0 1 0 0 1 0 0 0 0 0 0 0 0 0 0 0 0 0 0 0 0 0 0 0 0 0 0 0 0 0 0 0 0 0 0 0 0 0 0 0 0 0 0 0 0 0 0 0 0 0 0 0 0 0 0 0 0 0 0 0 0 0 0 0 0 0 111 111 223 111 111 223 111 111 223 111 111 223 111 111 223 111 111 223 111 111 223 111 111 223 111 111 223 111 111 223 111 111 223 111 111 223 111 111 223 111 111 223 111 111 223 111 111 223 111 111 223 111 111 223 111 111 223 111 111 223 111 111 223 111 111 223
157 245 240 157 245 240 157 245 240 157 245 240 157 245 240 157 245 240 157 245 240 157 245 240 157 245 240 157 245 240 157 245 240 157 245 240 157 245 240 157 245 240 157 245 240 157 245 240 157 245 240 157 245 240 157 245 240 157 245 240 157 245 240 157 245 240 157 245 240 0 0 0 0 0 0 0 0 0 0 0 0 0 0 0 0 0 0 0 0 0 0 0 0 0 0 0 0 0 0 0 0 0 0 0 0 0 0 0 0 0 0 0 0 0 0 0 0 0 0 0 0 0 0 0 0 0 0 0 0 0 0 0 0 0 0 0 0 0 0 0 0 0 0 0 0 0 0 0 0 0 0 0 0 0 0 0 0 0 0 0 0 0 0 0 0 0 0 0 0 0 0 0 0 0 0 0 0 0 0 0 0 0 0 113 113 226 113 113 226 113 113 226 113 113 226 113 113 226 113 113 226 113 113 226 113 113 226 113 113 226 113 113 226 113 113 226 113 113 226 113 113 226 113 113 226 113 113 226 113 113 226 113 113 226 113 113 226 113 113 226 113 113 226 113 113 226 113 113 226 0 17 0 0 20 0 4 32 0 5 31 0 5 23 0 9 39 0 11 45 0 9 36 0 10 36 0 10 36 0 12 41 0 11 36 1 9 30 2 11 35 2 8 24 2 12 38 4 10 32 4 12 35 4 8 25 3 11 33 4 8 23 3 9 25 4 9 27 4 9 25 4 8 23 3 4 13 2 5 16 2 5 16 1 3 12 1 3 11 0 1 5 0 0 3 0 0 2 0 0 0 0 0 0 0 0 0 0 0 0 0 0 0 0 0 0 0 0 0 0 0 0 0 0 0 0 0 0 0 0 0 0 0 0 0 0 0 0 0 0 0 0 0 0 157 245 240 157 245 240 157 245 240 157 245 240 157 245 240 157 245 240 157 245 240 157 245 240 157 245 240 157 245 240 157 245 240 157 245 240 157 245 240 157 245 240 157 245 240 157 245 240 157 245 240 157 245 240 157 245 240 157 245 240 157 245 240 157 245 240 157 245 240 157 245 240 157 245 240 157 245 240 157 245 240 157 245 240 157 245 240 157 245 240 157 245 240 157 245 240 157 245 240 157 245 240 157 245 240 157 245 240 157 245 240 157 245 240 157 245 240 157 245 240 157 245 240 157 245 240 157 245 240 157 245 240 157 245 240 157 245 240 157 245 240 157 245 240 157 245 240 157 245 240 157 245 240 157 245 240 157 245 240 157 245 240 157 245 240 0 21 0 0 19 0 3 23 0 2 13 0 8 37 0 7 29 0 10 41 0 11 42 0 7 26 0 9 32 0 11 38 1 14 44 2 12 38 3 16 49 5 14 43 5 9 26 3 16 47 6 14 41 6 10 30 4 12 34 5 11 33 5 13 36 6 9 26 4 10 29 5 8 23 4 9 26 4 6 17 3 11 32 5 9 26 4 6 18 2 5 16 1 3 11 0 2 9 0 3 12 0 0 5 0 0 1 0 0 0 0 0 0 0 0 0 0 0 0 0 0 0 0 0 0 0 0 0 0 0 0 0 0 0 0 0 0 0 0 0 0 0 0 0 156 245 240 156 245 240 156 245 239 156 245 239 156 245 239 156 245 239 156 245 239 156 245 239 156 245 239 156 245 239 156 245 239 156 245 239 156 245 239 156 245 239 156 245 239 156 245 239 156 245 239 156 245 239 156 245 239 156 245 239 156 244 239 156 244 239 156 244 239 156 244 239 156 244 239 156 244 239 156 244 239 156 244 239 156 244 239 156 244 239 44 132 14 44 132 14 0 0 0 0 0 0 0 0 0 0 0 0 0 0 0 0 0 0 0 0 0 0 0 0 0 0 0 0 0 0 0 0 0 0 0 0 0 0 0 0 0 0 0 0 0 0 0 0 0 0 0 0 0 0 0 0 0 0 0 0 0 0 0 0 0 0 0 0 0 0 0 0 0 0 0 0 0 0 0 0 0 0 0 0 0 0 0 0 0 0 0 0 0 112 112 224 112 112 224 112 112 224 112 112 224 112 112 224 112 112 224 112 112 224 112 112 224 111 111 223 111 111 223 111 111 223 111 111 223 111 111 223 111 111 223 111 111 223 111 111 223 111 111 223 111 111 223 111 111 223 111 111 223 111 111 223 111 111 223 111 111 223
157 245 240 157 245 240 157 245 240 157 245 241 157 245 241 157 245 241 157 245 241 157 245 241 157 245 241 157 245 241 157 245 241 157 245 241 157 245 241 157 245 241 157 245 241 157 245 241 157 245 241 157 245 241 157 245 241 44 132 14 44 132 14 44 132 14 44 132 14 44 132 14 0 0 0 0 0 0 0 0 0 0 0 0 0 0 0 0 0 0 0 0 0 0 0 0 0 0 0 0 0 0 0 0 0 0 0 0 0 0 0 0 0 0 0 0 0 0 0 0 0 0 0 0 0 0 0 0 0 0 0 0 0 0 0 0 0 0 0 0 0 0 0 0 0 0 0 0 0 0 0 0 0 0 0 0 0 0 0 0 0 0 0 0 0 0 0 0 0 0 0 0 0 0 0 0 0 0 0 0 0 0 0 0 0 0 0 0 0 0 0 0 113 113 226 113 113 226 113 113 226 113 113 226 113 113 226 113 113 226 113 113 226 113 113 226 113 113 226 113 113 226 113 113 226 113 113 226 113 113 226 113 113 226 113 113 226 113 113 226 113 113 226 113 113 226 113 113 226 113 113 226 0 20 0 0 21 0 1 14 0 4 35 0 4 25 0 4 21 0 4 22 0 6 27 0 6 27 0 9 36 0 8 31 0 7 26 0 8 30 0 7 25 0 9 33 0 10 36 0 5 19 0 6 22 0 4 14 0 6 23 0 8 27 0 5 20 0 4 15 0 5 18 0 4 16 0 2 10 0 1 7 0 0 4 0 0 6 0 0 3 0 0 0 0 0 0 0 0 0 0 0 0 0 0 0 0 0 0 0 0 0 0 0 0 0 0 0 0 0 0 0 0 0 0 0 0 0 0 0 0 0 0 0 0 0 0 0 0 0 157 245 241 157 245 241 157 245 241 157 245 241 157 245 241 157 245 241 157 245 241 157 245 241 157 245 241 157 245 241 157 245 241 157 245 241 157 245 241 157 245 241 157 245 241 157 245 241 157 245 241 157 245 241 157 245 241 157 245 241 157 245 241 157 245 241 157 245 241 157 245 241 157 245 241 157 245 241 157 245 241 157 245 241 157 245 241 157 245 241 157 245 241 157 245 241 157 245 241 157 245 241 157 245 241 157 245 241 157 245 241 157 245 241 157 245 241 157 245 241 157 245 241 157 245 241 157 245 241 157 245 241 157 245 241 157 245 241 157 245 241 157 245 241 157 245 241 157 245 241 157 245 241 157 245 241 157 245 241 157 245 241 157 245 241 157 245 241 0 5 0 0 19 0 0 20 0 2 31 0 3 27 0 5 29 0 8 39 0 8 36 0 7 32 0 8 33 0 10 38 0 9 34 0 5 19 0 8 29 0 10 33 0 11 37 1 7 23 0 12 40 2 8 26 1 10 34 2 7 24 1 8 27 1 9 30 2 9 28 1 8 26 1 5 18 0 4 14 0 3 12 0 3 11 0 3 11 0 2 9 0 1 9 0 0 8 0 0 3 0 0 1 0 0 0 0 0 0 0 0 0 0 0 0 0 0 0 0 0 0 0 0 0 0 0 0 0 0 0 0 0 0 0 0 0 0 0 0 0 157 245 240 157 245 240 157 245 240 157 245 240 157 245 240 157 245 240 157 245 240 157 245 240 157 245 240 157 245 240 157 245 240 157 245 240 156 245 240 156 245 240 156 245 240 156 245 240 156 245 240 156 245 240 156 245 240 156 245 240 156 245 240 156 245 240 156 245 240 156 245 240 156 245 240 156 245 240 44 132 14 44 132 14 44 132 14 44 132 14 44 132 14 44 132 14 44 132 14 44 132 14 44 132 14 0 0 0 0 0 0 0 0 0 0 0 0 0 0 0 0 0 0 0 0 0 0 0 0 0 0 0 0 0 0 0 0 0 0 0 0 0 0 0 0 0 0 0 0 0 0 0 0 0 0 0 0 0 0 0 0 0 0 0 0 0 0 0 0 0 0 0 0 0 0 0 0 0 0 0 0 0 0 0 0 0 0 0 0 0 0 0 0 0 0 0 0 0 0 0 0 0 0 0 112 112 224 112 112 224 112 112 224 112 112 224 112 112 224 112 112 224 112 112 224 112 112 224 112 112 224 112 112 224 112 112 224 112 112 224 112 112 224 112 112 224 112 112 224 112 112 224 112 112 224 112 112 224 112 112 224
157 245 241 157 245 241 157 245 241 157 245 241 157 245 241 157 245 241 157 245 241 157 245 241 157 245 241 157 245 241 157 245 241 157 245 241 157 245 241 157 245 241 157 245 241 157 245 241 44 132 14 44 132 14 44 132 14 44 132 14 44 132 14 44 132 14 44 132 14 44 132 14 44 132 14 44 132 14 0 0 0 0 0 0 0 0 0 0 0 0 0 0 0 0 0 0 0 0 0 0 0 0 0 0 0 0 0 0 0 0 0 0 0 0 0 0 0 0 0 0 0 0 0 0 0 0 0 0 0 0 0 0 0 0 0 0 0 0 0 0 0 0 0 0 0 0 0 0 0 0 0 0 0 0 0 0 0 0 0 0 0 0 0 0 0 0 0 0 0 0 0 0 0 0 0 0 0 0 0 0 0 0 0 0 0 0 0 0 0 0 0 0 0 0 0 113 113 227 113 113 227 113 113 227 113 113 227 113 113 227 113 113 227 113 113 227 113 113 227 113 113 227 113 113 227 113 113 227 113 113 227 113 113 227 113 113 227 113 113 227 113 113 227 113 113 227 113 113 227 113 113 227 113 113 227 0 8 0 0 18 0 0 18 0 1 20 0 2 21 0 3 26 0 3 19 0 4 27 0 3 19 0 3 15 0 3 15 0 5 26 0 4 21 0 3 14 0 4 20 0 3 16 0 5 21 0 5 23 0 3 16 0 3 14 0 3 15 0 2 15 0 1 12 0 1 11 0 0 6 0 0 3 0 0 3 0 0 1 0 0 0 0 0 0 0 0 0 0 0 0 0 0 0 0 0 0 0 0 0 0 0 0 0 0 0 0 0 0 0 0 0 0 0 0 0 0 0 0 0 0 0 0 0 0 0 0 0 0 0 0 157 246 241 157 246 241 157 246 241 157 246 241 157 246 241 157 246 241 157 246 241 157 246 241 157 246 241 157 246 241 157 246 241 157 246 241 157 246 241 157 246 241 157 246 241 157 246 241 157 246 241 157 246 241 157 246 241 157 246 241 157 246 241 157 246 241 157 246 241 157 246 241 157 246 241 157 246 241 157 246 241 157 246 241 157 246 241 157 246 241 157 246 241 157 246 241 157 246 241 157 246 241 157 246 241 157 246 241 157 246 241 157 246 241 157 246 241 157 246 241 157 246 241 157 246 241 157 246 241 157 246 241 157 246 241 157 245 241 157 245 241 157 245 241 157 245 241 157 245 241 157 245 241 157 245 241 157 245 241 157 245 241 157 245 241 157 245 241 157 245 241 0 4 0 0 13 0 0 20 0 0 15 0 1 13 0 2 18 0 4 26 0 4 27 0 6 32 0 6 28 0 8 37 0 3 16 0 7 29 0 6 24 0 7 28 0 7 27 0 7 27 0 5 22 0 6 25 0 8 31 0 6 26 0 4 15 0 4 17 0 3 16 0 2 9 0 3 17 0 1 9 0 1 13 0 0 9 0 0 7 0 0 1 0 0 2 0 0 0 0 0 0 0 0 0 0 0 0 0 0 0 0 0 0 0 0 0 0 0 0 0 0 0 0 0 0 0 0 0 0 0 0 0 0 0 0 157 245 241 157 245 241 157 245 241 157 245 241 157 245 241 157 245 241 157 245 240 157 245 240 157 245 240 157 245 240 157 245 240 157 245 240 157 245 240 157 245 240 157 245 240 157 245 240 157 245 240 157 245 240 157 245 240 157 245 240 157 245 240 157 245 240 157 245 240 157 245 240 157 245 240 44 132 14 44 132 14 44 132 14 44 132 14 44 132 14 44 132 14 44 132 14 44 132 14 44 132 14 44 132 14 44 132 14 44 132 14 0 0 0 0 0 0 0 0 0 0 0 0 0 0 0 0 0 0 0 0 0 0 0 0 0 0 0 0 0 0 0 0 0 0 0 0 0 0 0 0 0 0 0 0 0 0 0 0 0 0 0 0 0 0 0 0 0 0 0 0 0 0 0 0 0 0 0 0 0 0 0 0 0 0 0 0 0 0 0 0 0 0 0 0 0 0 0 0 0 0 0 0 0 0 0 0 0 0 0 0 0 0 0 0 0 0 0 0 112 112 225 112 112 225 112 112 225 112 112 225 112 112 224 112 112 224 112 112 224 112 112 224 112 112 224 112 112 224 112 112 224 112 112 224 112 112 224 112 112 224 112 112 224
157 246 242 157 246 242 157 246 242 157 246 242 157 246 242 157 246 242 157 246 242 157 246 242 157 246 242 157 246 242 157 246 242 157 246 242 157 246 242 157 246 242 44 132 14 44 132 14 44 132 14 44 132 14 44 132 14 44 132 14 44 132 14 44 132 14 44 132 14 44 132 14 44 132 14 44 132 14 44 132 14 44 132 14 0 0 0 0 0 0 0 0 0 0 0 0 0 0 0 0 0 0 0 0 0 0 0 0 0 0 0 0 0 0 0 0 0 0 0 0 0 0 0 0 0 0 0 0 0 0 0 0 0 0 0 0 0 0 0 0 0 0 0 0 0 0 0 0 0 0 0 0 0 0 0 0 0 0 0 0 0 0 0 0 0 0 0 0 0 0 0 0 0 0 0 0 0 0 0 0 0 0 0 0 0 0 0 0 0 0 0 0 113 113 227 113 113 227 113 113 227 113 113 227 113 113 227 113 113 227 113 113 227 113 113 227 113 113 227 113 113 227 113 113 227 113 113 227 113 113 227 113 113 227 113 113 227 113 113 227 113 113 227 113 113 227 113 113 227 113 113 227 158 246 242 0 2 0 0 9 0 0 17 0 0 17 0 0 13 0 0 20 0 0 12 0 1 21 0 2 25 0 1 15 0 2 21 0 3 27 0 3 26 0 2 17 0 2 19 0 2 15 0 2 16 0 1 15 0 1 16 0 0 12 0 0 12 0 0 9 0 0 7 0 0 4 0 0 3 0 0 1 0 0 0 0 0 0 0 0 0 0 0 0 0 0 0 0 0 0 0 0 0 0 0 0 0 0 0 0 0 0 0 0 0 0 0 0 0 0 0 0 0 0 0 0 0 0 0 0 0 0 0 0 0 0 0 158 246 242 158 246 242 158 246 242 158 246 242 158 246 242 158 246 242 158 246 242 158 246 242 158 246 242 158 246 242 158 246 242 158 246 242 158 246 242 158 246 242 158 246 242 158 246 242 158 246 242 158 246 242 158 246 242 157 246 242 157 246 242 157 246 242 157 246 242 157 246 242 157 246 242 157 246 242 157 246 242 157 246 242 157 246 242 157 246 242 157 246 242 157 246 242 157 246 242 157 246 242 157 246 242 157 246 242 157 246 242 157 246 242 157 246 242 157 246 242 157 246 242 157 246 242 157 246 242 157 246 242 157 246 242 157 246 242 157 246 242 157 246 242 157 246 242 157 246 242 157 246 242 157 246 242 157 246 242 157 246 242 157 246 242 157 246 242 157 246 242 157 246 242 157 246 242 0 2 0 0 11 0 0 8 0 0 17 0 0 16 0 0 24 0 0 12 0 2 23 0 3 30 0 2 20 0 2 13 0 4 24 0 3 20 0 4 23 0 3 19 0 4 25 0 5 27 0 2 14 0 3 19 0 2 13 0 1 9 0 1 13 0 1 12 0 0 7 0 0 9 0 0 8 0 0 6 0 0 3 0 0 2 0 0 0 0 0 0 0 0 0 0 0 0 0 0 0 0 0 0 0 0 0 0 0 0 0 0 0 0 0 0 0 0 0 0 0 0 0 0 0 0 0 0 0 0 0 0 157 245 241 157 245 241 157 245 241 157 245 241 157 245 241 157 245 241 157 245 241 157 245 241 157 245 241 157 245 241 157 245 241 157 245 241 157 245 241 157 245 241 157 245 241 157 245 241 157 245 241 157 245 241 157 245 241 157 245 241 157 245 241 157 245 241 157 245 241 157 245 241 157 245 241 44 132 14 44 132 14 44 132 14 44 132 14 44 132 14 44 132 14 44 132 14 44 132 14 44 132 14 44 132 14 44 132 14 44 132 14 0 0 0 0 0 0 0 0 0 0 0 0 0 0 0 0 0 0 0 0 0 0 0 0 0 0 0 0 0 0 0 0 0 0 0 0 0 0 0 0 0 0 0 0 0 0 0 0 0 0 0 0 0 0 0 0 0 0 0 0 0 0 0 0 0 0 0 0 0 0 0 0 0 0 0 0 0 0 0 0 0 0 0 0 0 0 0 0 0 0 0 0 0 0 0 0 0 0 0 0 0 0 0 0 0 0 0 0 0 0 0 0 0 0 112 112 225 112 112 225 112 112 225 112 112 225 112 112 225 112 112 225 112 112 225 112 112 225 112 112 225 112 112 225 112 112 225 112 112 225 112 112 225
158 246 242 158 246 242 158 246 242 158 246 242 158 246 242 158 246 242 158 246 242 158 246 242 158 246 242 158 246 242 158 246 242 158 246 242 158 246 242 158 246 242 44 132 14 44 132 14 44 132 14 44 132 14 44 132 14 44 132 14 44 132 14 44 132 14 44 132 14 44 132 14 44 132 14 44 132 14 44 132 14 44 132 14 44 132 14 0 0 0 0 0 0 0 0 0 0 0 0 0 0 0 0 0 0 0 0 0 0 0 0 0 0 0 0 0 0 0 0 0 0 0 0 0 0 0 0 0 0 0 0 0 0 0 0 0 0 0 0 0 0 0 0 0 0 0 0 0 0 0 0 0 0 0 0 0 0 0 0 0 0 0 0 0 0 0 0 0 0 0 0 0 0 0 0 0 0 0 0 0 0 0 0 114 114 228 114 114 228 114 114 228 114 114 228 114 114 228 114 114 228 114 114 228 114 114 228 114 114 228 114 114 228 114 114 228 114 114 228 114 114 228 114 114 228 114 114 228 158 246 242 158 246 242 158 246 242 158 246 242 158 246 242 158 246 242 158 246 242 158 246 242 158 246 242 158 246 242 0 0 0 0 7 0 0 12 0 0 13 0 0 21 0 0 17 0 0 9 0 0 19 0 0 14 0 0 11 0 0 16 0 0 15 0 0 12 0 0 14 0 0 13 0 0 10 0 0 10 0 0 9 0 0 7 0 0 6 0 0 5 0 0 1 0 0 0 0 0 0 0 0 0 0 0 0 0 0 0 0 0 0 0 0 0 0 0 0 0 0 0 0 0 0 0 0 0 0 0 0 0 0 0 0 0 0 0 0 0 0 0 0 0 0 0 0 0 0 0 0 0 0 0 0 0 158 246 242 158 246 242 158 246 242 158 246 242 158 246 242 158 246 242 158 246 242 158 246 242 158 246 242 158 246 242 158 246 242 158 246 242 158 246 242 158 246 242 158 246 242 114 114 228 114 114 228 114 114 228 114 114 228 114 114 228 114 114 228 114 114 228 114 114 228 114 114 228 114 114 228 114 114 228 114 114 228 114 114 228 114 114 228 114 114 228 114 114 228 114 114 228 114 114 228 114 114 228 114 114 228 114 114 228 114 114 228 158 246 242 158 246 242 158 246 242 158 246 242 158 246 242 158 246 242 158 246 242 158 246 242 158 246 242 158 246 242 158 246 242 158 246 242 158 246 242 158 246 242 158 246 242 158 246 242 158 246 242 158 246 242 158 246 242 158 246 242 158 246 242 158 246 242 158 246 242 158 246 242 0 0 0 0 6 0 0 13 0 0 11 0 0 10 0 0 16 0 0 14 0 0 13 0 0 16 0 1 27 0 0 16 0 0 13 0 0 10 0 1 23 0 1 15 0 1 19 0 0 11 0 0 14 0 0 19 0 0 17 0 0 6 0 0 9 0 0 4 0 0 3 0 0 4 0 0 1 0 0 0 0 0 0 0 0 0 0 0 0 0 0 0 0 0 0 0 0 0 0 0 0 0 0 0 0 0 0 0 0 0 0 0 0 0 0 0 0 0 0 0 0 0 0 0 0 0 157 246 242 157 246 242 157 246 242 157 246 242 157 246 242 157 246 242 157 246 241 157 246 241 113 113 227 113 113 227 113 113 227 113 113 227 113 113 227 113 113 227 113 113 227 113 113 227 113 113 227 113 113 227 113 113 227 113 113 227 113 113 227 113 113 227 113 113 227 157 246 241 157 246 241 157 245 241 157 245 241 44 132 14 44 132 14 44 132 14 44 132 14 44 132 14 44 132 14 44 132 14 44 132 14 44 132 14 44 132 14 44 132 14 44 132 14 0 0 0 0 0 0 0 0 0 0 0 0 0 0 0 0 0 0 0 0 0 0 0 0 0 0 0 0 0 0 0 0 0 0 0 0 0 0 0 0 0 0 0 0 0 0 0 0 0 0 0 0 0 0 0 0 0 0 0 0 0 0 0 0 0 0 0 0 0 0 0 0 0 0 0 0 0 0 0 0 0 0 0 0 0 0 0 0 0 0 0 0 0 0 0 0 0 0 0 0 0 0 0 0 0 0 0 0 0 0 0 0 0 0 113 113 226 112 112 225 112 112 225 112 112 225 112 112 225 112 112 225 112 112 225 112 112 225 112 112 225 112 112 225 112 112 225 112 112 225
158 246 242 158 246 242 158 246 242 158 246 243 158 246 243 158 246 243 158 246 243 158 246 243 158 246 243 158 246 243 158 246 243 158 246 243 158 246 243 158 246 243 158 246 243 158 246 243 44 132 14 44 132 14 44 132 14 44 132 14 44 132 14 44 132 14 44 132 14 44 132 14 44 132 14 44 132 14 44 132 14 44 132 14 44 132 14 44 132 14 44 132 14 0 0 0 0 0 0 0 0 0 0 0 0 0 0 0 0 0 0 0 0 0 0 0 0 0 0 0 0 0 0 0 0 0 0 0 0 0 0 0 0 0 0 0 0 0 0 0 0 0 0 0 0 0 0 0 0 0 0 0 0 0 0 0 0 0 0 0 0 0 0 0 0 0 0 0 0 0 0 114 114 228 114 114 228 114 114 228 114 114 228 114 114 228 114 114 228 114 114 228 114 114 228 158 246 243 158 246 243 158 246 243 158 246 243 158 246 243 158 246 243 158 246 243 158 246 243 158 246 243 158 246 243 158 246 243 158 246 243 158 246 243 158 246 243 158 246 243 158 246 243 158 246 243 158 246 243 158 246 243 158 246 243 158 246 243 158 246 243 0 0 0 0 2 0 0 6 0 0 7 0 0 8 0 0 7 0 0 9 0 0 9 0 0 9 0 0 10 0 0 9 0 0 8 0 0 9 0 0 5 0 0 6 0 0 5 0 0 4 0 0 1 0 0 1 0 0 0 0 0 0 0 0 0 0 0 0 0 0 0 0 0 0 0 0 0 0 0 0 0 0 0 0 0 0 0 0 0 0 0 0 0 0 0 0 0 0 0 0 0 0 0 0 0 0 0 0 0 0 0 0 0 0 0 0 0 0 0 0 158 246 243 158 246 243 114 114 228 114 114 228 114 114 228 114 114 228 114 114 228 114 114 228 114 114 228 114 114 228 114 114 228 114 114 228 114 114 228 114 114 228 114 114 228 114 114 228 114 114 228 114 114 228 114 114 228 114 114 228 114 114 228 114 114 228 114 114 228 114 114 228 114 114 228 114 114 228 114 114 228 114 114 228 114 114 228 114 114 228 114 114 228 114 114 228 114 114 228 114 114 228 114 114 228 114 114 228 114 114 228 114 114 228 114 114 228 114 114 228 114 114 228 114 114 228 114 114 228 114 114 228 158 246 243 158 246 243 158 246 243 158 246 243 158 246 243 158 246 243 158 246 243 158 246 243 158 246 243 158 246 243 158 246 243 158 246 243 158 246 243 158 246 243 158 246 243 158 246 243 158 246 243 158 246 243 0 0 0 0 0 0 0 2 0 0 4 0 0 9 0 0 11 0 0 9 0 0 5 0 0 11 0 0 13 0 0 15 0 0 5 0 0 9 0 0 12 0 0 12 0 0 6 0 0 13 0 0 8 0 0 8 0 0 6 0 0 6 0 0 3 0 0 2 0 0 0 0 0 0 0 0 0 0 0 0 0 0 0 0 0 0 0 0 0 0 0 0 0 0 0 0 0 0 0 0 0 0 0 0 0 0 0 0 0 0 0 0 0 0 0 0 0 0 0 0 0 0 0 113 113 227 113 113 227 113 113 227 113 113 227 113 113 227 113 113 227 113 113 227 113 113 227 113 113 227 113 113 227 113 113 227 113 113 227 113 113 227 113 113 227 113 113 227 113 113 227 113 113 227 113 113 227 113 113 227 113 113 227 113 113 227 113 113 227 113 113 227 113 113 227 113 113 227 113 113 227 113 113 227 113 113 227 113 113 227 113 113 227 113 113 227 0 0 0 0 0 0 44 132 14 44 132 14 44 132 14 44 132 14 44 132 14 44 132 14 44 132 14 44 132 14 44 132 14 0 0 0 0 0 0 0 0 0 0 0 0 0 0 0 0 0 0 0 0 0 0 0 0 0 0 0 0 0 0 0 0 0 0 0 0 0 0 0 0 0 0 0 0 0 0 0 0 0 0 0 0 0 0 0 0 0 0 0 0 0 0 0 0 0 0 0 0 0 0 0 0 0 0 0 0 0 0 0 0 0 0 0 0 0 0 0 0 0 0 0 0 0 0 0 0 0 0 0 0 0 0 0 0 0 113 113 226 113 113 226 113 113 226 113 113 226 113 113 226 113 113 226 113 113 226 157 245 241 157 245 241 157 245 241 157 245 241 157 245 241 157 245 240
158 246 243 158 246 243 158 246 243 158 246 243 158 246 243 158 246 243 158 246 243 158 246 243 158 246 243 158 246 243 158 246 243 158 246 243 158 246 243 158 246 243 158 246 243 158 246 243 158 246 243 158 246 243 158 246 243 158 246 243 158 246 243 44 132 14 44 132 14 44 132 14 44 132 14 44 132 14 44 132 14 44 132 14 44 132 14 44 132 14 44 132 14 44 132 14 44 132 14 44 132 14 44 132 14 44 132 14 44 132 14 44 132 14 44 132 14 44 132 14 44 132 14 44 132 14 44 132 14 44 132 14 44 132 14 44 132 14 44 132 14 44 132 14 44 132 14 158 247 243 158 247 243 158 247 243 158 247 243 158 247 243 158 247 243 158 247 243 158 247 243 158 247 243 158 247 243 158 247 243 158 247 243 158 247 243 158 247 243 158 247 243 158 247 243 158 247 243 158 247 243 158 247 243 158 247 243 158 247 243 158 247 243 158 247 243 158 247 243 158 247 243 158 247 243 158 247 243 158 247 243 158 247 243 158 247 243 158 247 243 158 247 243 158 247 243 158 247 243 158 247 243 158 247 243 158 247 243 158 247 243 158 247 243 0 0 0 0 0 0 0 0 0 0 2 0 0 3 0 0 5 0 0 5 0 0 5 0 0 6 0 0 4 0 0 3 0 0 3 0 0 2 0 0 1 0 0 0 0 0 0 0 0 0 0 0 0 0 0 0 0 0 0 0 0 0 0 0 0 0 0 0 0 0 0 0 0 0 0 0 0 0 0 0 0 0 0 0 0 0 0 0 0 0 0 0 0 0 0 0 0 0 0 0 0 0 0 0 0 0 0 0 0 0 0 0 0 0 114 114 229 114 114 229 114 114 229 114 114 229 114 114 229 114 114 229 114 114 229 114 114 229 114 114 229 114 114 229 114 114 229 114 114 229 114 114 229 114 114 229 114 114 229 114 114 229 114 114 229 114 114 229 114 114 229 114 114 229 114 114 229 114 114 229 114 114 229 114 114 229 114 114 229 114 114 229 114 114 229 114 114 229 114 114 229 114 114 229 114 114 229 114 114 229 114 114 229 114 114 228 114 114 228 114 114 228 114 114 228 114 114 228 114 114 228 114 114 228 114 114 228 114 114 228 114 114 228 114 114 228 114 114 228 114 114 228 114 114 228 158 246 243 158 246 243 158 246 243 158 246 243 158 246 243 158 246 243 158 246 243 158 246 243 158 246 243 158 246 243 158 246 243 158 246 243 158 246 243 158 246 243 158 246 243 158 246 243 158 246 243 0 0 0 0 0 0 0 0 0 0 0 0 0 2 0 0 4 0 0 3 0 0 3 0 0 4 0 0 8 0 0 6 0 0 5 0 0 6 0 0 5 0 0 7 0 0 4 0 0 3 0 0 3 0 0 1 0 0 0 0 0 0 0 0 0 0 0 0 0 0 0 0 0 0 0 0 0 0 0 0 0 0 0 0 0 0 0 0 0 0 0 0 0 0 0 0 0 0 0 0 0 0 0 0 0 0 0 0 0 0 0 0 0 0 0 0 0 114 114 228 114 114 228 114 114 228 114 114 228 114 114 228 114 114 228 114 114 228 114 114 228 114 114 228 114 114 228 114 114 228 114 114 228 114 114 228 114 114 228 114 114 228 114 114 228 114 114 228 114 114 228 114 114 228 114 114 228 114 114 228 114 114 228 114 114 228 113 113 227 113 113 227 113 113 227 113 113 227 113 113 227 113 113 227 113 113 227 113 113 227 113 113 227 113 113 227 113 113 227 113 113 227 113 113 227 113 113 227 113 113 227 44 132 14 44 132 14 44 132 14 44 132 14 44 132 14 44 132 14 44 132 14 44 132 14 44 132 14 44 132 14 44 132 14 44 132 14 44 132 14 0 0 0 0 0 0 0 0 0 0 0 0 0 0 0 0 0 0 0 0 0 0 0 0 0 0 0 0 0 0 0 0 0 0 0 0 0 0 0 0 0 0 0 0 0 0 0 0 0 0 0 0 0 0 0 0 0 0 0 0 0 0 0 0 0 0 0 0 0 157 246 241 157 246 241 157 246 241 157 246 241 157 246 241 157 245 241 157 245 241 157 245 241 157 245 241 157 245 241 157 245 241 157 245 241 157 245 241 157 245 241 157 245 241 157 245 241 157 245 241
158 247 243 158 247 243 158 247 243 158 247 243 158 247 243 158 247 243 158 247 243 158 247 243 158 247 243 158 247 243 158 247 243 158 247 244 158 247 244 158 247 244 158 247 244 158 247 244 158 247 244 158 247 244 158 247 244 158 247 244 158 247 244 158 247 244 158 247 244 158 247 244 158 247 244 158 247 244 158 247 244 158 247 244 158 247 244 158 247 244 158 247 244 158 247 244 158 247 244 158 247 244 158 247 244 158 247 244 158 247 244 158 247 244 158 247 244 158 247 244 158 247 244 158 247 244 158 247 244 158 247 244 158 247 244 158 247 244 158 247 244 158 247 244 158 247 244 158 247 244 158 247 244 158 247 244 158 247 244 158 247 244 158 247 244 158 247 244 158 247 244 158 247 244 158 247 244 158 247 244 158 247 244 158 247 244 158 247 244 158 247 244 158 247 244 158 247 244 158 247 244 158 247 244 158 247 244 158 247 244 158 247 244 158 247 244 158 247 244 158 247 244 158 247 244 158 247 244 158 247 244 158 247 244 158 247 244 158 247 244 158 247 244 158 247 244 158 247 244 158 247 244 158 247 244 158 247 244 158 247 244 158 247 244 158 247 244 0 0 0 0 0 0 0 0 0 0 0 0 0 0 0 0 0 0 0 0 0 0 0 0 0 0 0 0 0 0 0 0 0 0 0 0 0 0 0 0 0 0 0 0 0 0 0 0 0 0 0 0 0 0 0 0 0 0 0 0 0 0 0 0 0 0 0 0 0 0 0 0 0 0 0 0 0 0 0 0 0 0 0 0 0 0 0 0 0 0 0 0 0 0 0 0 0 0 0 0 0 0 0 0 0 0 0 0 114 114 229 114 114 229 114 114 229 114 114 229 114 114 229 114 114 229 114 114 229 114 114 229 114 114 229 114 114 229 114 114 229 114 114 229 114 114 229 114 114 229 114 114 229 114 114 229 114 114 229 114 114 229 114 114 229 114 114 229 114 114 229 114 114 229 114 114 229 114 114 229 114 114 229 114 114 229 114 114 229 114 114 229 114 114 229 114 114 229 114 114 229 114 114 229 114 114 229 114 114 229 114 114 229 114 114 229 114 114 229 114 114 229 114 114 229 114 114 229 114 114 229 114 114 229 114 114 229 114 114 229 114 114 229 114 114 229 114 114 229 158 247 244 158 247 244 158 247 244 158 247 244 158 247 244 158 247 244 158 247 244 158 247 244 158 247 244 158 247 243 158 247 243 158 247 243 158 247 243 158 247 243 158 247 243 158 247 243 158 247 243 158 247 243 158 247 243 0 0 0 0 0 0 0 0 0 0 0 0 0 0 0 0 0 0 0 0 0 0 0 0 0 0 0 0 1 0 0 1 0 0 1 0 0 0 0 0 0 0 0 0 0 0 0 0 0 0 0 0 0 0 0 0 0 0 0 0 0 0 0 0 0 0 0 0 0 0 0 0 0 0 0 0 0 0 0 0 0 0 0 0 0 0 0 0 0 0 0 0 0 0 0 0 0 0 0 0 0 0 0 0 0 0 0 0 0 0 0 114 114 228 114 114 228 114 114 228 114 114 228 114 114 228 114 114 228 114 114 228 114 114 228 114 114 228 114 114 228 114 114 228 114 114 228 114 114 228 114 114 228 114 114 228 114 114 228 114 114 228 114 114 228 114 114 228 114 114 228 114 114 228 114 114 228 114 114 228 114 114 228 114 114 228 114 114 228 114 114 228 114 114 228 114 114 228 114 114 228 114 114 228 114 114 228 114 114 228 114 114 228 114 114 228 114 114 228 114 114 228 114 114 228 114 114 228 114 114 228 158 246 242 158 246 242 158 246 242 158 246 242 158 246 242 158 246 242 158 246 242 158 246 242 158 246 242 158 246 242 44 132 14 44 132 14 44 132 14 44 132 14 44 132 14 44 132 14 44 132 14 44 132 14 44 132 14 44 132 14 44 132 14 44 132 14 44 132 14 44 132 14 44 132 14 44 132 14 158 246 242 158 246 242 158 246 242 157 246 242 157 246 242 157 246 242 157 246 242 157 246 242 157 246 242 157 246 242 157 246 242 157 246 242 157 246 242 157 246 242 157 246 242 157 246 242 157 246 242 157 246 242 157 246 242 157 246 242 157 246 242 157 246 242 157 246 242 157 246 241 157 246 241 157 246 241
158 247 244 158 247 244 158 247 244 158 247 244 158 247 244 159 247 244 159 247 244 159 247 244 159 247 244 159 247 244 159 247 244 159 247 244 159 247 244 159 247 244 159 247 244 159 247 244 159 247 244 159 247 244 159 247 244 159 247 244 159 247 244 159 247 244 159 247 244 159 247 244 159 247 244 159 247 244 159 247 244 159 247 244 159 247 244 159 247 244 159 247 244 159 247 244 159 247 244 159 247 244 159 247 244 159 247 244 159 247 244 159 247 244 159 247 244 159 247 244 159 247 244 159 247 244 159 247 244 159 247 244 159 247 244 159 247 244 159 247 244 159 247 244 159 247 244 159 247 244 159 247 244 159 247 244 159 247 244 159 247 244 159 247 244 159 247 244 159 247 244 159 247 244 159 247 244 159 247 244 159 247 244 159 247 244 159 247 244 159 247 244 159 247 244 159 247 244 159 247 244 159 247 244 159 247 244 159 247 244 159 247 244 159 247 244 159 247 244 159 247 244 159 247 244 159 247 244 159 247 244 159 247 244 159 247 244 159 247 244 159 247 244 159 247 244 159 247 244 159 247 244 159 247 244 159 247 244 159 247 244 159 247 244 159 247 244 159 247 244 0 0 0 0 0 0 0 0 0 0 0 0 0 0 0 0 0 0 0 0 0 0 0 0 0 0 0 0 0 0 0 0 0 0 0 0 0 0 0 0 0 0 0 0 0 0 0 0 0 0 0 0 0 0 0 0 0 0 0 0 0 0 0 0 0 0 0 0 0 0 0 0 0 0 0 0 0 0 0 0 0 0 0 0 0 0 0 0 0 0 0 0 0 0 0 0 0 0 0 0 0 0 0 0 0 0 0 0 0 0 0 0 0 0 0 0 0 0 0 0 115 115 230 114 114 229 114 114 229 114 114 229 114 114 229 114 114 229 114 114 229 114 114 229 114 114 229 114 114 229 114 114 229 114 114 229 114 114 229 114 114 229 114 114 229 114 114 229 114 114 229 114 114 229 114 114 229 114 114 229 114 114 229 114 114 229 114 114 229 114 114 229 114 114 229 114 114 229 114 114 229 114 114 229 114 114 229 114 114 229 114 114 229 114 114 229 114 114 229 114 114 229 114 114 229 114 114 229 114 114 229 114 114 229 114 114 229 114 114 229 114 114 229 159 247 244 159 247 244 159 247 244 159 247 244 159 247 244 159 247 244 159 247 244 159 247 244 159 247 244 159 247 244 159 247 244 159 247 244 159 247 244 159 247 244 159 247 244 158 247 244 158 247 244 158 247 244 158 247 244 158 247 244 158 247 244 44 132 14 0 0 0 0 0 0 0 0 0 0 0 0 0 0 0 0 0 0 0 0 0 0 0 0 0 0 0 0 0 0 0 0 0 0 0 0 0 0 0 0 0 0 0 0 0 0 0 0 0 0 0 0 0 0 0 0 0 0 0 0 0 0 0 0 0 0 0 0 0 0 0 0 0 0 0 0 0 0 0 0 0 0 0 0 0 0 0 0 0 0 0 0 0 0 0 0 0 0 0 0 0 0 114 114 229 114 114 229 114 114 229 114 114 229 114 114 229 114 114 229 114 114 229 114 114 229 114 114 229 114 114 229 114 114 229 114 114 229 114 114 229 114 114 229 114 114 229 114 114 229 114 114 229 114 114 228 114 114 228 114 114 228 114 114 228 114 114 228 114 114 228 114 114 228 114 114 228 114 114 228 114 114 228 114 114 228 114 114 228 114 114 228 114 114 228 114 114 228 114 114 228 114 114 228 114 114 228 114 114 228 114 114 228 114 114 228 114 114 228 114 114 228 114 114 228 158 246 243 158 246 243 158 246 243 158 246 243 158 246 243 158 246 243 158 246 243 158 246 243 158 246 243 158 246 243 158 246 243 158 246 243 158 246 243 158 246 243 158 246 243 158 246 243 158 246 243 158 246 243 158 246 243 158 246 243 158 246 243 158 246 242 158 246 242 158 246 242 158 246 242 158 246 242 158 246 242 158 246 242 158 246 242 158 246 242 158 246 242 158 246 242 158 246 242 158 246 242 158 246 242 158 246 242 158 246 242 158 246 242 158 246 242 158 246 242 158 246 242 158 246 242 158 246 242 158 246 242 158 246 242 158 246 242 158 246 242 158 246 242 158 246 242 158 246 242 158 246 242 158 246 242
159 247 244 159 247 244 159 247 244 159 247 244 159 247 244 159 247 244 159 247 244 159 247 244 159 247 244 159 247 244 159 247 244 159 247 244 159 247 244 159 247 244 159 247 244 159 247 244 159 247 244 159 247 244 159 247 244 159 247 244 159 247 244 159 247 244 159 247 244 159 247 244 159 247 244 159 247 244 159 247 244 159 247 244 159 247 244 159 247 244 159 247 245 159 247 245 159 247 245 159 247 245 159 247 245 159 247 245 159 247 245 159 247 245 159 247 245 159 247 245 159 247 245 159 247 245 159 247 245 159 247 245 159 247 245 159 247 245 159 247 245 159 247 245 159 247 245 159 247 245 159 247 245 159 247 245 159 247 245 159 247 245 159 247 245 159 247 245 159 247 245 159 247 245 159 247 245 159 247 245 159 247 245 159 247 245 159 247 245 159 247 245 159 247 245 159 247 245 159 247 245 159 247 245 159 247 245 159 247 245 159 247 245 159 247 245 159 247 245 159 247 245 159 247 245 159 247 245 159 247 245 159 247 245 159 247 245 159 247 245 159 247 245 159 247 245 159 247 245 159 247 245 159 247 245 159 247 245 44 132 14 44 132 14 44 132 14 44 132 14 44 132 14 44 132 14 0 0 0 0 0 0 0 0 0 0 0 0 0 0 0 0 0 0 0 0 0 0 0 0 0 0 0 0 0 0 0 0 0 0 0 0 0 0 0 0 0 0 0 0 0 0 0 0 0 0 0 0 0 0 0 0 0 0 0 0 0 0 0 0 0 0 0 0 0 0 0 0 0 0 0 0 0 0 0 0 0 0 0 0 0 0 0 0 0 0 0 0 0 0 0 0 0 0 0 0 0 0 0 0 0 0 0 0 0 0 0 0 0 0 0 0 0 0 0 0 0 0 0 0 0 0 115 115 230 115 115 230 115 115 230 115 115 230 115 115 230 115 115 230 115 115 230 115 115 230 115 115 230 115 115 230 115 115 230 115 115 230 115 115 230 115 115 230 115 115 230 115 115 230 115 115 230 115 115 230 115 115 230 115 115 230 115 115 230 115 115 230 115 115 230 115 115 230 115 115 230 115 115 230 115 115 230 115 115 230 115 115 230 115 115 230 115 115 230 115 115 230 115 115 230 115 115 230 159 247 244 159 247 244 159 247 244 159 247 244 159 247 244 159 247 244 159 247 244 159 247 244 159 247 244 159 247 244 159 247 244 159 247 244 159 247 244 159 247 244 159 247 244 159 247 244 159 247 244 159 247 244 159 247 244 44 132 14 44 132 14 44 132 14 44 132 14 44 132 14 44 132 14 44 132 14 0 0 0 0 0 0 0 0 0 0 0 0 0 0 0 0 0 0 0 0 0 0 0 0 0 0 0 0 0 0 0 0 0 0 0 0 0 0 0 0 0 0 0 0 0 0 0 0 0 0 0 0 0 0 0 0 0 0 0 0 0 0 0 0 0 0 0 0 0 0 0 0 0 0 0 0 0 0 0 0 0 0 0 0 0 0 0 0 0 0 0 0 0 0 0 0 0 0 0 0 0 0 0 0 0 0 0 0 0 0 0 0 0 0 0 0 0 114 114 229 114 114 229 114 114 229 114 114 229 114 114 229 114 114 229 114 114 229 114 114 229 114 114 229 114 114 229 114 114 229 114 114 229 114 114 229 114 114 229 114 114 229 114 114 229 114 114 229 114 114 229 114 114 229 114 114 229 114 114 229 114 114 229 114 114 229 114 114 229 114 114 229 114 114 229 114 114 229 114 114 229 114 114 229 114 114 229 114 114 229 114 114 229 114 114 229 158 247 243 158 247 243 158 247 243 158 247 243 158 247 243 158 247 243 158 246 243 158 246 243 158 246 243 158 246 243 158 246 243 158 246 243 158 246 243 158 246 243 158 246 243 158 246 243 158 246 243 158 246 243 158 246 243 158 246 243 158 246 243 158 246 243 158 246 243 158 246 243 158 246 243 158 246 243 158 246 243 158 246 243 158 246 243 158 246 243 158 246 243 158 246 243 158 246 243 158 246 243 158 246 243 158 246 243 158 246 243 158 246 243 158 246 243 158 246 243 158 246 243 158 246 243 158 246 243 158 246 243 158 246 243 158 246 242 158 246 242 158 246 242 158 246 242 158 246 242 158 246 242 158 246 242 158 246 242 158 246 242
159 247 245 159 247 245 159 247 245 159 247 245 159 247 245 159 247 245 159 247 245 159 247 245 159 247 245 159 247 245 159 247 245 159 247 245 159 247 245 159 247 245 159 247 245 159 247 245 159 247 245 159 247 245 159 247 245 159 247 245 159 247 245 159 247 245 159 247 245 159 247 245 159 247 245 159 247 245 159 247 245 159 247 245 159 247 245 159 247 245 159 247 245 159 247 245 159 247 245 159 247 245 159 247 245 159 247 245 159 247 245 159 247 245 159 247 245 159 247 245 159 247 245 159 247 245 159 247 245 159 247 245 159 247 245 159 247 245 159 247 245 159 247 245 159 247 245 159 247 245 159 247 245 159 247 245 159 247 245 159 247 245 159 247 245 159 247 245 159 247 245 159 247 245 159 247 245 159 247 245 159 247 245 159 247 245 159 247 245 159 247 245 159 247 245 159 247 245 159 247 245 159 247 245 159 247 245 159 247 245 159 247 245 159 247 245 159 247 245 159 247 245 159 247 245 159 247 245 159 247 245 159 247 245 159 247 245 159 247 245 159 247 245 159 247 245 159 247 245 44 132 14 44 132 14 44 132 14 44 132 14 44 132 14 44 132 14 44 132 14 44 132 14 44 132 14 44 132 14 0 0 0 0 0 0 0 0 0 0 0 0 0 0 0 0 0 0 0 0 0 0 0 0 0 0 0 0 0 0 0 0 0 0 0 0 0 0 0 0 0 0 0 0 0 0 0 0 0 0 0 0 0 0 0 0 0 0 0 0 0 0 0 0 0 0 0 0 0 0 0 0 0 0 0 0 0 0 0 0 0 0 0 0 0 0 0 0 0 0 0 0 0 0 0 0 0 0 0 0 0 0 0 0 0 0 0 0 0 0 0 0 0 0 0 0 0 0 0 0 0 0 0 0 0 0 0 0 0 115 115 230 115 115 230 115 115 230 115 115 230 115 115 230 115 115 230 115 115 230 115 115 230 115 115 230 115 115 230 115 115 230 115 115 230 115 115 230 115 115 230 115 115 230 115 115 230 115 115 230 115 115 230 115 115 230 115 115 230 115 115 230 115 115 230 115 115 230 115 115 230 115 115 230 115 115 230 115 115 230 115 115 230 115 115 230 159 247 245 159 247 245 159 247 245 159 247 245 159 247 245 159 247 245 159 247 245 159 247 245 159 247 245 159 247 245 159 247 245 159 247 245 159 247 245 159 247 245 159 247 245 159 247 245 159 247 245 159 247 245 159 247 245 44 132 14 44 132 14 44 132 14 44 132 14 44 132 14 44 132 14 44 132 14 44 132 14 44 132 14 44 132 14 44 132 14 44 132 14 0 0 0 0 0 0 0 0 0 0 0 0 0 0 0 0 0 0 0 0 0 0 0 0 0 0 0 0 0 0 0 0 0 0 0 0 0 0 0 0 0 0 0 0 0 0 0 0 0 0 0 0 0 0 0 0 0 0 0 0 0 0 0 0 0 0 0 0 0 0 0 0 0 0 0 0 0 0 0 0 0 0 0 0 0 0 0 0 0 0 0 0 0 0 0 0 0 0 0 0 0 0 0 0 0 0 0 0 0 0 0 0 0 0 0 0 0 0 0 0 114 114 229 114 114 229 114 114 229 114 114 229 114 114 229 114 114 229 114 114 229 114 114 229 114 114 229 114 114 229 114 114 229 114 114 229 114 114 229 114 114 229 114 114 229 114 114 229 114 114 229 114 114 229 114 114 229 114 114 229 114 114 229 114 114 229 114 114 229 114 114 229 114 114 229 114 114 229 114 114 229 114 114 229 158 247 244 158 247 244 158 247 244 158 247 244 158 247 244 158 247 244 158 247 244 158 247 244 158 247 244 158 247 244 158 247 244 158 247 244 158 247 244 158 247 244 158 247 244 158 247 244 158 247 243 158 247 243 158 247 243 158 247 243 158 247 243 158 247 243 158 247 243 158 247 243 158 247 243 158 247 243 158 247 243 158 247 243 158 247 243 158 247 243 158 247 243 158 247 243 158 246 243 158 246 243 158 246 243 158 246 243 158 246 243 158 246 243 158 246 243 158 246 243 158 246 243 158 246 243 158 246 243 158 246 243 158 246 243 158 246 243 158 246 243 158 246 243 158 246 243 158 246 243 158 246 243 158 246 243 158 246 243 158 246 243 158 246 243 158 246 243
159 247 245 159 247 245 159 247 245 159 247 245 159 247 245 159 247 245 159 247 245 159 247 245 159 247 245 159 247 245 159 247 245 159 247 245 159 247 245 159 247 245 159 248 245 159 248 245 159 248 245 159 248 245 159 248 245 159 248 245 159 248 245 159 248 245 159 248 245 159 248 245 159 248 245 159 248 245 159 248 245 159 248 245 159 248 245 159 248 245 159 248 245 159 248 245 159 248 245 159 248 245 159 248 245 159 248 245 159 248 245 159 248 245 159 248 245 159 248 245 159 248 245 159 248 245 159 248 245 159 248 245 159 248 245 159 248 245 159 248 245 159 248 245 159 248 245 159 248 245 159 248 245 159 248 245 159 248 245 159 248 245 159 248 245 159 248 245 159 248 245 159 248 245 159 248 245 159 248 245 159 248 245 159 248 245 159 248 245 159 248 245 159 248 245 159 248 245 159 248 245 159 248 245 159 248 245 159 248 245 159 248 245 159 248 245 159 248 245 159 248 245 159 248 245 159 248 245 159 248 245 159 248 245 159 248 245 159 248 245 159 248 246 44 132 14 44 132 14 44 132 14 44 132 14 44 132 14 44 132 14 44 132 14 44 132 14 44 132 14 44 132 14 44 132 14 44 132 14 44 132 14 44 132 14 0 0 0 0 0 0 0 0 0 0 0 0 0 0 0 0 0 0 0 0 0 0 0 0 0 0 0 0 0 0 0 0 0 0 0 0 0 0 0 0 0 0 0 0 0 0 0 0 0 0 0 0 0 0 0 0 0 0 0 0 0 0 0 0 0 0 0 0 0 0 0 0 0 0 0 0 0 0 0 0 0 0 0 0 0 0 0 0 0 0 0 0 0 0 0 0 0 0 0 0 0 0 0 0 0 0 0 0 0 0 0 0 0 0 0 0 0 0 0 0 0 0 0 115 115 231 115 115 231 115 115 231 115 115 231 115 115 231 115 115 231 115 115 231 115 115 231 115 115 231 115 115 231 115 115 231 115 115 231 115 115 231 115 115 231 115 115 231 115 115 231 115 115 231 115 115 231 115 115 231 115 115 231 115 115 231 115 115 231 115 115 231 115 115 231 159 248 245 159 248 245 159 248 245 159 248 245 159 248 245 159 248 245 159 248 245 159 248 245 159 248 245 159 248 245 159 248 245 159 248 245 159 248 245 159 247 245 159 247 245 159 247 245 159 247 245 159 247 245 159 247 245 159 247 245 159 247 245 159 247 245 159 247 245 44 132 14 44 132 14 44 132 14 44 132 14 44 132 14 44 132 14 44 132 14 44 132 14 44 132 14 44 132 14 44 132 14 44 132 14 44 132 14 44 132 14 44 132 14 0 0 0 0 0 0 0 0 0 0 0 0 0 0 0 0 0 0 0 0 0 0 0 0 0 0 0 0 0 0 0 0 0 0 0 0 0 0 0 0 0 0 0 0 0 0 0 0 0 0 0 0 0 0 0 0 0 0 0 0 0 0 0 0 0 0 0 0 0 0 0 0 0 0 0 0 0 0 0 0 0 0 0 0 0 0 0 0 0 0 0 0 0 0 0 0 0 0 0 0 0 0 0 0 0 0 0 0 0 0 0 0 0 0 0 0 0 0 0 0 115 115 230 115 115 230 115 115 230 115 115 230 115 115 230 115 115 230 115 115 230 115 115 230 115 115 230 115 115 230 115 115 230 115 115 230 115 115 230 115 115 230 115 115 230 115 115 230 115 115 230 115 115 230 115 115 230 115 115 230 115 115 230 115 115 230 115 115 230 159 247 244 159 247 244 159 247 244 159 247 244 159 247 244 159 247 244 159 247 244 159 247 244 159 247 244 159 247 244 159 247 244 159 247 244 159 247 244 159 247 244 159 247 244 159 247 244 159 247 244 159 247 244 159 247 244 159 247 244 159 247 244 158 247 244 158 247 244 158 247 244 158 247 244 158 247 244 158 247 244 158 247 244 158 247 244 158 247 244 158 247 244 158 247 244 158 247 244 158 247 244 158 247 244 158 247 244 158 247 244 158 247 244 158 247 244 158 247 244 158 247 244 158 247 244 158 247 243 158 247 243 158 247 243 158 247 243 158 247 243 158 247 243 158 247 243 158 247 243 158 247 243 158 247 243 158 247 243 158 247 243 158 247 243 158 247 243 158 247 243 158 246 243 158 246 243
159 248 246 159 248 246 159 248 246 159 248 246 159 248 246 159 248 246 159 248 246 159 248 246 159 248 246 159 248 246 159 248 246 159 248 246 159 248 246 159 248 246 159 248 246 159 248 246 159 248 246 159 248 246 159 248 246 159 248 246 159 248 246 159 248 246 159 248 246 159 248 246 159 248 246 159 248 246 159 248 246 159 248 246 159 248 246 159 248 246 159 248 246 159 248 246 159 248 246 159 248 246 159 248 246 159 248 246 159 248 246 159 248 246 159 248 246 159 248 246 159 248 246 159 248 246 159 248 246 159 248 246 159 248 246 159 248 246 159 248 246 159 248 246 159 248 246 159 248 246 159 248 246 159 248 246 159 248 246 159 248 246 159 248 246 159 248 246 159 248 246 159 248 246 159 248 246 159 248 246 159 248 246 159 248 246 159 248 246 159 248 246 159 248 246 159 248 246 159 248 246 159 248 246 159 248 246 159 248 246 159 248 246 159 248 246 159 248 246 159 248 246 159 248 246 159 248 246 159 248 246 159 248 246 159 248 246 159 248 246 160 248 246 44 132 14 44 132 14 44 132 14 44 132 14 44 132 14 44 132 14 44 132 14 44 132 14 44 132 14 44 132 14 44 132 14 44 132 14 44 132 14 44 132 14 44 132 14 44 132 14 0 0 0 0 0 0 0 0 0 0 0 0 0 0 0 0 0 0 0 0 0 0 0 0 0 0 0 0 0 0 0 0 0 0 0 0 0 0 0 0 0 0 0 0 0 0 0 0 0 0 0 0 0 0 0 0 0 0 0 0 0 0 0 0 0 0 0 0 0 0 0 0 0 0 0 0 0 0 0 0 0 0 0 0 0 0 0 0 0 0 0 0 0 0 0 0 0 0 0 0 0 0 0 0 0 0 0 0 0 0 0 0 0 0 0 0 0 115 115 231 115 115 231 115 115 231 115 115 231 115 115 231 115 115 231 115 115 231 115 115 231 115 115 231 115 115 231 115 115 231 115 115 231 115 115 231 115 115 231 115 115 231 115 115 231 115 115 231 115 115 231 159 248 246 159 248 246 159 248 246 159 248 246 159 248 246 159 248 246 159 248 246 159 248 246 159 248 246 159 248 246 159 248 246 159 248 246 159 248 246 159 248 246 159 248 246 159 248 246 159 248 246 159 248 246 159 248 246 159 248 246 159 248 246 159 248 246 159 248 246 159 248 246 159 248 246 159 248 246 159 248 246 159 248 246 159 248 246 44 132 14 44 132 14 44 132 14 44 132 14 44 132 14 44 132 14 44 132 14 44 132 14 44 132 14 44 132 14 44 132 14 44 132 14 44 132 14 44 132 14 0 0 0 0 0 0 0 0 0 0 0 0 0 0 0 0 0 0 0 0 0 0 0 0 0 0 0 0 0 0 0 0 0 0 0 0 0 0 0 0 0 0 0 0 0 0 0 0 0 0 0 0 0 0 0 0 0 0 0 0 0 0 0 0 0 0 0 0 0 0 0 0 0 0 0 0 0 0 0 0 0 0 0 0 0 0 0 0 0 0 0 0 0 0 0 0 0 0 0 0 0 0 0 0 0 0 0 0 0 0 0 0 0 0 0 0 0 0 0 0 0 0 0 115 115 230 115 115 230 115 115 230 115 115 230 115 115 230 115 115 230 115 115 230 115 115 230 115 115 230 115 115 230 115 115 230 115 115 230 115 115 230 115 115 230 115 115 230 115 115 230 115 115 230 115 115 230 159 247 245 159 247 245 159 247 245 159 247 245 159 247 245 159 247 245 159 247 245 159 247 245 159 247 245 159 247 245 159 247 245 159 247 245 159 247 245 159 247 244 159 247 244 159 247 244 159 247 244 159 247 244 159 247 244 159 247 244 159 247 244 159 247 244 159 247 244 159 247 244 159 247 244 159 247 244 159 247 244 159 247 244 159 247 244 159 247 244 159 247 244 159 247 244 159 247 244 159 247 244 159 247 244 159 247 244 159 247 244 159 247 244 159 247 244 159 247 244 159 247 244 159 247 244 159 247 244 159 247 244 159 247 244 159 247 244 159 247 244 159 247 244 158 247 244 158 247 244 158 247 244 158 247 244 158 247 244 158 247 244 158 247 244 158 247 244 158 247 244 158 247 244 158 247 244 158 247 244 158 247 244 158 247 244 158 247 244 158 247 244
160 248 246 160 248 246 160 248 246 160 248 246 160 248 246 160 248 246 160 248 246 160 248 246 160 248 246 160 248 246 160 248 246 160 248 246 160 248 246 160 248 246 160 248 246 160 248 246 160 248 246 160 248 246 160 248 246 160 248 246 160 248 246 160 248 246 160 248 246 160 248 246 160 248 246 160 248 246 160 248 246 160 248 246 160 248 246 160 248 246 160 248 246 160 248 246 160 248 246 160 248 246 160 248 246 160 248 246 160 248 246 160 248 246 160 248 246 160 248 246 160 248 246 160 248 246 160 248 246 160 248 246 160 248 246 160 248 246 160 248 246 160 248 246 160 248 246 160 248 246 160 248 246 160 248 246 160 248 246 160 248 246 160 248 246 160 248 246 160 248 246 160 248 246 160 248 246 160 248 246 160 248 246 160 248 246 160 248 246 160 248 246 160 248 246 160 248 246 160 248 246 160 248 246 160 248 246 160 248 246 160 248 246 160 248 246 160 248 246 160 248 246 160 248 246 160 248 246 160 248 246 160 248 246 160 248 246 160 248 246 160 248 246 160 248 246 44 132 14 44 132 14 44 132 14 44 132 14 44 132 14 44 132 14 44 132 14 44 132 14 44 132 14 44 132 14 44 132 14 44 132 14 44 132 14 44 132 14 44 132 14 0 0 0 0 0 0 0 0 0 0 0 0 0 0 0 0 0 0 0 0 0 0 0 0 0 0 0 0 0 0 0 0 0 0 0 0 0 0 0 0 0 0 0 0 0 0 0 0 0 0 0 0 0 0 0 0 0 0 0 0 0 0 0 0 0 0 0 0 0 0 0 0 0 0 0 0 0 0 0 0 0 0 0 0 0 0 0 0 0 0 0 0 0 0 0 0 0 0 0 0 0 0 0 0 0 0 0 0 0 0 0 115 115 231 115 115 231 115 115 231 115 115 231 115 115 231 115 115 231 115 115 231 115 115 231 115 115 231 115 115 231 115 115 231 115 115 231 115 115 231 160 248 246 160 248 246 160 248 246 160 248 246 160 248 246 160 248 246 160 248 246 160 248 246 160 248 246 160 248 246 160 248 246 160 248 246 160 248 246 160 248 246 160 248 246 160 248 246 160 248 246 160 248 246 160 248 246 160 248 246 160 248 246 160 248 246 160 248 246 160 248 246 160 248 246 160 248 246 160 248 246 160 248 246 160 248 246 160 248 246 160 248 246 160 248 246 160 248 246 160 248 246 160 248 246 160 248 246 160 248 246 160 248 246 44 132 14 44 132 14 44 132 14 44 132 14 44 132 14 44 132 14 44 132 14 44 132 14 44 132 14 44 132 14 44 132 14 44 132 14 44 132 14 0 0 0 0 0 0 0 0 0 0 0 0 0 0 0 0 0 0 0 0 0 0 0 0 0 0 0 0 0 0 0 0 0 0 0 0 0 0 0 0 0 0 0 0 0 0 0 0 0 0 0 0 0 0 0 0 0 0 0 0 0 0 0 0 0 0 0 0 0 0 0 0 0 0 0 0 0 0 0 0 0 0 0 0 0 0 0 0 0 0 0 0 0 0 0 0 0 0 0 0 0 0 0 0 0 0 0 0 0 0 0 0 0 0 0 0 0 0 0 0 115 115 231 115 115 231 115 115 231 115 115 231 115 115 231 115 115 231 115 115 231 115 115 231 115 115 230 115 115 230 115 115 230 115 115 230 159 247 245 159 247 245 159 247 245 159 247 245 159 247 245 159 247 245 159 247 245 159 247 245 159 247 245 159 247 245 159 247 245 159 247 245 159 247 245 159 247 245 159 247 245 159 247 245 159 247 245 159 247 245 159 247 245 159 247 245 159 247 245 159 247 245 159 247 245 159 247 245 159 247 245 159 247 245 159 247 245 159 247 245 159 247 245 159 247 245 159 247 245 159 247 245 159 247 245 159 247 245 159 247 245 159 247 245 159 247 245 159 247 245 159 247 245 159 247 245 159 247 245 159 247 245 159 247 244 159 247 244 159 247 244 159 247 244 159 247 244 159 247 244 159 247 244 159 247 244 159 247 244 159 247 244 159 247 244 159 247 244 159 247 244 159 247 244 159 247 244 159 247 244 159 247 244 159 247 244 159 247 244 159 247 244 159 247 244 159 247 244 159 247 244 159 247 244 159 247 244 159 247 244 159 247 244 159 247 244
160 248 246 160 248 246 160 248 246 160 248 246 160 248 246 160 248 246 160 248 246 160 248 246 160 248 246 160 248 246 160 248 246 160 248 246 160 248 246 160 248 246 160 248 246 160 248 246 160 248 246 160 248 246 160 248 246 160 248 246 160 248 246 160 248 246 160 248 246 160 248 246 160 248 246 160 248 246 160 248 246 160 248 246 160 248 246 160 248 246 160 248 246 160 248 246 160 248 246 160 248 246 160 248 247 160 248 247 160 248 247 160 248 247 160 248 247 160 248 247 160 248 247 160 248 247 160 248 247 160 248 247 160 248 247 160 248 247 160 248 247 160 248 247 160 248 247 160 248 247 160 248 247 160 248 247 160 248 247 160 248 247 160 248 247 160 248 247 160 248 247 160 248 247 160 248 247 160 248 247 160 248 247 160 248 247 160 248 247 160 248 247 160 248 247 160 248 247 160 248 247 160 248 247 160 248 247 160 248 247 160 248 247 160 248 247 160 248 247 160 248 247 160 248 247 160 248 247 160 248 247 160 248 247 160 248 247 160 248 247 160 248 247 160 248 247 160 248 247 160 248 247 44 132 14 44 132 14 44 132 14 44 132 14 44 132 14 44 132 14 44 132 14 44 132 14 44 132 14 44 132 14 44 132 14 44 132 14 44 132 14 44 132 14 44 132 14 0 0 0 0 0 0 0 0 0 0 0 0 0 0 0 0 0 0 0 0 0 0 0 0 0 0 0 0 0 0 0 0 0 0 0 0 0 0 0 0 0 0 0 0 0 0 0 0 0 0 0 0 0 0 0 0 0 0 0 0 0 0 0 0 0 0 0 0 0 0 0 0 0 0 0 0 0 0 0 0 0 0 0 0 0 0 0 0 0 0 0 0 0 116 116 232 116 116 232 116 116 232 116 116 232 116 116 232 116 116 232 116 116 232 160 248 247 160 248 247 160 248 247 160 248 247 160 248 247 160 248 247 160 248 247 160 248 247 160 248 247 160 248 247 160 248 247 160 248 246 160 248 246 160 248 246 160 248 246 160 248 246 160 248 246 160 248 246 160 248 246 160 248 246 160 248 246 160 248 246 160 248 246 160 248 246 160 248 246 160 248 246 160 248 246 160 248 246 160 248 246 160 248 246 160 248 246 160 248 246 160 248 246 160 248 246 160 248 246 160 248 246 160 248 246 160 248 246 160 248 246 160 248 246 160 248 246 160 248 246 160 248 246 160 248 246 160 248 246 160 248 246 160 248 246 160 248 246 160 248 246 160 248 246 44 132 14 44 132 14 44 132 14 44 132 14 44 132 14 44 132 14 44 132 14 44 132 14 44 132 14 44 132 14 44 132 14 44 132 14 44 132 14 44 132 14 0 0 0 0 0 0 0 0 0 0 0 0 0 0 0 0 0 0 0 0 0 0 0 0 0 0 0 0 0 0 0 0 0 0 0 0 0 0 0 0 0 0 0 0 0 0 0 0 0 0 0 0 0 0 0 0 0 0 0 0 0 0 0 0 0 0 0 0 0 0 0 0 0 0 0 0 0 0 0 0 0 0 0 0 0 0 0 0 0 0 0 0 0 0 0 0 0 0 0 0 0 0 0 0 0 115 115 231 115 115 231 115 115 231 115 115 231 115 115 231 115 115 231 115 115 231 159 248 246 159 248 246 159 248 246 159 248 246 159 248 246 159 248 246 159 248 246 159 248 246 159 248 246 159 248 246 159 248 245 159 248 245 159 248 245 159 248 245 159 248 245 159 248 245 159 248 245 159 248 245 159 248 245 159 248 245 159 248 245 159 248 245 159 248 245 159 248 245 159 248 245 159 248 245 159 248 245 159 248 245 159 248 245 159 247 245 159 247 245 159 247 245 159 247 245 159 247 245 159 247 245 159 247 245 159 247 245 159 247 245 159 247 245 159 247 245 159 247 245 159 247 245 159 247 245 159 247 245 159 247 245 159 247 245 159 247 245 159 247 245 159 247 245 159 247 245 159 247 245 159 247 245 159 247 245 159 247 245 159 247 245 159 247 245 159 247 245 159 247 245 159 247 245 159 247 245 159 247 245 159 247 245 159 247 245 159 247 245 159 247 245 159 247 245 159 247 245 159 247 245 159 247 245 159 247 245 159 247 245 159 247 244 159 247 244 159 247 244 159 247 244 159 247 244 159 247 244
160 248 247 160 248 247 160 248 247 160 248 247 160 248 247 160 248 247 160 248 247 160 248 247 160 248 247 160 248 247 160 248 247 160 248 247 160 248 247 160 248 247 160 248 247 160 248 247 160 248 247 160 248 247 160 248 247 160 248 247 160 248 247 160 248 247 160 248 247 160 248 247 160 248 247 160 248 247 160 248 247 160 248 247 160 248 247 160 248 247 160 248 247 160 248 247 160 248 247 160 248 247 160 248 247 160 248 247 160 248 247 160 248 247 160 248 247 160 248 247 160 248 247 160 248 247 160 248 247 160 248 247 160 248 247 160 248 247 160 248 247 160 248 247 160 248 247 160 248 247 160 248 247 160 248 247 160 248 247 160 248 247 160 248 247 160 248 247 160 248 247 160 248 247 160 248 247 160 248 247 160 248 247 160 248 247 160 248 247 160 248 247 160 248 247 160 248 247 160 248 247 160 248 247 160 248 247 160 248 247 160 248 247 160 248 247 160 248 247 160 248 247 160 248 247 160 248 247 160 248 247 160 248 247 160 248 247 160 248 247 160 248 247 160 248 247 160 248 247 160 248 247 160 248 247 160 248 247 160 248 247 160 248 247 44 132 14 44 132 14 44 132 14 44 132 14 44 132 14 44 132 14 44 132 14 44 132 14 44 132 14 44 132 14 44 132 14 44 132 14 44 132 14 44 132 14 44 132 14 44 132 14 44 132 14 44 132 14 44 132 14 44 132 14 44 132 14 0 0 0 0 0 0 0 0 0 0 0 0 0 0 0 0 0 0 0 0 0 0 0 0 0 0 0 0 0 0 0 0 0 0 0 0 44 132 14 44 132 14 44 132 14 44 132 14 160 248 247 160 248 247 160 248 247 160 248 247 160 248 247 160 248 247 160 248 247 160 248 247 160 248 247 160 248 247 160 248 247 160 248 247 160 248 247 160 248 247 160 248 247 160 248 247 160 248 247 160 248 247 160 248 247 160 248 247 160 248 247 160 248 247 160 248 247 160 248 247 160 248 247 160 248 247 160 248 247 160 248 247 160 248 247 160 248 247 160 248 247 160 248 247 160 248 247 160 248 247 160 248 247 160 248 247 160 248 247 160 248 247 160 248 247 160 248 247 160 248 247 160 248 247 160 248 247 160 248 247 160 248 247 160 248 247 160 248 247 160 248 247 160 248 247 160 248 247 160 248 247 160 248 247 160 248 247 160 248 247 160 248 247 160 248 247 160 248 247 160 248 247 160 248 247 160 248 247 160 248 247 160 248 247 160 248 247 160 248 247 160 248 247 160 248 247 160 248 247 44 132 14 44 132 14 44 132 14 44 132 14 44 132 14 44 132 14 44 132 14 44 132 14 44 132 14 44 132 14 44 132 14 44 132 14 44 132 14 44 132 14 44 132 14 44 132 14 0 0 0 0 0 0 0 0 0 0 0 0 0 0 0 0 0 0 0 0 0 0 0 0 0 0 0 0 0 0 0 0 0 0 0 0 0 0 0 0 0 0 0 0 0 0 0 0 0 0 0 0 0 0 0 0 0 0 0 0 0 0 0 0 0 0 44 132 14 44 132 14 160 248 246 160 248 246 160 248 246 160 248 246 160 248 246 160 248 246 160 248 246 160 248 246 160 248 246 160 248 246 160 248 246 160 248 246 160 248 246 160 248 246 160 248 246 160 248 246 160 248 246 160 248 246 160 248 246 160 248 246 159 248 246 159 248 246 159 248 246 159 248 246 159 248 246 159 248 246 159 248 246 159 248 246 159 248 246 159 248 246 159 248 246 159 248 246 159 248 246 159 248 246 159 248 246 159 248 246 159 248 246 159 248 246 159 248 246 159 248 246 159 248 246 159 248 246 159 248 246 159 248 246 159 248 246 159 248 246 159 248 245 159 248 245 159 248 245 159 248 245 159 248 245 159 248 245 159 248 245 159 248 245 159 248 245 159 248 245 159 248 245 159 248 245 159 248 245 159 248 245 159 248 245 159 248 245 159 248 245 159 247 245 159 247 245 159 247 245 159 247 245 159 247 245 159 247 245 159 247 245 159 247 245 159 247 245 159 247 245 159 247 245 159 247 245 159 247 245 159 247 245 159 247 245 159 247 245 159 247 245 159 247 245 159 247 245 159 247 245 159 247 245 159 247 245 159 247 245 159 247 245 159 247 245
160 248 247 160 248 247 160 248 247 160 248 247 160 248 247 160 248 247 160 248 247 160 248 247 160 248 247 160 248 247 160 248 247 160 248 247 160 248 247 160 248 247 160 248 247 160 248 247 160 248 247 160 248 247 160 248 247 160 248 247 160 248 247 160 248 247 160 248 247 160 248 247 160 248 247 160 248 247 160 248 247 160 248 247 160 248 247 160 248 247 160 248 247 160 248 247 160 248 247 160 248 247 160 249 247 160 249 247 160 249 247 160 249 247 160 249 247 160 249 247 160 249 247 160 249 247 160 249 247 160 249 247 160 249 247 160 249 247 160 249 247 160 249 247 160 249 247 160 249 247 160 249 247 160 249 247 160 249 247 160 249 247 160 249 247 160 249 247 160 249 247 160 249 247 160 249 247 160 249 247 160 249 247 160 249 247 160 249 247 160 249 247 160 249 247 160 249 247 160 249 247 160 249 247 160 249 247 160 249 247 160 249 247 160 249 247 160 249 247 160 249 247 160 249 247 160 249 247 160 249 247 160 249 247 160 249 247 160 249 247 160 249 247 160 249 247 160 249 247 160 249 247 160 249 247 160 249 247 160 249 247 160 249 247 160 249 247 160 249 247 160 249 247 160 249 247 160 249 247 160 249 247 160 249 247 160 249 247 160 249 247 160 249 247 44 132 14 44 132 14 44 132 14 44 132 14 44 132 14 44 132 14 44 132 14 44 132 14 44 132 14 44 132 14 44 132 14 44 132 14 44 132 14 44 132 14 44 132 14 44 132 14 160 249 247 160 249 247 160 249 247 160 249 247 160 249 247 160 249 247 160 249 247 160 249 247 160 249 247 160 249 247 160 249 247 160 249 247 160 249 247 160 249 247 160 249 247 160 249 247 160 249 247 160 249 247 160 249 247 160 249 247 160 249 247 160 249 247 160 249 247 160 249 247 160 249 247 160 249 247 160 249 247 160 249 247 160 249 247 160 249 247 160 249 247 160 248 247 160 248 247 160 248 247 160 248 247 160 248 247 160 248 247 160 248 247 160 248 247 160 248 247 160 248 247 160 248 247 160 248 247 160 248 247 160 248 247 160 248 247 160 248 247 160 248 247 160 248 247 160 248 247 160 248 247 160 248 247 160 248 247 160 248 247 160 248 247 160 248 247 160 248 247 160 248 247 160 248 247 160 248 247 160 248 247 160 248 247 160 248 247 160 248 247 160 248 247 160 248 247 160 248 247 160 248 247 160 248 247 160 248 247 160 248 247 160 248 247 160 248 247 160 248 247 160 248 247 160 248 247 160 248 247 160 248 247 160 248 247 160 248 247 160 248 247 160 248 247 160 248 247 160 248 247 160 248 247 160 248 247 44 132 14 44 132 14 44 132 14 44 132 14 44 132 14 44 132 14 44 132 14 44 132 14 44 132 14 44 132 14 44 132 14 44 132 14 44 132 14 44 132 14 44 132 14 44 132 14 44 132 14 44 132 14 44 132 14 44 132 14 44 132 14 44 132 14 44 132 14 44 132 14 160 248 247 160 248 247 160 248 247 160 248 247 160 248 247 160 248 247 160 248 247 160 248 247 160 248 246 160 248 246 160 248 246 160 248 246 160 248 246 160 248 246 160 248 246 160 248 246 160 248 246 160 248 246 160 248 246 160 248 246 160 248 246 160 248 246 160 248 246 160 248 246 160 248 246 160 248 246 160 248 246 160 248 246 160 248 246 160 248 246 160 248 246 160 248 246 160 248 246 160 248 246 160 248 246 160 248 246 160 248 246 160 248 246 160 248 246 160 248 246 160 248 246 160 248 246 160 248 246 160 248 246 160 248 246 160 248 246 160 248 246 160 248 246 160 248 246 160 248 246 160 248 246 160 248 246 159 248 246 159 248 246 159 248 246 159 248 246 159 248 246 159 248 246 159 248 246 159 248 246 159 248 246 159 248 246 159 248 246 159 248 246 159 248 246 159 248 246 159 248 246 159 248 246 159 248 246 159 248 246 159 248 246 159 248 246 159 248 246 159 248 246 159 248 246 159 248 246 159 248 245 159 248 245 159 248 245 159 248 245 159 248 245 159 248 245 159 248 245 159 248 245 159 248 245 159 248 245 159 248 245 159 248 245 159 248 245 159 248 245 159 248 245 159 247 245 159 247 245 159 247 245 159 247 245 159 247 245
160 249 247 160 249 247 160 249 247 160 249 247 160 249 247 160 249 247 160 249 247 160 249 247 160 249 247 160 249 247 160 249 247 160 249 247 160 249 247 160 249 247 160 249 247 160 249 247 160 249 247 160 249 247 160 249 247 160 249 247 160 249 247 160 249 248 160 249 248 160 249 248 160 249 248 160 249 248 160 249 248 160 249 248 160 249 248 160 249 248 160 249 248 160 249 248 160 249 248 160 249 248 160 249 248 160 249 248 160 249 248 160 249 248 160 249 248 160 249 248 160 249 248 160 249 248 160 249 248 160 249 248 160 249 248 160 249 248 160 249 248 160 249 248 160 249 248 160 249 248 160 249 248 160 249 248 160 249 248 160 249 248 160 249 248 160 249 248 160 249 248 160 249 248 160 249 248 160 249 248 160 249 248 160 249 248 160 249 248 160 249 248 160 249 248 160 249 248 160 249 248 160 249 248 160 249 248 160 249 248 160 249 248 160 249 248 160 249 248 160 249 248 160 249 248 160 249 248 160 249 248 160 249 248 160 249 248 160 249 248 160 249 248 160 249 248 160 249 248 160 249 248 160 249 248 160 249 248 160 249 248 160 249 248 160 249 248 160 249 248 160 249 248 160 249 248 160 249 248 160 249 248 160 249 248 160 249 248 160 249 248 160 249 248 160 249 248 160 249 248 160 249 248 160 249 248 160 249 248 160 249 248 160 249 248 160 249 248 160 249 248 160 249 248 160 249 248 160 249 248 160 249 248 160 249 248 160 249 248 160 249 248 160 249 248 160 249 248 160 249 248 160 249 248 160 249 248 160 249 248 160 249 248 160 249 248 160 249 248 160 249 248 160 249 248 160 249 248 160 249 248 160 249 248 160 249 248 160 249 248 160 249 248 160 249 248 160 249 248 160 249 248 160 249 248 160 249 248 160 249 248 160 249 248 160 249 248 160 249 248 160 249 248 160 249 248 160 249 248 160 249 248 160 249 248 160 249 248 160 249 248 160 249 248 160 249 248 160 249 248 160 249 248 160 249 248 160 249 248 160 249 248 160 249 248 160 249 248 160 249 248 160 249 247 160 249 247 160 249 247 160 249 247 160 249 247 160 249 247 160 249 247 160 249 247 160 249 247 160 249 247 160 249 247 160 249 247 160 249 247 160 249 247 160 249 247 160 249 247 160 249 247 160 249 247 160 249 247 160 249 247 160 249 247 160 249 247 160 249 247 160 249 247 160 249 247 160 249 247 160 249 247 160 249 247 160 249 247 160 249 247 160 249 247 160 249 247 160 249 247 160 249 247 160 249 247 160 249 247 160 249 247 160 249 247 160 249 247 160 248 247 160 248 247 160 248 247 160 248 247 160 248 247 160 248 247 160 248 247 160 248 247 160 248 247 160 248 247 160 248 247 160 248 247 160 248 247 160 248 247 160 248 247 160 248 247 160 248 247 160 248 247 160 248 247 160 248 247 160 248 247 160 248 247 160 248 247 160 248 247 160 248 247 160 248 247 160 248 247 160 248 247 160 248 247 160 248 247 160 248 247 160 248 247 160 248 247 160 248 247 160 248 247 160 248 247 160 248 247 160 248 247 160 248 247 160 248 247 160 248 247 160 248 247 160 248 247 160 248 247 160 248 247 160 248 247 160 248 247 160 248 247 160 248 247 160 248 247 160 248 247 160 248 247 160 248 247 160 248 247 160 248 247 160 248 247 160 248 247 160 248 247 160 248 247 160 248 247 160 248 247 160 248 247 160 248 246 160 248 246 160 248 246 160 248 246 160 248 246 160 248 246 160 248 246 160 248 246 160 248 246 160 248 246 160 248 246 160 248 246 160 248 246 160 248 246 160 248 246 160 248 246 160 248 246 160 248 246 160 248 246 160 248 246 160 248 246 160 248 246 160 248 246 160 248 246 160 248 246 160 248 246 160 248 246 160 248 246 160 248 246 160 248 246 160 248 246 160 248 246 160 248 246 160 248 246 160 248 246 160 248 246 160 248 246 160 248 246 160 248 246 160 248 246 159 248 246 159 248 246 159 248 246 159 248 246 159 248 246 159 248 246 159 248 246 159 248 246 159 248 246 159 248 246 159 248 246 159 248 246 159 248 246 159 248 246 159 248 246 159 248 246 159 248 246 159 248 246 159 248 246 159 248 246 159 248 246 159 248 245
160 249 248 160 249 248 160 249 248 160 249 248 160 249 248 160 249 248 160 249 248 160 249 248 160 249 248 160 249 248 160 249 248 160 249 248 160 249 248 160 249 248 160 249 248 160 249 248 160 249 248 160 249 248 160 249 248 160 249 248 160 249 248 160 249 248 160 249 248 160 249 248 160 249 248 160 249 248 160 249 248 160 249 248 160 249 248 160 249 248 160 249 248 161 249 248 161 249 248 161 249 248 161 249 248 161 249 248 161 249 248 161 249 248 161 249 248 161 249 248 161 249 248 161 249 248 161 249 248 161 249 248 161 249 248 161 249 248 161 249 248 161 249 248 161 249 248 161 249 248 161 249 248 161 249 248 161 249 248 161 249 248 161 249 248 161 249 248 161 249 248 161 249 248 161 249 248 161 249 248 161 249 248 161 249 248 161 249 248 161 249 248 161 249 248 161 249 248 161 249 248 161 249 248 161 249 248 161 249 248 161 249 248 161 249 248 161 249 248 161 249 248 161 249 248 161 249 248 161 249 248 161 249 248 161 249 248 161 249 248 161 249 248 161 249 248 161 249 248 161 249 248 161 249 248 161 249 248 161 249 248 161 249 248 161 249 248 161 249 248 161 249 248 161 249 248 161 249 248 161 249 248 161 249 248 161 249 248 161 249 248 161 249 248 161 249 248 161 249 248 161 249 248 161 249 248 161 249 248 161 249 248 161 249 248 161 249 248 161 249 248 161 249 248 161 249 248 161 249 248 161 249 248 161 249 248 161 249 248 161 249 248 161 249 248 161 249 248 161 249 248 161 249 248 161 249 248 161 249 248 161 249 248 161 249 248 161 249 248 161 249 248 161 249 248 161 249 248 161 249 248 161 249 248 161 249 248 161 249 248 161 249 248 161 249 248 161 249 248 161 249 248 161 249 248 161 249 248 161 249 248 161 249 248 161 249 248 161 249 248 161 249 248 161 249 248 161 249 248 161 249 248 161 249 248 161 249 248 160 249 248 160 249 248 160 249 248 160 249 248 160 249 248 160 249 248 160 249 248 160 249 248 160 249 248 160 249 248 160 249 248 160 249 248 160 249 248 160 249 248 160 249 248 160 249 248 160 249 248 160 249 248 160 249 248 160 249 248 160 249 248 160 249 248 160 249 248 160 249 248 160 249 248 160 249 248 160 249 248 160 249 248 160 249 248 160 249 248 160 249 248 160 249 248 160 249 248 160 249 248 160 249 248 160 249 248 160 249 248 160 249 248 160 249 248 160 249 248 160 249 248 160 249 248 160 249 248 160 249 248 160 249 248 160 249 248 160 249 248 160 249 248 160 249 248 160 249 248 160 249 248 160 249 248 160 249 248 160 249 248 160 249 248 160 249 247 160 249 247 160 249 247 160 249 247 160 249 247 160 249 247 160 249 247 160 249 247 160 249 247 160 249 247 160 249 247 160 249 247 160 249 247 160 249 247 160 249 247 160 249 247 160 249 247 160 249 247 160 249 247 160 249 247 160 249 247 160 249 247 160 249 247 160 249 247 160 249 247 160 249 247 160 249 247 160 249 247 160 248 247 160 248 247 160 248 247 160 248 247 160 248 247 160 248 247 160 248 247 160 248 247 160 248 247 160 248 247 160 248 247 160 248 247 160 248 247 160 248 247 160 248 247 160 248 247 160 248 247 160 248 247 160 248 247 160 248 247 160 248 247 160 248 247 160 248 247 160 248 247 160 248 247 160 248 247 160 248 247 160 248 247 160 248 247 160 248 247 160 248 247 160 248 247 160 248 247 160 248 247 160 248 247 160 248 247 160 248 247 160 248 247 160 248 247 160 248 247 160 248 247 160 248 247 160 248 247 160 248 247 160 248 247 160 248 247 160 248 247 160 248 247 160 248 247 160 248 247 160 248 247 160 248 247 160 248 247 160 248 246 160 248 246 160 248 246 160 248 246 160 248 246 160 248 246 160 248 246 160 248 246 160 248 246 160 248 246 160 248 246 160 248 246 160 248 246 160 248 246 160 248 246 160 248 246 160 248 246 160 248 246 160 248 246 160 248 246 160 248 246 160 248 246 160 248 246 160 248 246 160 248 246 160 248 246 160 248 246 160 248 246 160 248 246 160 248 246 160 248 246 160 248 246 160 248 246 160 248 246 160 248 246 160 248 246 159 248 246 159 248 246
161 249 248 161 249 248 161 249 248 161 249 248 161 249 248 161 249 248 161 249 248 161 249 248 161 249 248 161 249 248 161 249 248 161 249 248 161 249 248 161 249 248 161 249 248 161 249 248 161 249 248 161 249 248 161 249 248 161 249 248 161 249 248 161 249 248 161 249 248 161 249 248 161 249 248 161 249 248 161 249 248 161 249 248 161 249 248 161 249 248 161 249 248 161 249 248 161 249 248 161 249 248 161 249 248 161 249 248 161 249 248 161 249 248 161 249 248 161 249 248 161 249 248 161 249 248 161 249 248 161 249 248 161 249 248 161 249 248 161 249 248 161 249 248 161 249 248 161 249 248 161 249 248 161 249 248 161 249 248 161 249 248 161 249 248 161 249 248 161 249 248 161 249 248 161 249 248 161 249 248 161 249 248 161 249 248 161 249 248 161 249 248 161 249 248 161 249 248 161 249 248 161 249 248 161 249 248 161 249 248 161 249 248 161 249 248 161 249 248 161 249 248 161 249 248 161 249 248 161 249 248 161 249 248 161 249 248 161 249 248 161 249 248 161 249 248 161 249 248 161 249 248 161 249 248 161 249 248 161 249 248 161 249 248 161 249 248 161 249 248 161 249 248 161 249 248 161 249 248 161 249 248 161 249 248 161 249 248 161 249 248 161 249 248 161 249 248 161 249 248 161 249 248 161 249 248 161 249 248 161 249 248 161 249 248 161 249 248 161 249 248 161 249 248 161 249 248 161 249 248 161 249 248 161 249 248 161 249 248 161 249 248 161 249 248 161 249 248 161 249 248 161 249 248 161 249 248 161 249 248 161 249 248 161 249 248 161 249 248 161 249 248 161 249 248 161 249 248 161 249 248 161 249 248 161 249 248 161 249 248 161 249 248 161 249 248 161 249 248 161 249 248 161 249 248 161 249 248 161 249 248 161 249 248 161 249 248 161 249 248 161 249 248 161 249 248 161 249 248 161 249 248 161 249 248 161 249 248 161 249 248 161 249 248 161 249 248 161 249 248 161 249 248 161 249 248 161 249 248 161 249 248 161 249 248 161 249 248 161 249 248 161 249 248 161 249 248 161 249 248 161 249 248 161 249 248 161 249 248 161 249 248 161 249 248 161 249 248 161 249 248 161 249 248 161 249 248 161 249 248 161 249 248 161 249 248 161 249 248 161 249 248 161 249 248 161 249 248 161 249 248 161 249 248 161 249 248 161 249 248 161 249 248 161 249 248 161 249 248 161 249 248 161 249 248 161 249 248 161 249 248 161 249 248 161 249 248 161 249 248 161 249 248 161 249 248 161 249 248 161 249 248 161 249 248 160 249 248 160 249 248 160 249 248 160 249 248 160 249 248 160 249 248 160 249 248 160 249 248 160 249 248 160 249 248 160 249 248 160 249 248 160 249 248 160 249 248 160 249 248 160 249 248 160 249 248 160 249 248 160 249 248 160 249 248 160 249 248 160 249 248 160 249 248 160 249 248 160 249 248 160 249 248 160 249 248 160 249 248 160 249 248 160 249 248 160 249 248 160 249 248 160 249 248 160 249 248 160 249 248 160 249 248 160 249 248 160 249 248 160 249 247 160 249 247 160 249 247 160 249 247 160 249 247 160 249 247 160 249 247 160 249 247 160 249 247 160 249 247 160 249 247 160 249 247 160 249 247 160 249 247 160 249 247 160 249 247 160 249 247 160 249 247 160 249 247 160 249 247 160 249 247 160 249 247 160 248 247 160 248 247 160 248 247 160 248 247 160 248 247 160 248 247 160 248 247 160 248 247 160 248 247 160 248 247 160 248 247 160 248 247 160 248 247 160 248 247 160 248 247 160 248 247 160 248 247 160 248 247 160 248 247 160 248 247 160 248 247 160 248 247 160 248 247 160 248 247 160 248 247 160 248 247 160 248 247 160 248 247 160 248 247 160 248 247 160 248 247 160 248 247 160 248 247 160 248 247 160 248 247 160 248 247 160 248 247 160 248 247 160 248 247 160 248 247 160 248 247 160 248 247 160 248 247 160 248 247 160 248 247 160 248 247 160 248 247 160 248 246 160 248 246 160 248 246 160 248 246 160 248 246 160 248 246 160 248 246 160 248 246 160 248 246 160 248 246 160 248 246 160 248 246 160 248 246 160 248 246 160 248 246 160 248 246 160 248 246 160 248 246
161 249 248 161 249 248 161 249 248 161 249 248 161 249 248 161 249 248 161 249 248 161 249 248 161 249 248 161 249 248 161 249 248 161 249 248 161 249 248 161 249 248 161 249 248 161 249 248 161 249 248 161 249 248 161 249 248 161 249 248 161 249 248 161 249 248 161 249 249 161 249 249 161 249 249 161 249 249 161 249 249 161 249 249 161 249 249 161 249 249 161 249 249 161 249 249 161 249 249 161 249 249 161 249 249 161 249 249 161 249 249 161 249 249 161 249 249 161 249 249 161 249 249 161 249 249 161 249 249 161 249 249 161 249 249 161 249 249 161 249 249 161 249 249 161 249 249 161 249 249 161 249 249 161 249 249 161 249 249 161 249 249 161 249 249 161 249 249 161 249 249 161 249 249 161 249 249 161 249 249 161 249 249 161 249 249 161 249 249 161 249 249 161 249 249 161 249 249 161 249 249 161 249 249 161 249 249 161 249 249 161 249 249 161 249 249 161 249 249 161 249 249 161 249 249 161 249 249 161 249 249 161 249 249 161 249 249 161 249 249 161 249 249 161 249 249 161 249 249 161 249 249 161 249 249 161 249 249 161 249 249 161 249 249 161 249 249 161 249 249 161 249 249 161 249 249 161 249 249 161 249 249 161 249 249 161 249 249 161 249 249 161 249 249 161 249 249 161 249 249 161 249 249 161 249 249 161 249 249 161 249 249 161 249 249 161 249 249 161 249 249 161 249 249 161 249 249 161 249 249 161 249 249 161 249 249 161 249 249 161 249 249 161 249 249 161 249 249 161 249 249 161 249 249 161 249 249 161 249 249 161 249 249 161 249 249 161 249 249 161 249 249 161 249 249 161 249 249 161 249 249 161 249 249 161 249 249 161 249 249 161 249 249 161 249 249 161 249 249 161 249 249 161 249 249 161 249 249 161 249 249 161 249 249 161 249 249 161 249 249 161 249 249 161 249 249 161 249 249 161 249 249 161 249 249 161 249 249 161 249 249 161 249 249 161 249 249 161 249 249 161 249 249 161 249 249 161 249 248 161 249 248 161 249 248 161 249 248 161 249 248 161 249 248 161 249 248 161 249 248 161 249 248 161 249 248 161 249 248 161 249 248 161 249 248 161 249 248 161 249 248 161 249 248 161 249 248 161 249 248 161 249 248 161 249 248 161 249 248 161 249 248 161 249 248 161 249 248 161 249 248 161 249 248 161 249 248 161 249 248 161 249 248 161 249 248 161 249 248 161 249 248 161 249 248 161 249 248 161 249 248 161 249 248 161 249 248 161 249 248 161 249 248 161 249 248 161 249 248 161 249 248 161 249 248 161 249 248 161 249 248 161 249 248 161 249 248 161 249 248 161 249 248 161 249 248 161 249 248 161 249 248 161 249 248 161 249 248 161 249 248 161 249 248 161 249 248 161 249 248 161 249 248 161 249 248 161 249 248 161 249 248 161 249 248 161 249 248 161 249 248 161 249 248 161 249 248 161 249 248 161 249 248 161 249 248 161 249 248 161 249 248 161 249 248 161 249 248 161 249 248 160 249 248 160 249 248 160 249 248 160 249 248 160 249 248 160 249 248 160 249 248 160 249 248 160 249 248 160 249 248 160 249 248 160 249 248 160 249 248 160 249 248 160 249 248 160 249 248 160 249 248 160 249 248 160 249 248 160 249 248 160 249 248 160 249 248 160 249 248 160 249 248 160 249 248 160 249 248 160 249 248 160 249 248 160 249 248 160 249 248 160 249 248 160 249 248 160 249 247 160 249 247 160 249 247 160 249 247 160 249 247 160 249 247 160 249 247 160 249 247 160 249 247 160 249 247 160 249 247 160 249 247 160 249 247 160 249 247 160 249 247 160 249 247 160 249 247 160 249 247 160 249 247 160 248 247 160 248 247 160 248 247 160 248 247 160 248 247 160 248 247 160 248 247 160 248 247 160 248 247 160 248 247 160 248 247 160 248 247 160 248 247 160 248 247 160 248 247 160 248 247 160 248 247 160 248 247 160 248 247 160 248 247 160 248 247 160 248 247 160 248 247 160 248 247 160 248 247 160 248 247 160 248 247 160 248 247 160 248 247 160 248 247 160 248 247 160 248 247 160 248 247 160 248 247 160 248 247 160 248 247 160 248 247 160 248 247 160 248 247 160 248 247 160 248 247 160 248 247
161 249 249 161 249 249 161 249 249 161 249 249 161 249 249 161 249 249 161 249 249 161 249 249 161 249 249 161 249 249 161 249 249 161 249 249 161 249 249 161 249 249 161 249 249 161 249 249 161 249 249 161 249 249 161 249 249 161 249 249 161 249 249 161 249 249 161 249 249 161 249 249 161 249 249 161 249 249 161 249 249 161 249 249 161 249 249 161 249 249 161 249 249 161 249 249 161 249 249 161 249 249 161 249 249 161 249 249 161 249 249 161 249 249 161 249 249 161 249 249 161 249 249 161 249 249 161 249 249 161 249 249 161 249 249 161 249 249 161 249 249 161 249 249 161 249 249 161 249 249 161 249 249 161 249 249 161 249 249 161 249 249 161 249 249 161 249 249 161 249 249 161 249 249 161 249 249 161 249 249 161 249 249 161 249 249 161 249 249 161 249 249 161 249 249 161 249 249 161 249 249 161 249 249 161 249 249 161 249 249 161 249 249 161 249 249 161 249 249 161 249 249 161 249 249 161 249 249 161 249 249 161 249 249 161 249 249 161 249 249 161 249 249 161 249 249 161 249 249 161 249 249 161 249 249 161 249 249 161 249 249 161 249 249 161 249 249 161 249 249 161 249 249 161 249 249 161 249 249 161 249 249 161 249 249 161 249 249 161 249 249 161 249 249 161 249 249 161 249 249 161 249 249 161 249 249 161 249 249 161 249 249 161 249 249 161 249 249 161 249 249 161 249 249 161 249 249 161 249 249 161 249 249 161 249 249 161 249 249 161 249 249 161 249 249 161 249 249 161 249 249 161 249 249 161 249 249 161 249 249 161 249 249 161 249 249 161 249 249 161 249 249 161 249 249 161 249 249 161 249 249 161 249 249 161 249 249 161 249 249 161 249 249 161 249 249 161 249 249 161 249 249 161 249 249 161 249 249 161 249 249 161 249 249 161 249 249 161 249 249 161 249 249 161 249 249 161 249 249 161 249 249 161 249 249 161 249 249 161 249 249 161 249 249 161 249 249 161 249 249 161 249 249 161 249 249 161 249 249 161 249 249 161 249 249 161 249 249 161 249 249 161 249 249 161 249 249 161 249 249 161 249 249 161 249 249 161 249 249 161 249 249 161 249 249 161 249 249 161 249 249 161 249 249 161 249 249 161 249 249 161 249 249 161 249 249 161 249 249 161 249 249 161 249 249 161 249 249 161 249 249 161 249 249 161 249 249 161 249 249 161 249 249 161 249 249 161 249 249 161 249 249 161 249 249 161 249 249 161 249 249 161 249 249 161 249 249 161 249 249 161 249 249 161 249 249 161 249 249 161 249 249 161 249 249 161 249 249 161 249 249 161 249 248 161 249 248 161 249 248 161 249 248 161 249 248 161 249 248 161 249 248 161 249 248 161 249 248 161 249 248 161 249 248 161 249 248 161 249 248 161 249 248 161 249 248 161 249 248 161 249 248 161 249 248 161 249 248 161 249 248 161 249 248 161 249 248 161 249 248 161 249 248 161 249 248 161 249 248 161 249 248 161 249 248 161 249 248 161 249 248 161 249 248 161 249 248 161 249 248 161 249 248 161 249 248 161 249 248 161 249 248 161 249 248 161 249 248 161 249 248 161 249 248 161 249 248 161 249 248 161 249 248 161 249 248 161 249 248 161 249 248 161 249 248 161 249 248 161 249 248 161 249 248 161 249 248 161 249 248 161 249 248 161 249 248 161 249 248 160 249 248 160 249 248 160 249 248 160 249 248 160 249 248 160 249 248 160 249 248 160 249 248 160 249 248 160 249 248 160 249 248 160 249 248 160 249 248 160 249 248 160 249 248 160 249 248 160 249 248 160 249 248 160 249 248 160 249 248 160 249 248 160 249 248 160 249 248 160 249 248 160 249 248 160 249 248 160 249 248 160 249 248 160 249 247 160 249 247 160 249 247 160 249 247 160 249 247 160 249 247 160 249 247 160 249 247 160 249 247 160 249 247 160 249 247 160 249 247 160 249 247 160 249 247 160 249 247 160 249 247 160 249 247 160 249 247 160 248 247 160 248 247 160 248 247 160 248 247 160 248 247 160 248 247 160 248 247 160 248 247 160 248 247 160 248 247 160 248 247 160 248 247 160 248 247 160 248 247 160 248 247 160 248 247 160 248 247 160 248 247 160 248 247 160 248 247 160 248 247
161 249 249 161 249 249 161 249 249 161 249 249 161 249 249 161 249 249 161 249 249 161 249 249 161 249 249 161 249 249 161 249 249 161 249 249 161 249 249 161 249 249 161 249 249 161 249 249 161 249 249 161 249 249 161 249 249 161 249 249 161 249 249 161 249 249 161 249 249 161 249 249 161 249 249 161 249 249 161 249 249 161 249 249 161 249 249 161 249 249 161 249 249 161 249 249 161 249 249 161 249 249 161 249 249 161 249 249 161 249 249 161 249 249 161 249 249 161 249 249 161 249 249 161 249 249 161 249 249 161 249 249 161 249 249 161 250 249 161 250 249 161 250 249 161 250 249 161 250 249 161 250 249 161 250 249 161 250 249 161 250 249 161 250 249 161 250 249 161 250 249 161 250 249 161 250 249 161 250 249 161 250 249 161 250 249 161 250 249 161 250 249 161 250 249 161 250 249 161 250 249 161 250 249 161 250 249 161 250 249 161 250 249 161 250 249 161 250 249 161 250 249 161 250 249 161 250 249 161 250 249 161 250 249 161 250 249 161 250 249 161 250 249 161 250 249 161 250 249 161 250 249 161 250 249 161 250 249 161 250 249 161 250 249 161 250 249 161 250 249 161 250 249 161 250 249 161 250 249 161 250 249 161 250 249 161 250 249 161 250 249 161 250 249 161 250 249 161 250 249 161 250 249 161 250 249 161 250 249 161 250 249 161 250 249 161 250 249 161 250 249 161 250 249 161 250 249 161 250 249 161 250 249 161 250 249 161 250 249 161 250 249 161 250 249 161 250 249 161 250 249 161 250 249 161 250 249 161 250 249 161 250 249 161 250 249 161 250 249 161 250 249 161 250 249 161 250 249 161 249 249 161 249 249 161 249 249 161 249 249 161 249 249 161 249 249 161 249 249 161 249 249 161 249 249 161 249 249 161 249 249 161 249 249 161 249 249 161 249 249 161 249 249 161 249 249 161 249 249 161 249 249 161 249 249 161 249 249 161 249 249 161 249 249 161 249 249 161 249 249 161 249 249 161 249 249 161 249 249 161 249 249 161 249 249 161 249 249 161 249 249 161 249 249 161 249 249 161 249 249 161 249 249 161 249 249 161 249 249 161 249 249 161 249 249 161 249 249 161 249 249 161 249 249 161 249 249 161 249 249 161 249 249 161 249 249 161 249 249 161 249 249 161 249 249 161 249 249 161 249 249 161 249 249 161 249 249 161 249 249 161 249 249 161 249 249 161 249 249 161 249 249 161 249 249 161 249 249 161 249 249 161 249 249 161 249 249 161 249 249 161 249 249 161 249 249 161 249 249 161 249 249 161 249 249 161 249 249 161 249 249 161 249 249 161 249 249 161 249 249 161 249 249 161 249 249 161 249 249 161 249 249 161 249 249 161 249 249 161 249 249 161 249 249 161 249 249 161 249 249 161 249 249 161 249 249 161 249 249 161 249 249 161 249 249 161 249 249 161 249 249 161 249 249 161 249 249 161 249 249 161 249 249 161 249 249 161 249 249 161 249 249 161 249 249 161 249 249 161 249 249 161 249 249 161 249 248 161 249 248 161 249 248 161 249 248 161 249 248 161 249 248 161 249 248 161 249 248 161 249 248 161 249 248 161 249 248 161 249 248 161 249 248 161 249 248 161 249 248 161 249 248 161 249 248 161 249 248 161 249 248 161 249 248 161 249 248 161 249 248 161 249 248 161 249 248 161 249 248 161 249 248 161 249 248 161 249 248 161 249 248 161 249 248 161 249 248 161 249 248 161 249 248 161 249 248 161 249 248 161 249 248 161 249 248 161 249 248 161 249 248 161 249 248 161 249 248 161 249 248 161 249 248 161 249 248 161 249 248 161 249 248 161 249 248 161 249 248 160 249 248 160 249 248 160 249 248 160 249 248 160 249 248 160 249 248 160 249 248 160 249 248 160 249 248 160 249 248 160 249 248 160 249 248 160 249 248 160 249 248 160 249 248 160 249 248 160 249 248 160 249 248 160 249 248 160 249 248 160 249 248 160 249 248 160 249 248 160 249 248 160 249 248 160 249 247 160 249 247 160 249 247 160 249 247 160 249 247 160 249 247 160 249 247 160 249 247 160 249 247 160 249 247 160 249 247 160 249 247 160 249 247 160 249 247 160 249 247 160 249 247 160 249 247 160 248 247 160 248 247
161 250 249 161 250 249 161 250 249 161 250 249 161 250 249 161 250 249 161 250 249 161 250 249 161 250 249 161 250 249 161 250 249 161 250 249 161 250 249 161 250 249 161 250 249 161 250 249 161 250 249 161 250 249 161 250 249 161 250 249 161 250 249 161 250 249 161 250 249 161 250 249 161 250 249 161 250 249 161 250 249 161 250 249 161 250 249 161 250 249 161 250 249 161 250 249 161 250 249 161 250 249 161 250 249 161 250 249 161 250 249 161 250 249 161 250 249 161 250 249 161 250 250 161 250 250 161 250 250 161 250 250 161 250 250 161 250 250 161 250 250 161 250 250 161 250 250 161 250 250 161 250 250 161 250 250 161 250 250 161 250 250 161 250 250 161 250 250 161 250 250 161 250 250 161 250 250 161 250 250 161 250 250 161 250 250 161 250 250 161 250 250 161 250 250 161 250 250 161 250 250 161 250 250 161 250 250 161 250 250 161 250 250 161 250 250 161 250 250 161 250 250 161 250 250 161 250 250 161 250 250 161 250 250 161 250 250 161 250 250 161 250 250 161 250 250 161 250 250 161 250 250 161 250 250 161 250 250 161 250 250 161 250 250 161 250 250 161 250 250 161 250 250 161 250 250 161 250 250 161 250 250 161 250 250 161 250 250 161 250 250 161 250 250 161 250 250 161 250 250 161 250 250 161 250 250 161 250 250 161 250 250 161 250 250 161 250 250 161 250 250 161 250 250 161 250 250 161 250 250 161 250 250 161 250 250 161 250 250 161 250 250 161 250 250 161 250 250 161 250 250 161 250 250 161 250 250 161 250 250 161 250 250 161 250 250 161 250 250 161 250 250 161 250 250 161 250 250 161 250 250 161 250 250 161 250 250 161 250 250 161 250 249 161 250 249 161 250 249 161 250 249 161 250 249 161 250 249 161 250 249 161 250 249 161 250 249 161 250 249 161 250 249 161 250 249 161 250 249 161 250 249 161 250 249 161 250 249 161 250 249 161 250 249 161 250 249 161 250 249 161 250 249 161 250 249 161 250 249 161 250 249 161 250 249 161 250 249 161 250 249 161 250 249 161 250 249 161 250 249 161 250 249 161 250 249 161 250 249 161 250 249 161 250 249 161 250 249 161 250 249 161 250 249 161 250 249 161 250 249 161 250 249 161 250 249 161 250 249 161 250 249 161 250 249 161 250 249 161 250 249 161 250 249 161 250 249 161 250 249 161 250 249 161 250 249 161 249 249 161 249 249 161 249 249 161 249 249 161 249 249 161 249 249 161 249 249 161 249 249 161 249 249 161 249 249 161 249 249 161 249 249 161 249 249 161 249 249 161 249 249 161 249 249 161 249 249 161 249 249 161 249 249 161 249 249 161 249 249 161 249 249 161 249 249 161 249 249 161 249 249 161 249 249 161 249 249 161 249 249 161 249 249 161 249 249 161 249 249 161 249 249 161 249 249 161 249 249 161 249 249 161 249 249 161 249 249 161 249 249 161 249 249 161 249 249 161 249 249 161 249 249 161 249 249 161 249 249 161 249 249 161 249 249 161 249 249 161 249 249 161 249 249 161 249 249 161 249 249 161 249 249 161 249 249 161 249 249 161 249 249 161 249 249 161 249 249 161 249 249 161 249 249 161 249 249 161 249 249 161 249 249 161 249 249 161 249 249 161 249 249 161 249 249 161 249 249 161 249 249 161 249 249 161 249 249 161 249 249 161 249 248 161 249 248 161 249 248 161 249 248 161 249 248 161 249 248 161 249 248 161 249 248 161 249 248 161 249 248 161 249 248 161 249 248 161 249 248 161 249 248 161 249 248 161 249 248 161 249 248 161 249 248 161 249 248 161 249 248 161 249 248 161 249 248 161 249 248 161 249 248 161 249 248 161 249 248 161 249 248 161 249 248 161 249 248 161 249 248 161 249 248 161 249 248 161 249 248 161 249 248 161 249 248 161 249 248 161 249 248 161 249 248 161 249 248 161 249 248 161 249 248 161 249 248 161 249 248 160 249 248 160 249 248 160 249 248 160 249 248 160 249 248 160 249 248 160 249 248 160 249 248 160 249 248 160 249 248 160 249 248 160 249 248 160 249 248 160 249 248 160 249 248 160 249 248 160 249 248 160 249 248 160 249 248 160 249 248 160 249 248 160 249 248 160 249 248 160 249 248
161 250 250 161 250 250 161 250 250 161 250 250 161 250 250 161 250 250 161 250 250 161 250 250 161 250 250 161 250 250 161 250 250 161 250 250 161 250 250 161 250 250 161 250 250 161 250 250 161 250 250 161 250 250 161 250 250 161 250 250 161 250 250 161 250 250 161 250 250 161 250 250 161 250 250 161 250 250 161 250 250 161 250 250 161 250 250 161 250 250 161 250 250 161 250 250 161 250 250 161 250 250 161 250 250 161 250 250 161 250 250 161 250 250 161 250 250 161 250 250 161 250 250 161 250 250 161 250 250 161 250 250 161 250 250 161 250 250 161 250 250 161 250 250 161 250 250 161 250 250 161 250 250 161 250 250 161 250 250 161 250 250 161 250 250 161 250 250 161 250 250 161 250 250 161 250 250 161 250 250 161 250 250 161 250 250 161 250 250 161 250 250 161 250 250 161 250 250 161 250 250 161 250 250 161 250 250 161 250 250 161 250 250 161 250 250 161 250 250 161 250 250 161 250 250 161 250 250 161 250 250 161 250 250 161 250 250 161 250 250 161 250 250 161 250 250 161 250 250 161 250 250 161 250 250 161 250 250 161 250 250 161 250 250 161 250 250 161 250 250 161 250 250 161 250 250 161 250 250 161 250 250 161 250 250 161 250 250 161 250 250 161 250 250 161 250 250 161 250 250 161 250 250 161 250 250 161 250 250 161 250 250 161 250 250 161 250 250 161 250 250 161 250 250 161 250 250 161 250 250 161 250 250 161 250 250 161 250 250 161 250 250 161 250 250 161 250 250 161 250 250 161 250 250 161 250 250 161 250 250 161 250 250 161 250 250 161 250 250 161 250 250 161 250 250 161 250 250 161 250 250 161 250 250 161 250 250 161 250 250 161 250 250 161 250 250 161 250 250 161 250 250 161 250 250 161 250 250 161 250 250 161 250 250 161 250 250 161 250 250 161 250 250 161 250 250 161 250 250 161 250 250 161 250 250 161 250 250 161 250 250 161 250 250 161 250 250 161 250 250 161 250 250 161 250 250 161 250 250 161 250 250 161 250 250 161 250 250 161 250 250 161 250 250 161 250 250 161 250 250 161 250 250 161 250 250 161 250 250 161 250 250 161 250 250 161 250 250 161 250 250 161 250 250 161 250 250 161 250 250 161 250 250 161 250 250 161 250 250 161 250 250 161 250 250 161 250 250 161 250 250 161 250 250 161 250 250 161 250 250 161 250 250 161 250 250 161 250 250 161 250 249 161 250 249 161 250 249 161 250 249 161 250 249 161 250 249 161 250 249 161 250 249 161 250 249 161 250 249 161 250 249 161 250 249 161 250 249 161 250 249 161 250 249 161 250 249 161 250 249 161 250 249 161 250 249 161 250 249 161 250 249 161 250 249 161 250 249 161 250 249 161 250 249 161 250 249 161 250 249 161 250 249 161 250 249 161 250 249 161 250 249 161 250 249 161 249 249 161 249 249 161 249 249 161 249 249 161 249 249 161 249 249 161 249 249 161 249 249 161 249 249 161 249 249 161 249 249 161 249 249 161 249 249 161 249 249 161 249 249 161 249 249 161 249 249 161 249 249 161 249 249 161 249 249 161 249 249 161 249 249 161 249 249 161 249 249 161 249 249 161 249 249 161 249 249 161 249 249 161 249 249 161 249 249 161 249 249 161 249 249 161 249 249 161 249 249 161 249 249 161 249 249 161 249 249 161 249 249 161 249 249 161 249 249 161 249 249 161 249 249 161 249 249 161 249 249 161 249 249 161 249 249 161 249 249 161 249 249 161 249 249 161 249 249 161 249 249 161 249 249 161 249 249 161 249 249 161 249 249 161 249 249 161 249 249 161 249 249 161 249 249 161 249 249 161 249 248 161 249 248 161 249 248 161 249 248 161 249 248 161 249 248 161 249 248 161 249 248 161 249 248 161 249 248 161 249 248 161 249 248 161 249 248 161 249 248 161 249 248 161 249 248 161 249 248 161 249 248 161 249 248 161 249 248 161 249 248 161 249 248 161 249 248 161 249 248 161 249 248 161 249 248 161 249 248 161 249 248 161 249 248 161 249 248 161 249 248 161 249 248 161 249 248 161 249 248 161 249 248 161 249 248 161 249 248 161 249 248 161 249 248 161 249 248 160 249 248 160 249 248 160 249 248 160 249 248 160 249 248
162 250 250 162 250 250 162 250 250 162 250 250 162 250 250 162 250 250 162 250 250 162 250 250 162 250 250 162 250 250 162 250 250 162 250 250 162 250 250 162 250 250 162 250 250 162 250 250 162 250 250 162 250 250 162 250 250 162 250 250 162 250 250 162 250 250 162 250 250 162 250 250 162 250 250 162 250 250 162 250 250 162 250 250 162 250 250 162 250 250 162 250 250 162 250 250 162 250 250 162 250 250 162 250 250 162 250 250 162 250 250 162 250 250 162 250 250 162 250 250 162 250 250 162 250 250 162 250 250 162 250 250 162 250 250 162 250 250 162 250 250 162 250 250 162 250 250 162 250 250 162 250 250 162 250 250 162 250 250 162 250 250 162 250 250 162 250 250 162 250 250 162 250 250 162 250 250 162 250 250 162 250 250 162 250 250 162 250 250 162 250 250 162 250 250 162 250 250 162 250 250 162 250 250 162 250 250 162 250 250 162 250 250 162 250 250 162 250 250 162 250 250 162 250 250 162 250 250 162 250 250 162 250 250 162 250 250 162 250 250 162 250 250 162 250 250 162 250 250 162 250 250 162 250 250 162 250 250 162 250 250 162 250 250 162 250 250 162 250 250 162 250 250 162 250 250 162 250 250 162 250 250 162 250 250 162 250 250 162 250 250 162 250 250 162 250 250 162 250 250 162 250 250 162 250 250 162 250 250 162 250 250 162 250 250 162 250 250 162 250 250 162 250 250 162 250 250 162 250 250 162 250 250 162 250 250 162 250 250 162 250 250 162 250 250 162 250 250 162 250 250 162 250 250 162 250 250 162 250 250 162 250 250 162 250 250 162 250 250 162 250 250 162 250 250 162 250 250 162 250 250 162 250 250 162 250 250 162 250 250 162 250 250 162 250 250 162 250 250 162 250 250 162 250 250 162 250 250 162 250 250 162 250 250 162 250 250 162 250 250 162 250 250 162 250 250 162 250 250 162 250 250 162 250 250 162 250 250 162 250 250 162 250 250 162 250 250 162 250 250 162 250 250 162 250 250 162 250 250 162 250 250 162 250 250 162 250 250 162 250 250 162 250 250 162 250 250 162 250 250 162 250 250 162 250 250 162 250 250 162 250 250 162 250 250 162 250 250 162 250 250 161 250 250 161 250 250 161 250 250 161 250 250 161 250 250 161 250 250 161 250 250 161 250 250 161 250 250 161 250 250 161 250 250 161 250 250 161 250 250 161 250 250 161 250 250 161 250 250 161 250 250 161 250 250 161 250 250 161 250 250 161 250 250 161 250 250 161 250 250 161 250 250 161 250 250 161 250 250 161 250 250 161 250 250 161 250 250 161 250 250 161 250 250 161 250 250 161 250 250 161 250 250 161 250 250 161 250 250 161 250 250 161 250 250 161 250 250 161 250 250 161 250 250 161 250 250 161 250 250 161 250 250 161 250 250 161 250 250 161 250 250 161 250 250 161 250 250 161 250 249 161 250 249 161 250 249 161 250 249 161 250 249 161 250 249 161 250 249 161 250 249 161 250 249 161 250 249 161 250 249 161 250 249 161 250 249 161 250 249 161 250 249 161 250 249 161 250 249 161 250 249 161 250 249 161 250 249 161 250 249 161 250 249 161 250 249 161 250 249 161 250 249 161 250 249 161 249 249 161 249 249 161 249 249 161 249 249 161 249 249 161 249 249 161 249 249 161 249 249 161 249 249 161 249 249 161 249 249 161 249 249 161 249 249 161 249 249 161 249 249 161 249 249 161 249 249 161 249 249 161 249 249 161 249 249 161 249 249 161 249 249 161 249 249 161 249 249 161 249 249 161 249 249 161 249 249 161 249 249 161 249 249 161 249 249 161 249 249 161 249 249 161 249 249 161 249 249 161 249 249 161 249 249 161 249 249 161 249 249 161 249 249 161 249 249 161 249 249 161 249 249 161 249 249 161 249 249 161 249 249 161 249 249 161 249 249 161 249 249 161 249 249 161 249 249 161 249 249 161 249 249 161 249 249 161 249 248 161 249 248 161 249 248 161 249 248 161 249 248 161 249 248 161 249 248 161 249 248 161 249 248 161 249 248 161 249 248 161 249 248 161 249 248 161 249 248 161 249 248 161 249 248 161 249 248 161 249 248 161 249 248 161 249 248 161 249 248 161 249 248 161 249 248 161 249 248 161 249 248
162 250 250 162 250 250 162 250 250 162 250 250 162 250 250 162 250 250 162 250 250 162 250 250 162 250 250 162 250 250 162 250 250 162 250 250 162 250 250 162 250 250 162 250 250 162 250 250 162 250 250 162 250 250 162 250 250 162 250 250 162 250 250 162 250 250 162 250 250 162 250 250 162 250 250 162 250 250 162 250 250 162 250 250 162 250 250 162 250 250 162 250 250 162 250 250 162 250 250 162 250 250 162 250 250 162 250 250 162 250 250 162 250 250 162 250 250 162 250 250 162 250 250 162 250 250 162 250 250 162 250 250 162 250 250 162 250 250 162 250 250 162 250 250 162 250 250 162 250 250 162 250 250 162 250 250 162 250 250 162 250 250 162 250 250 162 250 250 162 250 250 162 250 250 162 250 250 162 250 250 162 250 250 162 250 250 162 250 250 162 250 250 162 250 250 162 250 250 162 250 250 162 250 250 162 250 250 162 250 250 162 250 250 162 250 250 162 250 250 162 250 250 162 250 250 162 250 250 162 250 250 162 250 250 162 250 250 162 250 250 162 250 250 162 250 250 162 250 250 162 250 250 162 250 250 162 250 250 162 250 250 162 250 250 162 250 250 162 250 250 162 250 250 162 250 250 162 250 250 162 250 250 162 250 250 162 250 250 162 250 250 162 250 250 162 250 250 162 250 250 162 250 250 162 250 250 162 250 250 162 250 250 162 250 250 162 250 250 162 250 250 162 250 250 162 250 250 162 250 250 162 250 250 162 250 250 162 250 250 162 250 250 162 250 250 162 250 250 162 250 250 162 250 250 162 250 250 162 250 250 162 250 250 162 250 250 162 250 250 162 250 250 162 250 250 162 250 250 162 250 250 162 250 250 162 250 250 162 250 250 162 250 250 162 250 250 162 250 250 162 250 250 162 250 250 162 250 250 162 250 250 162 250 250 162 250 250 162 250 250 162 250 250 162 250 250 162 250 250 162 250 250 162 250 250 162 250 250 162 250 250 162 250 250 162 250 250 162 250 250 162 250 250 162 250 250 162 250 250 162 250 250 162 250 250 162 250 250 162 250 250 162 250 250 162 250 250 162 250 250 162 250 250 162 250 250 162 250 250 162 250 250 162 250 250 162 250 250 162 250 250 162 250 250 162 250 250 162 250 250 162 250 250 162 250 250 162 250 250 162 250 250 162 250 250 162 250 250 162 250 250 162 250 250 162 250 250 162 250 250 162 250 250 162 250 250 162 250 250 162 250 250 162 250 250 162 250 250 162 250 250 162 250 250 162 250 250 162 250 250 162 250 250 162 250 250 162 250 250 162 250 250 162 250 250 162 250 250 162 250 250 162 250 250 162 250 250 162 250 250 162 250 250 162 250 250 162 250 250 162 250 250 161 250 250 161 250 250 161 250 250 161 250 250 161 250 250 161 250 250 161 250 250 161 250 250 161 250 250 161 250 250 161 250 250 161 250 250 161 250 250 161 250 250 161 250 250 161 250 250 161 250 250 161 250 250 161 250 250 161 250 250 161 250 250 161 250 250 161 250 250 161 250 250 161 250 250 161 250 250 161 250 250 161 250 250 161 250 250 161 250 250 161 250 250 161 250 250 161 250 250 161 250 250 161 250 250 161 250 250 161 250 250 161 250 250 161 250 249 161 250 249 161 250 249 161 250 249 161 250 249 161 250 249 161 250 249 161 250 249 161 250 249 161 250 249 161 250 249 161 250 249 161 250 249 161 250 249 161 250 249 161 250 249 161 250 249 161 250 249 161 250 249 161 250 249 161 250 249 161 250 249 161 250 249 161 249 249 161 249 249 161 249 249 161 249 249 161 249 249 161 249 249 161 249 249 161 249 249 161 249 249 161 249 249 161 249 249 161 249 249 161 249 249 161 249 249 161 249 249 161 249 249 161 249 249 161 249 249 161 249 249 161 249 249 161 249 249 161 249 249 161 249 249 161 249 249 161 249 249 161 249 249 161 249 249 161 249 249 161 249 249 161 249 249 161 249 249 161 249 249 161 249 249 161 249 249 161 249 249 161 249 249 161 249 249 161 249 249 161 249 249 161 249 249 161 249 249 161 249 249 161 249 249 161 249 249 161 249 249 161 249 249 161 249 249 161 249 249 161 249 249 161 249 248 161 249 248 161 249 248 161 249 248 161 249 248 161 249 248
162 250 250 162 250 250 162 250 250 162 250 250 162 250 250 162 250 250 162 250 250 162 250 250 162 250 250 162 250 251 162 250 251 162 250 251 162 250 251 162 250 251 162 250 251 162 250 251 162 250 251 162 250 251 162 250 251 162 250 251 162 250 251 162 250 251 162 250 251 162 250 251 162 250 251 162 250 251 162 250 251 162 250 251 162 250 251 162 250 251 162 250 251 162 250 251 162 250 251 162 250 251 162 250 251 162 250 251 162 250 251 162 250 251 162 250 251 162 250 251 162 250 251 162 250 251 162 250 251 162 250 251 162 250 251 162 250 251 162 250 251 162 250 251 162 250 251 162 250 251 162 250 251 162 250 251 162 250 251 162 250 251 162 250 251 162 250 251 162 250 251 162 250 251 162 250 251 162 250 251 162 250 251 162 250 251 162 250 251 162 250 251 162 250 251 162 250 251 162 250 251 162 250 251 162 250 251 162 250 251 162 250 251 162 250 251 162 250 251 162 250 251 162 250 251 162 250 251 162 250 251 162 250 251 162 250 251 162 250 251 162 250 251 162 250 251 162 250 251 162 250 251 162 250 251 162 250 251 162 250 251 162 250 251 162 250 251 162 250 251 162 250 251 162 250 251 162 250 251 162 250 251 162 250 251 162 250 251 162 250 251 162 250 251 162 250 251 162 250 251 162 250 251 162 250 251 162 250 251 162 250 251 162 250 251 162 250 251 162 250 251 162 250 251 162 250 251 162 250 251 162 250 251 162 250 251 162 250 251 162 250 251 162 250 251 162 250 251 162 250 251 162 250 251 162 250 251 162 250 251 162 250 251 162 250 251 162 250 251 162 250 251 162 250 251 162 250 251 162 250 251 162 250 251 162 250 251 162 250 251 162 250 251 162 250 251 162 250 251 162 250 251 162 250 251 162 250 251 162 250 251 162 250 251 162 250 251 162 250 251 162 250 251 162 250 251 162 250 251 162 250 251 162 250 251 162 250 251 162 250 251 162 250 251 162 250 251 162 250 251 162 250 251 162 250 251 162 250 251 162 250 251 162 250 251 162 250 250 162 250 250 162 250 250 162 250 250 162 250 250 162 250 250 162 250 250 162 250 250 162 250 250 162 250 250 162 250 250 162 250 250 162 250 250 162 250 250 162 250 250 162 250 250 162 250 250 162 250 250 162 250 250 162 250 250 162 250 250 162 250 250 162 250 250 162 250 250 162 250 250 162 250 250 162 250 250 162 250 250 162 250 250 162 250 250 162 250 250 162 250 250 162 250 250 162 250 250 162 250 250 162 250 250 162 250 250 162 250 250 162 250 250 162 250 250 162 250 250 162 250 250 162 250 250 162 250 250 162 250 250 162 250 250 162 250 250 162 250 250 162 250 250 162 250 250 162 250 250 162 250 250 162 250 250 162 250 250 162 250 250 162 250 250 162 250 250 162 250 250 162 250 250 162 250 250 162 250 250 162 250 250 162 250 250 162 250 250 162 250 250 162 250 250 162 250 250 162 250 250 162 250 250 162 250 250 162 250 250 162 250 250 162 250 250 162 250 250 162 250 250 162 250 250 162 250 250 161 250 250 161 250 250 161 250 250 161 250 250 161 250 250 161 250 250 161 250 250 161 250 250 161 250 250 161 250 250 161 250 250 161 250 250 161 250 250 161 250 250 161 250 250 161 250 250 161 250 250 161 250 250 161 250 250 161 250 250 161 250 250 161 250 250 161 250 250 161 250 250 161 250 250 161 250 250 161 250 250 161 250 250 161 250 250 161 250 250 161 250 250 161 250 250 161 250 250 161 250 249 161 250 249 161 250 249 161 250 249 161 250 249 161 250 249 161 250 249 161 250 249 161 250 249 161 250 249 161 250 249 161 250 249 161 250 249 161 250 249 161 250 249 161 250 249 161 250 249 161 250 249 161 250 249 161 250 249 161 249 249 161 249 249 161 249 249 161 249 249 161 249 249 161 249 249 161 249 249 161 249 249 161 249 249 161 249 249 161 249 249 161 249 249 161 249 249 161 249 249 161 249 249 161 249 249 161 249 249 161 249 249 161 249 249 161 249 249 161 249 249 161 249 249 161 249 249 161 249 249 161 249 249 161 249 249 161 249 249 161 249 249 161 249 249 161 249 249 161 249 249 161 249 249 161 249 249 161 249 249 161 249 249
162 250 251 162 250 251 162 250 251 162 250 251 162 250 251 162 250 251 162 250 251 162 250 251 162 250 251 162 250 251 162 250 251 162 250 251 162 250 251 162 250 251 162 250 251 162 250 251 162 250 251 162 250 251 162 250 251 162 250 251 162 250 251 162 250 251 162 250 251 162 250 251 162 250 251 162 250 251 162 250 251 162 250 251 162 250 251 162 250 251 162 250 251 162 250 251 162 250 251 162 250 251 162 250 251 162 250 251 162 250 251 162 250 251 162 250 251 162 250 251 162 250 251 162 250 251 162 250 251 162 250 251 162 250 251 162 250 251 162 250 251 162 250 251 162 250 251 162 250 251 162 250 251 162 250 251 162 250 251 162 250 251 162 250 251 162 250 251 162 250 251 162 250 251 162 250 251 162 250 251 162 250 251 162 250 251 162 250 251 162 250 251 162 250 251 162 250 251 162 250 251 162 250 251 162 250 251 162 250 251 162 250 251 162 250 251 162 250 251 162 250 251 162 250 251 162 250 251 162 250 251 162 250 251 162 250 251 162 250 251 162 250 251 162 250 251 162 250 251 162 250 251 162 250 251 162 250 251 162 250 251 162 250 251 162 250 251 162 250 251 162 250 251 162 250 251 162 250 251 162 250 251 162 250 251 162 250 251 162 250 251 162 250 251 162 250 251 162 250 251 162 250 251 162 250 251 162 250 251 162 250 251 162 250 251 162 250 251 162 250 251 162 250 251 162 250 251 162 250 251 162 250 251 162 250 251 162 250 251 162 250 251 162 250 251 162 250 251 162 250 251 162 250 251 162 250 251 162 250 251 162 250 251 162 250 251 162 250 251 162 250 251 162 250 251 162 250 251 162 250 251 162 250 251 162 250 251 162 250 251 162 250 251 162 250 251 162 250 251 162 250 251 162 250 251 162 250 251 162 250 251 162 250 251 162 250 251 162 250 251 162 250 251 162 250 251 162 250 251 162 250 251 162 250 251 162 250 251 162 250 251 162 250 251 162 250 251 162 250 251 162 250 251 162 250 251 162 250 251 162 250 251 162 250 251 162 250 251 162 250 251 162 250 251 162 250 251 162 250 251 162 250 251 162 250 251 162 250 251 162 250 251 162 250 251 162 250 251 162 250 251 162 250 251 162 250 251 162 250 251 162 250 251 162 250 251 162 250 251 162 250 251 162 250 251 162 250 251 162 250 251 162 250 251 162 250 251 162 250 251 162 250 251 162 250 251 162 250 251 162 250 251 162 250 251 162 250 251 162 250 251 162 250 251 162 250 251 162 250 251 162 250 251 162 250 251 162 250 251 162 250 251 162 250 251 162 250 250 162 250 250 162 250 250 162 250 250 162 250 250 162 250 250 162 250 250 162 250 250 162 250 250 162 250 250 162 250 250 162 250 250 162 250 250 162 250 250 162 250 250 162 250 250 162 250 250 162 250 250 162 250 250 162 250 250 162 250 250 162 250 250 162 250 250 162 250 250 162 250 250 162 250 250 162 250 250 162 250 250 162 250 250 162 250 250 162 250 250 162 250 250 162 250 250 162 250 250 162 250 250 162 250 250 162 250 250 162 250 250 162 250 250 162 250 250 162 250 250 162 250 250 162 250 250 162 250 250 162 250 250 162 250 250 162 250 250 162 250 250 162 250 250 162 250 250 162 250 250 162 250 250 162 250 250 162 250 250 162 250 250 162 250 250 162 250 250 162 250 250 162 250 250 162 250 250 161 250 250 161 250 250 161 250 250 161 250 250 161 250 250 161 250 250 161 250 250 161 250 250 161 250 250 161 250 250 161 250 250 161 250 250 161 250 250 161 250 250 161 250 250 161 250 250 161 250 250 161 250 250 161 250 250 161 250 250 161 250 250 161 250 250 161 250 250 161 250 250 161 250 250 161 250 250 161 250 250 161 250 250 161 250 250 161 250 250 161 250 249 161 250 249 161 250 249 161 250 249 161 250 249 161 250 249 161 250 249 161 250 249 161 250 249 161 250 249 161 250 249 161 250 249 161 250 249 161 250 249 161 250 249 161 250 249 161 250 249 161 250 249 161 250 249 161 249 249 161 249 249 161 249 249 161 249 249 161 249 249 161 249 249 161 249 249 161 249 249 161 249 249 161 249 249 161 249 249 161 249 249 161 249 249 161 249 249 161 249 249 161 249 249
162 250 251 162 250 251 162 250 251 162 250 251 162 250 251 162 250 251 162 250 251 162 250 251 162 250 251 162 250 251 162 250 251 162 250 251 162 250 251 162 250 251 162 250 251 162 250 251 162 250 251 162 250 251 162 250 251 162 250 251 162 250 251 162 250 251 162 250 251 162 250 251 162 250 251 162 250 251 162 250 251 162 250 251 162 250 251 162 250 251 162 250 251 162 250 251 162 250 251 162 250 251 162 250 251 162 250 251 162 250 251 162 250 251 162 250 251 162 250 251 162 250 251 162 250 251 162 250 251 162 250 251 162 250 251 162 250 251 162 250 251 162 250 251 162 250 251 162 250 251 162 250 251 162 250 251 162 250 251 162 250 251 162 250 251 162 250 251 162 250 251 162 250 251 162 250 251 162 250 251 162 250 251 162 250 251 162 250 251 162 250 251 162 250 251 162 250 251 162 250 251 162 250 251 162 250 251 162 250 251 162 250 251 162 250 251 162 250 251 162 250 251 162 250 251 162 250 251 162 250 251 162 250 251 162 250 251 162 250 251 162 250 251 162 250 251 162 250 251 162 250 251 162 250 251 162 250 251 162 250 251 162 250 251 162 250 251 162 250 251 162 250 251 162 250 251 162 250 251 162 250 251 162 250 251 162 250 251 162 250 251 162 250 251 162 250 251 162 250 251 162 250 251 162 250 251 162 250 251 162 250 251 162 250 251 162 250 251 162 250 251 162 250 251 162 250 251 162 250 251 162 250 251 162 250 251 162 250 251 162 250 251 162 250 251 162 250 251 162 250 251 162 250 251 162 250 251 162 250 251 162 250 251 162 250 251 162 250 251 162 250 251 162 250 251 162 250 251 162 250 251 162 250 251 162 250 251 162 250 251 162 250 251 162 250 251 162 250 251 162 250 251 162 250 251 162 250 251 162 250 251 162 250 251 162 250 251 162 250 251 162 250 251 162 250 251 162 250 251 162 250 251 162 250 251 162 250 251 162 250 251 162 250 251 162 250 251 162 250 251 162 250 251 162 250 251 162 250 251 162 250 251 162 250 251 162 250 251 162 250 251 162 250 251 162 250 251 162 250 251 162 250 251 162 250 251 162 250 251 162 250 251 162 250 251 162 250 251 162 250 251 162 250 251 162 250 251 162 250 251 162 250 251 162 250 251 162 250 251 162 250 251 162 250 251 162 250 251 162 250 251 162 250 251 162 250 251 162 250 251 162 250 251 162 250 251 162 250 251 162 250 251 162 250 251 162 250 251 162 250 251 162 250 251 162 250 251 162 250 251 162 250 251 162 250 251 162 250 251 162 250 251 162 250 251 162 250 251 162 250 251 162 250 251 162 250 251 162 250 251 162 250 251 162 250 251 162 250 251 162 250 251 162 250 251 162 250 251 162 250 251 162 250 251 162 250 251 162 250 251 162 250 251 162 250 251 162 250 251 162 250 251 162 250 251 162 250 251 162 250 251 162 250 251 162 250 251 162 250 251 162 250 251 162 250 251 162 250 251 162 250 251 162 250 250 162 250 250 162 250 250 162 250 250 162 250 250 162 250 250 162 250 250 162 250 250 162 250 250 162 250 250 162 250 250 162 250 250 162 250 250 162 250 250 162 250 250 162 250 250 162 250 250 162 250 250 162 250 250 162 250 250 162 250 250 162 250 250 162 250 250 162 250 250 162 250 250 162 250 250 162 250 250 162 250 250 162 250 250 162 250 250 162 250 250 162 250 250 162 250 250 162 250 250 162 250 250 162 250 250 162 250 250 162 250 250 162 250 250 162 250 250 162 250 250 162 250 250 162 250 250 162 250 250 162 250 250 162 250 250 162 250 250 162 250 250 162 250 250 162 250 250 162 250 250 162 250 250 161 250 250 161 250 250 161 250 250 161 250 250 161 250 250 161 250 250 161 250 250 161 250 250 161 250 250 161 250 250 161 250 250 161 250 250 161 250 250 161 250 250 161 250 250 161 250 250 161 250 250 161 250 250 161 250 250 161 250 250 161 250 250 161 250 250 161 250 250 161 250 250 161 250 250 161 250 250 161 250 250 161 250 249 161 250 249 161 250 249 161 250 249 161 250 249 161 250 249 161 250 249 161 250 249 161 250 249 161 250 249 161 250 249 161 250 249 161 250 249 161 250 249 161 250 249 161 250 249 161 250 249
162 251 251 162 251 251 162 251 251 162 251 251 162 251 251 162 251 251 162 251 251 162 251 251 162 251 251 162 251 251 162 251 251 162 251 251 162 251 251 162 251 251 162 251 251 162 251 251 162 251 251 162 251 251 162 251 251 162 251 251 162 251 251 162 251 251 162 251 251 162 251 251 162 251 251 162 251 251 162 251 251 162 251 251 162 251 251 162 251 251 162 251 251 162 251 251 162 251 251 162 251 251 162 251 251 162 251 251 162 251 251 162 251 251 162 251 251 162 251 251 162 251 251 162 251 251 162 251 251 162 251 251 162 251 251 162 251 251 162 251 251 162 251 251 162 251 251 162 251 251 162 251 251 162 251 251 162 251 251 162 251 251 162 251 251 162 251 251 162 251 251 162 251 251 162 251 251 162 251 251 162 251 251 162 251 251 162 251 251 162 251 251 162 251 251 162 251 251 162 251 251 162 251 251 162 251 251 162 251 251 162 251 251 162 251 251 162 251 251 162 251 251 162 251 251 162 251 251 162 251 251 162 251 251 162 251 251 162 251 251 162 251 251 162 251 251 162 251 251 162 251 251 162 251 251 162 251 251 162 251 251 162 251 251 162 251 251 162 251 251 162 251 251 162 251 251 162 251 251 162 251 251 162 251 251 162 251 251 162 251 251 162 251 251 162 251 251 162 251 251 162 251 251 162 251 251 162 251 251 162 251 251 162 251 251 162 251 251 162 251 251 162 251 251 162 251 251 162 251 251 162 251 251 162 251 251 162 251 251 162 251 251 162 251 251 162 251 251 162 251 251 162 251 251 162 251 251 162 251 251 162 251 251 162 251 251 162 251 251 162 251 251 162 251 251 162 251 251 162 251 251 162 251 251 162 251 251 162 251 251 162 251 251 162 251 251 162 251 251 162 251 251 162 251 251 162 251 251 162 251 251 162 251 251 162 251 251 162 251 251 162 251 251 162 251 251 162 251 251 162 251 251 162 251 251 162 251 251 162 251 251 162 251 251 162 251 251 162 251 251 162 251 251 162 251 251 162 251 251 162 251 251 162 251 251 162 251 251 162 251 251 162 251 251 162 251 251 162 251 251 162 251 251 162 251 251 162 251 251 162 251 251 162 250 251 162 250 251 162 250 251 162 250 251 162 250 251 162 250 251 162 250 251 162 250 251 162 250 251 162 250 251 162 250 251 162 250 251 162 250 251 162 250 251 162 250 251 162 250 251 162 250 251 162 250 251 162 250 251 162 250 251 162 250 251 162 250 251 162 250 251 162 250 251 162 250 251 162 250 251 162 250 251 162 250 251 162 250 251 162 250 251 162 250 251 162 250 251 162 250 251 162 250 251 162 250 251 162 250 251 162 250 251 162 250 251 162 250 251 162 250 251 162 250 251 162 250 251 162 250 251 162 250 251 162 250 251 162 250 251 162 250 251 162 250 251 162 250 251 162 250 251 162 250 251 162 250 251 162 250 251 162 250 251 162 250 251 162 250 251 162 250 251 162 250 251 162 250 251 162 250 251 162 250 251 162 250 251 162 250 251 162 250 251 162 250 251 162 250 251 162 250 251 162 250 251 162 250 251 162 250 251 162 250 251 162 250 251 162 250 251 162 250 251 162 250 251 162 250 251 162 250 251 162 250 251 162 250 251 162 250 251 162 250 251 162 250 251 162 250 251 162 250 251 162 250 250 162 250 250 162 250 250 162 250 250 162 250 250 162 250 250 162 250 250 162 250 250 162 250 250 162 250 250 162 250 250 162 250 250 162 250 250 162 250 250 162 250 250 162 250 250 162 250 250 162 250 250 162 250 250 162 250 250 162 250 250 162 250 250 162 250 250 162 250 250 162 250 250 162 250 250 162 250 250 162 250 250 162 250 250 162 250 250 162 250 250 162 250 250 162 250 250 162 250 250 162 250 250 162 250 250 162 250 250 162 250 250 162 250 250 162 250 250 162 250 250 162 250 250 162 250 250 162 250 250 162 250 250 162 250 250 162 250 250 161 250 250 161 250 250 161 250 250 161 250 250 161 250 250 161 250 250 161 250 250 161 250 250 161 250 250 161 250 250 161 250 250 161 250 250 161 250 250 161 250 250 161 250 250 161 250 250 161 250 250 161 250 250 161 250 250 161 250 250 161 250 250 161 250 250 161 250 250 161 250 250 161 250 250
162 251 252 162 251 252 162 251 252 162 251 252 162 251 252 162 251 252 162 251 252 162 251 252 162 251 252 162 251 252 162 251 252 162 251 252 162 251 252 162 251 252 162 251 252 162 251 252 162 251 252 162 251 252 162 251 252 162 251 252 162 251 252 162 251 252 162 251 252 162 251 252 162 251 252 162 251 252 162 251 252 162 251 252 162 251 252 162 251 252 162 251 252 162 251 252 162 251 252 162 251 252 162 251 252 162 251 252 162 251 252 162 251 252 162 251 252 162 251 252 162 251 252 162 251 252 162 251 252 162 251 252 162 251 252 162 251 252 162 251 252 162 251 252 162 251 252 162 251 252 162 251 252 162 251 252 162 251 252 162 251 252 162 251 252 162 251 252 162 251 252 162 251 252 162 251 252 162 251 252 162 251 252 162 251 252 162 251 252 162 251 252 162 251 252 162 251 252 162 251 252 162 251 252 162 251 252 162 251 252 162 251 252 162 251 252 162 251 252 162 251 252 162 251 252 162 251 252 162 251 252 162 251 252 162 251 252 162 251 252 162 251 252 162 251 252 162 251 252 162 251 252 162 251 252 162 251 252 162 251 252 162 251 252 162 251 252 162 251 252 162 251 252 162 251 252 162 251 252 162 251 252 162 251 252 162 251 252 162 251 252 162 251 252 162 251 252 162 251 252 162 251 252 162 251 252 162 251 252 162 251 252 162 251 252 162 251 252 162 251 252 162 251 252 162 251 252 162 251 252 162 251 252 162 251 252 162 251 252 162 251 252 162 251 252 162 251 252 162 251 252 162 251 252 162 251 252 162 251 252 162 251 252 162 251 252 162 251 252 162 251 252 162 251 252 162 251 252 162 251 252 162 251 252 162 251 252 162 251 252 162 251 252 162 251 252 162 251 252 162 251 252 162 251 252 162 251 252 162 251 252 162 251 252 162 251 252 162 251 252 162 251 252 162 251 252 162 251 252 162 251 252 162 251 252 162 251 252 162 251 252 162 251 252 162 251 252 162 251 252 162 251 252 162 251 252 162 251 252 162 251 252 162 251 252 162 251 252 162 251 252 162 251 252 162 251 251 162 251 251 162 251 251 162 251 251 162 251 251 162 251 251 162 251 251 162 251 251 162 251 251 162 251 251 162 251 251 162 251 251 162 251 251 162 251 251 162 251 251 162 251 251 162 251 251 162 251 251 162 251 251 162 251 251 162 251 251 162 251 251 162 251 251 162 251 251 162 251 251 162 251 251 162 251 251 162 251 251 162 251 251 162 251 251 162 251 251 162 251 251 162 251 251 162 251 251 162 251 251 162 251 251 162 251 251 162 251 251 162 251 251 162 251 251 162 251 251 162 251 251 162 250 251 162 250 251 162 250 251 162 250 251 162 250 251 162 250 251 162 250 251 162 250 251 162 250 251 162 250 251 162 250 251 162 250 251 162 250 251 162 250 251 162 250 251 162 250 251 162 250 251 162 250 251 162 250 251 162 250 251 162 250 251 162 250 251 162 250 251 162 250 251 162 250 251 162 250 251 162 250 251 162 250 251 162 250 251 162 250 251 162 250 251 162 250 251 162 250 251 162 250 251 162 250 251 162 250 251 162 250 251 162 250 251 162 250 251 162 250 251 162 250 251 162 250 251 162 250 251 162 250 251 162 250 251 162 250 251 162 250 251 162 250 251 162 250 251 162 250 251 162 250 251 162 250 251 162 250 251 162 250 251 162 250 251 162 250 251 162 250 251 162 250 251 162 250 251 162 250 251 162 250 251 162 250 251 162 250 251 162 250 251 162 250 251 162 250 251 162 250 251 162 250 251 162 250 251 162 250 250 162 250 250 162 250 250 162 250 250 162 250 250 162 250 250 162 250 250 162 250 250 162 250 250 162 250 250 162 250 250 162 250 250 162 250 250 162 250 250 162 250 250 162 250 250 162 250 250 162 250 250 162 250 250 162 250 250 162 250 250 162 250 250 162 250 250 162 250 250 162 250 250 162 250 250 162 250 250 162 250 250 162 250 250 162 250 250 162 250 250 162 250 250 162 250 250 162 250 250 162 250 250 162 250 250 162 250 250 162 250 250 162 250 250 162 250 250 162 250 250 162 250 250 162 250 250 161 250 250 161 250 250 161 250 250 161 250 250 161 250 250 161 250 250 161 250 250 161 250 250
162 251 252 162 251 252 162 251 252 162 251 252 162 251 252 162 251 252 162 251 252 162 251 252 162 251 252 162 251 252 162 251 252 162 251 252 162 251 252 162 251 252 162 251 252 162 251 252 162 251 252 162 251 252 162 251 252 162 251 252 162 251 252 162 251 252 162 251 252 162 251 252 162 251 252 162 251 252 162 251 252 162 251 252 162 251 252 162 251 252 162 251 252 162 251 252 162 251 252 162 251 252 162 251 252 163 251 252 163 251 252 163 251 252 163 251 252 163 251 252 163 251 252 163 251 252 163 251 252 163 251 252 163 251 252 163 251 252 163 251 252 163 251 252 163 251 252 163 251 252 163 251 252 163 251 252 163 251 252 163 251 252 163 251 252 163 251 252 163 251 252 163 251 252 163 251 252 163 251 252 163 251 252 163 251 252 163 251 252 163 251 252 163 251 252 163 251 252 163 251 252 163 251 252 163 251 252 163 251 252 163 251 252 163 251 252 163 251 252 163 251 252 163 251 252 163 251 252 163 251 252 163 251 252 163 251 252 163 251 252 163 251 252 163 251 252 163 251 252 163 251 252 163 251 252 163 251 252 163 251 252 163 251 252 163 251 252 163 251 252 163 251 252 163 251 252 163 251 252 163 251 252 163 251 252 163 251 252 163 251 252 163 251 252 163 251 252 163 251 252 163 251 252 163 251 252 163 251 252 163 251 252 163 251 252 163 251 252 163 251 252 163 251 252 163 251 252 163 251 252 163 251 252 163 251 252 163 251 252 163 251 252 163 251 252 163 251 252 163 251 252 163 251 252 163 251 252 163 251 252 163 251 252 163 251 252 162 251 252 162 251 252 162 251 252 162 251 252 162 251 252 162 251 252 162 251 252 162 251 252 162 251 252 162 251 252 162 251 252 162 251 252 162 251 252 162 251 252 162 251 252 162 251 252 162 251 252 162 251 252 162 251 252 162 251 252 162 251 252 162 251 252 162 251 252 162 251 252 162 251 252 162 251 252 162 251 252 162 251 252 162 251 252 162 251 252 162 251 252 162 251 252 162 251 252 162 251 252 162 251 252 162 251 252 162 251 252 162 251 252 162 251 252 162 251 252 162 251 252 162 251 252 162 251 252 162 251 252 162 251 252 162 251 252 162 251 252 162 251 252 162 251 252 162 251 252 162 251 252 162 251 252 162 251 252 162 251 252 162 251 252 162 251 252 162 251 252 162 251 252 162 251 252 162 251 252 162 251 252 162 251 252 162 251 252 162 251 252 162 251 252 162 251 252 162 251 252 162 251 252 162 251 252 162 251 252 162 251 252 162 251 252 162 251 252 162 251 251 162 251 251 162 251 251 162 251 251 162 251 251 162 251 251 162 251 251 162 251 251 162 251 251 162 251 251 162 251 251 162 251 251 162 251 251 162 251 251 162 251 251 162 251 251 162 251 251 162 251 251 162 251 251 162 251 251 162 251 251 162 251 251 162 251 251 162 251 251 162 251 251 162 251 251 162 251 251 162 251 251 162 251 251 162 251 251 162 251 251 162 251 251 162 250 251 162 250 251 162 250 251 162 250 251 162 250 251 162 250 251 162 250 251 162 250 251 162 250 251 162 250 251 162 250 251 162 250 251 162 250 251 162 250 251 162 250 251 162 250 251 162 250 251 162 250 251 162 250 251 162 250 251 162 250 251 162 250 251 162 250 251 162 250 251 162 250 251 162 250 251 162 250 251 162 250 251 162 250 251 162 250 251 162 250 251 162 250 251 162 250 251 162 250 251 162 250 251 162 250 251 162 250 251 162 250 251 162 250 251 162 250 251 162 250 251 162 250 251 162 250 251 162 250 251 162 250 251 162 250 251 162 250 251 162 250 251 162 250 251 162 250 251 162 250 251 162 250 251 162 250 251 162 250 251 162 250 251 162 250 251 162 250 251 162 250 251 162 250 251 162 250 251 162 250 251 162 250 250 162 250 250 162 250 250 162 250 250 162 250 250 162 250 250 162 250 250 162 250 250 162 250 250 162 250 250 162 250 250 162 250 250 162 250 250 162 250 250 162 250 250 162 250 250 162 250 250 162 250 250 162 250 250 162 250 250 162 250 250 162 250 250 162 250 250 162 250 250 162 250 250 162 250 250 162 250 250 162 250 250 162 250 250 162 250 250 162 250 250 162 250 250
163 251 252 163 251 252 163 251 252 163 251 252 163 251 252 163 251 252 163 251 252 163 251 252 163 251 252 163 251 252 163 251 252 163 251 252 163 251 252 163 251 252 163 251 252 163 251 252 163 251 252 163 251 252 163 251 252 163 251 252 163 251 252 163 251 252 163 251 252 163 251 252 163 251 252 163 251 252 163 251 252 163 251 252 163 251 252 163 251 252 163 251 252 163 251 252 163 251 252 163 251 252 163 251 252 163 251 252 163 251 252 163 251 252 163 251 252 163 251 252 163 251 252 163 251 252 163 251 252 163 251 252 163 251 252 163 251 252 163 251 252 163 251 252 163 251 252 163 251 252 163 251 252 163 251 252 163 251 252 163 251 252 163 251 252 163 251 252 163 251 252 163 251 252 163 251 252 163 251 252 163 251 252 163 251 252 163 251 252 163 251 252 163 251 252 163 251 252 163 251 252 163 251 252 163 251 252 163 251 252 163 251 252 163 251 252 163 251 252 163 251 252 163 251 252 163 251 252 163 251 252 163 251 252 163 251 252 163 251 252 163 251 252 163 251 252 163 251 252 163 251 252 163 251 252 163 251 252 163 251 252 163 251 252 163 251 252 163 251 252 163 251 252 163 251 252 163 251 252 163 251 252 163 251 252 163 251 252 163 251 252 163 251 252 163 251 252 163 251 252 163 251 252 163 251 252 163 251 252 163 251 252 163 251 252 163 251 252 163 251 252 163 251 252 163 251 252 163 251 252 163 251 252 163 251 252 163 251 252 163 251 252 163 251 252 163 251 252 163 251 252 163 251 252 163 251 252 163 251 252 163 251 252 163 251 252 163 251 252 163 251 252 163 251 252 163 251 252 163 251 252 163 251 252 163 251 252 163 251 252 163 251 252 163 251 252 163 251 252 163 251 252 163 251 252 163 251 252 163 251 252 163 251 252 163 251 252 163 251 252 163 251 252 163 251 252 163 251 252 163 251 252 163 251 252 163 251 252 163 251 252 163 251 252 163 251 252 163 251 252 163 251 252 163 251 252 163 251 252 163 251 252 163 251 252 163 251 252 163 251 252 163 251 252 163 251 252 163 251 252 163 251 252 163 251 252 163 251 252 163 251 252 163 251 252 163 251 252 163 251 252 163 251 252 163 251 252 163 251 252 163 251 252 163 251 252 163 251 252 162 251 252 162 251 252 162 251 252 162 251 252 162 251 252 162 251 252 162 251 252 162 251 252 162 251 252 162 251 252 162 251 252 162 251 252 162 251 252 162 251 252 162 251 252 162 251 252 162 251 252 162 251 252 162 251 252 162 251 252 162 251 252 162 251 252 162 251 252 162 251 252 162 251 252 162 251 252 162 251 252 162 251 252 162 251 252 162 251 252 162 251 252 162 251 252 162 251 252 162 251 252 162 251 252 162 251 252 162 251 252 162 251 252 162 251 252 162 251 252 162 251 252 162 251 252 162 251 252 162 251 252 162 251 252 162 251 252 162 251 252 162 251 252 162 251 252 162 251 251 162 251 251 162 251 251 162 251 251 162 251 251 162 251 251 162 251 251 162 251 251 162 251 251 162 251 251 162 251 251 162 251 251 162 251 251 162 251 251 162 251 251 162 251 251 162 251 251 162 251 251 162 251 251 162 251 251 162 251 251 162 251 251 162 251 251 162 251 251 162 251 251 162 251 251 162 251 251 162 250 251 162 250 251 162 250 251 162 250 251 162 250 251 162 250 251 162 250 251 162 250 251 162 250 251 162 250 251 162 250 251 162 250 251 162 250 251 162 250 251 162 250 251 162 250 251 162 250 251 162 250 251 162 250 251 162 250 251 162 250 251 162 250 251 162 250 251 162 250 251 162 250 251 162 250 251 162 250 251 162 250 251 162 250 251 162 250 251 162 250 251 162 250 251 162 250 251 162 250 251 162 250 251 162 250 251 162 250 251 162 250 251 162 250 251 162 250 251 162 250 251 162 250 251 162 250 251 162 250 251 162 250 251 162 250 251 162 250 251 162 250 251 162 250 251 162 250 251 162 250 251 162 250 251 162 250 251 162 250 251 162 250 251 162 250 251 162 250 250 162 250 250 162 250 250 162 250 250 162 250 250 162 250 250 162 250 250 162 250 250 162 250 250 162 250 250 162 250 250 162 250 250 162 250 250 162 250 250 162 250 250
163 251 252 163 251 252 163 251 252 163 251 252 163 251 252 163 251 252 163 251 252 163 251 252 163 251 252 163 251 252 163 251 252 163 251 252 163 251 252 163 251 252 163 251 252 163 251 252 163 251 252 163 251 252 163 251 252 163 251 252 163 251 252 163 251 252 163 251 252 163 251 252 163 251 252 163 251 252 163 251 252 163 251 252 163 251 252 163 251 252 163 251 252 163 251 252 163 251 252 163 251 252 163 251 252 163 251 252 163 251 252 163 251 252 163 251 252 163 251 252 163 251 252 163 251 252 163 251 252 163 251 252 163 251 252 163 251 252 163 251 252 163 251 252 163 251 252 163 251 252 163 251 252 163 251 252 163 251 252 163 251 252 163 251 252 163 251 252 163 251 252 163 251 252 163 251 252 163 251 252 163 251 252 163 251 252 163 251 252 163 251 252 163 251 252 163 251 252 163 251 252 163 251 252 163 251 252 163 251 252 163 251 252 163 251 252 163 251 252 163 251 252 163 251 252 163 251 252 163 251 252 163 251 252 163 251 252 163 251 252 163 251 252 163 251 252 163 251 252 163 251 252 163 251 252 163 251 252 163 251 252 163 251 252 163 251 252 163 251 252 163 251 252 163 251 252 163 251 252 163 251 252 163 251 252 163 251 252 163 251 252 163 251 252 163 251 252 163 251 252 163 251 252 163 251 252 163 251 252 163 251 252 163 251 252 163 251 252 163 251 252 163 251 252 163 251 252 163 251 252 163 251 252 163 251 252 163 251 252 163 251 252 163 251 252 163 251 252 163 251 252 163 251 252 163 251 252 163 251 252 163 251 252 163 251 252 163 251 252 163 251 252 163 251 252 163 251 252 163 251 252 163 251 252 163 251 252 163 251 252 163 251 252 163 251 252 163 251 252 163 251 252 163 251 252 163 251 252 163 251 252 163 251 252 163 251 252 163 251 252 163 251 252 163 251 252 163 251 252 163 251 252 163 251 252 163 251 252 163 251 252 163 251 252 163 251 252 163 251 252 163 251 252 163 251 252 163 251 252 163 251 252 163 251 252 163 251 252 163 251 252 163 251 252 163 251 252 163 251 252 163 251 252 163 251 252 163 251 252 163 251 252 163 251 252 163 251 252 163 251 252 163 251 252 163 251 252 163 251 252 163 251 252 163 251 252 163 251 252 163 251 252 163 251 252 163 251 252 163 251 252 163 251 252 163 251 252 163 251 252 163 251 252 163 251 252 163 251 252 163 251 252 163 251 252 163 251 252 163 251 252 163 251 252 163 251 252 163 251 252 163 251 252 163 251 252 163 251 252 163 251 252 163 251 252 163 251 252 163 251 252 163 251 252 163 251 252 163 251 252 163 251 252 163 251 252 163 251 252 163 251 252 163 251 252 162 251 252 162 251 252 162 251 252 162 251 252 162 251 252 162 251 252 162 251 252 162 251 252 162 251 252 162 251 252 162 251 252 162 251 252 162 251 252 162 251 252 162 251 252 162 251 252 162 251 252 162 251 252 162 251 252 162 251 252 162 251 252 162 251 252 162 251 252 162 251 252 162 251 252 162 251 252 162 251 252 162 251 252 162 251 252 162 251 252 162 251 252 162 251 252 162 251 252 162 251 252 162 251 252 162 251 252 162 251 252 162 251 252 162 251 252 162 251 252 162 251 251 162 251 251 162 251 251 162 251 251 162 251 251 162 251 251 162 251 251 162 251 251 162 251 251 162 251 251 162 251 251 162 251 251 162 251 251 162 251 251 162 251 251 162 251 251 162 251 251 162 251 251 162 251 251 162 251 251 162 251 251 162 251 251 162 251 251 162 251 251 162 251 251 162 250 251 162 250 251 162 250 251 162 250 251 162 250 251 162 250 251 162 250 251 162 250 251 162 250 251 162 250 251 162 250 251 162 250 251 162 250 251 162 250 251 162 250 251 162 250 251 162 250 251 162 250 251 162 250 251 162 250 251 162 250 251 162 250 251 162 250 251 162 250 251 162 250 251 162 250 251 162 250 251 162 250 251 162 250 251 162 250 251 162 250 251 162 250 251 162 250 251 162 250 251 162 250 251 162 250 251 162 250 251 162 250 251 162 250 251 162 250 251 162 250 251 162 250 251 162 250 251 162 250 251 162 250 251 162 250 251 162 250 251 162 250 251 162 250 251 162 250 251
163 251 252 163 251 252 163 251 252 163 251 252 163 251 252 163 251 252 163 251 252 163 251 252 163 251 252 163 251 252 163 251 253 163 251 253 163 251 253 163 251 253 163 251 253 163 251 253 163 251 253 163 251 253 163 251 253 163 251 253 163 251 253 163 251 253 163 251 253 163 251 253 163 251 253 163 251 253 163 251 253 163 251 253 163 251 253 163 251 253 163 251 253 163 251 253 163 251 253 163 251 253 163 251 253 163 251 253 163 251 253 163 251 253 163 251 253 163 251 253 163 251 253 163 251 253 163 251 253 163 251 253 163 251 253 163 251 253 163 251 253 163 251 253 163 251 253 163 251 253 163 251 253 163 251 253 163 251 253 163 251 253 163 251 253 163 251 253 163 251 253 163 251 253 163 251 253 163 251 253 163 251 253 163 251 253 163 251 253 163 251 253 163 251 253 163 251 253 163 251 253 163 251 253 163 251 253 163 251 253 163 251 253 163 251 253 163 251 253 163 251 253 163 251 253 163 251 253 163 251 253 163 251 253 163 251 253 163 251 253 163 251 253 163 251 253 163 251 253 163 251 253 163 251 253 163 251 253 163 251 253 163 251 253 163 251 253 163 251 253 163 251 253 163 251 253 163 251 253 163 251 253 163 251 253 163 251 253 163 251 253 163 251 253 163 251 253 163 251 253 163 251 253 163 251 253 163 251 253 163 251 253 163 251 253 163 251 253 163 251 253 163 251 253 163 251 253 163 251 253 163 251 253 163 251 253 163 251 253 163 251 253 163 251 253 163 251 253 163 251 253 163 251 253 163 251 253 163 251 253 163 251 253 163 251 253 163 251 253 163 251 253 163 251 253 163 251 253 163 251 253 163 251 253 163 251 253 163 251 253 163 251 253 163 251 253 163 251 253 163 251 253 163 251 253 163 251 253 163 251 253 163 251 253 163 251 253 163 251 253 163 251 253 163 251 253 163 251 253 163 251 252 163 251 252 163 251 252 163 251 252 163 251 252 163 251 252 163 251 252 163 251 252 163 251 252 163 251 252 163 251 252 163 251 252 163 251 252 163 251 252 163 251 252 163 251 252 163 251 252 163 251 252 163 251 252 163 251 252 163 251 252 163 251 252 163 251 252 163 251 252 163 251 252 163 251 252 163 251 252 163 251 252 163 251 252 163 251 252 163 251 252 163 251 252 163 251 252 163 251 252 163 251 252 163 251 252 163 251 252 163 251 252 163 251 252 163 251 252 163 251 252 163 251 252 163 251 252 163 251 252 163 251 252 163 251 252 163 251 252 163 251 252 163 251 252 163 251 252 163 251 252 163 251 252 163 251 252 163 251 252 163 251 252 163 251 252 163 251 252 163 251 252 163 251 252 163 251 252 163 251 252 163 251 252 163 251 252 163 251 252 163 251 252 163 251 252 163 251 252 163 251 252 163 251 252 163 251 252 163 251 252 163 251 252 163 251 252 163 251 252 163 251 252 163 251 252 163 251 252 163 251 252 163 251 252 163 251 252 163 251 252 163 251 252 163 251 252 163 251 252 163 251 252 163 251 252 163 251 252 162 251 252 162 251 252 162 251 252 162 251 252 162 251 252 162 251 252 162 251 252 162 251 252 162 251 252 162 251 252 162 251 252 162 251 252 162 251 252 162 251 252 162 251 252 162 251 252 162 251 252 162 251 252 162 251 252 162 251 252 162 251 252 162 251 252 162 251 252 162 251 252 162 251 252 162 251 252 162 251 252 162 251 252 162 251 252 162 251 252 162 251 252 162 251 252 162 251 252 162 251 252 162 251 252 162 251 252 162 251 251 162 251 251 162 251 251 162 251 251 162 251 251 162 251 251 162 251 251 162 251 251 162 251 251 162 251 251 162 251 251 162 251 251 162 251 251 162 251 251 162 251 251 162 251 251 162 251 251 162 251 251 162 251 251 162 251 251 162 251 251 162 251 251 162 250 251 162 250 251 162 250 251 162 250 251 162 250 251 162 250 251 162 250 251 162 250 251 162 250 251 162 250 251 162 250 251 162 250 251 162 250 251 162 250 251 162 250 251 162 250 251 162 250 251 162 250 251 162 250 251 162 250 251 162 250 251 162 250 251 162 250 251 162 250 251 162 250 251 162 250 251 162 250 251 162 250 251 162 250 251 162 250 251 162 250 251 162 250 251
163 251 253 163 251 253 163 251 253 163 251 253 163 251 253 163 251 253 163 251 253 163 251 253 163 251 253 163 251 253 163 251 253 163 251 253 163 251 253 163 251 253 163 251 253 163 251 253 163 251 253 163 251 253 163 251 253 163 251 253 163 251 253 163 251 253 163 251 253 163 251 253 163 251 253 163 251 253 163 251 253 163 251 253 163 251 253 163 251 253 163 251 253 163 251 253 163 251 253 163 251 253 163 251 253 163 251 253 163 251 253 163 251 253 163 251 253 163 251 253 163 251 253 163 251 253 163 251 253 163 251 253 163 251 253 163 251 253 163 251 253 163 251 253 163 251 253 163 251 253 163 251 253 163 251 253 163 251 253 163 251 253 163 251 253 163 251 253 163 251 253 163 251 253 163 251 253 163 251 253 163 251 253 163 251 253 163 251 253 163 251 253 163 251 253 163 251 253 163 251 253 163 251 253 163 251 253 163 251 253 163 251 253 163 251 253 163 251 253 163 251 253 163 251 253 163 251 253 163 251 253 163 251 253 163 251 253 163 251 253 163 251 253 163 251 253 163 251 253 163 251 253 163 251 253 163 251 253 163 251 253 163 251 253 163 251 253 163 251 253 163 251 253 163 251 253 163 251 253 163 251 253 163 251 253 163 251 253 163 251 253 163 251 253 163 251 253 163 251 253 163 251 253 163 251 253 163 251 253 163 251 253 163 251 253 163 251 253 163 251 253 163 251 253 163 251 253 163 251 253 163 251 253 163 251 253 163 251 253 163 251 253 163 251 253 163 251 253 163 251 253 163 251 253 163 251 253 163 251 253 163 251 253 163 251 253 163 251 253 163 251 253 163 251 253 163 251 253 163 251 253 163 251 253 163 251 253 163 251 253 163 251 253 163 251 253 163 251 253 163 251 253 163 251 253 163 251 253 163 251 253 163 251 253 163 251 253 163 251 253 163 251 253 163 251 253 163 251 253 163 251 253 163 251 253 163 251 253 163 251 253 163 251 253 163 251 253 163 251 253 163 251 253 163 251 253 163 251 253 163 251 253 163 251 253 163 251 253 163 251 253 163 251 253 163 251 253 163 251 253 163 251 253 163 251 253 163 251 253 163 251 253 163 251 253 163 251 253 163 251 253 163 251 253 163 251 253 163 251 253 163 251 253 163 251 253 163 251 253 163 251 253 163 251 253 163 251 253 163 251 253 163 251 253 163 251 253 163 251 253 163 251 253 163 251 253 163 251 253 163 251 252 163 251 252 163 251 252 163 251 252 163 251 252 163 251 252 163 251 252 163 251 252 163 251 252 163 251 252 163 251 252 163 251 252 163 251 252 163 251 252 163 251 252 163 251 252 163 251 252 163 251 252 163 251 252 163 251 252 163 251 252 163 251 252 163 251 252 163 251 252 163 251 252 163 251 252 163 251 252 163 251 252 163 251 252 163 251 252 163 251 252 163 251 252 163 251 252 163 251 252 163 251 252 163 251 252 163 251 252 163 251 252 163 251 252 163 251 252 163 251 252 163 251 252 163 251 252 163 251 252 163 251 252 163 251 252 163 251 252 163 251 252 163 251 252 163 251 252 163 251 252 163 251 252 163 251 252 163 251 252 163 251 252 163 251 252 163 251 252 163 251 252 163 251 252 163 251 252 163 251 252 163 251 252 163 251 252 163 251 252 163 251 252 163 251 252 163 251 252 163 251 252 163 251 252 162 251 252 162 251 252 162 251 252 162 251 252 162 251 252 162 251 252 162 251 252 162 251 252 162 251 252 162 251 252 162 251 252 162 251 252 162 251 252 162 251 252 162 251 252 162 251 252 162 251 252 162 251 252 162 251 252 162 251 252 162 251 252 162 251 252 162 251 252 162 251 252 162 251 252 162 251 252 162 251 252 162 251 252 162 251 252 162 251 252 162 251 252 162 251 252 162 251 251 162 251 251 162 251 251 162 251 251 162 251 251 162 251 251 162 251 251 162 251 251 162 251 251 162 251 251 162 251 251 162 251 251 162 251 251 162 251 251 162 251 251 162 251 251 162 251 251 162 251 251 162 251 251 162 251 251 162 251 251 162 250 251 162 250 251 162 250 251 162 250 251 162 250 251 162 250 251 162 250 251 162 250 251 162 250 251 162 250 251 162 250 251 162 250 251 162 250 251 162 250 251 162 250 251
